openverse-orca/OrcaGym/log/simulation_log_20250721_085856.csv
timestamp,sim_time,physics_step,control_step,imu_angle_roll,imu_angle_pitch,imu_angle_yaw,imu_angular_velocity_roll,imu_angular_velocity_pitch,imu_angular_velocity_yaw,imu_acc_x,imu_acc_y,imu_acc_z,fl_joint1_pos,fl_joint1_vel,fl_joint1_torque,fl_joint2_pos,fl_joint2_vel,fl_joint2_torque,fl_joint3_pos,fl_joint3_vel,fl_joint3_torque,fr_joint1_pos,fr_joint1_vel,fr_joint1_torque,fr_joint2_pos,fr_joint2_vel,fr_joint2_torque,fr_joint3_pos,fr_joint3_vel,fr_joint3_torque,hl_joint1_pos,hl_joint1_vel,hl_joint1_torque,hl_joint2_pos,hl_joint2_vel,hl_joint2_torque,hl_joint3_pos,hl_joint3_vel,hl_joint3_torque,hr_joint1_pos,hr_joint1_vel,hr_joint1_torque,hr_joint2_pos,hr_joint2_vel,hr_joint2_torque,hr_joint3_pos,hr_joint3_vel,hr_joint3_torque,fl_force_x,fl_force_y,fl_force_z,fr_force_x,fr_force_y,fr_force_z,hl_force_x,hl_force_y,hl_force_z,hr_force_x,hr_force_y,hr_force_z,fl_hip_action,fl_thigh_action,fl_calf_action,fr_hip_action,fr_thigh_action,fr_calf_action,hl_hip_action,hl_thigh_action,hl_calf_action,hr_hip_action,hr_thigh_action,hr_calf_action
2025-07-21 08:58:56.834,0.0,0,0,-0.04297283,-0.037712455,0.003860353,-0.0314499,-0.022314562,-0.0016435963,0.0,0.0,0.0,0.0,0.00971584,-0.0072967676,-0.007841913,-0.007077961,0.0037930529,0.003689608,0.0046563596,-0.00015713689,-0.0027577716,-0.0049929703,0.008965638,-0.008515808,0.014129048,0.043136828,-0.014101453,0.025982847,-0.038449295,-0.0325728,-0.04093415,-0.029420892,-0.06535148,-0.036525406,-0.07480254,0.05320977,0.0,0.0,0.0,0.0,0.0,0.0,0.0,0.0,0.0,0.0,0.0,0.0,2.0,-2.0,-2.0,-2.0,-2.0,-2.0,2.0,2.0,2.0,-2.0,2.0,2.0
2025-07-21 08:58:56.846,0.02,20,1,-0.10160978,-0.00163175,0.025675341,0.0014224171,0.023625014,0.040316705,0.0,0.0,0.0,0.0,0.0388669,-0.016823826,-0.054273788,-0.041613534,-0.021248331,-0.04583058,0.048374176,0.043022577,0.048500013,-0.038646717,0.04931494,0.044612672,0.16057761,-0.097641654,-0.19081853,-0.14223239,-0.12650841,-0.15900396,0.15205143,0.14066027,0.10869661,-0.094196424,0.21337005,0.18099526,2.0,-2.0,-2.0,-2.0,-2.0,-2.0,2.0,2.0,2.0,-2.0,2.0,2.0,2.0,-2.0,-2.0,-2.0,-2.0,-2.0,2.0,2.0,2.0,-2.0,2.0,2.0
2025-07-21 08:58:56.865,0.04,40,2,-0.20220307,0.0731485,0.021153107,0.023530522,0.024140006,0.048823558,0.0,0.0,0.0,0.0,0.10423276,-0.12647016,-0.088410325,-0.092217736,-0.12375463,-0.08822977,0.09756991,0.150785,0.095656,-0.09657868,0.16609539,0.10353447,0.1164571,-0.35947496,-0.04867965,-0.11211726,-0.2925873,-0.16942886,0.18833542,0.32731083,0.14831184,-0.067327715,0.31841797,0.07510529,2.0,-2.0,-2.0,-2.0,-2.0,-2.0,2.0,2.0,2.0,-2.0,2.0,2.0,2.0,2.0,-2.0,-2.0,-2.0,2.0,2.0,-2.0,2.0,-2.0,-2.0,2.0
2025-07-21 08:58:56.888,0.06,60,3,-0.0062200935,0.021341225,-0.0930428,0.0619999,-0.006704077,-0.0008234148,0.0,0.0,0.0,0.0,0.13649298,-0.17712247,-0.13171335,-0.13192949,-0.23988254,-0.04786692,0.14742191,0.21911027,0.14401017,-0.14982158,0.21779777,0.14473844,0.14310272,0.06319424,-0.046268795,-0.073396154,-0.33318537,0.21942124,0.17230988,-0.049694408,0.10301186,-0.04577332,-0.06768249,0.078618474,2.0,2.0,-2.0,-2.0,-2.0,2.0,2.0,-2.0,2.0,-2.0,-2.0,2.0,2.0,2.0,-2.0,-2.0,-2.0,2.0,2.0,-2.0,2.0,-2.0,2.0,2.0
2025-07-21 08:58:56.906,0.08,80,4,-0.01375006,-0.12351277,0.061243344,0.066722654,-0.042118106,0.01308236,0.0,0.0,0.0,0.0,0.17152898,-0.11725865,-0.16469651,-0.17103705,-0.35726047,0.020298732,0.17527263,0.1556998,0.1758454,-0.16945966,0.25636807,0.16332959,0.03515727,0.28786123,-0.059050765,-0.096248716,-0.30254677,0.06407347,0.028719049,-0.23221922,0.079854585,-0.11145293,0.22488858,0.01760776,2.0,2.0,-2.0,-2.0,-2.0,2.0,2.0,-2.0,2.0,-2.0,2.0,2.0,2.0,1.0046258,-2.0,-2.0,-2.0,2.0,2.0,2.0,2.0,-2.0,-2.0,2.0
2025-07-21 08:58:56.926,0.1,100,5,0.034390144,0.017829396,-0.097047776,-0.009019629,0.018750506,0.033382833,0.0,0.0,0.0,0.0,0.20308767,-0.023390822,-0.18325979,-0.2063344,-0.43095088,0.06311895,0.21451166,0.14732398,0.193474,-0.20892794,0.2554308,0.18348333,0.089730665,0.21245302,-0.024607949,-0.13811335,-0.20954135,0.10135972,0.054280978,0.1452573,-0.0092915315,0.0004763578,-0.16504858,0.036546092,2.0,1.0046258,-2.0,-2.0,-2.0,2.0,2.0,2.0,2.0,-2.0,-2.0,2.0,2.0,-2.0,-2.0,-2.0,-2.0,2.0,2.0,-2.0,2.0,-2.0,2.0,2.0
2025-07-21 08:58:56.946,0.12000000000000001,120,6,0.14205211,-0.078044705,0.2525306,0.048007004,0.0135980975,-0.030095406,0.0,0.0,0.0,0.0,0.22132242,-0.008731366,-0.21855454,-0.23961428,-0.5003282,0.104222365,0.23264746,0.13907482,0.19752842,-0.21649972,0.27212316,0.20882507,0.031855665,-0.16622329,-0.051059198,-0.11628428,-0.15539858,0.009830639,0.12398412,-0.016329186,0.025988488,-0.0268414,0.10994701,0.024405763,2.0,-2.0,-2.0,-2.0,-2.0,2.0,2.0,-2.0,2.0,-2.0,2.0,2.0,2.0,2.0,-2.0,-2.0,-2.0,2.0,2.0,2.0,2.0,-2.0,2.0,2.0
2025-07-21 08:58:56.966,0.14,140,7,-0.17393003,-0.10505499,0.0020166046,0.016919073,0.012280555,0.02255942,0.0,0.0,0.0,0.0,0.24502057,-0.019599896,-0.22795719,-0.27116075,-0.56454116,0.12439541,0.26474503,0.16299427,0.20305806,-0.24327968,0.37463507,0.2247697,0.061194826,0.011228045,-0.060935043,-0.12318276,-0.13481441,0.09369129,-0.009253994,0.20246415,0.02152017,-0.12913032,0.16430296,-0.012231236,2.0,2.0,-2.0,-2.0,-2.0,2.0,2.0,2.0,2.0,-2.0,2.0,2.0,2.0,2.0,-2.0,-2.0,-2.0,2.0,2.0,-2.0,2.0,-2.0,-2.0,2.0
2025-07-21 08:58:56.989,0.16,160,8,0.050389927,-0.16749191,0.014797597,0.054206144,0.0539473,-0.0034345111,0.0,0.0,0.0,0.0,0.26845437,0.05064337,-0.25098747,-0.2776469,-0.6093888,0.141661,0.2773145,0.1816095,0.22204524,-0.2657143,0.3793465,0.25308016,0.04384528,0.25607887,0.01475711,0.006986636,-0.043501534,0.11011281,0.018844565,-0.0040752273,-0.014662579,-0.1066494,-0.1538963,-0.0049364595,2.0,2.0,-2.0,-2.0,-2.0,2.0,2.0,-2.0,2.0,-2.0,-2.0,2.0,2.0,-2.0,-2.0,-2.0,-2.0,2.0,2.0,2.0,2.0,-2.0,2.0,2.0
2025-07-21 08:58:57.006,0.18,180,9,-0.18238236,-0.015939392,0.00017639446,0.013422645,0.05109003,0.02879806,0.0,0.0,0.0,0.0,0.2831553,0.052669648,-0.25830564,-0.3051639,-0.6485108,0.1641573,0.29841703,0.2122583,0.23080182,-0.2853402,0.40011004,0.26263455,0.0982863,-0.17473756,0.0102999965,-0.030006927,-0.131023,0.0105286045,0.019321492,0.20256172,0.037202716,0.02138719,0.075764894,0.011019234,2.0,-2.0,-2.0,-2.0,-2.0,2.0,2.0,2.0,2.0,-2.0,2.0,2.0,2.0,2.0,-2.0,-2.0,2.0,2.0,2.0,-2.0,2.0,-2.0,2.0,-2.0
2025-07-21 08:58:57.026,0.19999999999999998,200,10,-0.09539744,-0.034104653,0.16984999,0.010105695,0.0018302826,0.022792527,0.0,0.0,0.0,0.0,0.28315225,0.06609051,-0.26345295,-0.3283318,-0.6707359,0.19102132,0.31211755,0.21955657,0.2458896,-0.2894188,0.47867376,0.17739035,0.019240282,0.14471032,-0.020224797,-0.05680161,-0.012378945,0.097770356,0.08670795,-0.013836852,0.02773584,-0.051812343,0.22046982,-0.26085597,2.0,2.0,-2.0,-2.0,2.0,2.0,2.0,-2.0,2.0,-2.0,2.0,-2.0,2.0,-2.0,-2.0,-2.0,-2.0,2.0,2.0,2.0,2.0,2.0,2.0,-2.0
2025-07-21 08:58:57.046,0.21999999999999997,220,11,-0.030747503,0.031538364,-0.024903025,0.05125792,0.01272933,-0.0065664495,0.0,0.0,0.0,0.0,0.29527372,0.06592899,-0.27063268,-0.33546278,-0.6914126,0.20368879,0.33558252,0.25423133,0.25471887,-0.22185372,0.54344445,0.08426775,0.07262972,-0.062450465,-0.025707535,-0.06747058,-0.02224834,0.10331424,0.0877784,0.17034136,-0.056985483,0.31058112,0.079407014,-0.19720124,2.0,-2.0,-2.0,-2.0,-2.0,2.0,2.0,2.0,2.0,2.0,2.0,-2.0,2.0,-2.0,-2.0,-2.0,2.0,2.0,2.0,2.0,2.0,2.0,2.0,-2.0
2025-07-21 08:58:57.066,0.23999999999999996,240,12,0.12935448,0.3003496,0.13254412,0.051313497,0.06961777,0.04984354,0.0,0.0,0.0,0.0,0.31056195,-0.036204554,-0.28959662,-0.34727472,-0.7014717,0.21228273,0.35522464,0.34351328,0.250452,-0.13847406,0.59899974,0.016302785,-0.030617949,-0.34538016,0.035406176,-0.091128245,0.042843483,0.049952816,0.029576102,0.26551142,0.08684501,0.15321393,0.07685954,-0.16976,2.0,-2.0,-2.0,-2.0,2.0,2.0,2.0,2.0,2.0,2.0,2.0,-2.0,2.0,-2.0,-2.0,-2.0,2.0,2.0,2.0,-2.0,2.0,-2.0,2.0,-2.0
2025-07-21 08:58:57.086,0.25999999999999995,260,13,-0.024047475,0.05082292,0.22481778,0.07759467,-0.013094479,-0.02950963,0.0,0.0,0.0,0.0,0.3158007,-0.16372335,-0.29014793,-0.35819784,-0.68437034,0.21500869,0.37148103,0.38082483,0.25925177,-0.14252184,0.6379653,-0.040770493,0.022964988,-0.3815616,0.004045573,-0.04860609,0.059333514,-0.014215213,0.039663095,0.029225796,0.010609277,-0.15881056,0.046666827,-0.12813172,2.0,-2.0,-2.0,-2.0,2.0,2.0,2.0,-2.0,2.0,-2.0,2.0,-2.0,2.0,-2.0,2.0,-2.0,2.0,-2.0,-2.0,-2.0,2.0,-2.0,2.0,-2.0
2025-07-21 08:58:57.107,0.27999999999999997,280,14,0.043046873,-0.2460532,0.047175378,-0.012171341,0.03101461,-0.01349345,0.0,0.0,0.0,0.0,0.31718972,-0.28328246,-0.20850526,-0.35943466,-0.6409298,0.13894995,0.34902552,0.36911798,0.27009103,-0.17160203,0.6756569,-0.078412466,0.06855409,-0.27450484,0.28965098,-0.016911674,0.15742083,-0.16260105,0.019524783,-0.041898813,-0.02573698,-0.10702976,0.033016548,-0.057843167,2.0,-2.0,2.0,-2.0,2.0,-2.0,-2.0,-2.0,2.0,-2.0,2.0,-2.0,2.0,-2.0,2.0,-2.0,2.0,-2.0,-2.0,-2.0,2.0,-2.0,2.0,-2.0
2025-07-21 08:58:57.127,0.3,300,15,-0.043308623,-0.37781242,-0.019659141,0.035975266,0.10258056,0.043139424,0.0,0.0,0.0,0.0,0.33327043,-0.3751822,-0.112128176,-0.3760459,-0.6014369,0.053528953,0.33434343,0.35693023,0.29393345,-0.20046638,0.7133474,-0.12709804,0.037622552,-0.2858209,0.19744149,-0.10923627,0.116943486,-0.1234541,-0.087432705,-0.09372567,0.09410079,0.0010235325,0.09286054,-0.0376298,2.0,-2.0,2.0,-2.0,2.0,-2.0,-2.0,-2.0,2.0,-2.0,2.0,-2.0,2.0,-2.0,2.0,-2.0,2.0,-2.0,-2.0,2.0,2.0,-2.0,-2.0,-2.0
2025-07-21 08:58:57.146,0.32,320,16,-0.100422524,-0.27752662,-0.16491593,-0.032363538,0.113024294,0.03125565,0.0,0.0,0.0,0.0,0.32476467,-0.4632317,-0.034055043,-0.38873637,-0.5387948,-0.022978336,0.26736474,0.3784898,0.29305932,-0.22527991,0.66506976,-0.1523773,-0.039897714,-0.20653115,0.17644499,0.059953526,0.07159563,-0.15170737,-0.13673408,0.2571959,0.016401006,-0.011641869,-0.1644621,-0.124682695,2.0,-2.0,2.0,-2.0,2.0,-2.0,-2.0,2.0,2.0,-2.0,-2.0,-2.0,2.0,-2.0,2.0,-2.0,2.0,-2.0,-2.0,-2.0,2.0,-2.0,2.0,2.0
2025-07-21 08:58:57.167,0.34,340,17,-0.17217197,-0.39001098,-0.053581085,0.05296984,0.0715882,-0.027091311,0.0,0.0,0.0,0.0,0.33682242,-0.5297359,0.023710907,-0.3969316,-0.48761225,-0.079713754,0.20003097,0.4215186,0.29252845,-0.2516218,0.6644256,-0.09822801,0.06208927,-0.19807728,0.1580138,-0.09803871,0.17031421,-0.14215936,-0.09181959,0.12191117,0.043375175,-0.08840465,0.006624392,0.26008168,2.0,-2.0,2.0,-2.0,2.0,-2.0,-2.0,-2.0,2.0,-2.0,2.0,2.0,2.0,-2.0,2.0,-2.0,2.0,-2.0,-2.0,-2.0,2.0,-2.0,-2.0,2.0
2025-07-21 08:58:57.187,0.36000000000000004,360,18,0.10428862,-0.2774285,-0.1938748,-0.010019945,0.10206333,-0.021872425,0.0,0.0,0.0,0.0,0.32961178,-0.58914703,0.06574781,-0.40472662,-0.43674812,-0.1365812,0.14975879,0.42956617,0.31056592,-0.26362157,0.629124,-0.022047598,-0.052187406,-0.05606899,0.17747967,0.042135824,0.08550494,-0.15080005,-0.13665296,-0.006188605,0.019730005,0.012985234,-0.18506062,0.21577504,2.0,-2.0,2.0,-2.0,2.0,-2.0,-2.0,-2.0,2.0,-2.0,-2.0,2.0,2.0,-2.0,2.0,-2.0,2.0,-2.0,-2.0,-2.0,2.0,-2.0,-2.0,2.0
2025-07-21 08:58:57.207,0.38000000000000006,380,19,0.32490832,-0.10896176,-0.21684857,-0.021735517,0.11762707,-0.0042839046,0.0,0.0,0.0,0.0,0.33258438,-0.63991195,0.11438362,-0.4078435,-0.41928148,-0.17529239,0.090514086,0.43343407,0.3017142,-0.29188976,0.55258566,0.038016334,0.06378242,-0.12165975,0.079481624,0.06313786,0.021932192,-0.08296781,-0.16323936,-0.100527,-0.003484879,-0.07419593,-0.17949,0.20988494,2.0,-2.0,2.0,-2.0,2.0,-2.0,-2.0,-2.0,2.0,-2.0,-2.0,2.0,2.0,-2.0,2.0,-2.0,2.0,-2.0,-2.0,2.0,-2.0,-2.0,-2.0,2.0
2025-07-21 08:58:57.229,0.4000000000000001,400,20,0.30070034,0.3187262,-0.20691787,-0.06131457,0.089790985,0.023381442,0.0,0.0,0.0,0.0,0.34088805,-0.6703222,0.14127026,-0.40064928,-0.40503505,-0.20546018,0.0029995537,0.48425215,0.21499066,-0.30254352,0.47751608,0.09853704,-0.021581432,-0.14300038,0.0052571855,0.050771367,0.08156277,-0.10215056,-0.16056444,0.19223136,-0.18900752,-0.069180496,-0.18065885,0.16777863,2.0,-2.0,2.0,-2.0,2.0,-2.0,-2.0,2.0,-2.0,-2.0,-2.0,2.0,2.0,-2.0,2.0,-2.0,2.0,-2.0,-2.0,2.0,-2.0,-2.0,2.0,2.0
2025-07-21 08:58:57.247,0.4200000000000001,420,21,-0.060888316,0.38994145,0.031248955,-0.006191064,0.12801982,-0.020028973,0.0,0.0,0.0,0.0,0.3422938,-0.692599,0.165356,-0.38754228,-0.3704146,-0.23124291,-0.056260258,0.5530699,0.12640324,-0.30671218,0.45842606,0.11794437,0.026973093,-0.010207286,-0.0043262755,-0.016648402,0.21098273,-0.05613715,-0.17223252,0.10417388,-0.19935496,0.051029883,0.13283272,0.069969155,2.0,-2.0,2.0,-2.0,2.0,-2.0,-2.0,2.0,-2.0,-2.0,2.0,2.0,2.0,2.0,2.0,-2.0,2.0,-2.0,-2.0,2.0,-2.0,-2.0,-2.0,2.0
2025-07-21 08:58:57.288,0.4400000000000001,440,22,-0.35353246,0.33995616,-0.11310085,0.00873999,0.037836164,0.03944972,0.0,0.0,0.0,0.0,0.35249722,-0.68559414,0.19308104,-0.38737977,-0.28546113,-0.25796333,-0.09582039,0.6030998,0.05889863,-0.31735492,0.46567175,0.167495,0.06686718,0.092456356,0.08624553,-0.050735135,0.28808773,-0.06322641,-0.0859272,0.177823,-0.21371904,-0.03177945,-0.07789471,0.012791154,2.0,2.0,2.0,-2.0,2.0,-2.0,-2.0,2.0,-2.0,-2.0,-2.0,2.0,2.0,2.0,2.0,-2.0,-2.0,-2.0,-2.0,2.0,-2.0,-2.0,2.0,2.0
2025-07-21 08:58:57.308,0.46000000000000013,460,23,-0.21763222,0.050330214,-0.13881803,-0.027178636,0.016384428,-0.016019886,0.0,0.0,0.0,0.0,0.35890168,-0.65001917,0.19980869,-0.392455,-0.2549548,-0.26030985,-0.12759002,0.6598025,-0.0027327852,-0.3292079,0.48001155,0.175516,0.043271568,0.11467484,0.006882915,0.07595478,-0.05792015,-0.027868127,-0.11494549,0.08818105,-0.14573711,0.006751097,0.2141649,0.033688422,2.0,2.0,2.0,-2.0,-2.0,-2.0,-2.0,2.0,-2.0,-2.0,2.0,2.0,-2.0,2.0,-2.0,-2.0,-2.0,-2.0,2.0,2.0,-2.0,-2.0,-2.0,2.0
2025-07-21 08:58:57.328,0.48000000000000015,480,24,0.036125354,-0.024935676,-0.09188906,0.0046522827,0.049161788,0.026154345,0.0,0.0,0.0,0.0,0.33952653,-0.6019934,0.12454505,-0.3772028,-0.3246352,-0.28109324,-0.09120819,0.67999643,-0.056815427,-0.32746083,0.48735014,0.19832288,-0.116995595,0.14973491,-0.27961156,-0.013147458,-0.3093471,0.0028532546,0.21091308,0.15653834,-0.14794129,-0.045703337,-0.019001693,-0.0075883395,-2.0,2.0,-2.0,-2.0,-2.0,-2.0,2.0,2.0,-2.0,-2.0,-2.0,2.0,-2.0,2.0,-2.0,-2.0,-2.0,2.0,2.0,-2.0,2.0,2.0,-2.0,2.0
2025-07-21 08:58:57.348,0.5000000000000001,500,25,0.23944385,-0.040105514,0.0401448,-0.012054939,0.041043974,0.010473659,0.0,0.0,0.0,0.0,0.3070512,-0.5396263,0.032576192,-0.38555512,-0.4227897,-0.19038898,-0.015197357,0.65925485,-0.015117404,-0.32808748,0.48691785,0.23874535,-0.093384646,0.101542786,-0.20774446,0.07024239,-0.19709416,0.24001348,0.18669266,-0.1970491,0.19088045,0.09841459,0.00210421,0.014597475,-2.0,2.0,-2.0,-2.0,-2.0,2.0,2.0,-2.0,2.0,2.0,-2.0,2.0,2.0,2.0,-2.0,-2.0,-2.0,2.0,2.0,-2.0,2.0,2.0,-2.0,2.0
2025-07-21 08:58:57.368,0.5200000000000001,520,26,0.42435873,0.31852862,0.11565643,-0.017055916,0.058943477,0.03150354,0.0,0.0,0.0,0.0,0.33150035,-0.490199,-0.03762198,-0.37152636,-0.48942873,-0.10232031,0.040927418,0.53219926,0.055982634,-0.2748074,0.44430482,0.25366578,0.037761036,0.028537666,-0.22462262,-0.06284618,-0.10956711,0.11049279,0.068002604,-0.30218908,0.10911672,0.19603549,-0.124227084,0.023031823,2.0,2.0,-2.0,-2.0,-2.0,2.0,2.0,-2.0,2.0,2.0,-2.0,2.0,2.0,2.0,-2.0,-2.0,-2.0,2.0,2.0,2.0,2.0,2.0,2.0,2.0
2025-07-21 08:58:57.388,0.5400000000000001,540,27,-0.1763161,0.21407351,0.06489779,0.040641826,0.007128526,0.007546855,0.0,0.0,0.0,0.0,0.32792842,-0.4460588,-0.09040075,-0.38149154,-0.5476581,-0.03551575,0.084201366,0.50877213,0.09400696,-0.18163861,0.48688638,0.2559882,0.021600384,0.092293404,-0.0980842,-0.05900428,-0.1577539,0.16889885,0.1414064,0.020567015,0.027531074,0.17747921,0.21683688,0.050114825,2.0,2.0,-2.0,-2.0,-2.0,2.0,2.0,2.0,2.0,2.0,2.0,2.0,2.0,2.0,-2.0,-2.0,-2.0,2.0,2.0,-2.0,2.0,2.0,-2.0,2.0
2025-07-21 08:58:57.408,0.5600000000000002,560,28,0.1030705,0.2497663,0.10681599,-0.028111015,-0.0020277796,-0.025541916,0.0,0.0,0.0,0.0,0.34345403,-0.37608886,-0.14083904,-0.36897177,-0.60052764,0.015072703,0.13086326,0.5144013,0.13525793,-0.09931492,0.5005449,0.27949578,-0.0012859964,0.16017866,-0.117976286,-0.032593176,-0.13196778,0.20693484,0.10956006,-0.17391282,0.029240055,0.24322553,-0.032552626,0.025322692,2.0,2.0,-2.0,-2.0,-2.0,2.0,2.0,-2.0,2.0,2.0,-2.0,2.0,2.0,2.0,-2.0,-2.0,-2.0,2.0,2.0,-2.0,2.0,2.0,2.0,2.0
2025-07-21 08:58:57.428,0.5800000000000002,580,29,-0.036012787,0.00987345,0.12611493,-0.03098463,0.02221491,0.04489392,0.0,0.0,0.0,0.0,0.35812566,-0.31090555,-0.17460585,-0.38331985,-0.6378155,0.066609226,0.17377256,0.46617985,0.16319545,-0.013784807,0.5385671,0.28044057,-0.021950418,0.16991878,-0.12856893,-0.010574688,-0.15497178,0.11895869,0.1106811,-0.0065432745,0.07949151,0.2388911,0.12392129,-0.028564885,2.0,2.0,-2.0,-2.0,-2.0,2.0,2.0,-2.0,2.0,2.0,2.0,2.0,2.0,2.0,-2.0,-2.0,-2.0,2.0,2.0,-2.0,2.0,2.0,2.0,-2.0
2025-07-21 08:58:57.448,0.6000000000000002,600,30,0.015839284,-0.04272094,0.08585326,-0.039656725,-0.027576087,-0.039656,0.0,0.0,0.0,0.0,0.36797088,-0.23246878,-0.19633088,-0.38281715,-0.6737068,0.11373319,0.20028059,0.44450915,0.20082441,0.050426215,0.59754884,0.19282311,-0.021705246,0.21628705,-0.13250181,0.04439559,-0.023158267,0.06350355,0.008724711,-0.14630598,0.099581234,0.20014744,0.15587106,-0.24420749,2.0,2.0,-2.0,-2.0,-2.0,2.0,2.0,-2.0,2.0,2.0,2.0,-2.0,2.0,2.0,-2.0,-2.0,-2.0,2.0,2.0,2.0,2.0,2.0,2.0,-2.0
2025-07-21 08:58:57.468,0.6200000000000002,620,31,-0.28621715,0.005092256,-0.15853658,-0.0027668618,0.022430873,0.026565628,0.0,0.0,0.0,0.0,0.35500804,-0.15717982,-0.22610508,-0.38019866,-0.70015365,0.15047698,0.21909215,0.46741867,0.20744957,0.08230101,0.64949113,0.11581357,-0.0435634,0.23552564,-0.06762853,0.01196493,-0.07532647,0.040860932,0.11434098,0.19100969,0.032164846,0.13261713,0.055729482,-0.1814004,2.0,2.0,-2.0,-2.0,-2.0,2.0,2.0,2.0,2.0,2.0,2.0,-2.0,2.0,2.0,-2.0,-2.0,-2.0,2.0,2.0,-2.0,2.0,2.0,2.0,-2.0
2025-07-21 08:58:57.488,0.6400000000000002,640,32,-0.02941556,0.072513774,-0.0485157,-0.015941758,0.03778385,0.023463158,0.0,0.0,0.0,0.0,0.37209317,-0.058091793,-0.248169,-0.37324238,-0.7213988,0.17585018,0.24486957,0.4706505,0.22725673,0.12627158,0.67798674,0.030156413,-0.03064899,0.19752179,0.011535226,-0.025082935,-0.08087519,0.13743849,0.054686744,-0.016367316,0.11616705,0.096776925,0.12990768,-0.084138386,2.0,2.0,-2.0,-2.0,-2.0,2.0,2.0,-2.0,2.0,2.0,2.0,-2.0,2.0,2.0,-2.0,-2.0,-2.0,2.0,2.0,-2.0,2.0,2.0,2.0,-2.0
2025-07-21 08:58:57.508,0.6600000000000003,660,33,0.05497174,0.012194346,-0.030329322,0.03522015,0.025738053,-0.033808023,0.0,0.0,0.0,0.0,0.3598836,0.024554817,-0.26896232,-0.37965226,-0.7415744,0.18580018,0.27362886,0.44796777,0.25994602,0.15403417,0.7106198,-0.018864667,-0.05410746,0.26167795,-0.076760374,-0.0472964,0.016496206,0.053253196,-0.021466805,-0.09768498,0.028260551,0.019737275,0.12646478,-0.11546635,2.0,2.0,-2.0,-2.0,-2.0,2.0,2.0,-2.0,2.0,2.0,2.0,-2.0,2.0,-2.0,-2.0,-2.0,-2.0,2.0,2.0,-2.0,2.0,2.0,2.0,-2.0
2025-07-21 08:58:57.528,0.6800000000000003,680,34,0.1970718,-0.02034848,0.08521666,-0.01972792,0.041231375,0.019516556,0.0,0.0,0.0,0.0,0.37486744,0.04389281,-0.2853046,-0.38375863,-0.76124614,0.20375557,0.27194116,0.39023963,0.2733546,0.18830316,0.738268,-0.07482055,0.06841494,-0.055831816,-0.0735593,0.038038447,-0.041100457,0.08686796,0.07820773,-0.14530395,0.05714989,0.13423918,-0.001999948,-0.087456875,2.0,-2.0,-2.0,-2.0,-2.0,2.0,2.0,-2.0,2.0,2.0,2.0,-2.0,2.0,2.0,-2.0,-2.0,2.0,2.0,2.0,2.0,2.0,2.0,2.0,-2.0
2025-07-21 08:58:57.548,0.7000000000000003,700,35,-0.2210327,0.087190345,0.07098882,0.07202703,0.012317434,-0.008612504,0.0,0.0,0.0,0.0,0.3675283,0.072089285,-0.29514286,-0.37880984,-0.76823336,0.22648463,0.2886162,0.41437262,0.2747715,0.22637121,0.75496256,-0.11214452,-0.07921235,0.14116825,0.011990937,0.011183519,0.021768326,-0.007824824,-0.009799393,0.13444826,-0.055181604,0.03654982,0.040612984,-0.09692205,2.0,2.0,-2.0,-2.0,2.0,2.0,2.0,2.0,2.0,2.0,2.0,-2.0,2.0,-2.0,-2.0,-2.0,2.0,2.0,2.0,-2.0,2.0,2.0,2.0,-2.0
2025-07-21 08:58:57.569,0.7200000000000003,720,36,0.01887833,0.01332009,0.19853802,0.036202434,-0.0086423885,-0.012515113,0.0,0.0,0.0,0.0,0.3627182,0.0636356,-0.29474756,-0.37347978,-0.7463706,0.23379105,0.316189,0.44505107,0.29147708,0.25077677,0.78574705,-0.134453,0.01616496,-0.16148719,0.053239167,0.039129507,0.08319149,0.047711022,0.041378684,0.016382392,0.07748634,0.07073811,0.0039527896,-0.14620031,2.0,-2.0,-2.0,-2.0,2.0,2.0,2.0,-2.0,2.0,2.0,2.0,-2.0,2.0,-2.0,-2.0,-2.0,2.0,2.0,2.0,2.0,2.0,-2.0,2.0,-2.0
2025-07-21 08:58:57.590,0.7400000000000003,740,37,-0.06950381,0.09567813,0.041073583,0.048534967,0.050518464,0.044328336,0.0,0.0,0.0,0.0,0.37059698,-0.044631977,-0.29371637,-0.39153996,-0.73098356,0.22665174,0.32267734,0.48733693,0.27934706,0.21307741,0.786394,-0.17788254,-0.007056113,-0.37701717,0.015169205,0.051309437,0.013364116,-0.043272246,-0.0017972544,0.21099934,-0.025802637,-0.17715165,0.0911665,-0.10267559,2.0,-2.0,-2.0,-2.0,2.0,2.0,2.0,2.0,2.0,-2.0,2.0,-2.0,2.0,-2.0,2.0,-2.0,2.0,-2.0,2.0,-2.0,2.0,-2.0,2.0,-2.0
2025-07-21 08:58:57.609,0.7600000000000003,760,38,-0.27559793,-0.22533686,0.14292882,0.03487195,0.048365053,-0.04626505,0.0,0.0,0.0,0.0,0.37433195,-0.16267668,-0.21187036,-0.39374956,-0.67390776,0.1472025,0.32055452,0.4957196,0.2859025,0.12260228,0.7990032,-0.20465519,-0.012609891,-0.33290222,0.22612831,-0.029905021,0.22781172,-0.24866313,0.009984024,-0.15179,-0.04248649,-0.2110261,0.09150432,-0.03532372,2.0,-2.0,2.0,-2.0,2.0,-2.0,2.0,-2.0,2.0,-2.0,2.0,-2.0,2.0,-2.0,-2.0,-2.0,2.0,-2.0,-2.0,2.0,2.0,-2.0,2.0,-2.0
2025-07-21 08:58:57.631,0.7800000000000004,780,39,-0.23888533,-0.27204505,-0.09909096,0.012393146,0.08251597,-0.0001667192,0.0,0.0,0.0,0.0,0.37208137,-0.29283673,-0.21722007,-0.39472067,-0.58570564,0.06995218,0.2726055,0.508014,0.28833804,0.035033252,0.82220876,-0.22264154,0.020418813,-0.3140174,0.024428122,-0.0079267025,0.18052173,-0.12723862,-0.12903078,0.18180868,-0.007508088,-0.19584076,0.021134594,-0.021259585,2.0,-2.0,-2.0,-2.0,2.0,-2.0,-2.0,2.0,2.0,-2.0,2.0,-2.0,2.0,-2.0,2.0,-2.0,2.0,-2.0,-2.0,-2.0,2.0,-2.0,2.0,-2.0
2025-07-21 08:58:57.649,0.8000000000000004,800,40,-0.008367456,-0.31769747,-0.1435697,0.088304505,0.08567805,0.03613861,0.0,0.0,0.0,0.0,0.36378378,-0.37862417,-0.14439893,-0.3881344,-0.53661406,-0.020931693,0.21052593,0.5451624,0.3070536,-0.033024486,0.8187269,-0.23218559,-0.0020418162,-0.15549777,0.19325748,0.010609139,0.08653352,-0.10577117,-0.2401326,-0.00015233003,0.016423205,-0.13705882,0.06820044,-0.006419115,2.0,-2.0,2.0,-2.0,2.0,-2.0,-2.0,-2.0,2.0,-2.0,2.0,-2.0,2.0,-2.0,2.0,-2.0,2.0,-2.0,2.0,-2.0,2.0,-2.0,2.0,-2.0
2025-07-21 08:58:57.669,0.8200000000000004,820,41,-0.009855963,0.020314334,0.06362058,0.047121383,0.037648518,0.04754301,0.0,0.0,0.0,0.0,0.36761543,-0.46596423,-0.06761609,-0.39973673,-0.46591315,-0.069777146,0.22980724,0.54699737,0.311908,-0.08559449,0.82211745,-0.24073106,-0.028006386,-0.16996638,0.15571305,0.070610434,0.19012159,-0.07062356,0.0948209,-0.024727687,0.04930005,-0.16314034,0.062189627,0.012582578,2.0,-2.0,2.0,-2.0,2.0,-2.0,2.0,-2.0,2.0,-2.0,2.0,-2.0,2.0,-2.0,2.0,-2.0,2.0,-2.0,-2.0,-2.0,2.0,-2.0,2.0,-2.0
2025-07-21 08:58:57.690,0.8400000000000004,840,42,0.11302847,-0.11721052,-0.06790522,0.034122124,0.054208476,0.04026847,0.0,0.0,0.0,0.0,0.3641242,-0.5371605,-0.00067000114,-0.3939662,-0.41564402,-0.1292668,0.21930182,0.5108733,0.3211002,-0.12870277,0.8286687,-0.26255733,0.06241568,-0.11251665,0.1214347,0.0150636155,0.08771397,-0.14332822,0.009719448,-0.024178516,0.049416408,-0.10559847,-0.06098303,0.021934863,2.0,-2.0,2.0,-2.0,2.0,-2.0,-2.0,-2.0,2.0,-2.0,2.0,-2.0,2.0,-2.0,2.0,-2.0,2.0,-2.0,-2.0,-2.0,2.0,-2.0,2.0,2.0
2025-07-21 08:58:57.712,0.8600000000000004,860,43,0.14001986,-0.12674128,-0.1323801,0.059229538,0.07467674,-0.010334024,0.0,0.0,0.0,0.0,0.35039872,-0.58697194,0.04700264,-0.40851593,-0.37428263,-0.16979325,0.19901673,0.49827823,0.32213017,-0.14939733,0.8322733,-0.1807872,-0.036521815,-0.1959462,0.12710181,-0.01408632,0.08041071,-0.043000225,-0.1505284,-0.09662122,0.0060763587,-0.11365705,-0.014295229,0.26013836,2.0,-2.0,2.0,-2.0,2.0,-2.0,-2.0,-2.0,2.0,-2.0,2.0,2.0,2.0,-2.0,2.0,-2.0,2.0,-2.0,-2.0,2.0,-2.0,-2.0,-2.0,2.0
2025-07-21 08:58:57.729,0.8800000000000004,880,44,0.09501451,-0.14171463,-0.06046574,0.0040759384,0.059028458,-0.013737543,0.0,0.0,0.0,0.0,0.35881358,-0.6211024,0.10357878,-0.4063357,-0.35030413,-0.21193074,0.12296531,0.5673395,0.24273293,-0.18782513,0.7805797,-0.08154029,0.00049522234,-0.14578348,0.06810347,0.03487122,0.052085858,-0.12080148,-0.16217661,0.13931477,-0.2696394,-0.10230641,-0.2101991,0.2561472,2.0,-2.0,2.0,-2.0,2.0,-2.0,-2.0,2.0,-2.0,-2.0,-2.0,2.0,2.0,-2.0,2.0,-2.0,2.0,-2.0,-2.0,2.0,-2.0,-2.0,-2.0,2.0
2025-07-21 08:58:57.749,0.9000000000000005,900,45,0.08794673,-0.0051122988,-0.08921952,-0.010389356,0.06698057,-0.03314419,0.0,0.0,0.0,0.0,0.35795376,-0.6594383,0.12742771,-0.41950577,-0.31211182,-0.2398644,0.06925198,0.6139933,0.14055645,-0.22539088,0.675904,-0.016609643,0.03906946,-0.1563103,0.07565215,0.07094416,0.075732574,-0.06447199,-0.11428321,0.06869236,-0.27924022,-0.10940968,-0.28127348,0.18070553,2.0,-2.0,2.0,-2.0,2.0,-2.0,-2.0,2.0,-2.0,-2.0,-2.0,2.0,2.0,-2.0,2.0,-2.0,2.0,-2.0,-2.0,2.0,-2.0,-2.0,2.0,2.0
2025-07-21 08:58:57.769,0.9200000000000005,920,46,0.01738337,-0.041444916,-0.0055875843,0.042344194,0.14886712,-0.0011184346,0.0,0.0,0.0,0.0,0.35376823,-0.6936034,0.15594944,-0.42220816,-0.27881098,-0.25438485,-0.005192926,0.66525245,0.067897104,-0.23549876,0.63935864,0.03048281,-0.0744292,-0.07105379,0.14293656,-0.016025322,0.09855467,-0.032616902,-0.113452405,0.07015075,-0.18498205,-0.10216062,0.1365663,0.10561779,2.0,-2.0,2.0,-2.0,2.0,-2.0,-2.0,2.0,-2.0,-2.0,2.0,2.0,2.0,2.0,2.0,-2.0,2.0,-2.0,-2.0,2.0,-2.0,-2.0,-2.0,2.0
2025-07-21 08:58:57.789,0.9400000000000005,940,47,-0.054111797,0.052226454,-0.10371117,0.06265251,0.13880481,0.026836326,0.0,0.0,0.0,0.0,0.35698283,-0.6977102,0.17877412,-0.40549636,-0.22096868,-0.2731629,-0.05615003,0.70899063,0.011860806,-0.26253736,0.6427104,0.07754595,-0.023864731,0.099941276,-0.03926002,-0.015374428,0.12872753,-0.090448864,-0.1357498,0.15050039,-0.13379909,-0.022608202,-0.07124177,0.12623377,2.0,2.0,2.0,-2.0,2.0,-2.0,-2.0,2.0,-2.0,-2.0,-2.0,2.0,2.0,2.0,2.0,-2.0,-2.0,-2.0,-2.0,2.0,-2.0,-2.0,-2.0,2.0
2025-07-21 08:58:57.809,0.9600000000000005,960,48,-0.015261557,0.07079359,-0.24902275,0.02881224,0.08368417,0.0140594235,0.0,0.0,0.0,0.0,0.38401923,-0.67609406,0.19692886,-0.40696535,-0.22075996,-0.29104257,-0.104285456,0.7356317,-0.037891965,-0.28648576,0.5950744,0.13490579,0.05116143,0.11994637,0.11166129,0.072331555,-0.14234748,-0.059286788,-0.15364736,-0.0008775159,-0.13690966,-0.02869327,-0.07168406,0.04125046,2.0,2.0,2.0,-2.0,-2.0,-2.0,-2.0,2.0,-2.0,-2.0,-2.0,2.0,-2.0,2.0,-2.0,-2.0,-2.0,-2.0,2.0,2.0,-2.0,-2.0,-2.0,2.0
2025-07-21 08:58:57.829,0.9800000000000005,980,49,-0.0029321297,0.13992481,-0.20155239,0.043044467,0.07491815,-0.04181212,0.0,0.0,0.0,0.0,0.36311516,-0.6167556,0.11229279,-0.39133376,-0.30910394,-0.29096904,-0.06022195,0.74311733,-0.099090576,-0.3073295,0.54687756,0.17053089,0.042393506,0.23680791,-0.14971018,0.073111564,-0.3077351,-0.06950987,0.24127945,0.067278676,-0.084047385,-0.07684634,-0.10607285,0.08489297,-2.0,2.0,-2.0,-2.0,-2.0,-2.0,2.0,2.0,-2.0,-2.0,-2.0,2.0,-2.0,2.0,-2.0,-2.0,-2.0,2.0,2.0,-2.0,2.0,2.0,2.0,2.0
2025-07-21 08:58:57.849,1.0000000000000004,1000,50,-0.11537378,-0.042328496,0.04450249,-0.0016076197,0.11028055,0.036101084,0.0,0.0,0.0,0.0,0.33188018,-0.53999704,0.029903848,-0.38505352,-0.4071561,-0.20420985,0.0034939295,0.7036225,-0.026670376,-0.28749025,0.57061446,0.19623671,-0.047532823,0.12226046,-0.23698598,0.09207792,-0.14476326,0.30614546,0.19624624,-0.25400874,0.13684542,0.15552022,0.1856344,0.0897436,-2.0,2.0,-2.0,-2.0,-2.0,2.0,2.0,-2.0,2.0,2.0,2.0,2.0,2.0,2.0,-2.0,-2.0,-2.0,2.0,2.0,-2.0,2.0,2.0,-2.0,2.0
2025-07-21 08:58:57.869,1.0200000000000005,1020,51,0.280666,0.35642377,0.029126307,0.0754419,0.08334628,0.0050467174,0.0,0.0,0.0,0.0,0.35250816,-0.476717,-0.02646424,-0.3919458,-0.47199672,-0.123875104,0.075816914,0.59809834,0.03596373,-0.20186624,0.5676208,0.21809426,0.05831487,0.14514828,-0.08806502,0.034734413,-0.10567958,0.22519657,0.1977751,-0.26966113,0.10385604,0.23547795,-0.11684114,0.09841632,2.0,2.0,-2.0,-2.0,-2.0,2.0,2.0,-2.0,2.0,2.0,-2.0,2.0,2.0,2.0,-2.0,-2.0,-2.0,2.0,2.0,-2.0,2.0,2.0,2.0,2.0
2025-07-21 08:58:57.889,1.0400000000000005,1040,52,0.12499784,0.12378587,0.091145836,0.048439257,0.020113617,-0.021916205,0.0,0.0,0.0,0.0,0.34795412,-0.43322408,-0.08312848,-0.39284724,-0.54339695,-0.036464006,0.10496141,0.52498275,0.08841523,-0.124743156,0.60603344,0.2361573,0.06071047,0.07295117,-0.075862624,-0.044221636,-0.1347766,0.2299554,0.14486457,-0.23209858,0.18030554,0.15821517,0.18829304,-0.013122703,2.0,2.0,-2.0,-2.0,-2.0,2.0,2.0,-2.0,2.0,2.0,2.0,2.0,2.0,2.0,-2.0,-2.0,-2.0,2.0,2.0,2.0,2.0,2.0,-2.0,2.0
2025-07-21 08:58:57.910,1.0600000000000005,1060,53,-0.14375284,0.08051445,-0.03723779,0.05114667,0.025344491,0.03982259,0.0,0.0,0.0,0.0,0.3514792,-0.35977635,-0.12749365,-0.37542406,-0.5888616,0.025460409,0.16127396,0.5405876,0.11982672,-0.036087666,0.58551097,0.24347273,-0.0065916684,0.10657911,-0.17571935,0.02482462,-0.17634587,0.06701574,0.09566068,0.212671,0.09101291,0.18616776,-0.12328562,-0.018292608,2.0,2.0,-2.0,-2.0,-2.0,2.0,2.0,2.0,2.0,2.0,-2.0,2.0,2.0,2.0,-2.0,-2.0,-2.0,2.0,2.0,-2.0,2.0,2.0,2.0,2.0
2025-07-21 08:58:57.930,1.0800000000000005,1080,54,-0.059897292,-0.09796322,0.09702838,0.07878938,-0.011358094,0.025805214,0.0,0.0,0.0,0.0,0.3685475,-0.2939616,-0.16454132,-0.38180825,-0.63728064,0.07485461,0.18201554,0.53676754,0.15269873,0.022089632,0.62105376,0.25017998,0.035502035,0.21761844,-0.05322092,0.028379908,-0.12453285,0.10584821,0.14999954,-0.12602256,0.064545214,0.105240144,0.052488502,-0.04320499,2.0,2.0,-2.0,-2.0,-2.0,2.0,2.0,-2.0,2.0,2.0,2.0,2.0,2.0,2.0,-2.0,-2.0,-2.0,2.0,2.0,-2.0,2.0,2.0,2.0,2.0
2025-07-21 08:58:57.950,1.1000000000000005,1100,55,0.015915418,-0.004852093,0.0948969,0.021061905,0.04702465,-0.032387346,0.0,0.0,0.0,0.0,0.36747104,-0.20213751,-0.19393481,-0.37905073,-0.6764615,0.11639836,0.21332622,0.48983186,0.18634683,0.065383926,0.66245496,0.27016854,0.062096443,0.12349649,-0.043001577,-0.03431494,-0.043670718,0.07052836,0.017127823,-0.11358891,0.08625945,0.1364578,0.12144434,0.035882335,2.0,2.0,-2.0,-2.0,-2.0,2.0,2.0,-2.0,2.0,2.0,2.0,2.0,2.0,2.0,-2.0,-2.0,-2.0,2.0,2.0,-2.0,2.0,2.0,-2.0,2.0
2025-07-21 08:58:57.970,1.1200000000000006,1120,56,0.1528186,0.113228954,0.013283649,0.028088186,0.032717362,0.0047907173,0.0,0.0,0.0,0.0,0.3657245,-0.113787845,-0.23299848,-0.373914,-0.7069116,0.13364209,0.23491934,0.45971254,0.22314501,0.11460167,0.63366634,0.27243748,-0.036919124,0.092683524,-0.08811263,0.014447583,-0.10669744,0.04076933,0.102382906,-0.13470338,0.12835868,0.054266207,-0.036848284,0.076236956,2.0,2.0,-2.0,-2.0,-2.0,2.0,2.0,-2.0,2.0,2.0,-2.0,2.0,2.0,2.0,-2.0,-2.0,-2.0,2.0,2.0,-2.0,2.0,2.0,-2.0,2.0
2025-07-21 08:58:57.990,1.1400000000000006,1140,57,0.3007839,0.07030009,0.105620675,-0.016126277,0.017589267,-0.021305935,0.0,0.0,0.0,0.0,0.36612615,-0.07980511,-0.25085416,-0.38431975,-0.7231355,0.16006082,0.2531926,0.40249616,0.22955388,0.14109448,0.6177057,0.29010832,0.06558172,0.14021277,-0.13351189,0.03173797,-0.111531325,0.030806584,0.0322597,-0.17106543,0.120740555,0.06034316,-0.027981518,-0.04489902,2.0,2.0,-2.0,-2.0,-2.0,2.0,2.0,-2.0,2.0,2.0,-2.0,2.0,2.0,2.0,-2.0,-2.0,-2.0,2.0,2.0,2.0,2.0,2.0,-2.0,2.0
2025-07-21 08:58:58.012,1.1600000000000006,1160,58,0.13573469,0.18009987,0.022715108,-0.025404338,-0.03015104,0.012559047,0.0,0.0,0.0,0.0,0.37356424,-0.016513854,-0.27873898,-0.36670923,-0.7490027,0.19275385,0.2682999,0.40755573,0.23978543,0.16775519,0.5872554,0.3084244,0.04277119,0.20921925,-0.03426645,-0.015338014,-0.092275776,-0.017793132,0.04147966,0.19367033,0.053260945,0.007553364,-0.061586153,-0.02225566,2.0,2.0,-2.0,-2.0,-2.0,2.0,2.0,2.0,2.0,2.0,-2.0,2.0,2.0,2.0,-2.0,-2.0,-2.0,2.0,2.0,-2.0,2.0,2.0,2.0,-2.0
2025-07-21 08:58:58.030,1.1800000000000006,1180,59,0.08410092,-0.07931758,-0.019974006,-0.017340934,-0.030630661,0.011770215,0.0,0.0,0.0,0.0,0.38094366,0.043713752,-0.29334342,-0.37610874,-0.75896287,0.20127654,0.28736717,0.40721065,0.26842493,0.21364243,0.62353754,0.22193454,-0.009713252,0.24180336,-0.08685736,0.05409906,-0.072244056,0.05101208,0.01943772,-0.16464825,0.0719406,0.065409,0.06980379,-0.29461467,2.0,2.0,-2.0,-2.0,-2.0,2.0,2.0,-2.0,2.0,2.0,2.0,-2.0,2.0,-2.0,-2.0,-2.0,2.0,2.0,2.0,2.0,2.0,2.0,2.0,-2.0
2025-07-21 08:58:58.177,1.2000000000000006,1200,60,-0.18844849,0.09364511,0.05977116,0.044263702,0.023651706,-0.028801518,0.0,0.0,0.0,0.0,0.36858672,0.06769249,-0.28495735,-0.37189338,-0.7495529,0.22229919,0.29909268,0.4128771,0.2677956,0.22889654,0.66751456,0.13088141,-0.0037147794,-0.0882548,-0.05821726,-0.055410024,0.07427069,0.041689947,-0.040278025,0.20600575,-0.0484545,0.10070804,0.14788981,-0.27982485,2.0,-2.0,-2.0,-2.0,2.0,2.0,2.0,2.0,2.0,2.0,2.0,-2.0,2.0,-2.0,-2.0,-2.0,2.0,2.0,2.0,-2.0,2.0,2.0,2.0,-2.0
2025-07-21 08:58:58.196,1.2200000000000006,1220,61,-0.00062264246,0.092323355,0.25014856,0.05244192,0.016734362,-0.004641803,0.0,0.0,0.0,0.0,0.3829599,0.010524904,-0.2859337,-0.3729182,-0.7310112,0.23295805,0.3113552,0.40115434,0.27738523,0.2548845,0.69525015,0.053138424,0.04125408,-0.23313686,-0.029943636,-0.05104565,0.039146308,0.0032410151,0.00080931355,-0.051024884,0.055000428,0.052321065,0.10863953,-0.111027144,2.0,-2.0,-2.0,-2.0,2.0,2.0,2.0,-2.0,2.0,2.0,2.0,-2.0,2.0,-2.0,-2.0,-2.0,2.0,2.0,2.0,2.0,2.0,2.0,2.0,-2.0
2025-07-21 08:58:58.218,1.2400000000000007,1240,62,-0.09346156,0.14415182,0.20836717,0.06609588,0.013127103,0.012202921,0.0,0.0,0.0,0.0,0.3621946,-0.11634229,-0.28928787,-0.36896184,-0.70842236,0.22539183,0.33004332,0.43944502,0.2850963,0.27498856,0.71979284,-0.0071167853,-0.07954326,-0.371617,-0.018877655,0.0051291403,0.019695185,-5.506417e-05,0.05831393,0.20669515,-0.05805738,0.025388584,-0.0048027877,-0.19689848,2.0,-2.0,-2.0,-2.0,2.0,2.0,2.0,2.0,2.0,2.0,2.0,-2.0,2.0,-2.0,2.0,-2.0,2.0,-2.0,2.0,-2.0,2.0,-2.0,2.0,-2.0
2025-07-21 08:58:58.236,1.2600000000000007,1260,63,-0.23359716,-0.40521917,0.017694192,0.0024786731,0.027087957,-0.024355827,0.0,0.0,0.0,0.0,0.36666438,-0.23513661,-0.21187572,-0.38002214,-0.64081925,0.13900413,0.33039525,0.45042345,0.28449413,0.20677257,0.7551758,-0.06341226,-0.009138723,-0.24066612,0.22829333,-0.087678075,0.23783517,-0.24732785,0.043377955,-0.031795565,0.07936782,-0.25623232,0.075703695,-0.16839288,2.0,-2.0,2.0,-2.0,2.0,-2.0,2.0,-2.0,2.0,-2.0,2.0,-2.0,2.0,-2.0,-2.0,-2.0,2.0,-2.0,-2.0,-2.0,2.0,-2.0,2.0,-2.0
2025-07-21 08:58:58.258,1.2800000000000007,1280,64,-0.10609043,-0.42092395,0.05928284,0.052697178,0.071807295,0.0033957635,0.0,0.0,0.0,0.0,0.36341572,-0.35446712,-0.2155087,-0.39741072,-0.5728992,0.052903164,0.31131998,0.42278656,0.3041109,0.11550471,0.7671323,-0.096391864,0.04291285,-0.2849883,-0.11352029,-0.075404584,0.17839587,-0.14916402,-0.0043000993,-0.06495456,-0.01413439,-0.15237242,0.037836757,-0.16953352,2.0,-2.0,-2.0,-2.0,2.0,-2.0,-2.0,-2.0,2.0,-2.0,2.0,-2.0,2.0,-2.0,2.0,-2.0,2.0,-2.0,-2.0,-2.0,2.0,-2.0,2.0,-2.0
2025-07-21 08:58:58.277,1.3000000000000007,1300,65,-0.03675726,-0.39755863,-0.028013706,0.022382297,0.0925183,0.009626733,0.0,0.0,0.0,0.0,0.36052778,-0.43190104,-0.15502575,-0.41297853,-0.50474894,-0.019732745,0.26912606,0.38911182,0.30285713,0.03456405,0.7880193,-0.14866443,0.01606248,-0.1295134,0.21913154,0.014512854,0.06956448,-0.22860785,-0.17351641,-0.10759853,-0.051905166,-0.16698688,-0.028786285,-0.033685546,2.0,-2.0,2.0,-2.0,2.0,-2.0,-2.0,-2.0,2.0,-2.0,2.0,-2.0,2.0,-2.0,2.0,-2.0,2.0,-2.0,-2.0,2.0,2.0,-2.0,2.0,2.0
2025-07-21 08:58:58.296,1.3200000000000007,1320,66,-0.21359642,-0.26212245,-0.13350616,-0.00428151,0.07725294,-0.00080629333,0.0,0.0,0.0,0.0,0.35193452,-0.5098311,-0.064904,-0.4120576,-0.4537978,-0.06512521,0.22183183,0.4407962,0.31070527,-0.032926504,0.79416656,-0.075522885,-0.034943644,-0.17507371,0.1104574,-0.0028381979,0.16491817,-0.16599865,-0.22820391,0.17938954,0.029110609,-0.19169095,0.022639558,0.14921395,2.0,-2.0,2.0,-2.0,2.0,-2.0,-2.0,2.0,2.0,-2.0,2.0,2.0,2.0,-2.0,2.0,-2.0,2.0,-2.0,-2.0,-2.0,-2.0,-2.0,-2.0,2.0
2025-07-21 08:58:58.317,1.3400000000000007,1340,67,0.013997652,-0.26091945,-0.11996996,0.018654438,0.12891714,-0.014518974,0.0,0.0,0.0,0.0,0.34887972,-0.56763804,-0.0019489224,-0.4084268,-0.39263836,-0.11718716,0.13086395,0.508463,0.23088421,-0.08577305,0.7357983,-0.0015873947,0.037481777,-0.12372339,0.15147796,0.06413606,0.17691156,-0.112497844,-0.17190284,0.21028638,-0.17812322,-0.06717143,-0.2558243,0.18724765,2.0,-2.0,2.0,-2.0,2.0,-2.0,-2.0,-2.0,-2.0,-2.0,-2.0,2.0,2.0,-2.0,2.0,-2.0,2.0,-2.0,-2.0,2.0,-2.0,-2.0,-2.0,2.0
2025-07-21 08:58:58.337,1.3600000000000008,1360,68,0.1534505,0.06542225,-0.18779011,0.0140756015,0.11183512,-0.002473413,0.0,0.0,0.0,0.0,0.3635273,-0.6149866,0.06309829,-0.39705625,-0.3601956,-0.17156467,0.054245196,0.56534314,0.13518555,-0.12047399,0.6390083,0.04577473,0.0047438545,-0.108850844,0.13278742,-0.018513206,0.10676951,-0.15351261,-0.11928712,0.16416673,-0.2568009,-0.039909575,-0.20488626,0.20762318,2.0,-2.0,2.0,-2.0,2.0,-2.0,-2.0,2.0,-2.0,-2.0,-2.0,2.0,2.0,-2.0,2.0,-2.0,2.0,-2.0,-2.0,2.0,-2.0,-2.0,2.0,2.0
2025-07-21 08:58:58.357,1.3800000000000008,1380,69,-0.080955215,0.04235897,-0.03898964,0.0600064,0.13330398,-0.024422692,0.0,0.0,0.0,0.0,0.3515843,-0.6552143,0.095223464,-0.39397967,-0.31375426,-0.20545393,-0.0017968044,0.62725574,0.058269486,-0.15732998,0.6350872,0.08650933,0.005831236,-0.15867148,0.05927672,-0.073589526,0.20125107,-0.025587775,-0.14093119,0.12459597,-0.15692198,-0.09863319,0.11337897,0.1495994,2.0,-2.0,2.0,-2.0,2.0,-2.0,-2.0,2.0,-2.0,-2.0,2.0,2.0,2.0,2.0,2.0,-2.0,2.0,-2.0,-2.0,2.0,-2.0,-2.0,-2.0,2.0
2025-07-21 08:58:58.377,1.4000000000000008,1400,70,0.0454405,0.14056149,-0.10127228,0.050841007,0.072082356,0.020056153,0.0,0.0,0.0,0.0,0.3544495,-0.6461667,0.12439657,-0.38845325,-0.26374713,-0.23170725,-0.058572333,0.66346943,0.009288076,-0.19367327,0.6320705,0.13800754,-0.045231972,0.14388013,0.09687687,-0.06355992,0.14191188,-0.11714765,-0.11311558,0.057069074,-0.1298625,-0.083952315,-0.13282688,0.08025506,2.0,2.0,2.0,-2.0,2.0,-2.0,-2.0,2.0,-2.0,-2.0,-2.0,2.0,2.0,-2.0,2.0,-2.0,-2.0,-2.0,-2.0,2.0,-2.0,-2.0,-2.0,2.0
2025-07-21 08:58:58.398,1.4200000000000008,1420,71,0.21634825,0.124128714,-0.15724583,-0.01815684,0.032366153,-0.02192734,0.0,0.0,0.0,0.0,0.36086646,-0.64647394,0.16545601,-0.38727906,-0.27121285,-0.2534614,-0.092771366,0.69705147,-0.0503624,-0.22450072,0.5899993,0.1675159,0.053323094,-0.11255251,0.12357336,0.010404738,-0.17156398,0.0029859645,-0.06605368,0.11391576,-0.068158135,-0.06044571,-0.14879952,0.12361351,2.0,-2.0,2.0,-2.0,-2.0,-2.0,-2.0,2.0,-2.0,-2.0,-2.0,2.0,2.0,2.0,2.0,-2.0,2.0,-2.0,-2.0,2.0,-2.0,-2.0,2.0,2.0
2025-07-21 08:58:58.417,1.4400000000000008,1440,72,-0.276831,0.04251782,-0.14673072,0.06029243,0.07489419,-0.03300088,0.0,0.0,0.0,0.0,0.3579544,-0.6648142,0.18030035,-0.38492897,-0.28070197,-0.2673564,-0.14322804,0.73424035,-0.09550868,-0.25308263,0.6004502,0.18825741,0.035621088,0.013784011,0.04923427,0.060557786,0.09022118,-0.04562438,-0.08276378,-0.007053391,-0.030931706,-0.088179186,0.18145296,0.092838995,2.0,2.0,2.0,-2.0,2.0,-2.0,-2.0,2.0,-2.0,-2.0,2.0,2.0,2.0,2.0,-2.0,-2.0,-2.0,-2.0,-2.0,2.0,-2.0,-2.0,-2.0,2.0
2025-07-21 08:58:58.437,1.4600000000000009,1460,73,-0.015897596,0.08291296,-0.22308047,0.043439932,0.021050485,0.0079146465,0.0,0.0,0.0,0.0,0.36723703,-0.59901917,0.10402178,-0.38537598,-0.30684635,-0.27942377,-0.1788382,0.76191944,-0.13260847,-0.26510978,0.5717944,0.20838259,0.03886657,0.15878047,-0.15975016,0.0724858,-0.084318146,-0.09208964,-0.15279971,0.08976202,-0.022690939,-0.11040979,-0.059663776,0.06748772,2.0,2.0,-2.0,-2.0,-2.0,-2.0,-2.0,2.0,-2.0,-2.0,-2.0,2.0,-2.0,2.0,-2.0,-2.0,-2.0,2.0,2.0,2.0,-2.0,-2.0,-2.0,2.0
2025-07-21 08:58:58.460,1.4800000000000009,1480,74,0.00590396,0.246963,-0.1382791,0.038849432,-0.0063662883,-0.03469245,0.0,0.0,0.0,0.0,0.37329152,-0.5331722,0.029491143,-0.38049915,-0.38480312,-0.2021237,-0.13809678,0.769461,-0.15235439,-0.27407822,0.53184986,0.2458457,0.035468563,0.19809213,-0.15428825,-0.050603118,-0.26114342,0.2263853,0.16647482,-0.0076138666,-0.07241985,0.017082522,-0.048763104,0.11735512,-2.0,2.0,-2.0,-2.0,-2.0,2.0,2.0,2.0,-2.0,-2.0,-2.0,2.0,-2.0,2.0,-2.0,-2.0,-2.0,2.0,2.0,-2.0,2.0,2.0,-2.0,2.0
2025-07-21 08:58:58.478,1.5000000000000009,1500,75,0.19219011,0.33138034,-0.035139598,0.056067016,-0.029334446,-0.035742972,0.0,0.0,0.0,0.0,0.36060706,-0.47755596,-0.04579608,-0.38756737,-0.4685183,-0.12863049,-0.055589568,0.7382808,-0.09879946,-0.25624272,0.4998858,0.24765506,0.037966114,0.12631461,-0.17555754,0.019049643,-0.14035583,0.2635927,0.18083517,-0.24728101,0.23633668,0.054824535,-0.041135143,0.07247523,-2.0,2.0,-2.0,-2.0,-2.0,2.0,2.0,-2.0,2.0,2.0,-2.0,2.0,2.0,2.0,-2.0,-2.0,-2.0,2.0,2.0,-2.0,2.0,2.0,2.0,2.0
2025-07-21 08:58:58.497,1.520000000000001,1520,76,0.12727137,0.1829577,0.09626472,0.06100477,-0.042850982,-0.04351587,0.0,0.0,0.0,0.0,0.36889797,-0.4411058,-0.09786854,-0.39323714,-0.5278036,-0.05574636,0.0027569707,0.6535218,-0.038930226,-0.17336951,0.5228122,0.27127025,0.056905568,0.16148096,-0.19966853,0.019626398,-0.13462566,0.24773288,0.22049446,-0.27977586,0.16206709,0.24610299,0.22538567,0.058500998,2.0,2.0,-2.0,-2.0,-2.0,2.0,2.0,-2.0,2.0,2.0,2.0,2.0,2.0,2.0,-2.0,-2.0,-2.0,2.0,2.0,-2.0,2.0,2.0,-2.0,2.0
2025-07-21 08:58:58.517,1.540000000000001,1540,77,0.19309178,0.13585253,0.06195931,-0.048281614,-0.02582096,0.0015547388,0.0,0.0,0.0,0.0,0.36375463,-0.39519703,-0.13830788,-0.374747,-0.5884153,0.014074116,0.06303452,0.56523967,0.020493232,-0.089201406,0.51362604,0.27734247,0.063162155,0.1137022,-0.09073766,0.073717974,-0.18117319,0.06768149,0.14643466,-0.28851482,0.1599141,0.27057528,-0.06689564,-0.0057410086,2.0,2.0,-2.0,-2.0,-2.0,2.0,2.0,-2.0,2.0,2.0,-2.0,2.0,2.0,2.0,-2.0,-2.0,-2.0,2.0,2.0,2.0,2.0,2.0,2.0,2.0
2025-07-21 08:58:58.538,1.560000000000001,1560,78,-0.25453627,0.0765813,-0.082549945,0.048199587,0.020835347,-0.0057751127,0.0,0.0,0.0,0.0,0.37703407,-0.32820538,-0.18498771,-0.36872244,-0.6234842,0.06939589,0.12234667,0.5431295,0.08610024,-0.006807091,0.52898604,0.2739771,0.016600264,0.12852757,-0.12552217,0.020201148,-0.11377577,0.18051745,0.17422026,0.20318826,0.037460633,0.12584765,0.14555751,0.024527475,2.0,2.0,-2.0,-2.0,-2.0,2.0,2.0,2.0,2.0,2.0,2.0,2.0,2.0,2.0,-2.0,-2.0,-2.0,2.0,2.0,-2.0,2.0,2.0,2.0,2.0
2025-07-21 08:58:58.558,1.580000000000001,1580,79,-0.25741437,-0.31035468,-0.12246535,0.058450066,-0.061166376,-0.0021693562,0.0,0.0,0.0,0.0,0.36999235,-0.25349358,-0.21799712,-0.36749256,-0.6730222,0.09756403,0.14442709,0.549471,0.1208428,0.046354063,0.58617175,0.2955736,0.0068186945,0.24026622,-0.018650517,0.048073903,-0.02533458,0.12065225,0.07263967,-0.14506601,0.1493898,0.1583666,0.10157053,0.049655475,2.0,2.0,-2.0,-2.0,-2.0,2.0,2.0,-2.0,2.0,2.0,2.0,2.0,2.0,2.0,-2.0,-2.0,-2.0,2.0,2.0,-2.0,2.0,2.0,2.0,2.0
2025-07-21 08:58:58.577,1.600000000000001,1600,80,0.01830057,-0.056579195,0.043484315,0.010411917,0.0004240522,-0.020096326,0.0,0.0,0.0,0.0,0.35910836,-0.12988594,-0.221009,-0.36798656,-0.6916992,0.138461,0.1774993,0.50535864,0.16355656,0.09131887,0.6248495,0.28819615,-0.027997162,0.36526778,0.01704019,0.05901524,-0.08836595,0.0030176328,0.038015377,-0.16652894,0.13934486,0.1378543,0.072821066,0.006690225,2.0,2.0,-2.0,-2.0,-2.0,2.0,2.0,-2.0,2.0,2.0,2.0,2.0,2.0,2.0,-2.0,-2.0,-2.0,2.0,2.0,-2.0,2.0,2.0,2.0,2.0
2025-07-21 08:58:58.597,1.620000000000001,1620,81,0.00080973137,-0.07850317,-0.016855467,0.07245822,0.0606008,-0.0033531853,0.0,0.0,0.0,0.0,0.3724146,-0.01712226,-0.25221658,-0.3776906,-0.7255001,0.17297727,0.2128916,0.46635607,0.17884506,0.14790308,0.67032164,0.3030397,-0.07088722,0.24373049,0.0020228308,-0.0026486225,-0.031640973,0.0954934,0.13895927,-0.1130506,0.056830943,0.16337943,0.14981078,-0.023213003,2.0,2.0,-2.0,-2.0,-2.0,2.0,2.0,-2.0,2.0,2.0,2.0,2.0,2.0,2.0,-2.0,-2.0,-2.0,2.0,2.0,-2.0,2.0,2.0,-2.0,-2.0
2025-07-21 08:58:58.617,1.640000000000001,1640,82,0.14474474,0.04033938,0.017972399,-0.029281324,-0.032018553,-0.046199046,0.0,0.0,0.0,0.0,0.36555868,0.09506325,-0.27561828,-0.38150573,-0.7509537,0.18771438,0.24703525,0.4304021,0.20862298,0.1672814,0.65165496,0.21822084,0.011732388,0.24262868,0.0018919809,-0.017603466,-0.048973713,0.0035447646,-0.005817807,-0.07135952,0.041903395,0.14149752,-0.03757343,-0.28419572,2.0,2.0,-2.0,-2.0,-2.0,2.0,2.0,-2.0,2.0,2.0,-2.0,-2.0,2.0,-2.0,-2.0,-2.0,-2.0,2.0,2.0,2.0,2.0,2.0,2.0,-2.0
2025-07-21 08:58:58.637,1.660000000000001,1660,83,-0.033649556,-0.023291236,0.061023477,-0.0034405834,-0.03267067,-0.045316353,0.0,0.0,0.0,0.0,0.37332126,0.13578436,-0.2780046,-0.38753998,-0.76759857,0.21268497,0.25691187,0.44137964,0.23707256,0.19624865,0.6764114,0.12542382,-0.04539007,-0.05361478,-0.048942417,0.008915887,-0.08615473,0.002954679,0.011461749,0.17420666,0.04879402,0.09636845,0.040132314,-0.23294336,2.0,-2.0,-2.0,-2.0,-2.0,2.0,2.0,2.0,2.0,2.0,2.0,-2.0,2.0,-2.0,-2.0,-2.0,2.0,2.0,2.0,-2.0,2.0,2.0,2.0,-2.0
2025-07-21 08:58:58.661,1.680000000000001,1680,84,0.045446087,0.07457974,0.22836527,-0.009175197,0.05993008,0.0045342436,0.0,0.0,0.0,0.0,0.3777731,0.12167067,-0.27731168,-0.39274165,-0.7791028,0.2145836,0.27392194,0.44069663,0.24523161,0.22007255,0.7051444,0.04490402,0.039585155,-0.16130042,0.023320032,-0.008989579,-0.06276705,-0.026778987,0.071240544,-0.18862659,0.05255828,0.0077275424,0.006433542,-0.09295378,2.0,-2.0,-2.0,-2.0,2.0,2.0,2.0,-2.0,2.0,2.0,2.0,-2.0,2.0,2.0,-2.0,-2.0,2.0,2.0,2.0,2.0,2.0,2.0,2.0,-2.0
2025-07-21 08:58:58.678,1.700000000000001,1700,85,-0.17123336,0.11128823,0.015376126,0.01979175,0.018126467,-0.012121208,0.0,0.0,0.0,0.0,0.38094828,0.12725618,-0.3009096,-0.38395697,-0.764414,0.23171325,0.2853554,0.4558348,0.24139929,0.25074393,0.73646575,-0.0028235451,-0.03096212,0.16816998,-0.010326011,-0.05115667,-0.020551603,-0.004927037,0.023368401,0.13754721,-0.0040557925,0.086303145,0.09951406,-0.19848765,2.0,2.0,-2.0,-2.0,2.0,2.0,2.0,2.0,2.0,2.0,2.0,-2.0,2.0,-2.0,-2.0,-2.0,2.0,2.0,2.0,-2.0,2.0,2.0,2.0,-2.0
2025-07-21 08:58:58.698,1.720000000000001,1720,86,0.03164347,0.008282939,0.2060439,0.01645269,-0.009575383,-0.037222784,0.0,0.0,0.0,0.0,0.37150452,0.13474141,-0.29366568,-0.38971722,-0.74082786,0.23335575,0.2994459,0.45520622,0.2547385,0.27427018,0.76440233,-0.06752415,0.018270977,-0.027877586,-0.011976894,-0.08786836,-0.025577676,0.041621197,0.0542634,-0.14205559,0.09112819,-0.009234707,0.022607489,-0.09737647,2.0,-2.0,-2.0,-2.0,2.0,2.0,2.0,-2.0,2.0,2.0,2.0,-2.0,2.0,-2.0,-2.0,-2.0,2.0,2.0,2.0,2.0,2.0,2.0,2.0,-2.0
2025-07-21 08:58:58.718,1.740000000000001,1740,87,-0.13449064,0.10275165,0.1333594,0.022379393,0.011083154,0.015694497,0.0,0.0,0.0,0.0,0.38194638,0.07454142,-0.29160106,-0.39338708,-0.7257462,0.2355085,0.31683677,0.48625112,0.27508333,0.29021066,0.7926187,-0.10418198,-0.029928943,-0.28410852,-0.064366154,0.02191908,0.105394594,0.039394613,0.015659697,0.1738716,0.055541903,0.0050428845,0.0819691,-0.07107482,2.0,-2.0,-2.0,-2.0,2.0,2.0,2.0,2.0,2.0,2.0,2.0,-2.0,2.0,-2.0,-2.0,-2.0,2.0,2.0,2.0,-2.0,2.0,-2.0,2.0,-2.0
2025-07-21 08:58:58.738,1.7600000000000011,1760,88,-0.013647911,0.116650335,0.13034052,0.009845055,0.036651246,0.0464882,0.0,0.0,0.0,0.0,0.3610011,-0.059324007,-0.29275286,-0.3957876,-0.702582,0.23790088,0.3227056,0.47719696,0.28256387,0.24631791,0.80813444,-0.14166208,-0.01950571,-0.41451287,-0.00069988676,0.049822524,0.11729624,0.008328265,0.06728848,-0.17349856,0.0037605488,-0.28207475,0.00056975713,-0.1451085,2.0,-2.0,-2.0,-2.0,2.0,2.0,2.0,-2.0,2.0,-2.0,2.0,-2.0,2.0,-2.0,2.0,-2.0,2.0,-2.0,2.0,2.0,2.0,-2.0,2.0,-2.0
2025-07-21 08:58:58.763,1.7800000000000011,1780,89,-0.2699426,-0.1622168,0.0077040433,0.037849944,0.034269553,0.026229423,0.0,0.0,0.0,0.0,0.36424765,-0.19506426,-0.21628815,-0.38462687,-0.6438329,0.15022475,0.32233167,0.4912879,0.27691773,0.14834923,0.8150157,-0.17177403,0.01996293,-0.24020934,0.21116537,0.05294813,0.18777633,-0.24811645,-0.029804371,0.09885344,0.05805582,-0.27142435,0.058606558,-0.128526,2.0,-2.0,2.0,-2.0,2.0,-2.0,2.0,2.0,2.0,-2.0,2.0,-2.0,2.0,-2.0,-2.0,-2.0,2.0,-2.0,-2.0,-2.0,2.0,-2.0,2.0,-2.0
2025-07-21 08:58:58.779,1.8000000000000012,1800,90,0.00419526,-0.32214275,0.01877434,0.04702474,0.002152361,0.045647506,0.0,0.0,0.0,0.0,0.37598708,-0.3067625,-0.23066683,-0.3877627,-0.5599624,0.06572955,0.2951637,0.5198284,0.28583515,0.054600697,0.8118952,-0.1986455,0.028250974,-0.22346635,-0.031396877,-0.06924576,0.15132104,-0.12620398,-0.17440742,0.043525327,0.038319554,-0.19438523,0.03128984,-0.011218854,2.0,-2.0,-2.0,-2.0,2.0,-2.0,-2.0,-2.0,2.0,-2.0,2.0,-2.0,2.0,-2.0,2.0,-2.0,2.0,-2.0,-2.0,-2.0,2.0,-2.0,2.0,-2.0
2025-07-21 08:58:58.798,1.8200000000000012,1820,91,0.038752675,-0.3201573,-0.13410263,0.051134564,0.017899828,-0.027351137,0.0,0.0,0.0,0.0,0.36322978,-0.3909805,-0.1459376,-0.3978821,-0.49394453,-0.012430204,0.2446291,0.519853,0.28972253,0.00080877374,0.82416016,-0.20215353,0.060197715,-0.25031805,0.28266683,0.008369671,0.20781846,-0.19454697,-0.12068919,-0.0451443,0.009904112,-0.22287664,-0.06503712,-0.071104705,2.0,-2.0,2.0,-2.0,2.0,-2.0,-2.0,-2.0,2.0,-2.0,2.0,-2.0,2.0,-2.0,2.0,-2.0,2.0,-2.0,-2.0,-2.0,2.0,-2.0,2.0,-2.0
2025-07-21 08:58:58.818,1.8400000000000012,1840,92,0.15794098,-0.22111972,-0.16294025,0.031198498,0.04982789,0.024796158,0.0,0.0,0.0,0.0,0.35142308,-0.48595694,-0.05660849,-0.40695363,-0.46000367,-0.07604249,0.18367001,0.5142643,0.299159,-0.053379577,0.8338402,-0.23098633,-0.08085442,-0.17392401,0.10855793,-0.08396599,0.18191206,-0.07224194,-0.07269098,-0.03823234,0.04537861,-0.08500317,-0.0146696335,-0.016835611,2.0,-2.0,2.0,-2.0,2.0,-2.0,-2.0,-2.0,2.0,-2.0,2.0,-2.0,2.0,-2.0,2.0,-2.0,2.0,-2.0,-2.0,-2.0,2.0,-2.0,2.0,-2.0
2025-07-21 08:58:58.838,1.8600000000000012,1860,93,0.1716991,-0.16671579,-0.22837642,-0.011884825,0.09024184,-0.015866414,0.0,0.0,0.0,0.0,0.36478457,-0.53783524,-0.0046375035,-0.41584873,-0.40306914,-0.11457701,0.122047186,0.50634664,0.31273258,-0.11342906,0.82208884,-0.24819481,-0.07176095,-0.19237123,0.10032054,0.060208287,0.07257919,-0.12106958,-0.102654,-0.035876986,-0.033246297,-0.16271007,-0.032124285,0.016416604,2.0,-2.0,2.0,-2.0,2.0,-2.0,-2.0,-2.0,2.0,-2.0,2.0,-2.0,2.0,-2.0,2.0,-2.0,2.0,-2.0,2.0,-2.0,2.0,-2.0,2.0,2.0
2025-07-21 08:58:58.858,1.8800000000000012,1880,94,0.09058719,0.25797212,0.09264096,-0.0018021088,0.03192236,-0.038865674,0.0,0.0,0.0,0.0,0.35949522,-0.6036549,0.059494432,-0.41582012,-0.35862365,-0.1643078,0.15747344,0.48173916,0.3183868,-0.15101735,0.83001983,-0.16200517,-0.05354058,-0.07618644,0.074167706,-0.026793791,0.06972248,-0.13434617,0.10238166,-0.038121853,0.08202631,-0.100086756,0.039706327,0.22212775,2.0,-2.0,2.0,-2.0,2.0,-2.0,2.0,-2.0,2.0,-2.0,2.0,2.0,2.0,-2.0,2.0,-2.0,2.0,-2.0,-2.0,2.0,2.0,-2.0,-2.0,2.0
2025-07-21 08:58:58.880,1.9000000000000012,1900,95,0.06993629,0.0755239,-0.014268664,-0.015318735,0.021467391,-0.032621488,0.0,0.0,0.0,0.0,0.3499908,-0.64609325,0.09467213,-0.41040358,-0.31130978,-0.19367601,0.13171834,0.51280236,0.3220495,-0.19070052,0.77153057,-0.070532635,-0.014383323,-0.16142999,0.097239204,-0.010834324,0.059039805,-0.027655346,-0.20243682,0.13868985,0.016402937,-0.045112856,-0.2597299,0.24260351,2.0,-2.0,2.0,-2.0,2.0,-2.0,-2.0,2.0,2.0,-2.0,-2.0,2.0,2.0,-2.0,2.0,-2.0,2.0,-2.0,-2.0,2.0,-2.0,-2.0,-2.0,2.0
2025-07-21 08:58:58.899,1.9200000000000013,1920,96,-0.043310784,0.055940676,0.010501288,0.028565831,0.06650862,-0.019683853,0.0,0.0,0.0,0.0,0.36905035,-0.67190045,0.13953228,-0.41604748,-0.26107886,-0.21949928,0.059262626,0.5906223,0.2268066,-0.2168105,0.6667229,-0.0025819417,0.044212196,-0.04476758,0.12577634,-0.06418736,0.15448119,-0.017401515,-0.10188459,0.12282662,-0.2800419,-0.022910124,-0.40357658,0.20772764,2.0,-2.0,2.0,-2.0,2.0,-2.0,-2.0,2.0,-2.0,-2.0,-2.0,2.0,2.0,-2.0,2.0,-2.0,2.0,-2.0,-2.0,2.0,-2.0,-2.0,2.0,2.0
2025-07-21 08:58:58.918,1.9400000000000013,1940,97,-0.151817,-0.075018086,0.030481275,-0.0017823083,0.024643917,0.034907762,0.0,0.0,0.0,0.0,0.36331514,-0.6923965,0.15308593,-0.41623524,-0.18089907,-0.25262788,0.0060800705,0.6323564,0.13497068,-0.2340372,0.6055767,0.04539494,-0.020911237,-0.022748766,0.059367374,-0.001372212,0.1928912,-0.0025756042,-0.18487784,0.17120372,-0.25230363,-0.11449992,0.055083774,0.10688091,2.0,-2.0,2.0,-2.0,2.0,-2.0,-2.0,2.0,-2.0,-2.0,2.0,2.0,2.0,2.0,2.0,-2.0,2.0,-2.0,-2.0,2.0,-2.0,-2.0,-2.0,2.0
2025-07-21 08:58:58.941,1.9600000000000013,1960,98,-0.048218153,-0.0025856586,-0.09290039,0.008311981,0.025888119,-0.005748485,0.0,0.0,0.0,0.0,0.3626361,-0.7117755,0.17596182,-0.4183891,-0.11984031,-0.2653732,-0.056206115,0.6851555,0.06761978,-0.25156537,0.5739359,0.08529789,0.0019872647,0.07311232,0.09862787,0.0007500896,0.12281758,-0.021485973,-0.07780921,0.10488457,-0.13235027,-0.088974416,-0.12705909,0.15775643,2.0,2.0,2.0,-2.0,2.0,-2.0,-2.0,2.0,-2.0,-2.0,-2.0,2.0,2.0,2.0,2.0,-2.0,2.0,-2.0,-2.0,2.0,-2.0,-2.0,2.0,2.0
2025-07-21 08:58:58.958,1.9800000000000013,1980,99,-0.20943792,-0.011691555,-0.03874285,0.008840863,0.038020406,-0.005709845,0.0,0.0,0.0,0.0,0.35714132,-0.68242025,0.19015634,-0.41039875,-0.048645493,-0.28018126,-0.094490774,0.72288895,0.0070735407,-0.26226392,0.60715204,0.13480146,0.04286034,0.123305775,0.094375566,-0.04557783,0.25872067,-0.007485027,-0.15614006,0.09788549,-0.057126865,-0.022931863,0.18866116,0.08577934,2.0,2.0,2.0,-2.0,2.0,-2.0,-2.0,2.0,-2.0,-2.0,2.0,2.0,2.0,2.0,2.0,-2.0,-2.0,-2.0,-2.0,2.0,-2.0,-2.0,-2.0,2.0
2025-07-21 08:58:58.978,2.0000000000000013,2000,100,-0.012720655,0.043122154,-0.19824211,0.08263541,0.022416022,-0.01433426,0.0,0.0,0.0,0.0,0.37596598,-0.65121925,0.21110025,-0.41369253,-0.022170737,-0.3001194,-0.14495094,0.76066047,-0.04963271,-0.29277402,0.60414624,0.16956529,0.07107932,0.08023962,0.08027853,-0.031881917,-0.12057916,-0.00063282426,-0.06833861,0.050939202,-0.12893362,-0.09070278,-0.0383983,0.14727281,2.0,2.0,2.0,-2.0,-2.0,-2.0,-2.0,2.0,-2.0,-2.0,-2.0,2.0,-2.0,2.0,-2.0,-2.0,-2.0,-2.0,2.0,2.0,-2.0,-2.0,-2.0,2.0
2025-07-21 08:58:58.999,2.0200000000000014,2020,101,-0.029629907,0.15542275,-0.20236163,0.09925374,0.028779663,0.024016138,0.0,0.0,0.0,0.0,0.35288048,-0.5800804,0.11787549,-0.39683697,-0.07622501,-0.29815173,-0.093296304,0.7578227,-0.08667465,-0.29963621,0.55769193,0.1985815,-0.024918957,0.26997533,-0.29529855,0.054015346,-0.18394504,-0.0049862848,0.17301269,0.09757564,-0.17520456,-0.07987792,-0.11174497,0.0057637035,-2.0,2.0,-2.0,-2.0,-2.0,-2.0,2.0,2.0,-2.0,-2.0,-2.0,2.0,-2.0,2.0,-2.0,-2.0,-2.0,-2.0,2.0,-2.0,-2.0,2.0,2.0,2.0
2025-07-21 08:58:59.019,2.0400000000000014,2040,102,-0.062457833,-0.31443822,-0.03972404,0.008590367,0.052333254,0.032381345,0.0,0.0,0.0,0.0,0.33015934,-0.49107245,0.041841358,-0.3846547,-0.20288521,-0.29241988,-0.009081365,0.7164629,-0.12147406,-0.27819353,0.57965773,0.21395391,-0.19701856,0.25798193,-0.24227655,0.00046298248,-0.33694273,0.046649367,0.10758746,-0.29393867,-0.043831293,0.22391132,0.12087683,0.033252977,-2.0,2.0,-2.0,-2.0,-2.0,-2.0,2.0,-2.0,-2.0,2.0,2.0,2.0,2.0,2.0,-2.0,-2.0,-2.0,2.0,2.0,-2.0,2.0,2.0,-2.0,2.0
2025-07-21 08:58:59.039,2.0600000000000014,2060,103,0.3765418,0.12535362,-0.039054222,0.08906852,0.038715903,0.018333396,0.0,0.0,0.0,0.0,0.34340397,-0.40900555,-0.016985636,-0.37776354,-0.31081766,-0.21712293,0.047031518,0.60050935,-0.06883217,-0.18336459,0.5874931,0.23764811,0.01075885,0.1314637,-0.21018904,0.05513203,-0.25057134,0.2911418,0.10895737,-0.27668586,0.16354345,0.22766133,-0.0954931,0.025875967,2.0,2.0,-2.0,-2.0,-2.0,2.0,2.0,-2.0,2.0,2.0,-2.0,2.0,2.0,2.0,-2.0,-2.0,-2.0,2.0,2.0,-2.0,2.0,2.0,2.0,2.0
2025-07-21 08:58:59.059,2.0800000000000014,2080,104,0.15175284,0.08843584,0.09196336,0.010477925,0.074957244,-0.017300718,0.0,0.0,0.0,0.0,0.34285438,-0.36595714,-0.08305118,-0.37496936,-0.40181977,-0.12762047,0.10485649,0.5141668,0.0016795284,-0.099154405,0.62215286,0.23749271,-0.026318379,0.11845483,-0.1755412,-0.014169545,-0.20130247,0.23959963,0.054195166,-0.13911109,0.17717768,0.24161401,0.1758051,0.012883814,2.0,2.0,-2.0,-2.0,-2.0,2.0,2.0,-2.0,2.0,2.0,2.0,2.0,2.0,2.0,-2.0,-2.0,-2.0,2.0,2.0,-2.0,2.0,2.0,-2.0,2.0
2025-07-21 08:58:59.079,2.1000000000000014,2100,105,0.18735918,0.07652267,0.023357794,-0.013410256,0.04215926,-0.005158547,0.0,0.0,0.0,0.0,0.3522091,-0.30427143,-0.13302185,-0.3848322,-0.4717012,-0.060482856,0.13371968,0.43679425,0.055680487,-0.016981551,0.6158926,0.26871923,0.007281112,0.1183888,-0.101277836,-0.065736495,-0.21563074,0.09216859,0.038538788,-0.19892001,0.10829984,0.1799649,-0.12042228,0.08625617,2.0,2.0,-2.0,-2.0,-2.0,2.0,2.0,-2.0,2.0,2.0,-2.0,2.0,2.0,2.0,-2.0,-2.0,-2.0,2.0,2.0,2.0,2.0,2.0,2.0,2.0
2025-07-21 08:58:59.099,2.1200000000000014,2120,106,-0.18738458,0.043926816,-0.062278733,0.014003612,0.015266594,0.034816887,0.0,0.0,0.0,0.0,0.34794313,-0.20287074,-0.17054753,-0.38696867,-0.545306,0.009384926,0.17060137,0.4359985,0.10902259,0.047667872,0.6000721,0.2726478,-0.038213998,0.26156196,-0.05811252,0.058916993,-0.07228767,0.07849604,0.043841735,0.057338476,0.1422603,0.12380799,0.04066556,0.021260243,2.0,2.0,-2.0,-2.0,-2.0,2.0,2.0,2.0,2.0,2.0,2.0,2.0,2.0,2.0,-2.0,-2.0,-2.0,2.0,2.0,-2.0,2.0,2.0,2.0,2.0
2025-07-21 08:58:59.119,2.1400000000000015,2140,107,-0.09314929,0.011957576,0.01766513,0.03633874,0.009753202,-0.04748166,0.0,0.0,0.0,0.0,0.34236997,-0.080272384,-0.19957055,-0.37765175,-0.59774524,0.052071538,0.20646268,0.43832266,0.13697876,0.0899339,0.6470564,0.27060404,-0.059090037,0.4139195,-0.12519394,0.002069356,-0.09313425,0.17788881,0.12609603,0.020424569,0.14043684,0.13261299,0.044464033,0.030688088,2.0,2.0,-2.0,-2.0,-2.0,2.0,2.0,-2.0,2.0,2.0,2.0,2.0,2.0,-2.0,-2.0,-2.0,-2.0,2.0,2.0,-2.0,2.0,2.0,2.0,-2.0
2025-07-21 08:58:59.139,2.1600000000000015,2160,108,0.13856392,0.041896403,0.16804114,0.010915937,0.0007814886,0.044213183,0.0,0.0,0.0,0.0,0.3560591,-0.020464547,-0.21655941,-0.3767062,-0.6327099,0.09560307,0.23500378,0.41451457,0.17223822,0.13909581,0.6775831,0.17926438,0.060184434,0.043013263,-0.10760771,-0.01613508,-0.15251243,0.061060242,0.07840499,-0.06941538,0.1288069,0.16713904,0.01556609,-0.167839,2.0,-2.0,-2.0,-2.0,-2.0,2.0,2.0,-2.0,2.0,2.0,2.0,-2.0,2.0,2.0,-2.0,-2.0,-2.0,2.0,2.0,2.0,2.0,2.0,2.0,-2.0
2025-07-21 08:58:59.159,2.1800000000000015,2180,109,-0.15652563,0.033094235,-0.068445355,0.0017053933,0.0618778,-0.00112417,0.0,0.0,0.0,0.0,0.35937822,0.019049393,-0.24242264,-0.37886778,-0.6769456,0.13136011,0.25616413,0.43541712,0.18579526,0.18229988,0.71997315,0.09341145,0.009056413,0.15723814,-0.03358103,-0.03196745,-0.041703187,0.03531877,-0.010773453,0.20003466,0.0079613775,0.117290206,0.12482578,-0.16391318,2.0,2.0,-2.0,-2.0,-2.0,2.0,2.0,2.0,2.0,2.0,2.0,-2.0,2.0,-2.0,-2.0,-2.0,-2.0,2.0,2.0,-2.0,2.0,2.0,2.0,-2.0
2025-07-21 08:58:59.179,2.2000000000000015,2200,110,-0.041037347,0.035697516,0.11742046,0.038585216,0.0027748721,-0.04186554,0.0,0.0,0.0,0.0,0.3605751,0.029469673,-0.24352038,-0.3910833,-0.69570506,0.15637837,0.27299583,0.43638396,0.21028638,0.2100962,0.74594826,0.03370782,-0.0015264892,0.012285737,-0.09221648,-0.07521648,-0.118414216,0.09070531,0.09766233,-0.054844107,-0.008550763,0.064714976,0.033619344,-0.21531264,2.0,-2.0,-2.0,-2.0,-2.0,2.0,2.0,-2.0,2.0,2.0,2.0,-2.0,2.0,2.0,-2.0,-2.0,2.0,2.0,2.0,2.0,2.0,2.0,2.0,-2.0
2025-07-21 08:58:59.199,2.2200000000000015,2220,111,-0.15696587,0.13980074,-0.009625047,-0.010750907,-0.018960897,0.039773196,0.0,0.0,0.0,0.0,0.3658632,0.052302465,-0.25983164,-0.37827948,-0.70638967,0.17145254,0.28501526,0.46420172,0.23434015,0.22566734,0.7660991,-0.027532404,0.06632229,0.07715651,-0.016372874,-0.04026329,-0.04876766,-0.00069805933,0.0474289,0.18419468,0.061933406,-0.0075070956,0.06695038,-0.16634734,2.0,2.0,-2.0,-2.0,2.0,2.0,2.0,2.0,2.0,2.0,2.0,-2.0,2.0,-2.0,-2.0,-2.0,0.020272247,2.0,2.0,-2.0,2.0,2.0,2.0,-2.0
2025-07-21 08:58:59.220,2.2400000000000015,2240,112,0.05107392,0.038590923,0.22328205,0.038083635,0.028300975,-0.049557738,0.0,0.0,0.0,0.0,0.37378109,0.03390626,-0.2703041,-0.37843153,-0.70623046,0.18274197,0.2980477,0.4596706,0.2372905,0.24429135,0.7805713,-0.073568895,-0.050938096,-0.15493476,-0.005194537,-0.027294857,0.0049900496,0.043876305,0.07336255,-0.08430366,-0.03603828,0.010451739,0.044722382,-0.09572883,2.0,-2.0,-2.0,-2.0,0.020272247,2.0,2.0,-2.0,2.0,2.0,2.0,-2.0,2.0,-2.0,-2.0,-2.0,2.0,2.0,2.0,2.0,2.0,2.0,2.0,-2.0
2025-07-21 08:58:59.240,2.2600000000000016,2260,113,-0.017844567,0.29966083,0.17420916,0.06583598,-0.023802629,0.023755413,0.0,0.0,0.0,0.0,0.36411622,-0.041400816,-0.27181196,-0.38403696,-0.7056353,0.20623218,0.3080527,0.51060385,0.25820857,0.26898274,0.8001504,-0.11254938,0.022995517,-0.29077145,-0.020242136,-0.025403066,-0.02421512,-0.011762457,0.07980851,0.11680849,-0.024784718,0.095899604,0.08422259,-0.07392077,2.0,-2.0,-2.0,-2.0,2.0,2.0,2.0,2.0,2.0,2.0,2.0,-2.0,2.0,-2.0,-2.0,-2.0,2.0,2.0,2.0,-2.0,2.0,-2.0,2.0,-2.0
2025-07-21 08:58:59.260,2.2800000000000016,2280,114,0.07197192,0.22173968,0.13196854,-0.00583757,0.03363269,0.031841286,0.0,0.0,0.0,0.0,0.36347023,-0.15577677,-0.29492968,-0.3975067,-0.677554,0.20727082,0.31615254,0.5015716,0.26510385,0.22076756,0.8162367,-0.13234848,0.06150993,-0.261075,-0.017053436,-0.056587677,0.08057011,-0.024488652,0.056751765,-0.1573341,-0.00731836,-0.18803996,0.037792724,-0.11751578,2.0,-2.0,-2.0,-2.0,2.0,2.0,2.0,-2.0,2.0,-2.0,2.0,-2.0,2.0,-2.0,-2.0,-2.0,2.0,-2.0,2.0,2.0,2.0,-2.0,2.0,-2.0
2025-07-21 08:58:59.280,2.3000000000000016,2300,115,-0.048088163,0.22654662,0.11338696,0.042790733,-0.020671707,0.008465795,0.0,0.0,0.0,0.0,0.36864197,-0.28001446,-0.30063874,-0.3848676,-0.61892766,0.123487264,0.33086106,0.5133382,0.2765122,0.12823601,0.8100171,-0.1647519,0.03691109,-0.26608846,-0.059391793,-0.04500873,0.15955383,-0.28508535,-0.014350107,0.18574351,-0.031205751,-0.18292034,0.0711838,-0.06600428,2.0,-2.0,-2.0,-2.0,2.0,-2.0,2.0,2.0,2.0,-2.0,2.0,-2.0,2.0,-2.0,2.0,-2.0,2.0,-2.0,-2.0,-2.0,2.0,-2.0,2.0,-2.0
2025-07-21 08:58:59.300,2.3200000000000016,2320,116,0.030106824,-0.27163365,0.021665975,0.06061081,-0.0013356099,-0.045137014,0.0,0.0,0.0,0.0,0.36075264,-0.37338287,-0.21418904,-0.392133,-0.5518269,0.052882746,0.31505263,0.55134773,0.27602732,0.0494156,0.8253231,-0.19002822,0.08088664,-0.29080626,0.2846133,-0.07428878,0.15084477,-0.188736,-0.08421542,0.00015582636,-0.040095925,-0.2555501,-0.041763257,-0.0109636495,2.0,-2.0,2.0,-2.0,2.0,-2.0,-2.0,-2.0,2.0,-2.0,2.0,-2.0,2.0,-2.0,2.0,-2.0,2.0,-2.0,-2.0,-2.0,2.0,-2.0,2.0,-2.0
2025-07-21 08:58:59.323,2.3400000000000016,2340,117,0.039325614,-0.40877244,-0.12931319,0.073450714,0.0032850164,-0.040798813,0.0,0.0,0.0,0.0,0.35273707,-0.46715894,-0.13091312,-0.40815306,-0.47695953,-0.01861411,0.2798482,0.5362596,0.28815195,-0.011082099,0.8231723,-0.20590612,-0.03411389,-0.25410816,0.12767899,-0.08801236,0.17039934,-0.12407311,-0.13642254,0.05299436,0.07628719,-0.18472947,0.07957126,-0.06828422,2.0,-2.0,2.0,-2.0,2.0,-2.0,-2.0,-2.0,2.0,-2.0,2.0,-2.0,2.0,-2.0,2.0,-2.0,2.0,-2.0,-2.0,-2.0,2.0,-2.0,-2.0,-2.0
2025-07-21 08:58:59.340,2.3600000000000017,2360,118,0.056443077,-0.3388235,-0.14402428,0.03751673,0.0062539177,0.016540978,0.0,0.0,0.0,0.0,0.35472888,-0.52820647,-0.053244177,-0.41701558,-0.42722663,-0.08682489,0.2016294,0.5431321,0.29176566,-0.06365662,0.778596,-0.2274144,0.060614802,-0.19837475,0.21948245,0.0119194975,0.07923644,-0.07609803,-0.20464627,-0.024590846,-0.037706025,-0.06754474,-0.18591881,-0.0027766689,2.0,-2.0,2.0,-2.0,2.0,-2.0,-2.0,-2.0,2.0,-2.0,-2.0,-2.0,2.0,-2.0,2.0,-2.0,2.0,-2.0,-2.0,-2.0,2.0,-2.0,0.31333706,2.0
2025-07-21 08:58:59.360,2.3800000000000017,2380,119,0.2765153,-0.24296845,-0.16890845,0.044257794,0.07566364,0.0060329447,0.0,0.0,0.0,0.0,0.36398706,-0.59001285,0.002570027,-0.42891356,-0.38007605,-0.124303095,0.13407175,0.5251519,0.30442393,-0.12456852,0.64922637,-0.1582941,-0.031098641,-0.07851304,0.07842866,0.048220888,0.055182394,-0.17825215,-0.26413825,0.023639534,0.010764817,-0.15043056,-0.24800527,0.18576421,2.0,-2.0,2.0,-2.0,2.0,-2.0,-2.0,-2.0,2.0,-2.0,0.31333706,2.0,2.0,-2.0,2.0,-2.0,2.0,-2.0,-2.0,-2.0,-2.0,-2.0,2.0,2.0
2025-07-21 08:58:59.384,2.4000000000000017,2400,120,0.12155004,-0.070419505,-0.01535212,0.04315851,0.023731142,-0.04366251,0.0,0.0,0.0,0.0,0.36756262,-0.62800527,0.05813414,-0.42207277,-0.34401008,-0.16849768,0.07069823,0.5346596,0.23036247,-0.15702978,0.63687277,-0.07292869,0.04378743,-0.10714904,0.15455881,0.03074228,0.13805395,-0.0136999795,-0.19351658,0.0833739,-0.21260162,-0.058156304,0.12766322,0.14803626,2.0,-2.0,2.0,-2.0,2.0,-2.0,-2.0,-2.0,-2.0,-2.0,2.0,2.0,2.0,-2.0,2.0,-2.0,2.0,-2.0,-2.0,2.0,-2.0,-2.0,-2.0,2.0
2025-07-21 08:58:59.400,2.4200000000000017,2420,121,-0.0032993192,0.103338756,0.010467598,0.024246398,0.10466276,0.044767857,0.0,0.0,0.0,0.0,0.37695017,-0.6546202,0.09905038,-0.42830142,-0.28922704,-0.19701555,0.0006076954,0.58542025,0.15005456,-0.19866125,0.6135782,-0.016462142,-0.014651509,-0.13976918,0.11482351,0.055367265,0.14148174,-0.11112845,-0.13823676,0.10423433,-0.15382418,-0.06235001,-0.19226718,0.23001179,2.0,-2.0,2.0,-2.0,2.0,-2.0,-2.0,2.0,-2.0,-2.0,-2.0,2.0,2.0,2.0,2.0,-2.0,2.0,-2.0,-2.0,2.0,-2.0,-2.0,-2.0,2.0
2025-07-21 08:58:59.420,2.4400000000000017,2440,122,-0.13022092,0.03687271,-0.09874551,0.059050757,0.005723575,0.04133533,0.0,0.0,0.0,0.0,0.36354643,-0.6760993,0.12644655,-0.40919665,-0.21163036,-0.22915223,-0.051737905,0.6347826,0.0707333,-0.2186888,0.53215134,0.053667456,0.005068452,0.042853516,-0.002593046,0.091026984,0.17639707,-0.04843684,-0.19106576,0.08536777,-0.14118473,-0.008765295,-0.08014033,0.14133222,2.0,2.0,2.0,-2.0,2.0,-2.0,-2.0,2.0,-2.0,-2.0,-2.0,2.0,2.0,2.0,2.0,-2.0,-2.0,-2.0,-2.0,2.0,-2.0,-2.0,2.0,2.0
2025-07-21 08:58:59.440,2.4600000000000017,2460,123,-0.14045101,-0.1053236,-0.230804,0.006504868,0.07915544,0.048385277,0.0,0.0,0.0,0.0,0.36339787,-0.6364052,0.1523452,-0.4027294,-0.18789075,-0.24482763,-0.099684946,0.6790954,-0.0013492159,-0.24621803,0.5375813,0.09060318,-0.06395738,0.023267945,0.10729692,0.010293434,0.01700661,-0.036357034,-0.07514102,0.024579642,-0.13868858,-0.052383713,0.11267605,0.04523818,2.0,2.0,2.0,-2.0,-2.0,-2.0,-2.0,2.0,-2.0,-2.0,2.0,2.0,2.0,2.0,2.0,-2.0,-2.0,-2.0,-2.0,2.0,-2.0,-2.0,2.0,2.0
2025-07-21 08:58:59.460,2.4800000000000018,2480,124,-0.14033715,-0.22635333,-0.24343546,0.038226366,0.10673898,0.024935033,0.0,0.0,0.0,0.0,0.38099855,-0.6159863,0.17625776,-0.4041943,-0.2517649,-0.24968147,-0.14434078,0.7202952,-0.036369715,-0.25749454,0.59535736,0.12374,0.035026174,0.09070938,0.07147623,0.0066116974,-0.2960333,-0.05919449,-0.15140243,0.0013004638,-0.12860541,0.025729405,0.12738799,0.13215292,2.0,2.0,2.0,-2.0,-2.0,-2.0,-2.0,2.0,-2.0,-2.0,2.0,2.0,-2.0,2.0,-2.0,-2.0,-2.0,2.0,2.0,2.0,-2.0,-2.0,-2.0,2.0
2025-07-21 08:58:59.480,2.5000000000000018,2500,125,-0.24205165,-0.32186794,-0.15257607,0.025781961,0.049330484,0.0067202076,0.0,0.0,0.0,0.0,0.32821587,-0.52303195,0.099582344,-0.39527196,-0.3654706,-0.16508579,-0.107458435,0.7386423,-0.08343986,-0.27496248,0.59017235,0.1539815,-0.115512036,0.23035301,-0.14608562,0.025098946,-0.2545536,0.28191337,0.18203512,0.047431417,-0.11702079,-0.14208026,-0.03118948,0.09523731,-2.0,2.0,-2.0,-2.0,-2.0,2.0,2.0,2.0,-2.0,-2.0,-2.0,2.0,-2.0,2.0,-2.0,-2.0,-2.0,2.0,2.0,-2.0,2.0,2.0,-2.0,2.0
2025-07-21 08:58:59.500,2.520000000000002,2520,126,-0.073349096,0.12923847,-0.11516394,0.070986025,0.05247227,0.028182019,0.0,0.0,0.0,0.0,0.29072323,-0.44382596,0.01566478,-0.3970281,-0.4348622,-0.096816234,-0.029164357,0.6745283,-0.035487026,-0.275658,0.5667719,0.19915895,0.035967197,0.24185196,-0.12537724,0.0327618,-0.18984744,0.12412634,0.15419762,-0.22578275,0.10473522,0.061310146,0.002438926,0.06613952,-2.0,2.0,-2.0,-2.0,-2.0,2.0,2.0,-2.0,2.0,2.0,-2.0,2.0,2.0,2.0,-2.0,-2.0,-2.0,2.0,2.0,-2.0,2.0,2.0,-2.0,2.0
2025-07-21 08:58:59.521,2.540000000000002,2540,127,0.29814622,0.39079726,0.019981507,0.10282812,0.039432354,-0.0012372568,0.0,0.0,0.0,0.0,0.3054287,-0.3925628,-0.04394561,-0.38337466,-0.52400357,-0.035192374,0.043061957,0.5956271,0.018661188,-0.23088743,0.528245,0.22083254,0.0037450746,0.14029527,-0.15890212,-0.036685668,-0.1599424,0.10332298,0.122066736,-0.21948993,0.19083805,0.13020165,-0.03650277,0.048954647,2.0,2.0,-2.0,-2.0,-2.0,2.0,2.0,-2.0,2.0,2.0,-2.0,2.0,2.0,2.0,-2.0,-2.0,-2.0,2.0,2.0,-2.0,2.0,2.0,2.0,2.0
2025-07-21 08:58:59.540,2.560000000000002,2560,128,0.19738716,0.21570691,0.13844728,0.004864012,0.06651168,-0.0010989328,0.0,0.0,0.0,0.0,0.32583997,-0.34404805,-0.094786994,-0.3737046,-0.5627565,0.025496349,0.09371856,0.51757175,0.0769783,-0.1306489,0.55247295,0.24185261,0.05660842,0.1798933,-0.14227773,0.048322305,-0.13418767,0.078756995,0.0677789,-0.20285021,0.067978874,0.22760107,0.15178603,-0.007839811,2.0,2.0,-2.0,-2.0,-2.0,2.0,2.0,-2.0,2.0,2.0,2.0,2.0,2.0,2.0,-2.0,-2.0,-2.0,2.0,2.0,2.0,2.0,2.0,-2.0,2.0
2025-07-21 08:58:59.561,2.580000000000002,2580,129,-0.01224847,0.2779399,-0.041545857,0.012618169,-0.02977155,-0.0009674273,0.0,0.0,0.0,0.0,0.3364821,-0.28409755,-0.1403467,-0.38163826,-0.6082348,0.075607315,0.12765688,0.506208,0.11879281,-0.06877149,0.5467546,0.25714007,-0.03974044,0.17537256,-0.09426928,0.012597349,-0.14692056,0.1627266,0.14819163,0.12308942,0.10558476,0.15443912,-0.068127386,0.037395243,2.0,2.0,-2.0,-2.0,-2.0,2.0,2.0,2.0,2.0,2.0,-2.0,2.0,2.0,2.0,-2.0,-2.0,-2.0,2.0,2.0,-2.0,2.0,2.0,2.0,2.0
2025-07-21 08:58:59.581,2.600000000000002,2600,130,-0.01984259,-0.06693039,-0.01819065,-0.0027852177,0.02152716,-0.043890517,0.0,0.0,0.0,0.0,0.35060588,-0.2028946,-0.17873244,-0.36928195,-0.6593781,0.1283898,0.17747745,0.49446696,0.16030012,0.0009023513,0.5802103,0.25111362,-0.006633164,0.21426207,-0.09877749,0.027799498,-0.12247283,0.06894089,0.014454064,-0.14402804,0.064521685,0.11482467,0.15808426,0.059387982,2.0,2.0,-2.0,-2.0,-2.0,2.0,2.0,-2.0,2.0,2.0,2.0,2.0,2.0,2.0,-2.0,-2.0,-2.0,2.0,2.0,-2.0,2.0,2.0,-2.0,2.0
2025-07-21 08:58:59.601,2.620000000000002,2620,131,0.17253487,-0.0044836546,0.010553081,-0.009641212,0.034633346,0.033720516,0.0,0.0,0.0,0.0,0.34285653,-0.1189497,-0.2075757,-0.3784159,-0.6826484,0.15014507,0.21029541,0.44169503,0.19208728,0.065596834,0.58033985,0.2724243,0.05071718,0.17364371,-0.051357575,0.06266531,-0.015068407,0.014558388,0.037555065,-0.1754234,0.036845013,0.15038674,0.01927812,0.0037890004,2.0,2.0,-2.0,-2.0,-2.0,2.0,2.0,-2.0,2.0,2.0,-2.0,2.0,2.0,2.0,-2.0,-2.0,-2.0,2.0,2.0,2.0,2.0,2.0,-2.0,2.0
2025-07-21 08:58:59.621,2.640000000000002,2640,132,0.054194435,0.20655753,0.019604338,0.04291178,-0.036366947,0.009554703,0.0,0.0,0.0,0.0,0.3588,-0.06864832,-0.23170197,-0.37609082,-0.72115487,0.16652937,0.22080176,0.43602604,0.21396148,0.09990798,0.5578937,0.27750167,-0.0029897525,0.12989253,-0.06519153,-0.04957206,-0.07427063,0.01620571,0.11303676,0.07866155,0.111439444,0.020279707,-0.027527412,0.014985142,2.0,2.0,-2.0,-2.0,-2.0,2.0,2.0,2.0,2.0,2.0,-2.0,2.0,2.0,2.0,-2.0,-2.0,-2.0,2.0,2.0,-2.0,2.0,2.0,2.0,2.0
2025-07-21 08:58:59.641,2.660000000000002,2660,133,-0.066500515,0.031271774,-0.057274766,0.017042458,-0.031579997,0.048152167,0.0,0.0,0.0,0.0,0.3634256,0.017304322,-0.24913248,-0.3793889,-0.736635,0.20215145,0.23968576,0.4451944,0.22256659,0.12959388,0.59921455,0.29817873,-0.05111572,0.24685508,0.010509607,-0.044831887,0.0056097237,-0.02694572,0.08438471,-0.07806455,0.11775575,0.106701136,0.17550524,0.02623955,2.0,2.0,-2.0,-2.0,-2.0,2.0,2.0,-2.0,2.0,2.0,2.0,2.0,2.0,2.0,-2.0,-2.0,-2.0,2.0,2.0,-2.0,2.0,2.0,-2.0,-2.0
2025-07-21 08:58:59.661,2.680000000000002,2680,134,0.11641892,0.06280238,-0.041242935,0.024375131,0.020767279,0.006234857,0.0,0.0,0.0,0.0,0.3714763,0.10567384,-0.2821231,-0.36658892,-0.76611227,0.20043641,0.26243386,0.39392543,0.25022727,0.18062772,0.63055307,0.21271583,0.072408594,0.24520124,0.014463949,-0.07040608,0.010258258,0.026102537,0.08973456,-0.10165574,0.06815177,0.029007437,0.040841002,-0.15307258,2.0,2.0,-2.0,-2.0,-2.0,2.0,2.0,-2.0,2.0,2.0,-2.0,-2.0,2.0,-2.0,-2.0,-2.0,-2.0,2.0,2.0,2.0,2.0,2.0,2.0,-2.0
2025-07-21 08:58:59.681,2.700000000000002,2700,135,-0.040261894,0.020687707,0.0116171725,0.02650896,0.026684394,-0.0110972645,0.0,0.0,0.0,0.0,0.36076564,0.1328949,-0.28970936,-0.37963113,-0.7729006,0.21680574,0.28338397,0.40814003,0.26374412,0.19867253,0.6686387,0.12984107,-0.06600271,-0.03751885,0.028163984,-0.039384827,-0.0606013,-0.031044,0.054931536,0.068838805,0.08675016,0.00071978994,0.071139924,-0.24337621,2.0,-2.0,-2.0,-2.0,-2.0,2.0,2.0,2.0,2.0,2.0,2.0,-2.0,2.0,-2.0,-2.0,-2.0,2.0,2.0,2.0,2.0,2.0,2.0,2.0,-2.0
2025-07-21 08:58:59.701,2.720000000000002,2720,136,-0.042305887,-0.0018703978,0.15593925,-0.006088785,-0.011719688,-0.049394812,0.0,0.0,0.0,0.0,0.3769437,0.096717305,-0.2898137,-0.376393,-0.7640469,0.23108429,0.29395393,0.47688657,0.27149245,0.21948172,0.70872235,0.041864853,-0.058695693,-0.09923923,-0.014351012,-0.064894415,0.06797483,0.08635702,-0.050550222,0.13122763,0.02370175,0.09339701,0.15031697,-0.11941206,2.0,-2.0,-2.0,-2.0,2.0,2.0,2.0,2.0,2.0,2.0,2.0,-2.0,2.0,-2.0,-2.0,-2.0,2.0,2.0,2.0,-2.0,2.0,-2.0,2.0,-2.0
2025-07-21 08:58:59.721,2.740000000000002,2740,137,-0.10966139,0.026973585,0.1720792,0.013679477,-0.048566744,-0.013569069,0.0,0.0,0.0,0.0,0.36142313,0.00959963,-0.28957754,-0.37878135,-0.7510409,0.23485619,0.30290163,0.4886784,0.2751025,0.18373702,0.73328537,-0.00029801205,-0.029911907,-0.2849443,-0.018989315,-0.055982757,0.019508686,0.040066507,-0.025205573,-0.082932115,0.0911627,-0.19535218,0.03660274,-0.17950116,2.0,-2.0,-2.0,-2.0,2.0,2.0,2.0,-2.0,2.0,-2.0,2.0,-2.0,2.0,-2.0,-2.0,-2.0,2.0,2.0,2.0,2.0,2.0,-2.0,2.0,-2.0
2025-07-21 08:58:59.741,2.760000000000002,2760,138,-0.35054368,0.34676328,0.18087128,0.012884967,-0.00704322,0.0352191,0.0,0.0,0.0,0.0,0.37357542,-0.13969617,-0.28565818,-0.38071847,-0.7147664,0.24238208,0.31450084,0.51664954,0.27112567,0.086588286,0.7479288,-0.066050984,-0.035869967,-0.2976695,-0.011602246,-0.060688145,0.15489036,-0.018134436,-0.030854985,0.17908323,-0.037396736,-0.2506471,0.045908406,-0.15826757,2.0,-2.0,-2.0,-2.0,2.0,2.0,2.0,2.0,2.0,-2.0,2.0,-2.0,2.0,-2.0,2.0,-2.0,2.0,-2.0,-2.0,-2.0,2.0,-2.0,2.0,-2.0
2025-07-21 08:58:59.761,2.780000000000002,2780,139,-0.061377503,-0.44445768,-0.040883362,0.07007059,0.026941244,-0.021896955,0.0,0.0,0.0,0.0,0.36231354,-0.26264286,-0.20377964,-0.39669067,-0.62647396,0.14900447,0.30411538,0.5278198,0.27576834,0.016506737,0.75910145,-0.102711126,0.031964164,-0.33154824,0.27328622,-0.08307748,0.12431841,-0.30496782,-0.13506176,0.026291126,0.006682354,-0.11266191,-0.013189178,-0.07244576,2.0,-2.0,2.0,-2.0,2.0,-2.0,-2.0,-2.0,2.0,-2.0,2.0,-2.0,2.0,-2.0,2.0,-2.0,2.0,-2.0,-2.0,-2.0,2.0,-2.0,2.0,-2.0
2025-07-21 08:58:59.781,2.800000000000002,2800,140,0.07088334,-0.47563317,-0.037044413,0.06446658,0.010653508,0.016006516,0.0,0.0,0.0,0.0,0.362166,-0.35504708,-0.11674344,-0.40535277,-0.56892025,0.07280565,0.24772415,0.5179519,0.29157898,-0.040602483,0.7759605,-0.13311148,0.0228329,-0.16581471,0.19933268,-0.05965518,0.10485766,-0.21650542,-0.1931395,-0.04239852,0.033285998,-0.094359994,-0.029968586,-0.044930752,2.0,-2.0,2.0,-2.0,2.0,-2.0,-2.0,-2.0,2.0,-2.0,2.0,-2.0,2.0,-2.0,2.0,-2.0,2.0,-2.0,-2.0,-2.0,2.0,-2.0,2.0,-2.0
2025-07-21 08:58:59.802,2.820000000000002,2820,141,0.0500027,-0.29363358,-0.2031204,0.05506817,0.09459535,-0.01058987,0.0,0.0,0.0,0.0,0.37305745,-0.43207043,-0.044408828,-0.4058774,-0.54137516,-0.014630542,0.19839145,0.5078482,0.29660496,-0.08529427,0.7936948,-0.16470873,-0.075648256,-0.25177458,0.09834396,-0.049136836,0.06412448,-0.21257657,-0.10839811,-0.06305249,-0.030887164,-0.085687466,0.0007528962,-0.0997257,2.0,-2.0,2.0,-2.0,2.0,-2.0,-2.0,-2.0,2.0,-2.0,2.0,-2.0,2.0,-2.0,2.0,-2.0,2.0,-2.0,2.0,-2.0,2.0,-2.0,2.0,-2.0
2025-07-21 08:58:59.821,2.840000000000002,2840,142,0.08906934,0.039191324,0.027660638,0.08765756,0.026403949,-0.03474888,0.0,0.0,0.0,0.0,0.35398895,-0.51589257,0.021812063,-0.40492505,-0.48513854,-0.06703332,0.21501285,0.49724907,0.31095192,-0.13623463,0.79277116,-0.1932943,-0.010760974,-0.19479926,0.07135351,0.06082432,0.09468435,-0.18007669,0.10563783,0.034508463,-0.046375398,-0.048428617,0.037894905,-0.05952576,2.0,-2.0,2.0,-2.0,2.0,-2.0,2.0,-2.0,2.0,-2.0,2.0,-2.0,2.0,-2.0,2.0,-2.0,2.0,-2.0,-2.0,-2.0,2.0,-2.0,2.0,-2.0
2025-07-21 08:58:59.841,2.860000000000002,2860,143,0.041780356,-0.2290991,0.045874745,0.059955355,0.039439593,-0.033672873,0.0,0.0,0.0,0.0,0.3573837,-0.5780666,0.063458085,-0.42014113,-0.43376067,-0.11201728,0.20405208,0.4932026,0.32446334,-0.17746726,0.81087965,-0.20825438,0.07748972,-0.12433426,0.15781733,-0.023141136,0.16521177,-0.10860948,-0.10056198,-0.08266741,-0.023385074,-0.008801096,0.037237618,-0.03397225,2.0,-2.0,2.0,-2.0,2.0,-2.0,-2.0,-2.0,2.0,-2.0,2.0,-2.0,2.0,-2.0,2.0,-2.0,2.0,-2.0,-2.0,-2.0,2.0,-2.0,-2.0,2.0
2025-07-21 08:58:59.862,2.880000000000002,2880,144,0.19189684,-0.1928165,-0.032416638,0.054700885,0.06948804,0.024832027,0.0,0.0,0.0,0.0,0.3597122,-0.61842006,0.10463478,-0.433368,-0.3999509,-0.16952983,0.17816922,0.46843436,0.33257186,-0.20352726,0.73657924,-0.12761484,0.04226269,-0.14174701,0.07811416,-0.025701402,0.06696735,-0.07897998,-0.086191654,-0.048549756,-0.025385652,-0.13233341,-0.25788686,0.23095655,2.0,-2.0,2.0,-2.0,2.0,-2.0,-2.0,-2.0,2.0,-2.0,-2.0,2.0,2.0,-2.0,2.0,-2.0,2.0,-2.0,-2.0,2.0,-2.0,-2.0,-2.0,2.0
2025-07-21 08:58:59.882,2.900000000000002,2900,145,0.13266309,-0.029008426,-0.12765795,-0.013701857,0.11309116,0.04757687,0.0,0.0,0.0,0.0,0.36341873,-0.64836365,0.13553603,-0.4180716,-0.3746966,-0.19583955,0.1111843,0.5251172,0.22271189,-0.2323113,0.62971616,-0.060130462,0.08544527,-0.110418744,0.14702877,-0.04521531,0.14079519,-0.057061482,-0.1600955,0.21449512,-0.26370636,-0.030049827,-0.2405588,0.17253238,2.0,-2.0,2.0,-2.0,2.0,-2.0,-2.0,2.0,-2.0,-2.0,-2.0,2.0,2.0,-2.0,2.0,-2.0,2.0,-2.0,-2.0,2.0,-2.0,-2.0,2.0,2.0
2025-07-21 08:58:59.902,2.920000000000002,2920,146,-0.092149414,0.039922573,-0.03228242,0.01734772,0.14597483,-0.02424935,0.0,0.0,0.0,0.0,0.35907707,-0.6894823,0.17784157,-0.41753668,-0.3384385,-0.22937746,0.04754043,0.5901713,0.1339507,-0.25116006,0.60612035,0.0034317714,0.0021898053,-0.11600292,-0.0047445917,0.075102955,0.1342522,-0.048263364,-0.2029638,0.088618994,-0.27256823,-0.052452464,0.0043882364,0.068014756,2.0,-2.0,2.0,-2.0,2.0,-2.0,-2.0,2.0,-2.0,-2.0,2.0,2.0,2.0,2.0,2.0,-2.0,2.0,-2.0,-2.0,2.0,-2.0,-2.0,-2.0,2.0
2025-07-21 08:58:59.922,2.940000000000002,2940,147,-0.10194635,0.092814095,-0.14341989,0.032386888,0.1343557,-0.011148922,0.0,0.0,0.0,0.0,0.36532757,-0.6818028,0.18468834,-0.40551594,-0.27915806,-0.24098378,-0.016385946,0.62509376,0.0598673,-0.27504772,0.58852655,0.053986683,-0.003963239,0.016171744,0.10386069,-0.04594881,0.1346464,-0.106625095,-0.101351924,0.1512489,-0.15037623,-0.11332727,-0.08361649,0.13291182,2.0,2.0,2.0,-2.0,2.0,-2.0,-2.0,2.0,-2.0,-2.0,-2.0,2.0,2.0,2.0,2.0,-2.0,2.0,-2.0,-2.0,2.0,-2.0,-2.0,-2.0,2.0
2025-07-21 08:58:59.942,2.960000000000002,2960,148,-0.09539333,0.15428434,-0.15126468,0.071751565,0.1159322,-0.048428547,0.0,0.0,0.0,0.0,0.3672921,-0.6327047,0.20728894,-0.39972338,-0.21265619,-0.273273,-0.08252652,0.68128663,0.00451677,-0.2916745,0.5620232,0.094656706,-0.052439194,0.08724705,0.09282996,-0.03815779,0.10810513,-0.10221802,-0.14345059,0.045845028,-0.17459692,-0.11227016,-0.09882021,0.07509574,2.0,2.0,2.0,-2.0,2.0,-2.0,-2.0,2.0,-2.0,-2.0,-2.0,2.0,2.0,2.0,2.0,-2.0,-2.0,-2.0,-2.0,2.0,-2.0,-2.0,2.0,2.0
2025-07-21 08:58:59.962,2.980000000000002,2980,149,-0.15485281,-0.047800068,-0.26370096,0.049665,0.060910832,-0.021048171,0.0,0.0,0.0,0.0,0.37655905,-0.59992874,0.20607366,-0.4045093,-0.21513224,-0.2794752,-0.12626144,0.7184601,-0.04047507,-0.3041971,0.565979,0.13250257,-0.048065767,0.1887158,0.08436117,-0.04897461,-0.13846204,0.024465328,-0.057029232,0.12508808,-0.10044544,0.012253343,0.1554496,0.015036897,2.0,2.0,2.0,-2.0,-2.0,-2.0,-2.0,2.0,-2.0,-2.0,2.0,2.0,-2.0,2.0,-2.0,-2.0,-2.0,2.0,2.0,2.0,-2.0,-2.0,-2.0,2.0
2025-07-21 08:58:59.982,3.000000000000002,3000,150,-0.30518597,0.07023685,-0.19284935,0.050202478,0.09656665,0.00023863827,0.0,0.0,0.0,0.0,0.35802096,-0.5092796,0.13855474,-0.40314204,-0.2944436,-0.20767865,-0.06585295,0.73558915,-0.08250889,-0.31754485,0.5750863,0.16615972,-0.05081202,0.1632545,-0.28178504,0.019648261,-0.21467425,0.28821796,0.25619137,0.0016399187,-0.14299065,-0.042335458,-0.026050393,0.08889315,-2.0,2.0,-2.0,-2.0,-2.0,2.0,2.0,2.0,-2.0,-2.0,-2.0,2.0,-2.0,2.0,-2.0,-2.0,-2.0,2.0,2.0,-2.0,2.0,2.0,-2.0,2.0
2025-07-21 08:59:00.002,3.0200000000000022,3020,151,-0.009169071,0.11547699,-0.10040125,0.047523372,0.10347712,0.04054723,0.0,0.0,0.0,0.0,0.3413236,-0.42929417,0.045096733,-0.38099322,-0.3871247,-0.11479955,0.0010380408,0.6759792,-0.037006065,-0.3024844,0.55214065,0.19744924,0.0035086968,0.11443388,-0.12533578,0.066467516,-0.23001303,0.19837376,0.1500648,-0.19354913,0.22278902,0.12861213,-0.0034486405,0.046575535,-2.0,2.0,-2.0,-2.0,-2.0,2.0,2.0,-2.0,2.0,2.0,-2.0,2.0,2.0,2.0,-2.0,-2.0,-2.0,2.0,2.0,-2.0,2.0,2.0,-2.0,2.0
2025-07-21 08:59:00.022,3.0400000000000023,3040,152,0.30616274,0.3591656,0.03441062,0.032847825,0.08040318,-0.013323688,0.0,0.0,0.0,0.0,0.34256625,-0.3710577,-0.027154656,-0.38532668,-0.4625489,-0.051427513,0.054815084,0.5814815,0.035683345,-0.24470975,0.5047199,0.22703098,-0.011056649,0.14547324,-0.22240944,0.02546193,-0.20863776,0.089924805,0.19369563,-0.27074897,0.20242348,0.23949267,-0.06360989,0.047890075,2.0,2.0,-2.0,-2.0,-2.0,2.0,2.0,-2.0,2.0,2.0,-2.0,2.0,2.0,2.0,-2.0,-2.0,-2.0,2.0,2.0,-2.0,2.0,2.0,2.0,2.0
2025-07-21 08:59:00.042,3.0600000000000023,3060,153,0.24510662,0.2418016,0.113300025,-0.0103413025,-0.022542153,0.035149224,0.0,0.0,0.0,0.0,0.34573,-0.33062384,-0.080067605,-0.3928836,-0.5186886,0.020693358,0.09879852,0.49040616,0.080776766,-0.16199252,0.513327,0.23285633,-0.017935809,0.09038442,-0.076555386,-0.05644672,-0.19885379,0.20607837,0.1874486,-0.2035528,0.051504888,0.25176007,0.14872691,0.05894267,2.0,2.0,-2.0,-2.0,-2.0,2.0,2.0,-2.0,2.0,2.0,2.0,2.0,2.0,2.0,-2.0,-2.0,-2.0,2.0,2.0,2.0,2.0,2.0,-2.0,2.0
2025-07-21 08:59:00.062,3.0800000000000023,3080,154,-0.004563916,0.15798382,-0.08815044,0.0003214694,-0.0023981142,-0.03871614,0.0,0.0,0.0,0.0,0.3505889,-0.2654892,-0.13178939,-0.37923723,-0.5797241,0.07280146,0.15378124,0.4799419,0.11285632,-0.0735168,0.51868516,0.2440528,0.04047664,0.21834558,-0.1258997,0.085981004,-0.06566594,0.07988624,0.15504399,0.11335145,0.10235508,0.13536301,-0.12578112,0.021594152,2.0,2.0,-2.0,-2.0,-2.0,2.0,2.0,2.0,2.0,2.0,-2.0,2.0,2.0,2.0,-2.0,-2.0,-2.0,2.0,2.0,-2.0,2.0,2.0,2.0,2.0
2025-07-21 08:59:00.083,3.1000000000000023,3100,155,0.0075572603,0.05385115,0.028895719,-0.017770845,-0.014732283,-0.027392194,0.0,0.0,0.0,0.0,0.36875403,-0.16145407,-0.16173007,-0.37664804,-0.6302191,0.11053154,0.18106815,0.46115044,0.14762588,-0.005330381,0.54074997,0.2577103,0.024250902,0.22099087,-0.019747056,-0.045305133,-0.11999369,0.024334067,0.10938415,-0.15091719,0.07328128,0.19587006,0.19037299,0.049562536,2.0,2.0,-2.0,-2.0,-2.0,2.0,2.0,-2.0,2.0,2.0,2.0,2.0,2.0,2.0,-2.0,-2.0,-2.0,2.0,2.0,-2.0,2.0,2.0,-2.0,2.0
2025-07-21 08:59:00.103,3.1200000000000023,3120,156,0.14784807,0.1607926,0.036157552,0.05435389,0.02837659,-0.034564637,0.0,0.0,0.0,0.0,0.36379287,-0.074262254,-0.19651362,-0.37979305,-0.65822655,0.13525397,0.21322058,0.40797764,0.18470207,0.040852584,0.54166764,0.27357873,-0.033669654,0.21759221,-0.045667943,-0.06771109,-0.026443461,0.11133443,0.08144176,-0.14352588,0.06531234,0.083690055,-0.08087878,-0.02895582,2.0,2.0,-2.0,-2.0,-2.0,2.0,2.0,-2.0,2.0,2.0,-2.0,2.0,2.0,2.0,-2.0,-2.0,-2.0,2.0,2.0,2.0,2.0,2.0,2.0,2.0
2025-07-21 08:59:00.123,3.1400000000000023,3140,157,-0.17964569,0.032580424,-0.13601795,-0.018242562,-0.021255506,-0.00075079774,0.0,0.0,0.0,0.0,0.36198092,0.02331903,-0.23113935,-0.37857297,-0.70282906,0.16697107,0.24350043,0.41532636,0.19779736,0.092702165,0.59453344,0.28627154,0.019326413,0.2724591,-0.06332046,-0.016295148,-0.09372975,0.11894043,0.111655876,0.17850494,0.039758973,0.17699336,0.060769003,-0.006483766,2.0,2.0,-2.0,-2.0,-2.0,2.0,2.0,2.0,2.0,2.0,2.0,2.0,2.0,-2.0,-2.0,-2.0,2.0,2.0,2.0,-2.0,2.0,2.0,2.0,-2.0
2025-07-21 08:59:00.143,3.1600000000000024,3160,158,-0.011001153,0.0129863275,0.16400763,-0.021763025,0.019426724,-0.04253441,0.0,0.0,0.0,0.0,0.3624488,0.045501713,-0.24052611,-0.37277865,-0.6805745,0.18394798,0.24737743,0.4265357,0.21623279,0.14222369,0.62720907,0.19617027,-0.008141107,-0.05920075,-0.10372324,-0.05081054,0.10892299,0.016605178,0.016198019,-5.822492e-05,0.008350348,0.13242532,0.08187107,-0.19229956,2.0,-2.0,-2.0,-2.0,2.0,2.0,2.0,-2.0,2.0,2.0,2.0,-2.0,2.0,-2.0,-2.0,-2.0,2.0,2.0,2.0,2.0,2.0,2.0,2.0,-2.0
2025-07-21 08:59:00.164,3.1800000000000024,3180,159,-0.11053516,0.14964846,0.25616035,0.052190315,0.022391053,0.04457672,0.0,0.0,0.0,0.0,0.37942877,0.00791219,-0.25742915,-0.38778436,-0.67537975,0.2024958,0.27717206,0.46460783,0.23889807,0.1722671,0.67721206,0.11571301,0.009687688,-0.113171875,-0.09144416,0.03631683,0.09856179,0.040098693,0.07631201,0.13701291,0.046746455,0.11796148,0.08011523,-0.12559873,2.0,-2.0,-2.0,-2.0,2.0,2.0,2.0,2.0,2.0,2.0,2.0,-2.0,2.0,-2.0,-2.0,-2.0,2.0,2.0,2.0,-2.0,2.0,-2.0,2.0,-2.0
2025-07-21 08:59:00.183,3.2000000000000024,3200,160,-0.25299713,0.21748711,0.26326537,0.013900222,-0.01976904,-0.0077278498,0.0,0.0,0.0,0.0,0.37648344,-0.085030355,-0.25660947,-0.38748682,-0.63121355,0.20606022,0.2949177,0.47934845,0.25094184,0.1233496,0.7073922,0.039902456,0.04295587,-0.2576553,0.030671475,-0.03085335,0.13292196,-0.01229882,0.07361801,-0.10059026,0.0012538823,-0.18932632,0.049083084,-0.13427632,2.0,-2.0,-2.0,-2.0,2.0,2.0,2.0,-2.0,2.0,-2.0,2.0,-2.0,2.0,-2.0,-2.0,-2.0,2.0,-2.0,-2.0,2.0,2.0,-2.0,2.0,-2.0
2025-07-21 08:59:00.203,3.2200000000000024,3220,161,-0.12514392,-0.1357338,0.1089844,0.041060045,0.012677105,0.033148907,0.0,0.0,0.0,0.0,0.35599172,-0.22475153,-0.26399493,-0.39327925,-0.56847036,0.12538384,0.27322415,0.52089536,0.26547453,0.051280748,0.73021406,-0.013150877,0.050737374,-0.30555597,-0.04889936,-0.085302785,0.16448143,-0.18355435,-0.06730716,0.14839108,-0.03053693,-0.11577461,0.10923853,-0.19918434,2.0,-2.0,-2.0,-2.0,2.0,-2.0,-2.0,2.0,2.0,-2.0,2.0,-2.0,2.0,-2.0,2.0,-2.0,2.0,-2.0,-2.0,-2.0,2.0,-2.0,2.0,-2.0
2025-07-21 08:59:00.223,3.2400000000000024,3240,162,0.024553876,-0.23139776,-0.08137763,0.07968805,-0.044175066,-0.018753283,0.0,0.0,0.0,0.0,0.35749283,-0.3232198,-0.17395692,-0.39788812,-0.4831315,0.042895917,0.24022973,0.5511499,0.27620918,-0.018105771,0.74748766,-0.07590655,0.04016306,-0.30289996,0.18587744,0.025685407,0.18631619,-0.18038787,-0.14763103,0.019457296,0.046654567,-0.19324143,0.09786647,-0.15800467,2.0,-2.0,2.0,-2.0,2.0,-2.0,-2.0,-2.0,2.0,-2.0,2.0,-2.0,2.0,-2.0,2.0,-2.0,2.0,-2.0,-2.0,-2.0,2.0,-2.0,-2.0,-2.0
2025-07-21 08:59:00.243,3.2600000000000025,3260,163,0.27253133,-0.24575514,-0.21664336,0.08173545,0.006931102,0.045604177,0.0,0.0,0.0,0.0,0.37232816,-0.42192328,-0.10023004,-0.40663317,-0.44287154,-0.031042637,0.18312003,0.5589041,0.29142898,-0.071958944,0.7358418,-0.100404486,0.08104202,-0.23388347,0.19538932,-0.028182028,0.1358609,-0.23692903,-0.1433195,-0.075048104,-0.03217144,-0.11965093,-0.06811836,-0.10217092,2.0,-2.0,2.0,-2.0,2.0,-2.0,-2.0,-2.0,2.0,-2.0,-2.0,-2.0,2.0,-2.0,2.0,-2.0,2.0,-2.0,-2.0,-2.0,2.0,-2.0,-2.0,2.0
2025-07-21 08:59:00.263,3.2800000000000025,3280,164,0.31344596,-0.15312715,-0.24129668,-0.0028615915,-0.017595287,0.033583984,0.0,0.0,0.0,0.0,0.3707047,-0.4994302,-0.041616604,-0.41934913,-0.41658986,-0.09231222,0.10939404,0.5359785,0.28557467,-0.12645192,0.6587473,-0.048204366,0.03066424,-0.14481774,0.15480064,0.04816269,0.062071353,-0.11167676,-0.19936468,-0.11671163,0.02199105,-0.054541904,-0.1935674,0.10272453,2.0,-2.0,2.0,-2.0,2.0,-2.0,-2.0,-2.0,2.0,-2.0,-2.0,2.0,2.0,-2.0,2.0,-2.0,2.0,-2.0,-2.0,-2.0,-2.0,-2.0,-2.0,2.0
2025-07-21 08:59:00.283,3.3000000000000025,3300,165,0.43352744,-0.056191385,-0.14931154,-0.021024274,0.008399646,0.024817184,0.0,0.0,0.0,0.0,0.3858524,-0.5456345,0.011559378,-0.42469344,-0.37681964,-0.13921677,0.032100815,0.54180896,0.23125508,-0.15234123,0.5691473,0.00925586,0.029172286,-0.20860061,0.099386014,-0.083076306,0.03987772,-0.087717466,-0.10091684,0.017991358,-0.31068802,-0.07625673,-0.27875486,0.117177226,2.0,-2.0,2.0,-2.0,2.0,-2.0,-2.0,-2.0,-2.0,-2.0,-2.0,2.0,2.0,-2.0,2.0,-2.0,2.0,-2.0,-2.0,2.0,-2.0,-2.0,2.0,2.0
2025-07-21 08:59:00.303,3.3200000000000025,3320,166,-0.1432505,-0.070820704,-0.010984066,-0.052465905,0.06958937,0.04019628,0.0,0.0,0.0,0.0,0.37927318,-0.6114828,0.075486206,-0.41381645,-0.3309034,-0.16718677,-0.02991745,0.5671029,0.1363056,-0.18095103,0.5442031,0.06198494,-0.07389461,-0.041371126,0.08625984,-3.0489384e-05,0.17718072,-0.02815012,-0.12931933,0.20119496,-0.13489774,-0.07393331,0.061600532,0.122980066,2.0,-2.0,2.0,-2.0,2.0,-2.0,-2.0,2.0,-2.0,-2.0,2.0,2.0,2.0,-2.0,2.0,-2.0,2.0,-2.0,-2.0,2.0,-2.0,-2.0,-2.0,2.0
2025-07-21 08:59:00.323,3.3400000000000025,3340,167,-0.24029252,0.1513397,0.03844534,-0.014709583,0.053549647,-0.028165108,0.0,0.0,0.0,0.0,0.38714457,-0.634012,0.108448766,-0.41612056,-0.25067887,-0.2030218,-0.08250481,0.6241434,0.05744269,-0.22751135,0.53957236,0.10403587,0.024420306,-0.11002237,0.10323751,0.052512582,0.27241465,-0.12618251,-0.1431806,0.11178034,-0.118029244,-0.035786126,-0.17925093,0.060850088,2.0,-2.0,2.0,-2.0,2.0,-2.0,-2.0,2.0,-2.0,-2.0,-2.0,2.0,2.0,2.0,2.0,-2.0,2.0,-2.0,-2.0,2.0,-2.0,-2.0,2.0,2.0
2025-07-21 08:59:00.343,3.3600000000000025,3360,168,-0.28945103,-0.26051134,0.014378124,0.041415207,0.06594379,0.019312527,0.0,0.0,0.0,0.0,0.3666062,-0.63973856,0.14199087,-0.40831584,-0.15891428,-0.22953181,-0.11902438,0.6759443,0.0015791586,-0.2435923,0.5502317,0.14398481,0.036786817,0.11733876,-0.007789875,0.050640568,0.16923654,-0.035438918,-0.06809868,0.12736116,-0.10491384,-0.0059456965,0.14224946,0.098804325,2.0,2.0,2.0,-2.0,2.0,-2.0,-2.0,2.0,-2.0,-2.0,2.0,2.0,2.0,2.0,2.0,-2.0,-2.0,-2.0,-2.0,2.0,-2.0,-2.0,-2.0,2.0
2025-07-21 08:59:00.363,3.3800000000000026,3380,169,-0.041758932,-0.09006217,-0.19422701,0.031780582,0.0425288,-0.0020955275,0.0,0.0,0.0,0.0,0.37734315,-0.59383404,0.15253872,-0.41736838,-0.14580634,-0.24729368,-0.14695589,0.70851195,-0.046731398,-0.25926808,0.5331356,0.1661949,0.044155627,0.030350614,0.1026894,0.043862082,0.028119916,-0.016000245,-0.10511915,0.13053614,-0.18876836,-0.015450282,-0.11363907,0.14539427,2.0,2.0,2.0,-2.0,-2.0,-2.0,-2.0,2.0,-2.0,-2.0,-2.0,2.0,2.0,2.0,2.0,-2.0,-2.0,-2.0,-2.0,2.0,-2.0,-2.0,2.0,2.0
2025-07-21 08:59:00.384,3.4000000000000026,3400,170,-0.12582642,-0.1283188,-0.18189116,0.05020602,0.08276333,0.022650242,0.0,0.0,0.0,0.0,0.37862638,-0.5533971,0.18710402,-0.39372832,-0.19559346,-0.24989852,-0.18069038,0.7310789,-0.095831856,-0.2729604,0.5577951,0.18414979,0.0186255,0.053243134,0.117448695,0.04165655,-0.1533047,-0.09895848,-0.009205686,0.14369977,-0.021576898,0.020528479,0.20931384,-0.0017648262,2.0,2.0,2.0,-2.0,-2.0,-2.0,-2.0,2.0,-2.0,-2.0,2.0,2.0,-2.0,2.0,-2.0,-2.0,-2.0,-0.7966261,2.0,2.0,-2.0,-2.0,-2.0,2.0
2025-07-21 08:59:00.404,3.4200000000000026,3420,171,-0.13309164,-0.38433513,-0.10211495,0.029630003,0.021240894,0.0029036158,0.0,0.0,0.0,0.0,0.34669614,-0.47954434,0.0952004,-0.4030645,-0.28681454,-0.2386327,-0.15196215,0.7643417,-0.13568452,-0.29644728,0.56793994,0.21641332,-0.118646815,0.14827335,-0.2355793,-0.04321437,-0.22725895,0.05472728,0.23074885,-0.032434586,-0.08060064,-0.10398955,-0.049242113,0.103681974,-2.0,2.0,-2.0,-2.0,-2.0,-0.7966261,2.0,2.0,-2.0,-2.0,-2.0,2.0,-2.0,2.0,-2.0,-2.0,-2.0,2.0,2.0,-2.0,-2.0,2.0,-2.0,2.0
2025-07-21 08:59:00.424,3.4400000000000026,3440,172,0.11580736,-0.024079712,-0.050859775,0.110156365,0.056655843,-0.0038933416,0.0,0.0,0.0,0.0,0.31920126,-0.39522067,0.03136802,-0.39556336,-0.3864772,-0.14320844,-0.06615451,0.71173155,-0.16173364,-0.30208993,0.53532326,0.24870665,-0.12321586,0.09058452,-0.19895719,-0.012776994,-0.18470946,0.131676,0.17132539,-0.21704118,-0.05821636,0.05445913,-0.014031599,0.08335768,-2.0,2.0,-2.0,-2.0,-2.0,2.0,2.0,-2.0,-2.0,2.0,-2.0,2.0,-2.0,2.0,-2.0,-2.0,-2.0,2.0,2.0,-2.0,2.0,2.0,-2.0,2.0
2025-07-21 08:59:00.444,3.4600000000000026,3460,173,0.19636917,0.09206088,0.117228724,0.019716693,0.1313679,-0.014529072,0.0,0.0,0.0,0.0,0.2888572,-0.349824,-0.04164031,-0.38024655,-0.46987712,-0.07274961,-0.0016160923,0.58689237,-0.08513479,-0.25732207,0.5197467,0.26169938,-0.062396117,0.1475601,-0.087803155,0.023022125,-0.19594502,0.20126922,0.21842466,-0.23662621,0.14220025,0.070272155,-0.11292477,0.056667127,-2.0,2.0,-2.0,-2.0,-2.0,2.0,2.0,-2.0,2.0,2.0,-2.0,2.0,2.0,2.0,-2.0,-2.0,-2.0,2.0,2.0,-2.0,2.0,2.0,-2.0,2.0
2025-07-21 08:59:00.464,3.4800000000000026,3480,174,0.3679629,0.38449535,0.12785055,0.011537482,0.104563296,0.006630161,0.0,0.0,0.0,0.0,0.31467855,-0.31730407,-0.09158178,-0.37176353,-0.539392,-0.01136919,0.06709842,0.47329563,-0.020495819,-0.18628614,0.4649361,0.26767433,0.017520895,0.045953892,-0.08716892,0.023336254,-0.16394775,0.08591619,0.17713363,-0.35238075,0.2047905,0.22594969,-0.11725942,0.017781628,2.0,2.0,-2.0,-2.0,-2.0,2.0,2.0,-2.0,2.0,2.0,-2.0,2.0,2.0,2.0,-2.0,-2.0,-2.0,2.0,2.0,2.0,2.0,2.0,2.0,2.0
2025-07-21 08:59:00.484,3.5000000000000027,3500,175,-0.04462968,0.20871899,0.083327495,-0.042661637,0.06800633,0.02335475,0.0,0.0,0.0,0.0,0.32845852,-0.271386,-0.15067276,-0.37739852,-0.59457725,0.04452512,0.12344175,0.43663424,0.039547782,-0.09669193,0.5014274,0.2748752,0.030653594,0.15678652,-0.119698726,0.037276667,-0.17938423,0.12987727,0.14537904,0.0787493,0.16970865,0.17032698,0.11483116,-0.044110883,2.0,2.0,-2.0,-2.0,-2.0,2.0,2.0,2.0,2.0,2.0,2.0,2.0,2.0,2.0,-2.0,-2.0,-2.0,2.0,2.0,-2.0,2.0,2.0,2.0,2.0
2025-07-21 08:59:00.504,3.5200000000000027,3520,176,0.05534415,0.094409935,0.099784784,-0.039512288,-0.01906513,0.024689196,0.0,0.0,0.0,0.0,0.32259804,-0.19704819,-0.17751265,-0.3794935,-0.62654406,0.0929346,0.1442295,0.4191524,0.086369164,-0.016224993,0.55540055,0.27932334,0.07369423,0.26952094,-0.09632882,0.06795458,-0.13046397,0.15125616,0.02855894,-0.13688761,0.17430995,0.21367419,0.07997428,0.075765245,2.0,2.0,-2.0,-2.0,-2.0,2.0,2.0,-2.0,2.0,2.0,2.0,2.0,2.0,2.0,-2.0,-2.0,-2.0,2.0,2.0,2.0,2.0,2.0,-2.0,2.0
2025-07-21 08:59:00.524,3.5400000000000027,3540,177,-0.1078398,0.14417836,-0.020605482,-0.0340665,-0.009448973,-0.038723152,0.0,0.0,0.0,0.0,0.33269534,-0.08526729,-0.20505135,-0.36742744,-0.6593272,0.11809241,0.1885644,0.44499716,0.1177331,0.036360305,0.54590946,0.29035074,0.0050223023,0.21194823,-0.047474574,-0.0075397654,-0.065595806,0.13843684,0.107974365,0.13923773,0.14259966,0.13353954,-0.080854654,-0.036126904,2.0,2.0,-2.0,-2.0,-2.0,2.0,2.0,2.0,2.0,2.0,-2.0,2.0,2.0,2.0,-2.0,-2.0,-2.0,2.0,2.0,-2.0,2.0,2.0,2.0,2.0
2025-07-21 08:59:00.544,3.5600000000000027,3560,178,-0.18393989,0.12759219,0.006229039,0.009860971,0.045991577,0.0057160123,0.0,0.0,0.0,0.0,0.33376002,0.03984989,-0.22158875,-0.38313985,-0.69130254,0.14992777,0.2239305,0.45133525,0.15167835,0.0980796,0.5708602,0.29430512,-0.041836828,0.41425353,0.021451132,0.025660248,0.0029736492,0.103098355,0.12095694,-0.023836168,0.100190714,0.06602932,0.1711915,0.017152911,2.0,2.0,-2.0,-2.0,-2.0,2.0,2.0,-2.0,2.0,2.0,2.0,2.0,2.0,-2.0,-2.0,-2.0,-2.0,2.0,2.0,-2.0,2.0,2.0,2.0,-2.0
2025-07-21 08:59:00.564,3.5800000000000027,3580,179,0.07709325,0.021455044,0.13132863,0.03857575,-0.03415065,-0.010606695,0.0,0.0,0.0,0.0,0.3470563,0.11675262,-0.236678,-0.3835981,-0.715735,0.17441568,0.2455698,0.3963677,0.19504212,0.13120908,0.6228759,0.21074647,-0.053955853,0.104830906,-0.05153547,0.045992512,-0.116767116,-0.0049318797,0.05910405,-0.0987212,0.058279663,0.10683131,0.16807848,-0.2538403,2.0,-2.0,-2.0,-2.0,-2.0,2.0,2.0,-2.0,2.0,2.0,2.0,-2.0,2.0,-2.0,-2.0,-2.0,2.0,2.0,2.0,2.0,2.0,2.0,2.0,-2.0
2025-07-21 08:59:00.584,3.6000000000000028,3600,180,-0.13894582,-0.01676044,0.10882715,-0.011029993,-0.0115566505,-0.02995155,0.0,0.0,0.0,0.0,0.35213614,0.10265611,-0.2575313,-0.37959316,-0.73774475,0.20309822,0.2511271,0.38314494,0.20688197,0.16778253,0.65846694,0.12925562,-0.07051102,-0.19768816,-0.02109537,0.014542197,-0.0010624003,-0.024318524,0.04883672,0.18304017,0.10012691,0.110473916,0.07441795,-0.13058627,2.0,-2.0,-2.0,-2.0,2.0,2.0,2.0,2.0,2.0,2.0,2.0,-2.0,2.0,-2.0,-2.0,-2.0,2.0,2.0,2.0,-2.0,2.0,2.0,2.0,-2.0
2025-07-21 08:59:00.605,3.6200000000000028,3620,181,0.11844183,0.034481816,0.23023048,-0.010350929,0.054068394,-0.02125687,0.0,0.0,0.0,0.0,0.34362233,0.007800205,-0.26557848,-0.38156542,-0.72074056,0.19672087,0.2719052,0.38916647,0.21234727,0.20971982,0.6969633,0.050721303,0.05154776,-0.30712256,-0.06848924,-0.009208874,-0.033822145,0.06082807,0.11252435,-0.14354622,0.07413359,0.043976933,0.043853078,-0.21472768,2.0,-2.0,-2.0,-2.0,2.0,2.0,2.0,-2.0,2.0,2.0,2.0,-2.0,2.0,2.0,-2.0,-2.0,2.0,2.0,2.0,2.0,2.0,2.0,2.0,-2.0
2025-07-21 08:59:00.625,3.640000000000003,3640,182,-0.17897922,0.053352114,0.08725315,0.07485396,-0.03961595,-0.019377327,0.0,0.0,0.0,0.0,0.3608435,-0.032620657,-0.280096,-0.3833596,-0.7142741,0.22341134,0.3038163,0.42294294,0.24263075,0.22598357,0.72472847,-0.006177853,0.07896127,0.087052174,-0.028792955,-0.018298939,0.09014969,-0.013820221,0.06290369,0.13022766,0.04659183,0.08775197,0.088801354,-0.10024067,2.0,2.0,-2.0,-2.0,2.0,2.0,2.0,2.0,2.0,2.0,2.0,-2.0,2.0,-2.0,-2.0,-2.0,-2.0,2.0,2.0,-2.0,2.0,2.0,2.0,-2.0
2025-07-21 08:59:00.645,3.660000000000003,3660,183,0.1211729,0.08717157,0.15480796,0.067346185,0.0027611272,0.025708029,0.0,0.0,0.0,0.0,0.34870398,-0.04558139,-0.28987208,-0.39762262,-0.71910024,0.23457827,0.31141612,0.4336678,0.25576866,0.25295556,0.7586213,-0.056195937,0.057325747,-0.085273266,-0.060830858,0.00035458486,-0.12971574,-0.01244099,0.019395865,-0.018322174,0.02949512,0.046476148,0.02725349,-0.18837212,2.0,-2.0,-2.0,-2.0,-2.0,2.0,2.0,-2.0,2.0,2.0,2.0,-2.0,2.0,2.0,-2.0,-2.0,2.0,2.0,2.0,2.0,2.0,2.0,2.0,-2.0
2025-07-21 08:59:00.665,3.680000000000003,3680,184,-0.22938865,0.09792255,0.071052976,0.053316135,-0.02023625,-0.0008935452,0.0,0.0,0.0,0.0,0.35080808,-0.044779632,-0.29041156,-0.37695527,-0.7231301,0.24685398,0.3295673,0.46462223,0.25399196,0.26614416,0.76389766,-0.10444757,0.026221441,0.078013144,-0.018737212,0.019519972,0.057648394,0.06250779,-0.023514414,0.19934446,0.0636889,-0.0136722205,0.0853979,-0.027144324,2.0,2.0,-2.0,-2.0,2.0,2.0,2.0,2.0,2.0,2.0,2.0,-2.0,2.0,-2.0,-2.0,-2.0,-2.0,2.0,2.0,-2.0,2.0,2.0,2.0,-2.0
2025-07-21 08:59:00.685,3.700000000000003,3700,185,0.028947506,0.031153828,0.076455235,0.08259738,-0.030009512,0.01572979,0.0,0.0,0.0,0.0,0.37323204,-0.05103059,-0.2916209,-0.38458014,-0.73758936,0.24134782,0.31948245,0.46620056,0.27097046,0.28091753,0.7896212,-0.13787468,0.067349575,-0.07782814,0.0043850215,-0.031590723,-0.010769366,-0.0027872983,-0.010495562,-0.15212777,-0.02567378,-0.010050316,0.081240274,-0.01015172,2.0,-2.0,-2.0,-2.0,-2.0,2.0,2.0,-2.0,2.0,2.0,2.0,-2.0,2.0,2.0,-2.0,-2.0,2.0,2.0,2.0,2.0,2.0,2.0,2.0,-2.0
2025-07-21 08:59:00.705,3.720000000000003,3720,186,-0.10056287,0.07133664,-0.05048768,0.032421578,-0.033078756,-0.009812735,0.0,0.0,0.0,0.0,0.36290112,-0.03710609,-0.30356437,-0.37866497,-0.73450845,0.24397147,0.33464622,0.4663619,0.27899837,0.2842322,0.8145889,-0.17009643,-0.023467684,0.16907798,0.022515092,0.012214853,0.08827825,0.051261287,-0.011536618,0.12809914,-0.036937762,0.0115088625,0.07757975,-0.0105239,2.0,2.0,-2.0,-2.0,2.0,2.0,2.0,2.0,2.0,2.0,2.0,-2.0,2.0,-2.0,-2.0,-2.0,-2.0,2.0,2.0,-2.0,2.0,2.0,2.0,-2.0
2025-07-21 08:59:00.725,3.740000000000003,3740,187,0.11078544,-0.10213846,0.07890044,0.030547442,-0.055557363,0.038288184,0.0,0.0,0.0,0.0,0.36835086,-0.031957548,-0.3165991,-0.3881244,-0.7469669,0.25262648,0.3385223,0.46968782,0.2743658,0.29243612,0.80891883,-0.1829439,-0.06205205,-0.09451546,-0.03865057,-0.02013509,0.027701698,0.076731466,-0.020091532,-0.12659577,0.015281811,0.031804502,0.002968147,-0.04102551,2.0,-2.0,-2.0,-2.0,-2.0,2.0,2.0,-2.0,2.0,2.0,2.0,-2.0,2.0,-2.0,-2.0,-2.0,2.0,2.0,2.0,2.0,2.0,2.0,2.0,-2.0
2025-07-21 08:59:00.745,3.760000000000003,3760,188,-0.05941442,0.10778314,0.04864239,0.06401903,-0.06670968,-0.024004366,0.0,0.0,0.0,0.0,0.37302035,-0.10806717,-0.31431735,-0.3867717,-0.7538799,0.2673697,0.3387726,0.49685276,0.2729527,0.31325927,0.82939446,-0.20232873,-0.04025686,-0.27379438,-0.022315186,0.07266043,0.018872274,-0.02787325,0.036571532,0.13136864,0.06269681,-0.02487377,-0.021778911,-0.044597372,2.0,-2.0,-2.0,-2.0,2.0,2.0,2.0,2.0,2.0,2.0,2.0,-2.0,2.0,-2.0,-2.0,-2.0,2.0,2.0,2.0,-2.0,2.0,-2.0,2.0,-2.0
