openverse-orca/OrcaGym/log/simulation_log_20250719_151815.csv
timestamp,sim_time,physics_step,control_step,imu_angle_roll,imu_angle_pitch,imu_angle_yaw,imu_angular_velocity_roll,imu_angular_velocity_pitch,imu_angular_velocity_yaw,imu_acc_x,imu_acc_y,imu_acc_z,fl_joint1_pos,fl_joint1_vel,fl_joint1_torque,fl_joint2_pos,fl_joint2_vel,fl_joint2_torque,fl_joint3_pos,fl_joint3_vel,fl_joint3_torque,fr_joint1_pos,fr_joint1_vel,fr_joint1_torque,fr_joint2_pos,fr_joint2_vel,fr_joint2_torque,fr_joint3_pos,fr_joint3_vel,fr_joint3_torque,hl_joint1_pos,hl_joint1_vel,hl_joint1_torque,hl_joint2_pos,hl_joint2_vel,hl_joint2_torque,hl_joint3_pos,hl_joint3_vel,hl_joint3_torque,hr_joint1_pos,hr_joint1_vel,hr_joint1_torque,hr_joint2_pos,hr_joint2_vel,hr_joint2_torque,hr_joint3_pos,hr_joint3_vel,hr_joint3_torque,fl_force_x,fl_force_y,fl_force_z,fr_force_x,fr_force_y,fr_force_z,hl_force_x,hl_force_y,hl_force_z,hr_force_x,hr_force_y,hr_force_z,fl_hip_action,fl_thigh_action,fl_calf_action,fr_hip_action,fr_thigh_action,fr_calf_action,hl_hip_action,hl_thigh_action,hl_calf_action,hr_hip_action,hr_thigh_action,hr_calf_action
2025-07-19 15:18:15.322,0.0,0,0,0.0042474857,-0.03375668,0.04574864,0.03263701,-0.0006143463,0.0019674902,0.0,0.0,0.0,0.0,0.0047962503,-0.0032363546,0.006716333,0.0018671538,0.0057269963,0.0051678075,0.00045990667,-0.009573467,0.0063051414,0.0010986798,-0.00693376,0.0070901085,-0.056836244,0.057529427,-0.04921814,0.0001255896,-0.027160628,0.012566046,0.057075426,-0.07287815,0.017027792,0.04262021,0.030445963,-0.022899527,0.0,0.0,0.0,0.0,0.0,0.0,0.0,0.0,0.0,0.0,0.0,0.0,0.124897115,-2.0,-1.2718968,0.17001107,-2.0,-0.286268,-0.08870313,1.4728305,0.11629538,-0.6866675,-0.18434577,-0.60935324
2025-07-19 15:18:15.333,0.02,20,1,-0.008551487,0.05947791,-0.0737916,0.0029731132,0.007631969,0.036889743,0.0,0.0,0.0,0.0,0.008239971,-0.028961303,-0.035809733,0.0048665004,-0.021841425,-0.013083571,-0.00662233,0.04105916,0.011261176,-0.01797352,-0.018964311,-0.01816716,0.03418536,-0.12654993,-0.1413485,0.052391425,-0.1131208,0.047753803,0.018696396,0.17337352,0.07186882,-0.039000098,-0.10725429,-0.05479923,0.124897115,-2.0,-1.2718968,0.17001107,-2.0,-0.286268,-0.08870313,1.4728305,0.11629538,-0.6866675,-0.18434577,-0.60935324,-0.9409917,-1.7566984,-0.022225253,-0.14300856,-1.7849245,-1.5130631,0.56571794,-0.986768,1.9418775,0.62163097,1.6386607,0.370122
2025-07-19 15:18:15.354,0.04,40,2,0.2880737,0.0852936,0.038076933,0.062198028,-0.036218528,0.04622302,0.0,0.0,0.0,0.0,-0.014868738,-0.04717919,-0.029544637,-0.005917636,-0.07532258,-0.05378397,0.005597165,0.059646696,0.06111315,0.0054216385,0.019981429,0.0041960073,-0.11670425,-0.16749047,-0.059758365,-0.07117621,-0.11799736,-0.06703665,0.10764939,-0.114511296,0.06763304,0.0858057,0.22434239,0.070579804,-0.9409917,-1.7566984,-0.022225253,-0.14300856,-1.7849245,-1.5130631,0.56571794,-0.986768,1.9418775,0.62163097,1.6386607,0.370122,0.631277,-0.23636702,-1.8056555,0.20981756,-1.1771324,0.29641524,0.25635162,0.7433358,2.0,-0.99612606,-0.2905143,1.6695163
2025-07-19 15:18:15.376,0.06,60,3,-0.104914166,-0.046307873,-0.08583698,-0.013423295,0.00083647267,-0.03357818,0.0,0.0,0.0,0.0,0.0110673,-0.06804505,-0.079136536,-0.01135732,-0.123478144,-0.038352374,0.020200552,0.07292037,0.09648633,-0.017462105,0.031008199,0.0430866,0.009361424,0.009951099,-0.03291507,0.012269903,-0.1376723,0.104433626,0.0454881,0.087355845,0.13390388,-0.080300346,-0.036852513,0.14796796,0.631277,-0.23636702,-1.8056555,0.20981756,-1.1771324,0.29641524,0.25635162,0.7433358,2.0,-0.99612606,-0.2905143,1.6695163,0.41897884,-1.2233272,-0.19894522,-0.41929287,1.3338815,1.6989278,0.6931694,-2.0,2.0,-1.347239,0.63140535,1.2662132
2025-07-19 15:18:15.396,0.08,80,4,-0.032138754,-0.06800364,0.14506811,0.031379048,-0.03883782,-0.03291735,0.0,0.0,0.0,0.0,0.022480454,-0.12856299,-0.074210055,-0.019271348,-0.15712406,-0.0033104152,0.02596424,0.048841268,0.13771908,-0.06414759,0.042893562,0.055911314,-0.021835335,-0.26188943,0.065766476,-0.09038104,0.031801097,0.088757984,0.10978506,-0.090703405,0.09175292,-0.12984698,0.118030615,0.023370521,0.41897884,-1.2233272,-0.19894522,-0.41929287,1.3338815,1.6989278,0.6931694,-2.0,2.0,-1.347239,0.63140535,1.2662132,0.94250804,0.47843164,1.6790386,0.26977155,-0.70222723,2.0,-0.06440536,-1.0915555,2.0,-1.7769823,-1.0493114,1.4339348
2025-07-19 15:18:15.416,0.1,100,5,-0.11435524,0.07990236,0.038409624,0.000820835,-0.056639653,0.031283885,0.0,0.0,0.0,0.0,0.04712534,-0.1467201,-0.02138172,-0.024463091,-0.18157008,0.040157106,0.03442793,0.026109826,0.1598959,-0.09460937,0.0017625634,0.08763245,0.058619164,0.016280022,0.18193516,-0.06048393,-0.015461038,0.05386337,0.06654311,-0.15731649,0.056856412,-0.038716182,-0.27100545,0.076490924,0.94250804,0.47843164,1.6790386,0.26977155,-0.70222723,2.0,-0.06440536,-1.0915555,2.0,-1.7769823,-1.0493114,1.4339348,1.0065663,-0.33502525,0.68121576,-1.2896326,-1.5530823,1.643722,0.5259216,0.7565931,2.0,-2.0,1.4084588,1.845745
2025-07-19 15:18:15.436,0.12000000000000001,120,6,0.022176262,-0.07174606,0.032057073,0.0148787135,-0.025024667,-0.02478212,0.0,0.0,0.0,0.0,0.05678027,-0.13074096,0.010846998,-0.040719673,-0.2413197,0.073521644,0.047667,0.019046666,0.18142289,-0.13052915,0.007796115,0.1260102,0.07845459,0.010072468,0.0056448136,-0.11241077,-0.16188847,0.09591274,0.09148723,0.026760837,0.07046921,-0.06503141,0.10765659,0.08938711,1.0065663,-0.33502525,0.68121576,-1.2896326,-1.5530823,1.643722,0.5259216,0.7565931,2.0,-2.0,1.4084588,1.845745,1.0281816,-0.7443517,1.8398428,-1.2828116,0.03659609,2.0,1.4852983,-0.9585699,2.0,-1.6194586,-1.3188419,2.0
2025-07-19 15:18:15.458,0.14,140,7,-0.08167868,-0.108731404,0.14604254,0.018598283,0.017132835,-0.019306265,0.0,0.0,0.0,0.0,0.06820066,-0.15751675,0.041248184,-0.06642107,-0.25196305,0.10595003,0.090253785,0.0130258715,0.20441836,-0.16809177,-0.027735375,0.164843,0.016821828,-0.036242403,0.070204444,-0.13250884,-0.03735386,0.12780122,0.06754381,-0.041590676,0.11180667,-0.06758004,-0.15364997,0.06883698,1.0281816,-0.7443517,1.8398428,-1.2828116,0.03659609,2.0,1.4852983,-0.9585699,2.0,-1.6194586,-1.3188419,2.0,1.5414051,-0.6208475,1.7578418,-1.4667028,-0.976081,2.0,1.6770085,-0.081518486,2.0,-2.0,-0.9628632,2.0
2025-07-19 15:18:15.476,0.16,160,8,-0.15535215,-0.039266337,-0.05711052,-0.009389015,-0.009673177,-0.025823662,0.0,0.0,0.0,0.0,0.09057745,-0.17619744,0.08941279,-0.09301682,-0.27813306,0.15619114,0.11476095,0.014500168,0.21236467,-0.1881046,-0.073513344,0.18096253,0.076398954,-0.010685734,0.03181336,-0.06283609,-0.020925587,0.09399773,0.027426628,0.024589164,0.084249005,-0.07551814,-0.09607935,0.047184005,1.5414051,-0.6208475,1.7578418,-1.4667028,-0.976081,2.0,1.6770085,-0.081518486,2.0,-2.0,-0.9628632,2.0,1.1553154,-0.46789068,1.967227,-2.0,-0.89567375,2.0,2.0,-1.5117565,2.0,-2.0,0.6774442,2.0
2025-07-19 15:18:15.496,0.18,180,9,0.118653886,-0.09075833,0.11521677,0.009381646,-0.021223616,0.007871486,0.0,0.0,0.0,0.0,0.11386693,-0.19268401,0.10907757,-0.14716564,-0.29582432,0.17876652,0.1475,-0.02482426,0.2393482,-0.21411864,-0.08183165,0.2065929,0.09977123,0.022880768,0.042719316,-0.1069328,-0.006234136,0.12898374,0.03300832,-0.019214503,0.08886796,-0.022388652,0.15815853,-0.008587305,1.1553154,-0.46789068,1.967227,-2.0,-0.89567375,2.0,2.0,-1.5117565,2.0,-2.0,0.6774442,2.0,1.5250871,-0.7617231,2.0,-1.8338428,-2.0,2.0,2.0,-1.5936236,2.0,-2.0,-1.6840322,2.0
2025-07-19 15:18:15.516,0.19999999999999998,200,10,0.14028376,0.2275849,0.11717726,-0.008359847,-0.0016133088,-0.033831596,0.0,0.0,0.0,0.0,0.13460194,-0.20943573,0.13774064,-0.17955011,-0.35452655,0.1974799,0.18319595,-0.08291469,0.26021245,-0.24456438,-0.091244034,0.22630137,-0.011550162,-0.06440609,0.069303915,-0.12766722,-0.2819667,0.03951535,0.06500099,-0.21982896,0.040994838,0.004402199,-0.13957122,0.10932447,1.5250871,-0.7617231,2.0,-1.8338428,-2.0,2.0,2.0,-1.5936236,2.0,-2.0,-1.6840322,2.0,2.0,0.76944584,1.3146327,-2.0,-0.5760522,2.0,2.0,2.0,2.0,-2.0,0.10653327,2.0
2025-07-19 15:18:15.541,0.21999999999999997,220,11,0.22992224,-0.056950476,0.08880583,0.010122264,0.021490125,0.036697168,0.0,0.0,0.0,0.0,0.16602331,-0.1950033,0.15147494,-0.2063175,-0.39337996,0.21313636,0.21884151,-0.08752284,0.26024753,-0.26537737,-0.09892364,0.23357221,0.09472341,0.1995869,0.017482916,-0.072569,0.08656387,0.006342014,0.09229413,0.028807735,0.03985025,-0.11988098,0.1189917,0.055829976,2.0,0.76944584,1.3146327,-2.0,-0.5760522,2.0,2.0,2.0,2.0,-2.0,0.10653327,2.0,1.5808352,-0.30478334,2.0,-1.5661098,-0.7006146,2.0,1.8134717,-0.29304683,2.0,-2.0,-1.7952845,2.0
2025-07-19 15:18:15.557,0.23999999999999996,240,12,0.0039997646,0.07667563,0.026322948,0.07342489,-0.025099374,-0.017820679,0.0,0.0,0.0,0.0,0.19241185,-0.17875665,0.17765768,-0.21958123,-0.37326753,0.2231066,0.2357157,-0.10149513,0.2609651,-0.2724463,-0.10762958,0.2580706,0.05372688,0.06716534,0.07954234,-0.09351528,-0.04842154,0.03878458,-0.034604054,0.0218181,-0.032693643,-0.042315893,0.001063779,0.03410216,1.5808352,-0.30478334,2.0,-1.5661098,-0.7006146,2.0,1.8134717,-0.29304683,2.0,-2.0,-1.7952845,2.0,1.4924924,-0.5768842,1.6164936,-1.9728196,-0.4224055,2.0,2.0,0.05665569,2.0,-2.0,-1.2566468,2.0
2025-07-19 15:18:15.576,0.25999999999999995,260,13,-0.088367276,0.05994938,0.00041254182,0.041798063,-0.005131432,0.015579084,0.0,0.0,0.0,0.0,0.20664448,-0.18527493,0.19841902,-0.22858441,-0.3677134,0.22451498,0.24182777,-0.075485736,0.26703647,-0.28867644,-0.1275659,0.26523954,-0.036305223,-0.005894655,-0.0017850136,-0.10888121,0.03659066,0.018052896,0.09639927,0.05335351,0.06878191,0.0012574993,-0.08021214,0.031746216,1.4924924,-0.5768842,1.6164936,-1.9728196,-0.4224055,2.0,2.0,0.05665569,2.0,-2.0,-1.2566468,2.0,1.0024203,-0.23108394,1.902528,-2.0,-0.5548217,2.0,2.0,-1.1231791,2.0,-2.0,0.37680417,2.0
2025-07-19 15:18:15.596,0.27999999999999997,280,14,-0.05207349,-0.13401932,0.18200174,0.01871658,0.0048100823,0.035438724,0.0,0.0,0.0,0.0,0.20371054,-0.17675966,0.20685396,-0.2549072,-0.34582663,0.24757941,0.27677953,-0.09575417,0.28627333,-0.3054307,-0.10441662,0.27016056,-0.018024523,-0.026153537,0.051937398,-0.016056556,0.119954415,0.021460602,0.044175077,-0.19160174,0.0077782613,0.01807299,0.111009344,-0.07205707,1.0024203,-0.23108394,1.902528,-2.0,-0.5548217,2.0,2.0,-1.1231791,2.0,-2.0,0.37680417,2.0,1.9224279,-0.29702932,1.7522225,-1.923556,-2.0,2.0,1.8003266,0.3861376,2.0,-2.0,-1.2425429,2.0
2025-07-19 15:18:15.616,0.3,300,15,-0.15351446,-0.02770768,-0.23996978,-0.02293989,-0.0014566274,-0.019945942,0.0,0.0,0.0,0.0,0.22774853,-0.16867635,0.20688197,-0.26803845,-0.35377118,0.2560586,0.27901098,-0.09771842,0.2884764,-0.31360695,-0.11067528,0.27799636,0.06026045,0.081694424,0.007307822,-0.02505735,-0.07857051,0.034134097,-0.045058697,0.13825968,-0.043470412,-0.028015627,-0.041664135,0.018089615,1.9224279,-0.29702932,1.7522225,-1.923556,-2.0,2.0,1.8003266,0.3861376,2.0,-2.0,-1.2425429,2.0,0.24175164,-1.3492086,1.6518543,-2.0,0.33579767,2.0,2.0,-1.9621221,2.0,-2.0,1.5897222,2.0
2025-07-19 15:18:15.641,0.32,320,16,0.17797744,0.09216926,0.17941,-0.02960136,-0.047974057,0.0034940778,0.0,0.0,0.0,0.0,0.20854472,-0.19348237,0.22211397,-0.27600014,-0.36613485,0.26512915,0.29371655,-0.111630134,0.28440154,-0.31750885,-0.117175624,0.2755432,-0.050162256,-0.10707525,0.068823524,-0.048341047,0.14671336,0.037732083,-0.001176393,-0.091286436,0.016714413,-0.054138217,0.08013903,0.037118427,0.24175164,-1.3492086,1.6518543,-2.0,0.33579767,2.0,2.0,-1.9621221,2.0,-2.0,1.5897222,2.0,1.144371,-0.83238924,2.0,-1.5742708,-2.0,2.0,1.5369205,-0.1916553,2.0,-2.0,-0.8813025,2.0
2025-07-19 15:18:15.658,0.34,340,17,0.046150472,0.18707275,-0.17719828,-0.011316179,-0.012850796,-0.009286422,0.0,0.0,0.0,0.0,0.21267444,-0.21565148,0.22682634,-0.29302257,-0.35222858,0.27085045,0.28782055,-0.12604663,0.29326716,-0.33088866,-0.13155916,0.27844453,-0.037271284,-0.0772674,0.029495241,-0.042360645,-0.066125765,0.03633459,-0.07412474,0.0693358,0.046687026,-0.015897566,-0.10588581,-0.030798566,1.144371,-0.83238924,2.0,-1.5742708,-2.0,2.0,1.5369205,-0.1916553,2.0,-2.0,-0.8813025,2.0,0.5924921,-0.7888636,1.5217795,-2.0,-0.43704233,2.0,2.0,-1.1495388,2.0,-2.0,2.0,2.0
2025-07-19 15:18:15.677,0.36000000000000004,360,18,0.039375905,-0.12301771,0.16980104,-0.004792808,-0.030333655,-0.04288231,0.0,0.0,0.0,0.0,0.2003495,-0.23525566,0.22908384,-0.30206734,-0.3462414,0.2710493,0.30700526,-0.17148432,0.29647517,-0.32950273,-0.114144534,0.2719643,-0.031218339,-0.10038574,-0.062070128,-0.04616563,0.13207914,-0.050519783,0.048187315,-0.14760101,-0.006802206,-0.046794336,0.112011984,0.04956053,0.5924921,-0.7888636,1.5217795,-2.0,-0.43704233,2.0,2.0,-1.1495388,2.0,-2.0,2.0,2.0,1.4727955,0.07902719,1.9951222,-2.0,-2.0,2.0,1.6271545,0.6982745,2.0,-2.0,-0.45116854,2.0
2025-07-19 15:18:15.697,0.38000000000000006,380,19,-0.038024675,-0.06779149,-0.30875057,0.052352473,-0.064294845,0.031155042,0.0,0.0,0.0,0.0,0.21848671,-0.22628865,0.24538583,-0.30281702,-0.37173527,0.2841713,0.30258253,-0.17370611,0.29780123,-0.3464305,-0.09482405,0.2838209,0.030459737,0.14841382,0.042921253,-0.053323463,-0.08038116,0.048337013,-0.05583143,0.104613155,-0.01377801,-0.023809649,-0.06984262,0.062557414,1.4727955,0.07902719,1.9951222,-2.0,-2.0,2.0,1.6271545,0.6982745,2.0,-2.0,-0.45116854,2.0,-0.028279282,-1.7653316,1.3608391,-2.0,0.8974211,2.0,2.0,-1.9142703,2.0,-1.944328,1.9319166,2.0
2025-07-19 15:18:15.717,0.4000000000000001,400,20,0.21111912,0.036378723,0.23631601,0.0011038831,-0.068591364,-0.043175295,0.0,0.0,0.0,0.0,0.20354436,-0.2252046,0.23461235,-0.31997195,-0.36761886,0.2772707,0.30917585,-0.18709125,0.29830775,-0.35674822,-0.07697253,0.27651823,-0.12849444,-0.09695958,-0.035732623,0.0116857765,0.05137677,-0.027586875,0.0659511,-0.068970546,0.08658457,0.06495504,0.11485404,0.0037687381,-0.028279282,-1.7653316,1.3608391,-2.0,0.8974211,2.0,2.0,-1.9142703,2.0,-1.944328,1.9319166,2.0,0.9300679,-0.893032,2.0,-1.1123693,-1.3892367,2.0,1.4170631,0.40905726,2.0,-2.0,-1.3726691,2.0
2025-07-19 15:18:15.741,0.4200000000000001,420,21,-0.11099223,0.052589454,-0.16238998,0.0713908,-0.01889577,-0.042642336,0.0,0.0,0.0,0.0,0.19753823,-0.25551018,0.24064459,-0.31427243,-0.3616388,0.2910958,0.31613794,-0.17974721,0.28943688,-0.34526256,-0.08563361,0.28780553,0.019257028,-0.085217945,-0.010943261,0.028816769,-0.10490173,0.055550072,-0.06996383,0.09306943,-0.064148985,-0.045582402,-0.08573496,0.0042637545,0.9300679,-0.893032,2.0,-1.1123693,-1.3892367,2.0,1.4170631,0.40905726,2.0,-2.0,-1.3726691,2.0,0.5701408,0.1437792,1.0333505,-2.0,0.70062196,2.0,2.0,-0.5274902,2.0,-2.0,0.9174522,2.0
2025-07-19 15:18:15.757,0.4400000000000001,440,22,-0.021901831,-0.24218069,0.11384743,0.04007211,-0.030186437,0.023564275,0.0,0.0,0.0,0.0,0.18778378,-0.23545502,0.22841044,-0.3199726,-0.3378618,0.296082,0.3121263,-0.16442268,0.30350828,-0.3563857,-0.094555445,0.29524285,0.021848684,0.13103452,-0.071824536,-0.05128054,0.23153055,-0.021873172,-0.0042138584,-0.035386898,-0.05357318,-0.017079081,0.09939848,-0.0061521814,0.5701408,0.1437792,1.0333505,-2.0,0.70062196,2.0,2.0,-0.5274902,2.0,-2.0,0.9174522,2.0,0.61618483,-1.0145037,1.4198892,-1.2984775,-2.0,2.0,1.5250269,-0.86087894,2.0,-1.7846209,-1.2918035,2.0
2025-07-19 15:18:15.777,0.46000000000000013,460,23,-0.018804664,0.1825718,-0.0437328,-0.013066168,-0.0040014233,0.017675348,0.0,0.0,0.0,0.0,0.18932444,-0.2307124,0.22682759,-0.31189695,-0.33495167,0.28563294,0.30799463,-0.20074283,0.29673976,-0.36065012,-0.11049898,0.30224356,0.010953174,-0.12204179,-0.007812621,0.018723527,-0.03585013,-0.057014547,-0.015211739,-0.055770315,0.019332387,-0.04113746,-0.14040929,0.0019609965,0.61618483,-1.0145037,1.4198892,-1.2984775,-2.0,2.0,1.5250269,-0.86087894,2.0,-1.7846209,-1.2918035,2.0,1.0975227,0.34056264,0.8669712,-2.0,-1.8687562,2.0,2.0,0.80927265,2.0,-2.0,1.4382678,2.0
2025-07-19 15:18:15.797,0.48000000000000015,480,24,-0.0056463336,-0.13869382,-0.19469139,0.024845097,0.004622232,-0.030772168,0.0,0.0,0.0,0.0,0.178091,-0.21874908,0.209243,-0.31670514,-0.3700401,0.30784693,0.31262276,-0.16166466,0.2958512,-0.35240778,-0.087918654,0.29452217,0.0076636854,0.14490378,-0.0383885,0.00674928,-0.15120561,0.054434754,0.034150474,0.21887183,-0.02011138,0.06520155,0.16444226,-0.069399394,1.0975227,0.34056264,0.8669712,-2.0,-1.8687562,2.0,2.0,0.80927265,2.0,-2.0,1.4382678,2.0,-0.006947018,-0.85297626,1.4905542,-1.8191792,1.9375216,2.0,1.9994897,-2.0,2.0,-0.44905975,0.7544349,2.0
2025-07-19 15:18:15.822,0.5000000000000001,500,25,0.077467486,-0.078030966,0.18866764,0.07632756,-0.0665994,-0.04734668,0.0,0.0,0.0,0.0,0.16447233,-0.23707893,0.20002891,-0.31196222,-0.3753327,0.2992593,0.32820433,-0.16887105,0.302602,-0.32400054,-0.025734073,0.2888213,-0.059826843,-0.025290651,0.00540468,0.05093975,0.111433245,0.07548969,-0.0033107612,-0.13769597,0.030492436,0.12294371,0.19083561,-0.07414271,-0.006947018,-0.85297626,1.4905542,-1.8191792,1.9375216,2.0,1.9994897,-2.0,2.0,-0.44905975,0.7544349,2.0,0.5603844,-0.6650645,0.4071886,-0.55135196,-0.9660392,2.0,1.2227689,-0.3887267,2.0,-1.4150239,-1.8567499,2.0
2025-07-19 15:18:15.837,0.5200000000000001,520,26,-0.08313806,0.07027745,-0.09728527,0.06529622,-0.067894325,0.032068256,0.0,0.0,0.0,0.0,0.15578097,-0.24039645,0.176927,-0.29501897,-0.37514994,0.29496017,0.3217841,-0.16462833,0.30836126,-0.31655872,-0.017914789,0.29385522,0.0292238,-0.02798372,-0.057739265,0.06426261,-0.048380677,0.045628916,-0.006701829,0.049401775,0.011903285,0.03834346,-0.1317665,-0.030172437,0.5603844,-0.6650645,0.4071886,-0.55135196,-0.9660392,2.0,1.2227689,-0.3887267,2.0,-1.4150239,-1.8567499,2.0,0.298268,0.17297058,-0.13938475,-2.0,0.8168582,2.0,2.0,-1.2702537,2.0,-2.0,0.8128232,2.0
2025-07-19 15:18:15.862,0.5400000000000001,540,27,0.06113197,-0.1263396,0.25287893,0.023129847,-0.011060973,0.023437383,0.0,0.0,0.0,0.0,0.14208575,-0.20538928,0.13802049,-0.31322885,-0.3497967,0.30303666,0.33160385,-0.2050505,0.3119908,-0.32516658,0.0052237865,0.29054958,-0.051745716,0.17491719,-0.13588838,-0.018540123,0.109523974,0.0044134506,0.10375423,-0.07499574,0.05772036,-0.02246885,0.13702217,-0.082672946,0.298268,0.17297058,-0.13938475,-2.0,0.8168582,2.0,2.0,-1.2702537,2.0,-2.0,0.8128232,2.0,0.48046184,-1.0076401,1.1202863,-0.61586666,-2.0,2.0,1.196135,-0.39828205,2.0,-1.8793727,-2.0,2.0
2025-07-19 15:18:15.878,0.5600000000000002,560,28,-0.11275179,0.14421713,-0.18238729,0.012759529,-0.0016376623,0.004463796,0.0,0.0,0.0,0.0,0.14659286,-0.21789242,0.14277552,-0.30056483,-0.3726704,0.29440784,0.32103527,-0.19215666,0.29351884,-0.32792285,0.01103341,0.2911789,-0.03370528,-0.13642476,0.08802863,0.08144429,-0.05732074,0.06761337,-0.0018718815,0.03771453,-0.057241555,-0.04585274,-0.07744632,0.019485263,0.48046184,-1.0076401,1.1202863,-0.61586666,-2.0,2.0,1.196135,-0.39828205,2.0,-1.8793727,-2.0,2.0,0.46413943,0.28123683,0.08112199,-2.0,0.61138535,2.0,2.0,-0.34391367,2.0,-1.9926258,0.47628474,2.0
2025-07-19 15:18:15.897,0.5800000000000002,580,29,0.10093877,-0.16138296,-0.03959793,0.06694102,-0.08593976,-0.034539115,0.0,0.0,0.0,0.0,0.12893721,-0.19122195,0.12670831,-0.31392148,-0.3593255,0.3059483,0.31998274,-0.17960648,0.3033075,-0.33388397,0.020478655,0.29175046,-0.046166413,0.089174755,-0.06059679,0.018034182,-0.0042073606,0.040837824,0.054739896,0.013166341,0.071025565,-0.08350406,0.15153168,-0.019429974,0.46413943,0.28123683,0.08112199,-2.0,0.61138535,2.0,2.0,-0.34391367,2.0,-1.9926258,0.47628474,2.0,0.0052141175,-0.66865027,0.92447144,-1.376492,0.890466,2.0,1.4970264,-2.0,2.0,-0.011528458,-0.7020787,2.0
2025-07-19 15:18:15.917,0.6000000000000002,600,30,-0.051071078,0.16054095,0.22935559,-0.00953586,0.00030075116,-0.034355346,0.0,0.0,0.0,0.0,0.12862481,-0.2115368,0.118738115,-0.3084902,-0.33004528,0.29532292,0.32615682,-0.21692118,0.29583365,-0.30746886,0.032156583,0.30935505,-0.04324282,0.013478798,-0.024551583,0.06531646,0.12333505,-0.0410865,-0.008245145,-0.092789926,0.05021243,0.09640732,0.00037890076,0.077757545,0.0052141175,-0.66865027,0.92447144,-1.376492,0.890466,2.0,1.4970264,-2.0,2.0,-0.011528458,-0.7020787,2.0,0.92153966,-0.6840269,-0.10725544,-0.72927,-2.0,2.0,0.90127486,0.6022247,2.0,-2.0,-1.7910376,2.0
2025-07-19 15:18:16.068,0.6200000000000002,620,31,-0.1281826,0.220053,-0.2894456,0.064557925,-0.067511216,0.0017783428,0.0,0.0,0.0,0.0,0.12718694,-0.21335994,0.10385686,-0.29085484,-0.3560185,0.3024375,0.3200004,-0.2225047,0.30377927,-0.32108673,-0.02379705,0.3090095,0.05972841,-0.036640372,0.0042761606,0.0682446,-0.039274223,-0.048672255,0.003528153,0.08785004,-0.07954604,-0.07991887,-0.13281249,0.056231942,0.92153966,-0.6840269,-0.10725544,-0.72927,-2.0,2.0,0.90127486,0.6022247,2.0,-2.0,-1.7910376,2.0,-0.7238215,-0.28125566,0.043426044,-2.0,1.6618447,2.0,2.0,-1.8935971,2.0,-1.3339384,1.4689348,2.0
2025-07-19 15:18:16.088,0.6400000000000002,640,32,0.23170453,-0.10716874,0.11160029,0.06975134,-0.021833632,-0.031568535,0.0,0.0,0.0,0.0,0.09113282,-0.20817232,0.084254034,-0.30704623,-0.34038806,0.28389823,0.31181058,-0.2482062,0.30235502,-0.29311457,-0.02503474,0.3137097,-0.034637302,-0.01361961,0.0037382827,-0.09319344,0.18763337,-0.0007618791,0.061911963,-0.13111848,0.032461587,0.030670144,0.087869145,-0.009035739,-0.7238215,-0.28125566,0.043426044,-2.0,1.6618447,2.0,2.0,-1.8935971,2.0,-1.3339384,1.4689348,2.0,-0.07495243,-1.0507673,0.04205347,-1.0841267,-2.0,2.0,0.6919447,-0.65616125,2.0,-0.3138682,0.55631244,2.0
2025-07-19 15:18:16.112,0.6600000000000003,660,33,-0.0016457954,-0.027983129,-0.039795194,-0.00711849,-0.03944967,-0.0349617,0.0,0.0,0.0,0.0,0.07442946,-0.23167826,0.06353763,-0.29387775,-0.330611,0.2889452,0.30225882,-0.26334167,0.2949813,-0.26558727,0.016193664,0.30881727,0.016535696,-0.14278771,-0.060771484,0.07609434,-0.08316221,0.034067236,-0.06684726,0.022643784,-0.059300657,0.06386617,0.0373345,-0.016992114,-0.07495243,-1.0507673,0.04205347,-1.0841267,-2.0,2.0,0.6919447,-0.65616125,2.0,-0.3138682,0.55631244,2.0,0.21285877,1.0650265,-0.485614,-1.9949598,-0.7161623,2.0,1.0597699,-0.6399293,2.0,-0.99373174,0.3046768,2.0
2025-07-19 15:18:16.128,0.6800000000000003,680,34,-0.025453396,-0.033305917,-0.03657498,-0.006947624,0.0048496174,0.045433823,0.0,0.0,0.0,0.0,0.070927724,-0.21110974,0.03355258,-0.2958647,-0.33209002,0.2946331,0.2768841,-0.27617085,0.30283564,-0.25597975,0.038436096,0.30960095,-0.07355144,0.16901323,-1.1895424e-05,-0.084061064,-0.019370181,-0.057587,-0.08606841,0.012763646,0.045818087,0.028163932,0.01899705,-0.00485873,0.21285877,1.0650265,-0.485614,-1.9949598,-0.7161623,2.0,1.0597699,-0.6399293,2.0,-0.99373174,0.3046768,2.0,0.3518976,-0.55178064,0.3573926,-0.99856985,-0.85594773,2.0,1.0550336,-1.0559744,2.0,-0.21684763,-0.21315755,2.0
2025-07-19 15:18:16.148,0.7000000000000003,700,35,-0.08396681,0.15393709,0.08967587,0.05556755,-0.06441018,-0.04160244,0.0,0.0,0.0,0.0,0.07249053,-0.20934394,0.04741505,-0.29781762,-0.3473445,0.30537972,0.28975758,-0.28524235,0.29383105,-0.22235934,0.021128278,0.30735415,0.025375606,-0.07162442,0.040543653,-0.0027288606,-0.0142560825,-0.017958477,-0.029968806,-0.0760841,0.025441527,0.048619624,-0.04343522,-0.0346961,0.3518976,-0.55178064,0.3573926,-0.99856985,-0.85594773,2.0,1.0550336,-1.0559744,2.0,-0.21684763,-0.21315755,2.0,0.9140806,0.8897206,-0.2800561,-1.6236093,-1.5480222,2.0,1.3012882,0.83585984,2.0,-1.9344432,-0.7121694,2.0
2025-07-19 15:18:16.168,0.7200000000000003,720,36,-0.0035736014,0.019132247,-0.26705652,0.016288085,-0.050442796,0.039521974,0.0,0.0,0.0,0.0,0.09379415,-0.16473371,0.022009827,-0.28436866,-0.3714365,0.30507943,0.27336013,-0.28842556,0.29390818,-0.24492729,-0.028843585,0.30719528,0.09272862,0.099813245,-0.10283414,-0.023511725,-0.119568035,-0.05093909,0.0018930064,0.14595948,-0.039730348,-0.048028007,-0.182866,-0.047611456,0.9140806,0.8897206,-0.2800561,-1.6236093,-1.5480222,2.0,1.3012882,0.83585984,2.0,-1.9344432,-0.7121694,2.0,-0.6952313,-0.61881024,0.436913,-2.0,1.4305427,2.0,2.0,-2.0,2.0,-0.5663286,2.0,2.0
2025-07-19 15:18:16.192,0.7400000000000003,740,37,0.10638199,0.00077959587,0.31048343,0.01170135,-0.035110697,-0.032064892,0.0,0.0,0.0,0.0,0.06891933,-0.17278284,0.0282106,-0.30968532,-0.37137607,0.29808626,0.2947796,-0.2989757,0.30888817,-0.24102683,-0.019870128,0.2898323,-0.034464583,0.0030761412,-0.06154478,0.040100303,0.18634614,0.07531048,0.034517597,-0.13065895,0.00024698707,-0.0337844,0.06467235,-0.048719093,-0.6952313,-0.61881024,0.436913,-2.0,1.4305427,2.0,2.0,-2.0,2.0,-0.5663286,2.0,2.0,0.66562563,-1.125733,0.22726917,-0.9501902,-2.0,2.0,0.42473528,1.3457578,2.0,-1.9025818,-1.0542526,2.0
2025-07-19 15:18:16.208,0.7600000000000003,760,38,-0.049154617,0.15247895,-0.17092977,-0.015780898,-0.024430094,0.01346845,0.0,0.0,0.0,0.0,0.084246434,-0.20157129,0.020735469,-0.30301663,-0.3597895,0.29206994,0.26432475,-0.29633823,0.29361817,-0.2627827,-0.05522443,0.30588514,0.073585935,-0.1785844,0.019140748,0.111884914,-0.11037574,-0.052420545,-0.014334491,0.111532606,-0.05254608,0.014770564,-0.2157996,0.080359146,0.66562563,-1.125733,0.22726917,-0.9501902,-2.0,2.0,0.42473528,1.3457578,2.0,-1.9025818,-1.0542526,2.0,-0.17658994,0.8111507,0.6268811,-2.0,0.5233648,2.0,2.0,0.46019673,2.0,-1.7882875,1.0953431,1.8144659
2025-07-19 15:18:16.228,0.7800000000000004,780,39,-0.027322674,-0.3107793,0.021214098,-0.02009077,-0.06364032,-0.004340339,0.0,0.0,0.0,0.0,0.0720545,-0.19013387,0.03522304,-0.29567438,-0.34889582,0.3045085,0.27507076,-0.22377506,0.3086384,-0.2651266,-0.047866646,0.29330245,0.011187315,0.094568975,-0.045606427,0.009159324,0.073708154,0.062230233,0.006569797,0.21112819,0.08149553,0.016977485,0.1968682,0.0024445078,-0.17658994,0.8111507,0.6268811,-2.0,0.5233648,2.0,2.0,0.46019673,2.0,-1.7882875,1.0953431,1.8144659,-0.03639386,-0.09949277,1.519053,-1.3268363,0.5426748,2.0,0.7320314,-2.0,2.0,-0.18119904,-1.5249376,2.0
2025-07-19 15:18:16.248,0.8000000000000004,800,40,0.03130173,-0.085351124,-0.041364443,-0.020061057,-0.06691574,0.04114814,0.0,0.0,0.0,0.0,0.053064875,-0.17146002,0.06036333,-0.29017717,-0.257825,0.29234725,0.27043104,-0.18287173,0.31117067,-0.25377476,-0.041591454,0.30616906,0.031014385,0.07601444,0.09450293,-0.0052961996,0.24927838,0.057162356,-0.020903548,0.030702366,0.001413033,0.0060563316,0.026046691,-0.018879976,-0.03639386,-0.09949277,1.519053,-1.3268363,0.5426748,2.0,0.7320314,-2.0,2.0,-0.18119904,-1.5249376,2.0,-0.29622933,-2.0,-0.04134818,-1.6833372,-2.0,2.0,1.6995853,-1.1705116,2.0,-1.2891141,-0.043592382,1.5091763
2025-07-19 15:18:16.268,0.8200000000000004,820,41,0.119577914,0.16224486,0.11667518,0.013280508,-0.05317585,0.04634155,0.0,0.0,0.0,0.0,0.042302016,-0.19365613,0.040281374,-0.2907886,-0.21699385,0.3051222,0.2655228,-0.2145846,0.30826813,-0.23274085,-0.0462066,0.29993564,-0.07367517,-0.19385888,0.02938627,0.008853822,-0.0363897,-0.06482613,-0.018983535,-0.057995543,-0.063373335,0.035731774,0.012503748,-0.025331689,-0.29622933,-2.0,-0.04134818,-1.6833372,-2.0,2.0,1.6995853,-1.1705116,2.0,-1.2891141,-0.043592382,1.5091763,0.6909568,0.4678408,0.27612364,-2.0,-2.0,2.0,1.2524981,0.8817814,2.0,-1.9882513,-0.14682947,2.0
2025-07-19 15:18:16.288,0.8400000000000004,840,42,-0.15836805,-0.039125673,-0.054365914,0.076050185,-0.0030335407,0.026141318,0.0,0.0,0.0,0.0,0.051350318,-0.19691382,0.04827296,-0.30379528,-0.25149295,0.3008865,0.2554248,-0.20728175,0.30260253,-0.25840008,-0.053659845,0.2964883,0.02659509,0.07616315,0.055335477,-0.02973234,-0.13909616,-0.06744313,-0.04231704,0.1408006,0.07029709,-0.035382904,-0.0243477,0.042625375,0.6909568,0.4678408,0.27612364,-2.0,-2.0,2.0,1.2524981,0.8817814,2.0,-1.9882513,-0.14682947,2.0,0.28735062,-0.13568045,1.2694452,-1.9755217,-0.8649782,2.0,1.7933362,-0.8990574,2.0,-1.4290477,0.056309413,2.0
2025-07-19 15:18:16.313,0.8600000000000004,860,43,0.00730198,0.032709565,0.007030189,-0.022496808,0.013215405,0.00709285,0.0,0.0,0.0,0.0,0.059240736,-0.16335316,0.061637536,-0.3094644,-0.26262817,0.30952656,0.27339473,-0.18402448,0.31025302,-0.253911,-0.039605487,0.29538268,0.0047332086,0.036929626,0.08125658,-0.074953325,-0.08823286,0.009181503,-0.055974454,-0.08086928,0.055414774,-0.043044988,0.060820352,0.033697184,0.28735062,-0.13568045,1.2694452,-1.9755217,-0.8649782,2.0,1.7933362,-0.8990574,2.0,-1.4290477,0.056309413,2.0,0.87581104,-0.62988603,0.68030936,-2.0,-1.4765978,2.0,1.8934823,-0.41110384,2.0,-2.0,-0.51232886,2.0
2025-07-19 15:18:16.329,0.8800000000000004,880,44,-0.027077468,0.041277308,-0.07558547,0.012978418,-0.041297063,-0.022505837,0.0,0.0,0.0,0.0,0.06216771,-0.17983647,0.07127187,-0.31945914,-0.31589058,0.29956225,0.27350184,-0.19585752,0.3074875,-0.26814225,-0.06264629,0.30678156,0.11244642,-0.088645905,0.040218353,0.059687763,-0.133099,0.069027826,-0.048700914,-0.06271081,0.013206922,-0.070066065,-0.017829766,0.028714085,0.87581104,-0.62988603,0.68030936,-2.0,-1.4765978,2.0,1.8934823,-0.41110384,2.0,-2.0,-0.51232886,2.0,0.6368653,0.293822,0.769525,-2.0,-0.8765142,2.0,2.0,-0.31168342,2.0,-2.0,0.78499997,2.0
2025-07-19 15:18:16.349,0.9000000000000005,900,45,0.042298224,-0.13234706,0.0034752518,-0.014149737,-0.012039689,0.046183884,0.0,0.0,0.0,0.0,0.06970162,-0.16419937,0.06823625,-0.32478535,-0.33661255,0.31683525,0.30216646,-0.1815032,0.3090122,-0.29380965,-0.041786946,0.29228517,0.04747143,0.053463895,0.044447754,-0.07717102,-0.08274253,-0.053278767,0.08144762,0.07521362,0.040241376,0.009532051,0.14600489,0.013304655,0.6368653,0.293822,0.769525,-2.0,-0.8765142,2.0,2.0,-0.31168342,2.0,-2.0,0.78499997,2.0,0.591389,-0.51336795,1.4959226,-1.777991,0.38313606,2.0,1.8152164,-1.819896,2.0,-1.485725,-1.2560438,2.0
2025-07-19 15:18:16.370,0.9200000000000005,920,46,-0.04404705,0.0629546,0.017183252,0.06569992,-0.030125726,0.029616559,0.0,0.0,0.0,0.0,0.08182121,-0.18069023,0.08214186,-0.32103786,-0.31573737,0.30262846,0.30164555,-0.19562592,0.31404257,-0.29998994,-0.061424065,0.288681,-0.05152175,-0.113013275,0.013042178,0.04348372,0.085088305,0.045824904,-0.0009858833,-0.016741395,0.0030321926,-0.0034257562,-0.07822065,-0.031784978,0.591389,-0.51336795,1.4959226,-1.777991,0.38313606,2.0,1.8152164,-1.819896,2.0,-1.485725,-1.2560438,2.0,0.8035349,-0.4826495,0.73674697,-2.0,-2.0,2.0,2.0,-0.26814646,2.0,-2.0,0.9852109,2.0
2025-07-19 15:18:16.391,0.9400000000000005,940,47,0.030471193,-0.022574425,-0.054026917,0.05225086,-0.030944902,-0.016645283,0.0,0.0,0.0,0.0,0.089489624,-0.17516069,0.08902629,-0.3281495,-0.34004274,0.30883712,0.3091901,-0.17749983,0.30895317,-0.30918318,-0.040663652,0.2975259,-0.04874132,0.049513925,0.029557355,-0.039447263,-0.12231595,-0.0047891946,0.09064877,0.091828726,-0.05767849,-0.04461951,0.09404587,0.04861155,0.8035349,-0.4826495,0.73674697,-2.0,-2.0,2.0,2.0,-0.26814646,2.0,-2.0,0.9852109,2.0,0.5552593,-0.9370204,1.4837284,-2.0,0.03908345,2.0,2.0,-1.8725044,2.0,-1.6958467,0.08993483,2.0
2025-07-19 15:18:16.409,0.9600000000000005,960,48,0.11688425,0.07403955,0.13086481,0.0042518876,-0.017937567,0.047104172,0.0,0.0,0.0,0.0,0.08584847,-0.20739824,0.10841878,-0.32836217,-0.35389674,0.31226838,0.32854894,-0.21240753,0.31965414,-0.30303538,-0.02703736,0.30111724,-0.045603544,-0.102443606,0.1081072,-0.0370786,0.12166797,0.024739556,0.033728946,-0.18386412,0.039834846,0.0011912169,0.049849212,0.030591054,0.5552593,-0.9370204,1.4837284,-2.0,0.03908345,2.0,2.0,-1.8725044,2.0,-1.6958467,0.08993483,2.0,1.4705725,-0.22909041,0.6947937,-2.0,-2.0,2.0,1.745696,0.6900548,2.0,-2.0,-0.59300023,2.0
2025-07-19 15:18:16.429,0.9800000000000005,980,49,-0.097532764,0.005649166,-0.2926449,0.05307712,-0.065910004,-0.027410347,0.0,0.0,0.0,0.0,0.11592081,-0.21038501,0.10988506,-0.3298495,-0.37127367,0.30824664,0.32787326,-0.20643485,0.30384174,-0.30838686,-0.039461024,0.30261353,0.103439175,-0.012545416,0.00498098,0.006533655,-0.121331014,0.05391039,-0.04699038,0.10908647,-0.018939588,-0.06464822,-0.053460896,0.023019977,1.4705725,-0.22909041,0.6947937,-2.0,-2.0,2.0,1.745696,0.6900548,2.0,-2.0,-0.59300023,2.0,-0.58338606,-0.507961,0.7472153,-2.0,1.1892798,2.0,2.0,-2.0,2.0,-1.4045786,2.0,2.0
2025-07-19 15:18:16.449,1.0000000000000004,1000,50,0.13902856,-0.10825584,0.19886658,0.014185471,-0.01260413,0.011621705,0.0,0.0,0.0,0.0,0.11804627,-0.20380297,0.1019967,-0.33529118,-0.35357314,0.2916351,0.31759423,-0.24371336,0.30888397,-0.3035324,-0.012632387,0.28595018,-0.08832055,-0.0021909655,-0.013099431,-0.06268437,0.04484605,-0.050713222,0.058721703,-0.20367117,-0.015906189,-0.046649843,0.06364079,-0.029985914,-0.58338606,-0.507961,0.7472153,-2.0,1.1892798,2.0,2.0,-2.0,2.0,-1.4045786,2.0,2.0,0.8239769,-0.7277917,0.6637905,-0.9868426,-1.3525763,2.0,1.0636452,0.83224714,2.0,-1.688373,-0.98030174,2.0
2025-07-19 15:18:16.471,1.0200000000000005,1020,51,-0.0581918,0.082504265,-0.22011983,0.03832832,0.0047913976,-0.02410014,0.0,0.0,0.0,0.0,0.115182735,-0.21969882,0.09474869,-0.3264105,-0.34894097,0.2916804,0.32155946,-0.26684847,0.30222443,-0.31066528,-0.039320692,0.29470816,0.031653393,-0.04544326,0.05147634,-0.0027816957,-0.093029626,-0.022401761,-0.073047,0.05192373,-0.013421413,-0.020822253,-0.089261346,0.066664495,0.8239769,-0.7277917,0.6637905,-0.9868426,-1.3525763,2.0,1.0636452,0.83224714,2.0,-1.688373,-0.98030174,2.0,-0.0410235,-0.26355892,0.19757771,-2.0,1.4393052,2.0,2.0,-0.74942243,2.0,-1.4582572,0.892813,2.0
2025-07-19 15:18:16.492,1.0400000000000005,1040,52,0.10015126,-0.154088,0.08190201,0.0052005425,-0.077101156,0.013015091,0.0,0.0,0.0,0.0,0.108438104,-0.1987565,0.08541323,-0.32436013,-0.32961175,0.29573348,0.3257658,-0.2571604,0.31298196,-0.30665344,-0.0148205375,0.30161947,-0.062691286,0.02332201,-0.014627105,0.021954821,0.21808374,-0.041363556,-0.0030203392,-0.05128984,0.03230476,-0.0072390516,0.07548901,-0.028842079,-0.0410235,-0.26355892,0.19757771,-2.0,1.4393052,2.0,2.0,-0.74942243,2.0,-1.4582572,0.892813,2.0,0.22060516,-0.9585332,0.7642314,-1.3436509,-2.0,2.0,0.9199456,-0.8177426,2.0,-0.5119197,-0.099974684,2.0
2025-07-19 15:18:16.509,1.0600000000000005,1060,53,-0.017981969,0.0901106,-0.03718275,0.022132441,-0.036217038,0.0008030635,0.0,0.0,0.0,0.0,0.09625252,-0.22118592,0.086340345,-0.32026964,-0.31354243,0.30460835,0.30959883,-0.28680298,0.30986822,-0.27899417,-0.02526544,0.30314213,-0.07787997,-0.12702248,0.02101189,-0.054638047,0.015012214,0.009765115,-0.08964641,-0.038094524,0.063432515,0.025716577,0.017158173,-0.053074915,0.22060516,-0.9585332,0.7642314,-1.3436509,-2.0,2.0,0.9199456,-0.8177426,2.0,-0.5119197,-0.099974684,2.0,0.21002004,0.350684,0.06998155,-2.0,-1.8851674,2.0,1.7333335,0.29993176,2.0,-1.445686,0.37110052,2.0
2025-07-19 15:18:16.529,1.0800000000000005,1080,54,0.10851406,-0.086971566,-0.20989199,0.04442608,0.018843591,0.0017424176,0.0,0.0,0.0,0.0,0.091526896,-0.21708861,0.06394365,-0.3278256,-0.3720667,0.30667067,0.30542177,-0.26798454,0.29588562,-0.28169024,0.007920173,0.30358076,-0.002590009,0.07470437,0.018275356,0.05468428,-0.14797054,0.034978893,0.05900484,0.10925614,0.0628075,-0.008299301,0.022181585,-0.055841535,0.21002004,0.350684,0.06998155,-2.0,-1.8851674,2.0,1.7333335,0.29993176,2.0,-1.445686,0.37110052,2.0,-0.52985924,-0.6761212,0.27194864,-1.9642447,1.3579441,2.0,1.7973597,-2.0,2.0,-0.0378631,1.3044429,2.0
2025-07-19 15:18:16.627,1.1000000000000005,1100,55,0.025559288,-0.012302582,0.23750053,0.054728936,0.018777585,0.020291146,0.0,0.0,0.0,0.0,0.07095776,-0.2094619,0.06786856,-0.3297769,-0.36905786,0.30903256,0.31691307,-0.26797435,0.29799634,-0.25610343,0.055557117,0.28442192,-0.09238008,-0.08413393,-0.075261794,0.044490416,0.10650742,-0.03642687,0.057677295,-0.2002355,0.026175756,0.13220929,0.08258634,-0.051019873,-0.52985924,-0.6761212,0.27194864,-1.9642447,1.3579441,2.0,1.7973597,-2.0,2.0,-0.0378631,1.3044429,2.0,0.678395,-0.3482238,-0.45847812,-0.9562625,-1.7117051,2.0,0.59809226,1.1081319,2.0,-1.1733135,-0.8662263,2.0
2025-07-19 15:18:16.695,1.1200000000000006,1120,56,-0.11174919,0.050556917,-0.20501563,0.052499965,-0.030838603,-0.008664001,0.0,0.0,0.0,0.0,0.08495011,-0.18888332,0.044935994,-0.32409495,-0.35501382,0.30866703,0.2871699,-0.2861812,0.3053627,-0.24005151,0.06332146,0.29806915,-0.0011827636,-0.034130156,-0.11458316,0.04217444,-0.06822945,0.00634555,-0.11566092,0.0011998615,-0.07381119,-0.0645081,-0.13100988,-0.017283054,0.678395,-0.3482238,-0.45847812,-0.9562625,-1.7117051,2.0,0.59809226,1.1081319,2.0,-1.1733135,-0.8662263,2.0,-0.33815852,0.3064261,-0.6915795,-2.0,0.8444363,2.0,1.8856018,-0.53775394,2.0,-0.794644,0.88273287,1.9018484
2025-07-19 15:18:16.715,1.1400000000000006,1140,57,-0.08638299,-0.22482678,0.18119386,0.019080121,-0.0023761417,0.00044530706,0.0,0.0,0.0,0.0,0.07079254,-0.15715344,0.0026009667,-0.3151144,-0.34424147,0.29604915,0.30782172,-0.26687884,0.305307,-0.24433511,0.07449967,0.27990684,-0.0948564,0.15686055,-0.13973817,-0.085483946,0.09291071,-0.041901905,0.029197617,-0.0057692514,-0.022192538,-0.006895054,0.063390255,0.03869934,-0.33815852,0.3064261,-0.6915795,-2.0,0.8444363,2.0,1.8856018,-0.53775394,2.0,-0.794644,0.88273287,1.9018484,0.4253273,-1.1424463,0.13105232,-0.8080142,-0.921033,2.0,0.34989533,-0.5003954,2.0,-0.67513263,-1.8224688,2.0
2025-07-19 15:18:16.736,1.1600000000000006,1160,58,-0.053960588,0.16164283,-0.015315506,0.02022626,-0.026037682,0.0043193884,0.0,0.0,0.0,0.0,0.06344499,-0.16293663,0.018222917,-0.30302882,-0.35036716,0.29680896,0.2827102,-0.26013792,0.30094966,-0.23981853,0.07776277,0.29947695,-0.0455491,-0.1088941,0.0707347,0.071020715,0.042072173,-3.0222724e-05,-0.08649691,-0.0037057272,-0.008979554,-0.045615695,0.016501164,0.04418845,0.4253273,-1.1424463,0.13105232,-0.8080142,-0.921033,2.0,0.34989533,-0.5003954,2.0,-0.67513263,-1.8224688,2.0,0.41395363,-0.2537437,-0.15779278,-2.0,-0.694193,2.0,1.4909626,0.28787977,2.0,-1.9372905,-1.8316846,1.9734669
2025-07-19 15:18:16.760,1.1800000000000006,1180,59,-0.011613378,0.051878452,-0.16397583,0.041027438,-0.0006545321,-0.030912502,0.0,0.0,0.0,0.0,0.08172864,-0.15392183,0.0044899755,-0.31501684,-0.3373071,0.30321875,0.28053665,-0.2220787,0.28616434,-0.23890887,0.0361611,0.29746926,0.01660805,0.04566506,-7.290422e-05,0.017928336,0.0705468,0.04439439,-0.019421516,0.07210465,0.0020568445,-0.05428079,-0.16132438,0.019820334,0.41395363,-0.2537437,-0.15779278,-2.0,-0.694193,2.0,1.4909626,0.28787977,2.0,-1.9372905,-1.8316846,1.9734669,-0.82468283,-1.4722164,0.47405088,-2.0,-0.5744189,2.0,2.0,-1.2191268,2.0,-1.2913617,1.0714526,2.0
2025-07-19 15:18:16.776,1.2000000000000006,1200,60,0.20383863,0.022900498,0.19461039,0.025743969,-0.053271912,-0.042612426,0.0,0.0,0.0,0.0,0.04158129,-0.1627209,0.014666616,-0.31226185,-0.32449064,0.30116245,0.3060223,-0.23640841,0.29442722,-0.25087643,0.04677185,0.30042696,-0.10722949,-0.086053714,0.06427439,-0.09271481,0.034412842,-0.048627514,0.075878456,-0.032251798,0.017159278,0.015467893,0.045533217,-0.01570848,-0.82468283,-1.4722164,0.47405088,-2.0,-0.5744189,2.0,2.0,-1.2191268,2.0,-1.2913617,1.0714526,2.0,0.53487587,-0.62038624,0.4305492,-1.6657782,-2.0,2.0,0.9731634,0.3210466,2.0,-2.0,-1.5844996,2.0
2025-07-19 15:18:16.796,1.2200000000000006,1220,61,-0.10548939,0.06886339,-0.08748125,0.0047866376,-0.056452736,-0.009990867,0.0,0.0,0.0,0.0,0.055618197,-0.19369599,0.013236013,-0.31723505,-0.33924848,0.30882704,0.28309637,-0.20369235,0.3025586,-0.2669134,0.0068164817,0.29689443,-0.010817609,-0.0770534,0.07751096,-0.056510888,-0.13028526,0.07279435,-0.019137125,0.20143746,-0.027452195,-0.10157832,-0.16742146,0.023326451,0.53487587,-0.62038624,0.4305492,-1.6657782,-2.0,2.0,0.9731634,0.3210466,2.0,-2.0,-1.5844996,2.0,-0.24684629,0.12757926,0.9563385,-2.0,0.41456679,2.0,2.0,-0.7102097,2.0,-2.0,-0.15246676,2.0
2025-07-19 15:18:16.816,1.2400000000000007,1240,62,0.17302693,-0.102243155,-0.006166028,0.06006363,-0.010971999,-0.031168915,0.0,0.0,0.0,0.0,0.03811989,-0.17875704,0.03217709,-0.32782498,-0.33840343,0.30868673,0.29295832,-0.21215042,0.30763355,-0.27227053,0.0020471169,0.2989645,-0.0071928874,0.10188414,0.053474262,0.02219355,0.16900688,-0.06258536,-0.021862619,0.012391087,-0.013125032,-0.008984457,-0.025625043,0.024909265,-0.24684629,0.12757926,0.9563385,-2.0,0.41456679,2.0,2.0,-0.7102097,2.0,-2.0,-0.15246676,2.0,0.28863457,-1.6194521,0.5752104,-2.0,-2.0,2.0,1.600858,-1.2162098,2.0,-1.1667707,0.10122717,2.0
2025-07-19 15:18:16.836,1.2600000000000007,1260,63,0.06489766,0.038621712,0.09322649,0.019182762,-0.007188456,-0.008512175,0.0,0.0,0.0,0.0,0.0533996,-0.19091734,0.032929543,-0.33930027,-0.3330016,0.29818287,0.27892628,-0.24800393,0.30866757,-0.27669626,0.010226448,0.30966413,-0.053229094,-0.036424093,0.045076728,-0.05559523,-0.050120767,0.07098979,0.010319416,-0.06824519,-0.033800103,0.053741567,-0.003592647,0.053169124,0.28863457,-1.6194521,0.5752104,-2.0,-2.0,2.0,1.600858,-1.2162098,2.0,-1.1667707,0.10122717,2.0,0.8889697,-0.5414212,0.64603335,-2.0,-2.0,2.0,1.780195,1.0217276,2.0,-2.0,-0.4968809,2.0
2025-07-19 15:18:16.859,1.2800000000000007,1280,64,-0.003983129,0.10401168,-0.20228517,0.013311229,0.019712746,0.023864357,0.0,0.0,0.0,0.0,0.060329888,-0.19737785,0.037165295,-0.3323281,-0.40551323,0.3045577,0.2922086,-0.25262675,0.2990875,-0.29021522,-0.013655801,0.30429214,0.08046467,0.012621843,0.026596637,0.005637667,-0.17164552,0.027243255,-0.06571775,0.09761618,0.036225975,-0.09031942,-0.09591245,0.01768142,0.8889697,-0.5414212,0.64603335,-2.0,-2.0,2.0,1.780195,1.0217276,2.0,-2.0,-0.4968809,2.0,-0.18215397,-0.33210236,0.778389,-2.0,1.2413739,2.0,2.0,-1.0802628,2.0,-1.6818143,0.9534966,2.0
2025-07-19 15:18:16.912,1.3000000000000007,1300,65,0.1576536,-0.20997155,0.080020584,0.083381295,-0.018378453,0.01806657,0.0,0.0,0.0,0.0,0.060203332,-0.20960434,0.05350527,-0.32963914,-0.4227867,0.31200984,0.30496883,-0.24879318,0.3122967,-0.30047044,-0.0008374075,0.29470667,0.0043891245,-0.0147371655,-0.004657153,0.07177244,0.034566835,0.015537298,-0.03569808,-0.02153176,-0.016406126,-0.06611015,0.12340651,-0.05138793,-0.18215397,-0.33210236,0.778389,-2.0,1.2413739,2.0,2.0,-1.0802628,2.0,-1.6818143,0.9534966,2.0,0.38056645,-0.019636884,1.0535982,-1.3227444,0.03615704,2.0,1.6243114,-0.6177212,2.0,-0.7464331,-1.547472,2.0
2025-07-19 15:18:16.932,1.3200000000000007,1320,66,-0.07351379,-0.11191034,-0.014136002,0.07916269,-0.0060583293,-0.0011475581,0.0,0.0,0.0,0.0,0.07164073,-0.17827442,0.05049696,-0.32564816,-0.3762834,0.29377306,0.30906987,-0.25289387,0.31756282,-0.2965638,0.03198177,0.3043416,-0.01963819,0.018958034,0.091040954,0.053134687,0.08965726,-0.064771466,0.077060126,0.06908929,0.008570713,0.0874009,0.08211382,-0.021464683,0.38056645,-0.019636884,1.0535982,-1.3227444,0.03615704,2.0,1.6243114,-0.6177212,2.0,-0.7464331,-1.547472,2.0,0.38262948,-0.57642275,0.21794054,-1.7678344,-0.57144964,2.0,2.0,-1.3669492,2.0,-1.655445,-1.1982064,2.0
2025-07-19 15:18:16.952,1.3400000000000007,1340,67,-0.06797601,0.1579931,0.04449007,0.07612272,-0.060144585,0.02490845,0.0,0.0,0.0,0.0,0.07587186,-0.18885466,0.052064326,-0.3256712,-0.3533107,0.28789327,0.31058127,-0.27542028,0.30304497,-0.29187307,0.014126557,0.31155318,0.0070553436,-0.062063824,-0.07065023,0.03258473,0.034060385,0.042326067,0.018084176,-0.1839375,0.03617173,0.050112925,-0.0794011,-0.05334983,0.38262948,-0.57642275,0.21794054,-1.7678344,-0.57144964,2.0,2.0,-1.3669492,2.0,-1.655445,-1.1982064,2.0,0.84984213,0.22450547,-0.29996508,-2.0,-2.0,2.0,2.0,0.86568606,2.0,-2.0,0.5070387,2.0
2025-07-19 15:18:16.972,1.3600000000000008,1360,68,0.023259314,-0.055798728,-0.04798838,0.04460177,-0.034690574,-0.038056727,0.0,0.0,0.0,0.0,0.07632183,-0.1578243,0.031892136,-0.31805,-0.37612832,0.3058163,0.3232973,-0.28218135,0.30731905,-0.30217588,0.03392988,0.3064641,0.013926429,0.101360776,-0.05218241,-0.038743615,-0.16389218,-0.04036892,0.09642024,0.044385992,0.007851198,-0.025723454,0.06346182,-0.0052523254,0.84984213,0.22450547,-0.29996508,-2.0,-2.0,2.0,2.0,0.86568606,2.0,-2.0,0.5070387,2.0,0.3848897,-0.1411164,0.5233236,-1.6262412,0.63423514,2.0,1.8436697,-0.6708447,2.0,-1.060634,-0.18682276,2.0
2025-07-19 15:18:16.992,1.3800000000000008,1380,69,-0.050547577,0.10960676,0.010222586,0.021910015,-0.060798448,-0.027214332,0.0,0.0,0.0,0.0,0.09053522,-0.14650042,0.027749337,-0.32439604,-0.37871376,0.3100344,0.33394924,-0.28103685,0.3011195,-0.295055,0.027585017,0.3049923,0.036591593,0.082918644,-0.055743247,-0.053937726,0.14645469,-0.07803679,0.078003384,0.060195938,-0.040876847,-0.055098753,-0.073416896,0.07686884,0.3848897,-0.1411164,0.5233236,-1.6262412,0.63423514,2.0,1.8436697,-0.6708447,2.0,-1.060634,-0.18682276,2.0,0.38665113,-1.4974422,0.8043277,-1.6315289,-0.9338161,2.0,1.5331179,-1.6896827,2.0,-1.0118154,-0.0389583,2.0
2025-07-19 15:18:17.012,1.4000000000000008,1400,70,-0.03742837,0.23316036,0.11384863,0.042207267,0.0022200716,-0.043001253,0.0,0.0,0.0,0.0,0.07776815,-0.16165774,0.038510427,-0.3271741,-0.37813157,0.30783784,0.32397982,-0.30188924,0.31287873,-0.2728014,0.016003465,0.31464413,0.06274633,-0.09744495,0.091771014,0.027877007,-0.0023907418,0.053393736,-0.051564116,-0.17451479,-0.043651044,0.113575585,0.05150293,-0.049841393,0.38665113,-1.4974422,0.8043277,-1.6315289,-0.9338161,2.0,1.5331179,-1.6896827,2.0,-1.0118154,-0.0389583,2.0,1.3219838,-0.115554586,-0.10890549,-2.0,-2.0,2.0,1.5887169,1.7652383,2.0,-2.0,-1.060161,2.0
2025-07-19 15:18:17.032,1.4200000000000008,1420,71,-0.15861766,0.18486483,-0.31535494,-0.017076343,-0.019680606,0.0014380265,0.0,0.0,0.0,0.0,0.09741337,-0.17631865,0.034489714,-0.31882414,-0.42281348,0.31046313,0.32609004,-0.3116039,0.31022936,-0.29267794,-0.024366593,0.31647307,0.11948682,0.022763139,-0.04098159,0.032419674,-0.16773754,0.020319838,-0.018871987,0.13334323,0.050014973,-0.0076653278,-0.09263205,-0.052004144,1.3219838,-0.115554586,-0.10890549,-2.0,-2.0,2.0,1.5887169,1.7652383,2.0,-2.0,-1.060161,2.0,-1.071305,-0.20816703,0.1735583,-2.0,2.0,2.0,2.0,-1.8755062,2.0,-1.0241553,1.8772688,2.0
2025-07-19 15:18:17.055,1.4400000000000008,1440,72,0.12602869,-0.08831706,0.10169643,0.05525474,-0.044543963,-0.012869056,0.0,0.0,0.0,0.0,0.090056986,-0.16411372,0.027388249,-0.33453515,-0.43016115,0.305871,0.32557285,-0.32467896,0.30307963,-0.28034133,-0.022275556,0.29738203,-0.12795338,-0.041999545,-0.060539424,-0.07000314,0.05302804,-0.012732634,0.08698393,-0.1360709,-0.01764325,0.016152237,0.026758531,-0.018565023,-1.071305,-0.20816703,0.1735583,-2.0,2.0,2.0,2.0,-1.8755062,2.0,-1.0241553,1.8772688,2.0,0.35011762,-0.49774235,0.08626611,-1.3070962,-0.14976498,2.0,0.78832537,0.04285632,2.0,-0.16118571,0.61663187,2.0
2025-07-19 15:18:17.076,1.4600000000000009,1460,73,-0.11715787,-0.18570618,0.27323458,-0.030472048,-0.012367707,0.027718784,0.0,0.0,0.0,0.0,0.093597315,-0.17021471,0.030752894,-0.32266498,-0.38196307,0.2969265,0.33667853,-0.3198308,0.3098179,-0.2630347,0.018374916,0.29708627,0.018688546,-0.056767244,-0.018987786,0.089187324,0.10603486,0.05392824,0.0917531,0.08608768,0.012376124,0.076726526,0.10902584,-0.034991343,0.35011762,-0.49774235,0.08626611,-1.3070962,-0.14976498,2.0,0.78832537,0.04285632,2.0,-0.16118571,0.61663187,2.0,1.0384613,0.2906111,1.0882093,-0.62468106,-1.6793709,2.0,0.30603534,0.7596781,2.0,-1.7638901,-2.0,2.0
2025-07-19 15:18:17.092,1.4800000000000009,1480,74,0.0020684649,-0.13203183,-0.3171941,0.037869517,-0.017613387,0.047971867,0.0,0.0,0.0,0.0,0.1051022,-0.14286985,0.039640363,-0.30002743,-0.35993552,0.2979447,0.32961375,-0.26916397,0.30104396,-0.27744654,0.039535742,0.30469266,0.04857419,0.07498377,0.12040766,0.13394651,0.005668001,-0.0048410026,-0.10588056,0.05170367,0.03181134,-0.009214674,-0.10146879,-0.042226147,1.0384613,0.2906111,1.0882093,-0.62468106,-1.6793709,2.0,0.30603534,0.7596781,2.0,-1.7638901,-2.0,2.0,-0.45663038,-1.4850289,0.02502454,-2.0,1.0629581,2.0,2.0,-0.97365963,2.0,-1.5515153,0.52904034,1.5901314
2025-07-19 15:18:17.113,1.5000000000000009,1500,75,0.20551643,-0.14485268,-0.032986235,0.022257037,-0.06986971,-0.04369263,0.0,0.0,0.0,0.0,0.08188038,-0.14259383,0.027312083,-0.3157222,-0.3501269,0.30330315,0.3394525,-0.28591955,0.3016298,-0.28025723,0.053595755,0.29383436,-0.11089129,-0.049564555,0.05237307,-0.089902855,0.0704914,-0.068635434,0.04236562,-0.10876641,0.04632903,-0.048567887,0.121207185,-0.08812284,-0.45663038,-1.4850289,0.02502454,-2.0,1.0629581,2.0,2.0,-0.97365963,2.0,-1.5515153,0.52904034,1.5901314,-0.3345683,-1.2244852,0.0074858144,-1.2824773,-0.55742586,2.0,1.1693544,-1.1869218,2.0,0.31364784,-0.0023606317,2.0
2025-07-19 15:18:17.133,1.520000000000001,1520,76,-0.2297729,0.1567892,0.1015203,-0.031576946,0.0033642342,-0.029899077,0.0,0.0,0.0,0.0,0.05957132,-0.20461278,0.03603503,-0.30212498,-0.32814145,0.29888666,0.31475425,-0.31415036,0.29184094,-0.2359513,0.05219279,0.30249316,-0.027190015,-0.13391796,-0.053014472,0.016126616,0.09401902,-0.03567179,-0.041097794,-0.082697436,-0.0060423804,0.050699316,-0.018482508,-0.035183635,-0.3345683,-1.2244852,0.0074858144,-1.2824773,-0.55742586,2.0,1.1693544,-1.1869218,2.0,0.31364784,-0.0023606317,2.0,0.44796392,0.35015714,-0.77232295,-1.5308651,-2.0,2.0,0.8397517,0.5209543,2.0,-1.4534551,-0.26827684,2.0
2025-07-19 15:18:17.158,1.540000000000001,1540,77,-0.048165374,0.05029701,-0.32148153,-0.03474378,-0.009764452,-0.033766437,0.0,0.0,0.0,0.0,0.06453771,-0.20131747,0.011724597,-0.3028654,-0.34319392,0.3082561,0.30782944,-0.31714755,0.30006558,-0.23213091,0.036559913,0.3059675,0.044846527,0.16069081,-0.0946174,-0.002192872,-0.09163623,0.0014657221,-0.012604826,0.13679901,-0.013382532,0.040006503,-0.0560171,-0.035458032,0.44796392,0.35015714,-0.77232295,-1.5308651,-2.0,2.0,0.8397517,0.5209543,2.0,-1.4534551,-0.26827684,2.0,-1.2493254,-1.2157983,-0.22126073,-1.9781936,2.0,2.0,1.7233474,-2.0,2.0,0.21888715,2.0,2.0
2025-07-19 15:18:17.174,1.560000000000001,1560,78,0.124308005,0.11009336,0.24495637,-0.018449536,-0.04283287,0.012082765,0.0,0.0,0.0,0.0,0.05153591,-0.18784644,0.00347546,-0.32028428,-0.32565698,0.3056167,0.30252358,-0.3291018,0.29198545,-0.2147823,0.059841443,0.3024625,-0.03764386,-0.1072147,0.03195945,-0.10628002,0.03794474,0.041192863,-0.021978023,-0.17255741,0.041543335,0.07090075,0.11796519,-0.038486548,-1.2493254,-1.2157983,-0.22126073,-1.9781936,2.0,2.0,1.7233474,-2.0,2.0,0.21888715,2.0,2.0,0.50932986,-0.43627942,-0.46365726,-0.952394,-1.3625822,2.0,0.14431131,1.0945736,2.0,-0.7076654,-1.1421306,2.0
2025-07-19 15:18:17.193,1.580000000000001,1580,79,-0.13660549,0.08530182,-0.16827212,-0.015277263,-0.030692402,-0.046693537,0.0,0.0,0.0,0.0,0.04501701,-0.19794059,-0.02089646,-0.3043109,-0.3272082,0.30776614,0.29287443,-0.33567184,0.2934994,-0.19372533,0.04127682,0.29339358,0.06326193,0.06846305,-0.098263085,0.030127687,-0.025403552,0.06517488,0.04685885,0.045206692,0.028936855,0.034387477,-0.034025505,0.08542305,0.50932986,-0.43627942,-0.46365726,-0.952394,-1.3625822,2.0,0.14431131,1.0945736,2.0,-0.7076654,-1.1421306,2.0,-0.81849945,-0.6329834,-0.75371224,-1.9779106,1.0567151,2.0,1.7017113,-1.4296896,2.0,-0.7002471,0.4422745,1.3844403
2025-07-19 15:18:17.213,1.600000000000001,1600,80,0.081350304,-0.0073801833,0.12686801,0.0022830784,0.037273202,0.043350294,0.0,0.0,0.0,0.0,0.015329259,-0.19891384,-0.040532783,-0.31837928,-0.31195274,0.2879286,0.3027012,-0.3658972,0.3002489,-0.18204267,0.055154666,0.28063694,-0.020937104,-0.083771646,0.00013161307,0.03406566,0.14635845,0.014863818,-0.05135648,-0.08931448,0.04092347,0.03619497,0.0835308,-0.027544776,-0.81849945,-0.6329834,-0.75371224,-1.9779106,1.0567151,2.0,1.7017113,-1.4296896,2.0,-0.7002471,0.4422745,1.3844403,0.1443485,0.014180973,-0.7323284,-1.383626,-2.0,1.8426317,0.4340775,0.0320376,2.0,-0.48569682,-0.119970985,2.0
2025-07-19 15:18:17.233,1.620000000000001,1620,81,-0.042381953,-0.0027578082,-0.15554373,0.059740085,0.020946788,-0.0024628881,0.0,0.0,0.0,0.0,0.009292454,-0.18316475,-0.05607963,-0.30742997,-0.3081295,0.30275857,0.27461538,-0.35973555,0.30092663,-0.1788172,0.042637803,0.28330195,0.02435807,0.10918342,-0.04693936,0.01049059,-0.059393756,0.041216187,-0.080422014,-0.019319214,-0.018291906,-0.0043721288,0.021056231,0.024282716,0.1443485,0.014180973,-0.7323284,-1.383626,-2.0,1.8426317,0.4340775,0.0320376,2.0,-0.48569682,-0.119970985,2.0,-0.6749014,-0.8643768,-0.6943003,-1.7354122,-0.47840515,2.0,1.4369645,-0.50521564,2.0,0.043264423,0.6348647,1.9131016
2025-07-19 15:18:17.258,1.640000000000001,1640,82,-0.045681924,-0.022024797,0.09143054,0.05592456,0.022488596,0.012750434,0.0,0.0,0.0,0.0,0.0024839044,-0.18705505,-0.06563359,-0.3050647,-0.29590678,0.2918602,0.27256656,-0.33781362,0.29496753,-0.14737748,0.07781536,0.27809283,-0.008925543,-0.090348616,-0.09987915,-0.04491648,0.1225148,0.06994298,0.07350796,-0.02497545,-0.013892991,0.07440404,0.08733853,-0.018723313,-0.6749014,-0.8643768,-0.6943003,-1.7354122,-0.47840515,2.0,1.4369645,-0.50521564,2.0,0.043264423,0.6348647,1.9131016,-0.3222086,-0.49042493,-1.015611,-1.2960522,-2.0,2.0,0.36704808,-0.68100953,2.0,-0.45392373,-0.08800738,2.0
2025-07-19 15:18:17.275,1.660000000000001,1660,83,-0.053283177,0.15264732,-0.14557251,-0.03186714,0.022651076,0.0037451717,0.0,0.0,0.0,0.0,0.0024657727,-0.1748615,-0.08389887,-0.30424488,-0.32036334,0.2950687,0.26503336,-0.3345353,0.29171193,-0.15067156,0.06958064,0.29146954,-0.089851096,-0.025415394,-0.040452708,-0.0057267114,-0.035205275,0.053193163,-0.08049923,-0.044171255,0.014593939,-0.026037132,-0.03384099,0.07686558,-0.3222086,-0.49042493,-1.015611,-1.2960522,-2.0,2.0,0.36704808,-0.68100953,2.0,-0.45392373,-0.08800738,2.0,-0.44305283,-0.31071347,-0.6567801,-1.9962194,-0.17963913,2.0,1.0475744,-0.92715836,2.0,-0.17829332,1.0731595,1.8312365
2025-07-19 15:18:17.294,1.680000000000001,1680,84,0.06556677,-0.07979428,0.07811603,0.015179218,0.011283042,0.015170751,0.0,0.0,0.0,0.0,-0.015570545,-0.17795059,-0.091199845,-0.31893635,-0.29487357,0.28801987,0.24697438,-0.32708755,0.30377358,-0.12843807,0.10214723,0.28529248,0.022611797,0.05547501,0.010719916,-0.035754874,0.074672446,-0.07669227,-0.03957455,-0.011926812,-0.019968813,0.011516424,0.20445254,-0.053255334,-0.44305283,-0.31071347,-0.6567801,-1.9962194,-0.17963913,2.0,1.0475744,-0.92715836,2.0,-0.17829332,1.0731595,1.8312365,-0.25939664,-1.4982237,-0.59805197,-0.77222186,-2.0,1.9572593,0.031976692,-1.0462128,2.0,-0.21868384,-1.2608943,2.0
2025-07-19 15:18:17.314,1.700000000000001,1700,85,-0.08055372,0.2407455,-0.13943,0.02970227,-0.027103525,-0.014343489,0.0,0.0,0.0,0.0,-0.029614909,-0.22507408,-0.08546552,-0.3304782,-0.3076556,0.29975173,0.22641751,-0.3579174,0.30717048,-0.10686105,0.10102488,0.2960523,0.058898322,-0.20680216,-0.016748045,-0.057278086,-0.017920725,-0.041563652,-0.05390575,0.0074165063,0.009465324,0.04926923,-0.1381557,-0.054629125,-0.25939664,-1.4982237,-0.59805197,-0.77222186,-2.0,1.9572593,0.031976692,-1.0462128,2.0,-0.21868384,-1.2608943,2.0,-0.6139965,0.67055994,-0.6543473,-2.0,0.14680442,2.0,1.3511554,-0.48297584,2.0,-0.82866985,0.700588,1.368759
2025-07-19 15:18:17.334,1.720000000000001,1720,86,0.056588665,-0.18651515,0.006534479,0.039499324,0.017603707,-0.03451376,0.0,0.0,0.0,0.0,-0.03595272,-0.22495197,-0.09685852,-0.32551268,-0.2865554,0.29103163,0.2421173,-0.34327894,0.29217216,-0.117849916,0.09255514,0.2896565,0.034645196,0.119636185,-0.08041848,-0.025519097,0.100987814,0.049325354,-0.029961325,0.105741985,-0.036644965,0.04696573,0.058547255,-0.07870038,-0.6139965,0.67055994,-0.6543473,-2.0,0.14680442,2.0,1.3511554,-0.48297584,2.0,-0.82866985,0.700588,1.368759,-0.44456854,-0.43909198,-0.33198696,-1.1735256,-2.0,2.0,0.20210364,-2.0,2.0,0.39154065,0.35962436,2.0
2025-07-19 15:18:17.358,1.740000000000001,1740,87,-0.110210575,0.13143691,-0.013083929,0.03892863,0.021290945,-0.00979509,0.0,0.0,0.0,0.0,-0.035188567,-0.21298447,-0.09980021,-0.3188159,-0.2902683,0.29886758,0.24431983,-0.3378642,0.30652618,-0.100146264,0.11307899,0.28920084,0.024966028,-0.06633084,-0.037468676,0.004691998,-0.0595961,0.012970533,0.058057033,-0.039707787,0.08428934,0.08693776,0.07548962,0.020395536,-0.44456854,-0.43909198,-0.33198696,-1.1735256,-2.0,2.0,0.20210364,-2.0,2.0,0.39154065,0.35962436,2.0,-0.29856205,0.56511277,-0.87580055,-1.5751938,-0.9083028,2.0,0.62485325,-0.75554,2.0,-0.067332655,-0.024791706,2.0
2025-07-19 15:18:17.374,1.7600000000000011,1760,88,0.015912814,0.00924418,-0.081126064,0.037891075,-0.0014738151,0.04396555,0.0,0.0,0.0,0.0,-0.048425853,-0.20255195,-0.10975989,-0.31887943,-0.30997953,0.29714054,0.23506755,-0.34691867,0.2983722,-0.095898464,0.09042148,0.28096598,0.062255595,0.11034899,-0.010293177,-0.03415904,0.0062845564,0.031796847,-0.092443146,0.00078671536,-0.023074318,-0.06622034,0.017264586,0.03509503,-0.29856205,0.56511277,-0.87580055,-1.5751938,-0.9083028,2.0,0.62485325,-0.75554,2.0,-0.067332655,-0.024791706,2.0,-0.478169,-0.5412896,-0.71405905,-1.3584405,-1.2659024,2.0,0.7736722,-1.2576367,2.0,0.30315608,0.009962092,2.0
2025-07-19 15:18:17.394,1.7800000000000011,1780,89,0.010903437,0.19627348,-0.05074598,0.05149557,0.027202716,-0.025290543,0.0,0.0,0.0,0.0,-0.047660004,-0.1842579,-0.110465676,-0.32230443,-0.3260311,0.3073316,0.2172605,-0.37588143,0.30676448,-0.06509481,0.0832314,0.2910103,0.027599573,-0.10028254,-0.006525044,-0.015105197,-0.1353069,0.047675338,-0.060670994,0.0006357711,0.020391667,-0.0016270346,-0.109275244,0.06341536,-0.478169,-0.5412896,-0.71405905,-1.3584405,-1.2659024,2.0,0.7736722,-1.2576367,2.0,0.30315608,0.009962092,2.0,0.013377659,0.5793945,-0.8531117,-1.8391773,-0.1838055,2.0,1.0520415,-0.25717092,2.0,-0.2760319,0.79819334,2.0
2025-07-19 15:18:17.414,1.8000000000000012,1800,90,0.13954718,-0.13585481,-0.012450919,-0.009037771,0.046356432,0.011130054,0.0,0.0,0.0,0.0,-0.04200767,-0.14517508,-0.118444614,-0.32623398,-0.3190702,0.29716355,0.20614591,-0.36119565,0.30243543,-0.064418174,0.11386804,0.2944678,-0.028940104,0.1454396,-0.053105887,0.0050281985,0.10782649,-0.035470027,0.058183502,0.11348632,0.047083028,0.041049045,0.049436297,0.033069264,0.013377659,0.5793945,-0.8531117,-1.8391773,-0.1838055,2.0,1.0520415,-0.25717092,2.0,-0.2760319,0.79819334,2.0,-0.19214079,-2.0,0.034717984,-1.4259886,-1.3383995,1.8939084,0.39422455,-2.0,2.0,0.15590367,0.32651007,1.930563
2025-07-19 15:18:17.434,1.8200000000000012,1820,91,0.041516952,0.17530115,-0.04170776,0.06569237,-0.032725267,0.0030757457,0.0,0.0,0.0,0.0,-0.037362434,-0.14368497,-0.101215206,-0.31335056,-0.3140609,0.29922736,0.20799015,-0.3460633,0.3072748,-0.042814635,0.110934176,0.3044513,0.052424785,-0.06227386,0.100826845,-0.062122736,0.013339049,-0.05084376,-0.057988614,-0.12455008,0.0043648547,-0.0002356497,-0.026278185,-0.027754383,-0.19214079,-2.0,0.034717984,-1.4259886,-1.3383995,1.8939084,0.39422455,-2.0,2.0,0.15590367,0.32651007,1.930563,0.06195032,-2.0,-0.36015025,-2.0,-1.6920707,2.0,1.0533441,0.6969042,2.0,-0.7279577,0.4775016,1.5899049
2025-07-19 15:18:17.457,1.8400000000000012,1840,92,0.11584707,0.1321135,-0.18650845,0.08401752,-0.008143555,-0.033643547,0.0,0.0,0.0,0.0,-0.035148248,-0.22009198,-0.08401894,-0.32894647,-0.35855097,0.30112556,0.20065159,-0.34564254,0.30215847,-0.055802796,0.12783347,0.29739672,0.075561844,-0.23756258,-0.015326276,0.0015981224,-0.088242784,-0.03408518,-0.042527575,0.07328476,0.04182762,-0.09813826,0.03130621,-0.0068211984,0.06195032,-2.0,-0.36015025,-2.0,-1.6920707,2.0,1.0533441,0.6969042,2.0,-0.7279577,0.4775016,1.5899049,-1.0469064,0.019649193,-0.34862882,-1.7912705,0.8331888,2.0,1.4152564,-1.3976475,2.0,0.082422286,1.0694282,2.0
2025-07-19 15:18:17.474,1.8600000000000012,1860,93,0.0990985,-0.050692968,0.016966773,-0.0062199747,-0.0058215084,-0.0011572897,0.0,0.0,0.0,0.0,-0.039399367,-0.23802797,-0.08064363,-0.34458733,-0.38528985,0.29786515,0.20173863,-0.35267156,0.30824146,-0.044059217,0.18311173,0.28759244,-0.022331938,-0.036970064,0.05987942,-0.07462859,0.051199615,-0.06626314,0.04887539,-0.065327324,0.06419702,0.05458999,0.08541385,0.0712353,-1.0469064,0.019649193,-0.34862882,-1.7912705,0.8331888,2.0,1.4152564,-1.3976475,2.0,0.082422286,1.0694282,2.0,0.29829276,-0.11221127,-0.89542925,-1.4646093,-0.6202506,2.0,0.28386447,-1.3297191,2.0,0.38991383,0.06138749,2.0
2025-07-19 15:18:17.494,1.8800000000000012,1880,94,0.06350986,0.0030563823,-0.011702709,0.07969289,0.0041643307,0.008711902,0.0,0.0,0.0,0.0,-0.042400718,-0.22875209,-0.1007235,-0.32967803,-0.36635703,0.2856876,0.21150407,-0.376603,0.31051686,-0.034725428,0.17264894,0.29241857,0.057017945,0.1357822,-0.066957936,0.044560798,0.10179399,0.015751958,-0.0061451355,-0.071918525,-0.03947741,0.0898286,-0.064481355,0.049244374,0.29829276,-0.11221127,-0.89542925,-1.4646093,-0.6202506,2.0,0.28386447,-1.3297191,2.0,0.38991383,0.06138749,2.0,-0.120379485,-1.6718357,-0.7030129,-1.5402898,-1.4979467,2.0,1.0898001,0.05630897,2.0,0.04651967,0.08869029,1.8337258
2025-07-19 15:18:17.514,1.9000000000000012,1900,95,-0.0510555,-0.038601186,-0.15191333,0.008721346,0.04552261,0.032936275,0.0,0.0,0.0,0.0,-0.037444185,-0.24164289,-0.10503074,-0.3353294,-0.3804377,0.29014707,0.21189278,-0.37102413,0.29735744,-0.020882197,0.14543736,0.28661495,0.032190267,-0.18737532,-0.008764537,0.0008757316,-0.108307995,0.055266473,0.02920343,0.044362318,0.031029811,0.022662504,0.017783139,-0.041926365,-0.120379485,-1.6718357,-0.7030129,-1.5402898,-1.4979467,2.0,1.0898001,0.05630897,2.0,0.04651967,0.08869029,1.8337258,-0.40550628,0.12803684,-1.098244,-1.6912202,2.0,2.0,1.0955381,-1.7976207,2.0,-0.0039615002,0.7294353,2.0
2025-07-19 15:18:17.535,1.9200000000000013,1920,96,-0.043894585,-0.056583714,0.071320556,0.06331028,-0.030320385,-0.03997168,0.0,0.0,0.0,0.0,-0.042382266,-0.24573047,-0.107428916,-0.3260143,-0.38441268,0.28538334,0.21117744,-0.3672557,0.29042083,-0.019940494,0.16546217,0.2900405,-0.03920112,0.1738328,-0.020170672,-0.056089293,0.026418466,-0.029415566,-0.0046776566,-0.04076549,0.055768605,-0.038169004,0.060409155,-0.060305335,-0.40550628,0.12803684,-1.098244,-1.6912202,2.0,2.0,1.0955381,-1.7976207,2.0,-0.0039615002,0.7294353,2.0,0.5194353,-1.3139719,-0.784351,-1.0223211,-0.23191097,2.0,0.12087945,-1.9985381,2.0,0.20177284,-0.22239567,2.0
2025-07-19 15:18:17.558,1.9400000000000013,1940,97,-0.15353298,0.2084257,0.105843134,-0.008328988,-0.022974234,0.009967118,0.0,0.0,0.0,0.0,-0.0133642685,-0.26449728,-0.11028865,-0.34107685,-0.3621386,0.28394967,0.22459525,-0.4047274,0.3098866,0.001250586,0.16272342,0.30977285,0.031547554,-0.0965067,0.04922073,-0.06770406,0.03622301,0.013402288,-0.04425051,-0.14040229,-0.04434749,0.0989702,-0.011597156,-0.042278547,0.5194353,-1.3139719,-0.784351,-1.0223211,-0.23191097,2.0,0.12087945,-1.9985381,2.0,0.20177284,-0.22239567,2.0,1.0812747,0.44026017,-0.733072,-0.9431478,-1.0799843,2.0,0.6673276,1.3702493,2.0,-1.5392166,-1.3735235,2.0
2025-07-19 15:18:17.575,1.9600000000000013,1960,98,-0.13676913,0.10224526,-0.3077782,0.043994743,0.004942219,0.027349832,0.0,0.0,0.0,0.0,0.012940689,-0.25624278,-0.12304431,-0.31432343,-0.3798835,0.27882877,0.19830501,-0.41231632,0.30452937,-0.027258249,0.10875564,0.30190286,0.12338548,0.1363161,0.036303304,0.021450363,0.02100818,-0.06004544,-0.028714534,0.09289576,-0.06899934,-0.12630436,-0.20042753,0.0664513,1.0812747,0.44026017,-0.733072,-0.9431478,-1.0799843,2.0,0.6673276,1.3702493,2.0,-1.5392166,-1.3735235,2.0,-0.7321365,-0.05508311,0.36237204,-2.0,2.0,2.0,2.0,-2.0,2.0,-1.0160615,0.60893655,1.9197384
2025-07-19 15:18:17.595,1.9800000000000013,1980,99,0.26071554,-0.26036435,0.08493792,0.030212287,0.033391092,0.011343147,0.0,0.0,0.0,0.0,0.008020648,-0.22407833,-0.09944616,-0.32657912,-0.35958844,0.2912857,0.22796702,-0.4398155,0.3034563,-0.058752492,0.0897224,0.30021393,-0.0734991,0.13029878,0.025824832,0.032997727,0.16283622,0.04088284,0.01628644,-0.12273822,-0.024795061,-0.07289998,0.07498563,0.008538054,-0.7321365,-0.05508311,0.36237204,-2.0,2.0,2.0,2.0,-2.0,2.0,-1.0160615,0.60893655,1.9197384,0.31154191,-1.9231286,-0.76496255,-1.8641055,-2.0,1.6600726,1.0125772,0.587391,2.0,-0.11936507,0.09584112,2.0
2025-07-19 15:18:17.615,2.0000000000000013,2000,100,0.012319319,0.0018984234,-0.08405691,0.03514551,-0.00050865515,0.019574035,0.0,0.0,0.0,0.0,0.021884322,-0.24874938,-0.102648966,-0.32127744,-0.37527037,0.2799156,0.23034385,-0.43514025,0.29562214,-0.054430146,0.09833943,0.3051609,0.012537443,-0.16535899,0.06960915,-0.08442846,-0.09356428,-0.079329856,-0.023010852,0.054962024,-0.03484518,-0.030905511,-0.0625011,0.04420453,0.31154191,-1.9231286,-0.76496255,-1.8641055,-2.0,1.6600726,1.0125772,0.587391,2.0,-0.11936507,0.09584112,2.0,-0.4861141,-0.13773723,-0.43914378,-1.722295,0.12501577,2.0,1.4648676,0.7876071,2.0,-0.64344156,0.08855096,1.9891806
2025-07-19 15:18:17.635,2.0200000000000014,2020,101,0.027739841,-0.16727638,-0.08994301,0.079768084,0.030684706,0.010402114,0.0,0.0,0.0,0.0,0.006307177,-0.24938798,-0.095910594,-0.32114077,-0.3662854,0.2854248,0.23577587,-0.37733725,0.29951108,-0.08242251,0.08043945,0.31451696,-0.015446726,0.05938108,0.07488746,0.040155873,0.096136145,-0.009627589,-0.0051450445,0.17010716,-0.064607345,0.033926956,0.06994979,0.06760892,-0.4861141,-0.13773723,-0.43914378,-1.722295,0.12501577,2.0,1.4648676,0.7876071,2.0,-0.64344156,0.08855096,1.9891806,-0.50238866,-0.5033612,0.023839839,-1.4574349,0.27197608,2.0,0.8383118,-2.0,2.0,0.24956626,-0.2825767,2.0
2025-07-19 15:18:17.658,2.0400000000000014,2040,102,-0.09597077,0.20925128,0.031758294,-0.008944914,-0.009004014,0.003120597,0.0,0.0,0.0,0.0,-0.017977132,-0.25026295,-0.07935313,-0.32719254,-0.33429584,0.28134102,0.24806643,-0.36691016,0.29987797,-0.058321916,0.072876014,0.30447164,0.04580617,0.008007848,-0.028751977,0.06914132,-0.01587795,0.051847953,0.0106394,-0.05412024,-0.059755288,0.017524257,-0.00231666,-0.03848487,-0.50238866,-0.5033612,0.023839839,-1.4574349,0.27197608,2.0,0.8383118,-2.0,2.0,0.24956626,-0.2825767,2.0,-0.078304656,-0.32330078,-0.9906047,-1.4246228,-1.0365688,2.0,1.123268,-0.21050222,2.0,-0.37479937,0.18137537,2.0
2025-07-19 15:18:17.675,2.0600000000000014,2060,103,0.015018648,0.03620023,-0.12921554,0.02595983,0.04496163,0.015776664,0.0,0.0,0.0,0.0,-0.0123709105,-0.22688925,-0.10455149,-0.30944112,-0.3456744,0.27823263,0.24114904,-0.3543133,0.281406,-0.06721463,0.07599749,0.31159398,-0.041160118,0.04788146,-0.009448178,-0.049087882,-0.09901377,0.03376396,-0.026144667,0.0863814,-0.02457264,0.013563381,-0.015132055,-0.045366358,-0.078304656,-0.32330078,-0.9906047,-1.4246228,-1.0365688,2.0,1.123268,-0.21050222,2.0,-0.37479937,0.18137537,2.0,-0.41547018,-0.86420614,-0.61138403,-1.4540685,1.3150084,2.0,0.9796432,-2.0,2.0,0.051794443,0.8932156,2.0
2025-07-19 15:18:17.695,2.0800000000000014,2080,104,0.012229358,0.035583843,0.15909284,-0.011181521,-0.017692646,-0.010180843,0.0,0.0,0.0,0.0,-0.02973412,-0.23246273,-0.090699226,-0.31832722,-0.32985827,0.28171527,0.24095222,-0.36943278,0.3056648,-0.040422857,0.12104473,0.3079779,0.010586185,-0.014914504,0.027572343,-0.012238219,0.0800797,-0.008517018,-0.05914669,-0.09411991,0.08303722,0.053218897,0.06920328,0.07107312,-0.41547018,-0.86420614,-0.61138403,-1.4540685,1.3150084,2.0,0.9796432,-2.0,2.0,0.051794443,0.8932156,2.0,0.87868565,-0.80170995,-0.4601458,-1.0665673,-2.0,1.9470454,0.23287916,0.24169861,2.0,-1.0716625,-0.68308246,2.0
2025-07-19 15:18:17.715,2.1000000000000014,2100,105,0.0036278819,0.028970083,-0.24842338,0.0636893,0.02181976,0.018982807,0.0,0.0,0.0,0.0,0.0009322325,-0.25028953,-0.09952722,-0.30101863,-0.3456465,0.29223904,0.22169745,-0.36513773,0.28329512,-0.06986428,0.087509304,0.31485504,0.04549901,-0.07492168,0.019109473,0.0013452066,-0.11341982,-0.061777383,-0.12507886,0.07521996,-0.05722555,-0.023038538,-0.11462432,0.0434856,0.87868565,-0.80170995,-0.4601458,-1.0665673,-2.0,1.9470454,0.23287916,0.24169861,2.0,-1.0716625,-0.68308246,2.0,-0.3581796,0.18714337,-0.2859866,-2.0,1.8392894,2.0,2.0,-0.7946707,2.0,-0.9746861,0.49280852,1.9481624
2025-07-19 15:18:17.737,2.1200000000000014,2120,106,0.025613235,-0.23427722,-0.035046764,-0.014955456,-0.01312047,-0.038618103,0.0,0.0,0.0,0.0,-0.0037313132,-0.21165484,-0.09269798,-0.31010386,-0.3180291,0.28384876,0.23221742,-0.36345324,0.30212805,-0.08581193,0.092584155,0.30423784,-0.080249995,0.10189093,0.012386717,-0.06665574,0.122338824,0.019404197,0.028969562,0.050971363,-0.05224171,-0.008062518,-0.00982629,0.021859292,-0.3581796,0.18714337,-0.2859866,-2.0,1.8392894,2.0,2.0,-0.7946707,2.0,-0.9746861,0.49280852,1.9481624,0.08424803,-1.0895784,0.28107914,-1.7063558,-1.0271534,1.9725723,0.8256273,-1.9182187,2.0,0.6523772,1.0483686,2.0
2025-07-19 15:18:17.758,2.1400000000000015,2140,107,0.16861555,0.110389896,0.059951447,0.08151372,-0.012654953,-0.03537877,0.0,0.0,0.0,0.0,-0.003240959,-0.21760437,-0.06183261,-0.32080752,-0.32294723,0.2978915,0.22652717,-0.3921706,0.30402812,-0.04992478,0.14561953,0.3087947,-0.004232846,-0.09056457,0.0337669,-0.054602865,-0.05979576,-0.021985361,-0.085439056,-0.016269306,-0.009549287,0.033043865,0.21069808,-0.03401007,0.08424803,-1.0895784,0.28107914,-1.7063558,-1.0271534,1.9725723,0.8256273,-1.9182187,2.0,0.6523772,1.0483686,2.0,0.28294572,-0.6587241,-0.8009357,-1.1225303,-1.1484097,2.0,0.5816455,0.011801111,2.0,-0.38972762,-1.5480052,2.0
2025-07-19 15:18:17.776,2.1600000000000015,2160,108,0.012677969,0.0148243755,-0.22412059,0.07812024,0.029446697,-0.045586284,0.0,0.0,0.0,0.0,0.0067272387,-0.23203516,-0.08420162,-0.31350166,-0.34408456,0.28983384,0.22189732,-0.37526175,0.29120526,-0.046651255,0.14137757,0.30917546,0.022345694,0.045694023,-0.06935101,0.07068828,-0.07914255,0.062567234,-0.005944755,0.057688992,0.014384891,-0.08181825,-0.20941024,0.05218,0.28294572,-0.6587241,-0.8009357,-1.1225303,-1.1484097,2.0,0.5816455,0.011801111,2.0,-0.38972762,-1.5480052,2.0,-0.956819,-0.8266352,-0.66252416,-2.0,1.9957744,2.0,2.0,-1.4415271,2.0,-0.58568895,1.1638852,1.9697976
2025-07-19 15:18:17.796,2.1800000000000015,2180,109,0.1482107,-0.08948533,0.15841514,0.09594052,0.01885566,0.0032317825,0.0,0.0,0.0,0.0,-0.013861204,-0.250403,-0.086559415,-0.32858342,-0.34158573,0.2923173,0.251708,-0.40686288,0.29916924,-0.059477415,0.14554688,0.31829852,-0.0789911,-0.013581187,-0.06731764,-0.10503569,0.002756156,-0.038778216,0.103575945,-0.15169623,-0.034721445,0.02935138,0.082072385,0.004085748,-0.956819,-0.8266352,-0.66252416,-2.0,1.9957744,2.0,2.0,-1.4415271,2.0,-0.58568895,1.1638852,1.9697976,0.45547393,-0.3097905,-0.8495835,-1.2322016,-1.0137173,1.9719089,0.58621895,0.60030687,2.0,0.07484451,-0.3567878,2.0
2025-07-19 15:18:17.816,2.2000000000000015,2200,110,-0.029233573,0.015607463,-0.12471393,0.0761829,0.0084345825,-0.039069004,0.0,0.0,0.0,0.0,-0.012686222,-0.23658183,-0.0980187,-0.32969478,-0.35437033,0.29027092,0.25157917,-0.3865579,0.2945011,-0.04846015,0.14035703,0.3122811,0.08914591,0.11834173,0.011536321,-0.0014760189,0.0043090326,-0.03657388,0.031933114,-0.017867161,0.026496967,0.00047582205,-0.12644918,0.041004546,0.45547393,-0.3097905,-0.8495835,-1.2322016,-1.0137173,1.9719089,0.58621895,0.60030687,2.0,0.07484451,-0.3567878,2.0,-0.57093036,-1.0743766,-0.85161585,-1.8572328,0.34613308,2.0,1.3463703,-1.0458571,2.0,-0.16317305,0.57130265,1.8975478
2025-07-19 15:18:17.918,2.2200000000000015,2220,111,-0.043491136,-0.024960265,0.13900274,0.026128044,0.035932787,0.0014265702,0.0,0.0,0.0,0.0,-0.013057026,-0.24837951,-0.09427791,-0.33034527,-0.33878303,0.29338318,0.24732839,-0.40231654,0.2985281,-0.044016995,0.16425706,0.30853027,-0.10322889,-0.079785846,-0.022635004,0.046920177,0.017854623,0.026536418,0.0470395,-0.07769818,0.053696785,0.038732413,-0.0018217025,-0.08808585,-0.57093036,-1.0743766,-0.85161585,-1.8572328,0.34613308,2.0,1.3463703,-1.0458571,2.0,-0.16317305,0.57130265,1.8975478,0.39220417,-0.042420104,-0.82078576,-1.3453283,-1.4118729,2.0,0.5844417,0.5210794,2.0,-0.85140604,-0.28919196,2.0
2025-07-19 15:18:18.085,2.2400000000000015,2240,112,-0.025014495,0.10983924,-0.27391317,0.07237605,-0.011064858,0.0010344115,0.0,0.0,0.0,0.0,-0.009182834,-0.23397177,-0.11023916,-0.3205822,-0.34739938,0.29456794,0.23119308,-0.38324872,0.289793,-0.07327918,0.13773198,0.30689374,0.10959265,0.09074422,-0.0035286066,-0.016530298,-0.091745704,0.010597662,0.01109516,0.015158181,-0.03190448,-0.06559178,-0.11281758,-0.02299813,0.39220417,-0.042420104,-0.82078576,-1.3453283,-1.4118729,2.0,0.5844417,0.5210794,2.0,-0.85140604,-0.28919196,2.0,-0.9004119,-0.51077324,-0.50789094,-1.9764756,2.0,2.0,1.6521435,-2.0,2.0,0.13089797,1.154929,2.0
2025-07-19 15:18:18.145,2.2600000000000016,2260,113,0.17357156,-0.074045725,0.10866922,0.05588129,0.06296604,-0.036126204,0.0,0.0,0.0,0.0,-0.012964262,-0.220728,-0.10304062,-0.33940977,-0.33482486,0.2936065,0.24160063,-0.39787492,0.3024446,-0.05095222,0.16298892,0.3083419,-0.025739767,-0.027419856,-0.02924046,0.008086224,0.111312844,-0.06465672,-0.0073682745,-0.066913635,0.025631217,-0.005857518,0.08261544,0.05589166,-0.9004119,-0.51077324,-0.50789094,-1.9764756,2.0,2.0,1.6521435,-2.0,2.0,0.13089797,1.154929,2.0,0.47299162,-1.1883535,-0.889107,-1.618275,-2.0,1.4182669,0.010566259,-0.2089547,2.0,0.1851919,0.3298493,2.0
2025-07-19 15:18:18.165,2.2800000000000016,2280,114,0.16163614,-0.009563005,-0.1219441,0.059147827,0.025203248,0.021510689,0.0,0.0,0.0,0.0,-0.0006451382,-0.26235166,-0.114664175,-0.33007437,-0.35294846,0.27483666,0.23252247,-0.38962206,0.28790796,-0.043976896,0.17142414,0.30224138,0.09846819,-0.16597275,-0.010174195,0.04311946,-0.12572242,0.012203079,-0.07575439,-0.009360804,-0.0769251,0.07893945,-0.058360524,0.06712007,0.47299162,-1.1883535,-0.889107,-1.618275,-2.0,1.4182669,0.010566259,-0.2089547,2.0,0.1851919,0.3298493,2.0,-0.20207635,0.5420223,-0.99598426,-1.7469594,0.387566,2.0,1.1713878,1.006602,2.0,-0.30731955,0.33595273,1.7642401
2025-07-19 15:18:18.235,2.3000000000000016,2300,115,0.06893404,-0.20736912,-0.0901768,0.02656557,0.019077083,0.018512117,0.0,0.0,0.0,0.0,-0.0063405666,-0.23881598,-0.119844325,-0.34170696,-0.35645556,0.26461345,0.2326303,-0.35946336,0.28951943,-0.052529324,0.16188309,0.29610658,-0.048197538,0.1629026,-0.07092881,0.009718568,-0.02579861,-0.05968987,-0.014053371,0.11505814,-0.07725442,0.04030098,-0.0034471762,-0.044216704,-0.20207635,0.5420223,-0.99598426,-1.7469594,0.387566,2.0,1.1713878,1.006602,2.0,-0.30731955,0.33595273,1.7642401,-0.079865135,-0.4167925,-0.55863655,-1.0132496,1.2490758,2.0,0.71419847,-2.0,2.0,0.73156625,0.2940063,1.9097584
2025-07-19 15:18:18.258,2.3200000000000016,2320,116,-0.17945442,0.07448119,0.07980111,0.09594979,-0.005417509,-0.0072974395,0.0,0.0,0.0,0.0,-0.018514259,-0.22496346,-0.10517136,-0.33412287,-0.33657473,0.26426265,0.24035859,-0.36030546,0.28091818,-0.016862312,0.156157,0.30377108,-0.028655473,-0.03512883,0.08104549,0.07138018,0.023148471,-0.046341687,0.033755247,-0.0072759413,-0.007496346,0.011424044,0.035160214,-0.07397128,-0.079865135,-0.4167925,-0.55863655,-1.0132496,1.2490758,2.0,0.71419847,-2.0,2.0,0.73156625,0.2940063,1.9097584,0.8303744,-0.295542,-0.48293465,-1.0539451,-0.32999703,2.0,0.43643665,-1.3980556,2.0,-0.39059588,-0.22456951,2.0
2025-07-19 15:18:18.275,2.3400000000000016,2340,117,-0.16612351,0.14218922,0.007941387,0.092776366,0.04737972,0.008149228,0.0,0.0,0.0,0.0,0.013284304,-0.20064881,-0.10850749,-0.31377506,-0.31425476,0.27393883,0.22288643,-0.3838824,0.29900438,-0.028679477,0.12665658,0.29983246,0.116029486,0.103360996,0.014468874,-0.012380125,0.103933945,0.06791228,-0.024664277,-0.122804776,0.051979065,-0.09254668,-0.11505426,0.037124753,0.8303744,-0.295542,-0.48293465,-1.0539451,-0.32999703,2.0,0.43643665,-1.3980556,2.0,-0.39059588,-0.22456951,2.0,0.3484598,-1.6440969,0.25617743,-1.7771401,-2.0,2.0,1.6589514,0.9837961,2.0,-1.150575,-0.108629815,2.0
2025-07-19 15:18:18.335,2.3600000000000017,2360,118,-0.25538644,0.022364806,-0.10893263,0.03161436,0.07543656,0.008672008,0.0,0.0,0.0,0.0,0.01418712,-0.24902873,-0.0766627,-0.32842207,-0.32663938,0.28016368,0.24007487,-0.3745774,0.29509923,-0.047261987,0.11061389,0.3090072,0.06978698,-0.11144862,0.04105714,0.020442141,-0.12155502,0.058936607,0.0009660459,0.15282612,0.045292046,-0.09502631,-0.044256102,-0.06555663,0.3484598,-1.6440969,0.25617743,-1.7771401,-2.0,2.0,1.6589514,0.9837961,2.0,-1.150575,-0.108629815,2.0,-0.3539475,0.08526938,0.53134507,-2.0,0.42854574,2.0,2.0,-0.97220695,2.0,-1.3188508,0.11145682,2.0
2025-07-19 15:18:18.410,2.3800000000000017,2380,119,0.07219767,-0.2881786,0.050322093,0.07377564,0.013860073,-0.03194,0.0,0.0,0.0,0.0,0.010725071,-0.27405345,-0.05096373,-0.3277633,-0.31981772,0.27368435,0.2660724,-0.3572908,0.3095973,-0.07948317,0.09559612,0.31155434,0.0019224172,0.05787738,0.01260746,-0.0654603,0.064370826,0.07542378,0.010201339,-0.044114266,0.01955287,-0.079078406,-0.025915578,0.06149212,-0.3539475,0.08526938,0.53134507,-2.0,0.42854574,2.0,2.0,-0.97220695,2.0,-1.3188508,0.11145682,2.0,0.29163012,-0.35949165,-0.20538875,-1.8906872,-2.0,2.0,1.5328434,0.08227073,2.0,-0.8489848,-0.032588024,2.0
2025-07-19 15:18:18.430,2.4000000000000017,2400,120,-0.06492639,-0.12715435,-0.17178577,0.03582288,0.009511219,0.04613513,0.0,0.0,0.0,0.0,0.027235886,-0.24935739,-0.049255203,-0.3310434,-0.3031663,0.29117772,0.26230544,-0.33883286,0.29719874,-0.09032999,0.07335691,0.30683592,0.06134415,-0.028182127,-0.07243725,-0.06417756,-0.085804015,0.0146048665,0.011059779,0.07816115,-0.043742232,-0.065062635,0.026854528,0.0124131655,0.29163012,-0.35949165,-0.20538875,-1.8906872,-2.0,2.0,1.5328434,0.08227073,2.0,-0.8489848,-0.032588024,2.0,-0.7333926,-0.35299122,-0.25445396,-1.9952397,0.2069737,2.0,1.7790225,-1.5748438,2.0,-0.13151956,1.08863,2.0
2025-07-19 15:18:18.450,2.4200000000000017,2420,121,0.07097209,-0.18838707,0.2173014,-0.0046586585,0.01794129,0.04985127,0.0,0.0,0.0,0.0,0.0010541201,-0.24444136,-0.06362855,-0.35332483,-0.291288,0.2786065,0.28052709,-0.35134384,0.29068324,-0.083951004,0.12365674,0.30176592,-0.027886247,-0.040355135,-0.06424911,-0.064446665,0.15624708,-0.02191426,0.09727443,-0.1102756,0.084499426,-0.026915263,0.18693699,-0.06553986,-0.7333926,-0.35299122,-0.25445396,-1.9952397,0.2069737,2.0,1.7790225,-1.5748438,2.0,-0.13151956,1.08863,2.0,0.04248514,-0.47638857,-0.90287143,-1.2255619,-2.0,1.8142608,0.23027201,0.23381542,2.0,-1.0586857,-1.1972032,2.0
2025-07-19 15:18:18.470,2.4400000000000017,2440,122,0.016559822,0.009619882,-0.24409889,0.055783413,-0.0031662753,-0.008857372,0.0,0.0,0.0,0.0,0.011538467,-0.23206554,-0.07512257,-0.33267128,-0.29138523,0.27532518,0.26328444,-0.33564037,0.2844856,-0.109486654,0.12251023,0.32061902,-0.042857483,0.05828933,-0.076731674,0.04450673,-0.05122464,0.03411417,0.019239653,0.15631545,0.004085697,-0.080589995,-0.06252835,-0.023401726,0.04248514,-0.47638857,-0.90287143,-1.2255619,-2.0,1.8142608,0.23027201,0.23381542,2.0,-1.0586857,-1.1972032,2.0,-1.5329144,-1.248969,-0.441737,-2.0,1.5777782,2.0,1.6446309,-2.0,2.0,-0.38522807,0.9693861,1.5826265
2025-07-19 15:18:18.493,2.4600000000000017,2460,123,0.13328286,0.051608685,0.20478609,0.014854217,0.0050233556,0.0010770898,0.0,0.0,0.0,0.0,-0.016954731,-0.26149008,-0.07650324,-0.35661066,-0.27555686,0.2769865,0.27597162,-0.34963685,0.29412392,-0.099608324,0.15915033,0.30394402,-0.0451175,-0.02851342,0.055159837,0.018355154,0.071233585,-0.039406925,0.0019690795,-0.15210894,0.06827876,0.033963688,0.16970685,0.038278975,-1.5329144,-1.248969,-0.441737,-2.0,1.5777782,2.0,1.6446309,-2.0,2.0,-0.38522807,0.9693861,1.5826265,0.21105793,-0.83025974,-1.2111876,-1.1700466,-2.0,1.3683805,0.033651672,0.41818607,2.0,-0.71131295,-1.0488105,2.0
2025-07-19 15:18:18.511,2.4800000000000018,2480,124,-0.11454111,0.090727754,-0.21892278,-0.019183168,-0.032192938,-0.04867839,0.0,0.0,0.0,0.0,-0.013277466,-0.27566296,-0.09825758,-0.35611263,-0.27912483,0.2655069,0.26863587,-0.35178375,0.28430375,-0.09895766,0.1516768,0.3073978,0.035198875,-0.087393425,-0.06998585,0.028055511,-0.02915164,-0.0526538,-0.06544263,0.07262306,0.0457731,0.032750774,-0.18521722,-0.060546648,0.21105793,-0.83025974,-1.2111876,-1.1700466,-2.0,1.3683805,0.033651672,0.41818607,2.0,-0.71131295,-1.0488105,2.0,-1.5826584,0.5580639,-0.5631681,-2.0,0.7674601,2.0,1.7838771,-1.1853124,2.0,-0.6909455,1.5432289,1.5523862
2025-07-19 15:18:18.530,2.5000000000000018,2500,125,0.08793259,-0.083223656,0.14415386,0.03574582,0.03972948,-0.007655651,0.0,0.0,0.0,0.0,-0.052033834,-0.23684241,-0.09938858,-0.34499532,-0.27710393,0.2632057,0.27124107,-0.361013,0.2946583,-0.10346927,0.13926329,0.28959998,-0.16210857,0.15809917,-0.062032916,0.009309653,0.090713665,-0.035144888,0.09207664,-0.008518208,0.08090562,-0.047984634,0.1627518,-0.031619217,-1.5826584,0.5580639,-0.5631681,-2.0,0.7674601,2.0,1.7838771,-1.1853124,2.0,-0.6909455,1.5432289,1.5523862,0.031840555,-1.0781174,-1.1380249,-1.3061533,-2.0,1.1864403,-0.48985365,-1.4441013,2.0,0.15653822,-0.23209137,2.0
2025-07-19 15:18:18.550,2.520000000000002,2520,126,-0.076765865,0.18094313,-0.017280554,0.011431495,0.005148523,-0.046101347,0.0,0.0,0.0,0.0,-0.047133397,-0.23095757,-0.1077267,-0.33932105,-0.26227054,0.25030077,0.275397,-0.3851273,0.29876333,-0.08633543,0.13160841,0.30335853,-0.034055714,-0.047423374,-0.028657995,0.011045512,-0.098688036,-0.0987803,-0.0013544236,-0.06764607,0.028998256,-0.025791895,-0.16857183,-0.031786524,0.031840555,-1.0781174,-1.1380249,-1.3061533,-2.0,1.1864403,-0.48985365,-1.4441013,2.0,0.15653822,-0.23209137,2.0,-0.06458748,-0.44886845,-0.40547398,-1.7872388,-0.9192934,2.0,1.2358586,1.6204481,2.0,-0.81588036,0.70820665,1.3221369
2025-07-19 15:18:18.570,2.540000000000002,2540,127,0.11859101,-0.15694743,-0.15268566,0.076188795,-0.022846231,0.020977892,0.0,0.0,0.0,0.0,-0.043466054,-0.23170435,-0.10011196,-0.33382368,-0.2798565,0.27038223,0.2535185,-0.3859069,0.29072228,-0.0884676,0.1461785,0.27019423,-0.02511617,0.056570426,-0.03998946,-0.008019768,-0.069179624,0.0760565,-0.060408752,0.08257541,0.03143584,0.021909013,0.040410515,-0.081464715,-0.06458748,-0.44886845,-0.40547398,-1.7872388,-0.9192934,2.0,1.2358586,1.6204481,2.0,-0.81588036,0.70820665,1.3221369,-0.753933,-0.5774259,-0.5438429,-1.3149194,1.1315559,2.0,0.8349825,-2.0,2.0,0.8819266,0.54369164,1.5597938
2025-07-19 15:18:18.593,2.560000000000002,2560,128,-0.10426002,0.005014222,0.14503092,0.050602883,-0.02569519,-0.015860472,0.0,0.0,0.0,0.0,-0.06271058,-0.22295628,-0.09545649,-0.3385675,-0.28250363,0.2736404,0.26483053,-0.3933813,0.30782774,-0.064722925,0.15632626,0.274007,-0.06580251,-0.037602134,-0.023322638,-0.03010884,0.061814897,0.06811805,-0.0494799,-0.028561302,0.013036623,0.11513272,0.08341243,-0.09326195,-0.753933,-0.5774259,-0.5438429,-1.3149194,1.1315559,2.0,0.8349825,-2.0,2.0,0.8819266,0.54369164,1.5597938,0.30022922,-0.306122,-1.312672,-0.88325465,-1.5969355,1.907703,0.066398226,-0.58075356,2.0,-0.058471885,-0.6991039,1.8193251
2025-07-19 15:18:18.610,2.580000000000002,2580,129,-0.23025523,0.1606409,-0.31812254,0.053703662,0.036297083,-0.034464426,0.0,0.0,0.0,0.0,-0.03981615,-0.2211129,-0.11888389,-0.31704473,-0.2861368,0.27473915,0.23980561,-0.3930586,0.29299363,-0.047834277,0.126846,0.2782777,0.01409872,0.088594,0.014654951,0.09909421,-0.01794537,-0.041502092,-0.06334736,0.11263897,-0.08178949,-0.0011296197,-0.051315375,0.058774024,0.30022922,-0.306122,-1.312672,-0.88325465,-1.5969355,1.907703,0.066398226,-0.58075356,2.0,-0.058471885,-0.6991039,1.8193251,-0.83645576,-0.9897601,-0.45314103,-1.8453529,2.0,2.0,1.0739231,-2.0,2.0,0.12442812,1.2560883,1.7006787
2025-07-19 15:18:18.630,2.600000000000002,2600,130,-0.0005029652,0.09607005,0.17808406,0.04489348,-0.010859966,0.0005342985,0.0,0.0,0.0,0.0,-0.05799958,-0.22710432,-0.10684059,-0.3314491,-0.29475844,0.26675338,0.24829139,-0.40948883,0.30396646,-0.038826168,0.14976083,0.27658296,0.013410968,-0.12207839,0.064976744,-0.057868585,0.03557403,-0.037575305,0.026091928,-0.15122056,0.025740694,-0.03610184,0.13631411,-0.04540066,-0.83645576,-0.9897601,-0.45314103,-1.8453529,2.0,2.0,1.0739231,-2.0,2.0,0.12442812,1.2560883,1.7006787,0.8182932,0.041341916,-0.6164915,-1.1391631,-1.7997344,1.8353688,0.011482621,0.6651273,2.0,-0.31000516,-0.7603414,2.0
2025-07-19 15:18:18.650,2.620000000000002,2620,131,0.030288896,-0.0112971645,-0.2782127,0.017513376,-0.014231397,0.04614464,0.0,0.0,0.0,0.0,-0.030256283,-0.22435,-0.115958884,-0.31948346,-0.32119346,0.28139192,0.22867258,-0.3941401,0.30107525,-0.045420926,0.16036218,0.2800205,0.042243473,0.04134633,0.06264011,0.002690694,-0.13063672,0.024320837,-0.012695811,0.023929354,0.003424863,0.029936241,-0.122821815,-0.008142001,0.8182932,0.041341916,-0.6164915,-1.1391631,-1.7997344,1.8353688,0.011482621,0.6651273,2.0,-0.31000516,-0.7603414,2.0,-0.5397139,0.07348733,-0.9234482,-1.9738193,2.0,2.0,2.0,-1.7583275,2.0,-0.1682989,0.40557367,1.9026195
2025-07-19 15:18:18.672,2.640000000000002,2640,132,0.04732948,0.03671176,0.03095828,0.06566886,0.015984267,0.004880511,0.0,0.0,0.0,0.0,-0.045216125,-0.18477888,-0.1301526,-0.32448912,-0.30224207,0.27656737,0.23727944,-0.4188787,0.28842372,-0.041295443,0.14109439,0.2811609,0.037702907,0.039636288,0.0019987423,-0.053517643,0.13342075,-0.03196138,0.08729464,-0.122154295,-0.019533467,0.023319662,0.045806438,0.019560251,-0.5397139,0.07348733,-0.9234482,-1.9738193,2.0,2.0,2.0,-1.7583275,2.0,-0.1682989,0.40557367,1.9026195,0.20587438,-1.3633716,-1.1412053,-1.8489573,-2.0,1.3944002,0.54031694,-0.79835194,2.0,0.8031071,1.0200964,2.0
2025-07-19 15:18:18.692,2.660000000000002,2660,133,0.0777554,0.058394123,-0.17581232,-0.003975259,-0.021807298,0.04426851,0.0,0.0,0.0,0.0,-0.023780502,-0.19276574,-0.13495676,-0.33286625,-0.30369055,0.26226336,0.23467004,-0.4106388,0.29450318,-0.016546866,0.19084734,0.29596245,0.0045689205,-0.104783505,-0.055560272,-0.05481296,-0.017930832,-0.061146643,-0.05704399,-0.017209549,-0.0021459183,0.02707967,0.063223824,-0.023906235,0.20587438,-1.3633716,-1.1412053,-1.8489573,-2.0,1.3944002,0.54031694,-0.79835194,2.0,0.8031071,1.0200964,2.0,-1.1417264,-2.0,-0.8559389,-1.5195439,-0.28803548,2.0,0.8370552,-1.1540345,2.0,0.9585202,1.3437651,1.7447467
2025-07-19 15:18:18.711,2.680000000000002,2680,134,0.023396684,-0.15284564,0.058110792,-0.008081524,-0.02722983,-0.022770172,0.0,0.0,0.0,0.0,-0.051670525,-0.29874694,-0.13191679,-0.3450501,-0.29927474,0.25534087,0.22606063,-0.41695592,0.28643605,0.029764598,0.24828257,0.27953604,-0.12035756,-0.27051693,0.06526117,0.05919275,0.062254712,0.023728088,0.012964824,-0.09326184,-0.023851862,0.0614125,0.099234946,-0.034005046,-1.1417264,-2.0,-0.8559389,-1.5195439,-0.28803548,2.0,0.8370552,-1.1540345,2.0,0.9585202,1.3437651,1.7447467,0.64624244,0.74209565,-1.5652518,-1.6988084,-1.2856451,1.919794,-0.034312673,0.37630343,2.0,-0.3529732,0.36361495,2.0
2025-07-19 15:18:18.731,2.700000000000002,2700,135,0.14179459,-0.080640614,-0.22121917,0.06612346,0.04643897,-0.025751881,0.0,0.0,0.0,0.0,-0.027879583,-0.3295267,-0.15257975,-0.33716053,-0.3294772,0.27352172,0.21865948,-0.40366712,0.2955795,-0.0009509758,0.25667027,0.2825788,0.12960428,0.10318018,-0.11255105,0.062171344,-0.11345813,-0.008356972,-0.12607124,0.089641094,-0.036755484,-0.035465937,-0.05973074,-0.061303448,0.64624244,0.74209565,-1.5652518,-1.6988084,-1.2856451,1.919794,-0.034312673,0.37630343,2.0,-0.3529732,0.36361495,2.0,-0.124218024,0.92518884,-0.5613938,-1.1818365,1.7086006,2.0,1.0944334,-2.0,2.0,0.3261347,0.8827983,2.0
2025-07-19 15:18:18.751,2.720000000000002,2720,136,-0.040279705,-0.13227855,0.012596045,0.014130389,-0.052771296,0.046630334,0.0,0.0,0.0,0.0,-0.036893226,-0.25033712,-0.13634077,-0.3273374,-0.31268317,0.26259142,0.22512919,-0.4139452,0.28190044,0.013873214,0.27480584,0.29678416,0.0069665327,0.26136038,-0.033644713,0.08957685,0.034323864,0.02219958,-0.023784405,-0.028671205,-0.027399717,0.006439436,0.104918435,0.015095428,-0.124218024,0.92518884,-0.5613938,-1.1818365,1.7086006,2.0,1.0944334,-2.0,2.0,0.3261347,0.8827983,2.0,0.82651865,-1.6238227,-1.3603961,-1.6350249,-0.8048136,1.5816368,0.13287573,-2.0,2.0,0.52828133,-0.732324,2.0
2025-07-19 15:18:18.775,2.740000000000002,2740,137,-0.018028557,0.20281957,0.0884736,-0.0010544301,-0.014162244,0.028603248,0.0,0.0,0.0,0.0,-0.0073110233,-0.23001307,-0.1579021,-0.32518736,-0.32366163,0.2639184,0.20139645,-0.45919275,0.29006287,0.031153657,0.22383322,0.2934539,0.03436828,-0.13773964,-0.07525551,0.015898738,-0.07925165,-0.05741741,-0.04337969,-0.17852639,0.023174068,0.00096224033,-0.19529973,-0.008834478,0.82651865,-1.6238227,-1.3603961,-1.6350249,-0.8048136,1.5816368,0.13287573,-2.0,2.0,0.52828133,-0.732324,2.0,0.96485186,-0.13708813,-0.5907511,-1.682692,-0.92172015,2.0,1.2773777,2.0,2.0,-1.5829686,-0.771419,1.6077949
2025-07-19 15:18:18.792,2.760000000000002,2760,138,-0.05363709,0.09456526,-0.18300565,0.024375606,0.0070399763,-0.040923033,0.0,0.0,0.0,0.0,0.022728393,-0.222334,-0.1352753,-0.33147782,-0.34646618,0.26042268,0.21927787,-0.4736402,0.29157788,-0.0068137585,0.15463997,0.29725525,0.11376841,0.04127266,-0.005668549,0.06818543,-0.007544765,-0.026652958,-0.023577865,0.041876018,0.057700973,-0.14213578,-0.07241174,-0.015199515,0.96485186,-0.13708813,-0.5907511,-1.682692,-0.92172015,2.0,1.2773777,2.0,2.0,-1.5829686,-0.771419,1.6077949,-0.5021195,0.19708209,-0.037830524,-2.0,0.49842653,2.0,1.9351029,-0.3496343,2.0,-0.6944383,-0.10129129,2.0
2025-07-19 15:18:18.811,2.780000000000002,2780,139,-0.036861174,-0.002741529,-0.10994677,-0.0024430922,0.0047114943,-0.02949343,0.0,0.0,0.0,0.0,0.0019449033,-0.1703891,-0.11537775,-0.3332344,-0.34484133,0.26776612,0.22912253,-0.43951103,0.27493367,-0.018156154,0.12751214,0.31005567,-0.028993608,0.056092527,0.1042297,-0.05541518,-0.00066589826,-0.020972807,0.08800412,0.06311368,-0.022914937,-0.09789753,-0.034843106,0.06921921,-0.5021195,0.19708209,-0.037830524,-2.0,0.49842653,2.0,1.9351029,-0.3496343,2.0,-0.6944383,-0.10129129,2.0,-0.13473544,-1.2473148,-0.1854243,-1.7999492,0.07178727,2.0,1.2513145,-1.6279701,2.0,0.40793756,0.7551919,2.0
2025-07-19 15:18:18.831,2.800000000000002,2800,140,0.046150338,0.06845107,0.21785341,0.046031464,-0.025743956,-0.013416974,0.0,0.0,0.0,0.0,-0.004006067,-0.17039157,-0.1014831,-0.34444234,-0.2956828,0.25603458,0.24577883,-0.4518354,0.2949733,-0.016677007,0.14946853,0.2932317,-0.060202915,-0.07698071,-0.01697113,-0.009711576,0.1308267,0.02398531,0.00884138,-0.089461476,0.07739854,0.022559172,0.12240789,0.056381423,-0.13473544,-1.2473148,-0.1854243,-1.7999492,0.07178727,2.0,1.2513145,-1.6279701,2.0,0.40793756,0.7551919,2.0,0.6956482,-1.5153084,-0.73072344,-1.4359101,-2.0,1.4073287,0.41184416,1.928614,2.0,-1.2887754,-1.3939883,2.0
2025-07-19 15:18:18.851,2.820000000000002,2820,141,-0.0120464135,0.19883257,-0.13223098,0.060783528,0.061149336,0.0415024,0.0,0.0,0.0,0.0,0.022246918,-0.23368518,-0.10201122,-0.3345053,-0.28809938,0.26120648,0.2379509,-0.45397946,0.28664216,-0.028758708,0.12543304,0.3015031,0.015647322,-0.13557363,0.013145584,-0.047626678,-0.04925038,-0.007877632,-0.10798142,-0.033529554,-0.07406948,-0.16470487,-0.2252368,0.065555,0.6956482,-1.5153084,-0.73072344,-1.4359101,-2.0,1.4073287,0.41184416,1.928614,2.0,-1.2887754,-1.3939883,2.0,-0.49521402,0.23953633,0.02087117,-2.0,-1.071365,2.0,2.0,2.0,2.0,-1.2315573,-0.21307088,1.5563468
2025-07-19 15:18:18.875,2.840000000000002,2840,142,0.19750905,-0.051159818,-0.20705576,0.060570467,0.013747358,0.008274554,0.0,0.0,0.0,0.0,0.004726154,-0.24380286,-0.08579644,-0.3423675,-0.3174522,0.26769662,0.25147352,-0.41237846,0.27942708,-0.057946112,0.093467146,0.29824612,-0.04978297,-0.026428869,-0.03623677,-0.039042942,-0.118272714,0.029808529,0.019320479,0.2308934,0.043815296,-0.0908786,-0.13885617,0.0061499523,-0.49521402,0.23953633,0.02087117,-2.0,-1.071365,2.0,2.0,2.0,2.0,-1.2315573,-0.21307088,1.5563468,-0.9898543,0.18019377,0.074647374,-1.6990459,1.3722903,2.0,1.2941406,-2.0,2.0,0.6086025,1.4589144,2.0
2025-07-19 15:18:18.893,2.860000000000002,2860,143,0.07475303,-0.15637992,0.22097057,-0.018944904,-0.00049154676,0.016780231,0.0,0.0,0.0,0.0,-0.00857165,-0.22009495,-0.089423746,-0.34531307,-0.29459217,0.2691135,0.25654078,-0.37930152,0.28592417,-0.0587059,0.1139588,0.2841374,-0.107061416,0.07438783,-0.04032121,0.066366754,0.20382,-0.024426194,0.04615375,-0.08668113,0.0029449991,0.10691386,0.117341295,-0.007490216,-0.9898543,0.18019377,0.074647374,-1.6990459,1.3722903,2.0,1.2941406,-2.0,2.0,0.6086025,1.4589144,2.0,0.595395,-1.3161187,-1.4645108,-1.3562145,-2.0,1.0448076,-0.20949659,1.0057416,2.0,-0.5529432,-0.57996595,1.9449853
2025-07-19 15:18:18.911,2.880000000000002,2880,144,0.053094126,0.10739209,-0.15548752,0.008901929,0.046649396,-0.0394912,0.0,0.0,0.0,0.0,0.00020726406,-0.23845631,-0.09728772,-0.3399943,-0.2928612,0.25064665,0.22750922,-0.37273628,0.28252894,-0.06853785,0.10258482,0.2972715,0.0056394604,-0.215841,-0.07042712,0.0068300506,-0.1130749,-0.053552568,-0.06027705,0.014167592,-0.017298473,-0.08321457,-0.11583549,-0.05412213,0.595395,-1.3161187,-1.4645108,-1.3562145,-2.0,1.0448076,-0.20949659,1.0057416,2.0,-0.5529432,-0.57996595,1.9449853,-1.015388,0.78281295,-0.64226407,-1.7891381,0.17429194,2.0,1.7440914,1.0474755,2.0,-0.92158186,1.1297337,1.2937988
2025-07-19 15:18:18.932,2.900000000000002,2900,145,0.07038115,-0.3429682,0.03534688,0.049479004,-0.01626427,0.017926864,0.0,0.0,0.0,0.0,-0.033404052,-0.2334967,-0.104162134,-0.32334244,-0.2711709,0.25571883,0.22916213,-0.30448312,0.2853377,-0.07810183,0.12780418,0.27260968,-0.03509497,0.09446474,-0.047188565,0.030692086,0.1842338,0.08163732,0.031755082,0.30221078,0.032078166,-0.028617555,0.23977906,-0.027566113,-1.015388,0.78281295,-0.64226407,-1.7891381,0.17429194,2.0,1.7440914,1.0474755,2.0,-0.92158186,1.1297337,1.2937988,-0.1467531,-0.35477185,0.56483334,-1.0080897,-1.7618228,1.4211125,-0.26886848,-2.0,2.0,0.78568286,-1.0504236,1.2154427
2025-07-19 15:18:18.951,2.920000000000002,2920,146,-0.16276671,0.30164903,-0.028071204,0.023448091,-0.004371055,-0.0075190216,0.0,0.0,0.0,0.0,-0.018872645,-0.21861313,-0.08157978,-0.32017875,-0.2832122,0.25144616,0.23367086,-0.27207395,0.2993846,-0.060389947,0.13839026,0.25922808,-0.06282275,0.023508105,0.007261034,-0.027259098,-0.08846924,-0.020193871,-0.075461365,0.009690284,0.077833176,-0.010638305,-0.08150107,-0.0059197517,-0.1467531,-0.35477185,0.56483334,-1.0080897,-1.7618228,1.4211125,-0.26886848,-2.0,2.0,0.78568286,-1.0504236,1.2154427,-0.28811648,0.69625896,-0.49090645,-1.6354765,-0.50986874,2.0,1.2839106,0.4785536,2.0,-0.05307814,-0.9322797,1.5035825
2025-07-19 15:18:18.975,2.940000000000002,2940,147,-0.123303056,-0.058180537,-0.14017177,0.030048514,-0.019348886,0.028356072,0.0,0.0,0.0,0.0,-0.020009106,-0.15460366,-0.07894713,-0.31502378,-0.30591208,0.24802157,0.22056334,-0.23355287,0.30084184,-0.04910969,0.108620934,0.26384017,-0.016873747,0.07038013,-0.015838519,0.030546729,0.021274727,-0.011977621,-0.065569006,0.1778577,0.08005326,0.05770309,-0.14249256,-0.06958486,-0.28811648,0.69625896,-0.49090645,-1.6354765,-0.50986874,2.0,1.2839106,0.4785536,2.0,-0.05307814,-0.9322797,1.5035825,-0.44007918,-0.88072795,-0.14961606,-1.546829,-0.057633042,2.0,1.0393932,-2.0,2.0,0.2270681,1.3494462,1.0071958
2025-07-19 15:18:18.993,2.960000000000002,2960,148,-0.003827146,-0.08814575,0.26035598,0.024504278,0.037130237,-0.040096063,0.0,0.0,0.0,0.0,-0.022164462,-0.15387346,-0.06944021,-0.31435665,-0.27412826,0.2553566,0.23268853,-0.20590553,0.30567145,-0.03082453,0.14303175,0.24763295,-0.07660559,-0.035502218,0.095086105,0.04260146,0.1404894,0.0052691973,0.039039325,-0.05433122,0.053792637,0.10247791,0.12859164,0.0049021775,-0.44007918,-0.88072795,-0.14961606,-1.546829,-0.057633042,2.0,1.0393932,-2.0,2.0,0.2270681,1.3494462,1.0071958,0.78084487,-1.1977973,-0.22196892,-1.0092336,-2.0,1.3588158,-0.37741616,0.5128521,2.0,-1.3601032,-1.5824053,1.2217345
2025-07-19 15:18:19.012,2.980000000000002,2980,149,0.0056874277,0.1127373,-0.15100594,0.06533651,0.015750466,0.0009738556,0.0,0.0,0.0,0.0,-0.004462197,-0.18825394,-0.07418853,-0.3096233,-0.25788793,0.24987227,0.2138157,-0.1800753,0.30282545,-0.05699494,0.13373642,0.2304021,0.14165622,-0.12465377,0.090626724,0.075155266,-0.117875434,0.010019503,-0.093505085,0.07735205,-0.07236612,-0.04544729,-0.1865869,-0.041161217,0.78084487,-1.1977973,-0.22196892,-1.0092336,-2.0,1.3588158,-0.37741616,0.5128521,2.0,-1.3601032,-1.5824053,1.2217345,-0.32138696,-0.17588253,0.28445068,-2.0,0.76909316,2.0,2.0,0.14027672,2.0,-1.700266,-0.16921882,0.5532277
2025-07-19 15:18:19.032,3.000000000000002,3000,150,0.11974306,-0.08385331,-0.09932569,0.038288828,-0.012894006,-0.03290016,0.0,0.0,0.0,0.0,-0.0055440883,-0.19236776,-0.05431618,-0.31321633,-0.24665605,0.26488575,0.23252283,-0.14411652,0.2855118,-0.10978528,0.088562116,0.20728992,0.0044665756,0.10507009,-0.014408615,-0.008056862,0.09342956,0.027233424,0.010755255,0.059118096,0.0027381012,-0.10491918,-0.0767919,0.0032386337,-0.32138696,-0.17588253,0.28445068,-2.0,0.76909316,2.0,2.0,0.14027672,2.0,-1.700266,-0.16921882,0.5532277,-0.42051607,-1.1250498,0.6099221,-1.6960824,-0.42880896,2.0,0.65404123,-2.0,2.0,0.5567501,1.2030852,1.8119335
2025-07-19 15:18:19.052,3.0200000000000022,3020,151,-0.010540298,0.045357447,0.111494,0.029971337,0.009595565,0.014640198,0.0,0.0,0.0,0.0,-0.030640133,-0.19659166,-0.026040724,-0.30365548,-0.22611326,0.26042637,0.20626803,-0.1678492,0.28906778,-0.08921423,0.099836946,0.22023493,-0.022934685,-0.013422609,0.121751204,-0.07256148,0.064986415,0.058278102,-0.08124275,-0.13101074,0.08401904,0.051877826,0.16706987,0.04910996,-0.42051607,-1.1250498,0.6099221,-1.6960824,-0.42880896,2.0,0.65404123,-2.0,2.0,0.5567501,1.2030852,1.8119335,0.25007346,-1.661768,-0.38751152,-1.0764734,-2.0,1.8605375,0.23907673,-0.6772958,2.0,-1.0209888,-1.0657371,1.7700502
2025-07-19 15:18:19.076,3.0400000000000023,3040,152,-0.1368101,0.22049187,-0.19879816,0.0021594658,-0.014736859,-0.018582692,0.0,0.0,0.0,0.0,-0.01810804,-0.25598478,-0.02613991,-0.30647865,-0.24615653,0.27010253,0.19821478,-0.18873183,0.3039407,-0.08415665,0.08658155,0.22983216,-0.012235619,-0.17983918,0.003916689,0.07623107,-0.06278871,0.06411979,-0.1031033,-0.03250449,-0.034222193,0.015902998,-0.2547774,0.017652262,0.25007346,-1.661768,-0.38751152,-1.0764734,-2.0,1.8605375,0.23907673,-0.6772958,2.0,-1.0209888,-1.0657371,1.7700502,-0.40862492,0.29590088,0.19539136,-2.0,0.5658413,2.0,2.0,-0.7647833,2.0,-1.1347846,2.0,1.6261379
2025-07-19 15:18:19.096,3.0600000000000023,3060,153,0.095707566,-0.14924571,0.076538965,0.031012267,-0.007390808,0.046464015,0.0,0.0,0.0,0.0,-0.021701518,-0.2730894,-0.02719118,-0.31432733,-0.23678504,0.26274648,0.21747695,-0.21435305,0.30367354,-0.103838965,0.08633651,0.23116022,0.043873865,-0.024347335,0.019208524,0.039142817,0.13017744,0.0336874,0.14117755,0.019618858,0.030975806,-0.071527585,0.11295574,0.01306463,-0.40862492,0.29590088,0.19539136,-2.0,0.5658413,2.0,2.0,-0.7647833,2.0,-1.1347846,2.0,1.6261379,0.30271468,0.15791328,1.173627,-1.4977895,-2.0,1.8165029,-0.015573537,-2.0,2.0,-0.06722286,0.35402232,2.0
2025-07-19 15:18:19.112,3.0800000000000023,3080,154,0.21606246,0.0011727135,-0.10798562,0.022790257,0.0274087,-0.021742241,0.0,0.0,0.0,0.0,-0.019111004,-0.24528053,-0.0007645512,-0.3121878,-0.2379452,0.28080407,0.2105228,-0.23599957,0.29771018,-0.09056174,0.10471764,0.24957384,0.059292078,0.055175357,0.08948373,0.008646704,-0.08486947,-0.063230805,0.0046906383,-0.05956181,0.07282581,-0.013341525,-0.024434444,-0.026673863,0.30271468,0.15791328,1.173627,-1.4977895,-2.0,1.8165029,-0.015573537,-2.0,2.0,-0.06722286,0.35402232,2.0,-0.09575928,-0.64017045,0.40961775,-2.0,-0.9026251,2.0,1.8608056,-0.5355131,2.0,-0.3286704,0.1278447,2.0
2025-07-19 15:18:19.132,3.1000000000000023,3100,155,0.014298021,0.00090036134,0.00039266289,0.08211366,0.016193444,-0.041025378,0.0,0.0,0.0,0.0,-0.013868881,-0.25717324,0.009664443,-0.31202993,-0.2694887,0.27739492,0.22004412,-0.22758423,0.3086161,-0.08715644,0.08213118,0.261066,0.06780017,0.016672075,-0.03628298,0.0112725645,-0.039666343,0.08166086,0.06153656,-0.0025846744,0.0016197932,0.0026552486,-0.077186465,-0.041257087,-0.09575928,-0.64017045,0.40961775,-2.0,-0.9026251,2.0,1.8608056,-0.5355131,2.0,-0.3286704,0.1278447,2.0,0.09977623,-0.7634082,0.054933153,-2.0,-1.0700049,2.0,1.3891696,-1.1805304,2.0,-0.7975178,1.049129,2.0
