openverse-orca/OrcaGym/log/simulation_log_20250609_123035.csv
timestamp,imu_angle_roll,imu_angle_pitch,imu_angle_yaw,imu_angular_velocity_roll,imu_angular_velocity_pitch,imu_angular_velocity_yaw,imu_acc_x,imu_acc_y,imu_acc_z,fl_joint1_pos,fl_joint1_vel,fl_joint1_torque,fl_joint2_pos,fl_joint2_vel,fl_joint2_torque,fl_joint3_pos,fl_joint3_vel,fl_joint3_torque,fr_joint1_pos,fr_joint1_vel,fr_joint1_torque,fr_joint2_pos,fr_joint2_vel,fr_joint2_torque,fr_joint3_pos,fr_joint3_vel,fr_joint3_torque,hl_joint1_pos,hl_joint1_vel,hl_joint1_torque,hl_joint2_pos,hl_joint2_vel,hl_joint2_torque,hl_joint3_pos,hl_joint3_vel,hl_joint3_torque,hr_joint1_pos,hr_joint1_vel,hr_joint1_torque,hr_joint2_pos,hr_joint2_vel,hr_joint2_torque,hr_joint3_pos,hr_joint3_vel,hr_joint3_torque,fl_force_x,fl_force_y,fl_force_z,fr_force_x,fr_force_y,fr_force_z,hl_force_x,hl_force_y,hl_force_z,hr_force_x,hr_force_y,hr_force_z,fl_hip_action,fl_thigh_action,fl_calf_action,fr_hip_action,fr_thigh_action,fr_calf_action,hl_hip_action,hl_thigh_action,hl_calf_action,hr_hip_action,hr_thigh_action,hr_calf_action
2025-06-09 12:30:35.324,-0.021112897,0.024645358,0.0070282547,0.021445025,0.04621901,0.002037202,1.4447656,1.1648453,0.0,0.0,0.008812462,-0.000110570654,-0.0009952208,-0.0077417768,-0.0025114317,-0.009118183,0.0023666562,-0.009283985,-0.0061353114,-0.0068533523,-0.0028718873,-0.005835438,-0.006902641,-0.00019058166,-0.048397634,0.07075479,0.035394326,-0.0487507,-0.011127783,0.07195369,0.07227284,0.02968747,-0.060207978,0.015123206,0.0,0.0,0.0,0.0,0.0,0.0,0.0,0.0,0.0,0.0,0.0,0.0,2.0,1.6238973,-1.2472595,-0.23246624,0.76915306,1.4464297,2.0,-0.09750715,2.0,-2.0,-0.05754726,-2.0
2025-06-09 12:30:35.329,-0.08214746,0.035749912,-0.029993119,0.048643086,0.033285715,0.038089003,0.0,0.0,0.0,0.0,0.0014596549,0.06546496,-0.037964337,-0.0018961855,0.017942622,0.027164776,0.017746031,0.004212063,0.052394677,-0.0076395855,-0.0069645178,-0.042064514,0.0775201,0.160816,-0.034585536,0.022728877,0.074684784,0.12109591,0.003587796,-0.08098621,0.16560791,-0.057726413,-0.04835205,-0.15150268,2.0,1.6238973,-1.2472595,-0.23246624,0.76915306,1.4464297,2.0,-0.09750715,2.0,-2.0,-0.05754726,-2.0,2.0,1.8163426,-2.0,-2.0,1.8660964,1.7936358,-2.0,0.34037662,2.0,-2.0,-2.0,-2.0
2025-06-09 12:30:35.349,0.10145798,0.00278267,0.123142704,-0.012033329,-0.025095765,0.0039695078,0.0,0.0,0.0,-0.00023849719,0.022750711,0.12294113,-0.067686684,-0.009321001,0.10576281,0.06888202,0.00015482002,0.0062917573,0.103990026,-0.04018163,-0.055001408,-0.07783963,0.00766696,0.09074888,-0.07447839,-0.03767119,0.19347544,0.08807242,-0.07074108,0.1073976,0.14001769,0.010149756,-0.19957063,-0.022421205,2.0,1.8163426,-2.0,-2.0,1.8660964,1.7936358,-2.0,0.34037662,2.0,-2.0,-2.0,-2.0,2.0,2.0,-2.0,-2.0,2.0,-2.0,-2.0,-1.32233,2.0,-2.0,-0.5142079,-2.0
2025-06-09 12:30:35.371,-0.02179888,0.030911345,0.040144175,0.024226485,-0.014198845,-0.025619728,0.0,0.0,0.0,-0.0013991931,0.017903425,0.12466499,-0.06205692,-0.031898756,0.19218792,0.018363193,-0.00524223,-0.019651154,0.1344987,-0.045376953,-0.097175814,-0.04901483,-0.0025770273,0.044704325,0.11753815,-0.11655885,0.2753007,-0.18291691,-0.007998964,-0.07524802,0.021946695,-0.08683391,-0.015151491,0.04461776,2.0,2.0,-2.0,-2.0,2.0,-2.0,-2.0,-1.32233,2.0,-2.0,-0.5142079,-2.0,2.0,2.0,-2.0,-2.0,2.0,-2.0,-2.0,-0.80301744,2.0,-2.0,-0.8829661,-2.0
2025-06-09 12:30:35.389,0.046814084,-0.069833264,0.07205912,-0.041185934,0.042248648,0.0029972412,0.0,0.0,0.0,-0.0028053073,0.025950858,0.13004999,-0.037283797,-0.05442048,0.26514703,-0.032014042,-0.02465297,-0.06988791,0.16872847,-0.05400573,-0.12415869,-0.004869576,0.042604208,-0.061515752,0.057514798,0.030696519,0.1449186,-0.0036955737,-0.069173574,-0.13748255,0.072415955,-0.09105522,-0.05032209,0.13863686,2.0,2.0,-2.0,-2.0,2.0,-2.0,-2.0,-0.80301744,2.0,-2.0,-0.8829661,-2.0,2.0,2.0,-2.0,-2.0,2.0,-2.0,-0.72330195,-0.98247,2.0,-2.0,-0.3560267,-2.0
2025-06-09 12:30:35.409,0.031242764,-0.13019511,0.025380291,-0.019596849,0.035656594,-0.041512243,0.0,0.0,0.0,-0.0040423092,0.029899431,0.13103104,-0.016805792,-0.0474025,0.2810987,-0.027171107,-0.020769218,-0.10718479,0.17763513,-0.06739912,-0.11011124,0.011333506,-0.00071620545,0.06995535,-0.02470175,-0.010971226,0.013518888,0.032899708,-0.05583875,-0.14110374,0.08505848,-0.093946956,-0.03028547,0.07731763,2.0,2.0,-2.0,-2.0,2.0,-2.0,-0.72330195,-0.98247,2.0,-2.0,-0.3560267,-2.0,2.0,2.0,-2.0,-2.0,2.0,-2.0,1.8722262,-0.034122527,0.7168113,-2.0,-0.8427493,-2.0
2025-06-09 12:30:35.429,0.11156589,0.0016622103,0.059607297,0.04076834,-0.014232854,0.024548149,0.0,0.0,0.0,-0.00487636,0.030935217,0.15956838,-0.014115541,-0.05043441,0.2939962,-0.031379204,-0.003093795,-0.09346774,0.16572022,-0.06616208,-0.113123946,0.0199475,0.07594784,0.022432229,0.036590595,-0.06565916,0.122329056,-0.038833603,0.107502215,0.12625282,-0.015485226,-0.049923833,0.09439037,-0.059588794,2.0,2.0,-2.0,-2.0,2.0,-2.0,1.8722262,-0.034122527,0.7168113,-2.0,-0.8427493,-2.0,0.01211416,1.5364454,-0.118402705,-2.0,2.0,-2.0,2.0,0.20453066,-2.0,-2.0,-0.5805444,-2.0
2025-06-09 12:30:35.449,0.0689269,-0.21414635,0.022566648,0.020254685,0.025379729,0.018013366,0.0,0.0,0.0,-0.00598702,0.022640865,0.17306975,-0.013591626,-0.0584194,0.32423818,-0.051953446,0.02048479,-0.05351464,0.06784614,-0.08282999,-0.08487946,0.011688526,-0.08190145,0.006956923,-0.033733338,-0.010043085,0.09221941,-0.06777801,0.08259622,0.17727225,-0.32440513,-0.0778473,0.05504982,0.024277572,0.01211416,1.5364454,-0.118402705,-2.0,2.0,-2.0,2.0,0.20453066,-2.0,-2.0,-0.5805444,-2.0,-2.0,2.0,-0.6515995,-2.0,1.352692,-2.0,2.0,0.20049995,-2.0,-2.0,0.00174224,-2.0
2025-06-09 12:30:35.470,-0.07605725,-0.14422849,0.0077578067,-0.014025605,-0.015127445,-0.045097794,0.0,0.0,0.0,-0.007254296,0.00816813,0.20867167,-0.009717871,-0.06286928,0.3485321,-0.069217585,0.01693656,-0.028315192,0.0046722856,-0.10155082,-0.06211515,0.001262394,0.018576585,0.12199174,-0.04175366,-0.026480794,0.12644574,-0.036468614,-0.07121499,0.03299754,-0.011025001,0.013045004,0.06594116,0.0073770415,-2.0,2.0,-0.6515995,-2.0,1.352692,-2.0,2.0,0.20049995,-2.0,-2.0,0.00174224,-2.0,-2.0,2.0,-2.0,0.32026768,1.3084407,-2.0,2.0,-0.025206625,-2.0,-2.0,0.015764367,-2.0
2025-06-09 12:30:35.490,0.04187299,0.01698512,-0.0012855671,-0.056392215,-0.015284473,0.041566964,0.0,0.0,0.0,-0.008375072,-0.0023346571,0.23915467,-0.009550476,-0.058031227,0.3478958,-0.068670854,0.037086114,-0.0011078956,-0.012889374,-0.101094015,-0.03615779,0.0068325866,0.018944936,0.15022881,-0.04352882,-0.025489904,0.02224044,-0.03681677,0.00865649,0.025204957,-0.051105883,0.012974323,0.010029173,-0.019040463,-2.0,2.0,-2.0,0.32026768,1.3084407,-2.0,2.0,-0.025206625,-2.0,-2.0,0.015764367,-2.0,-2.0,2.0,-2.0,2.0,2.0,-2.0,2.0,0.29251915,-2.0,-2.0,0.54124564,-2.0
2025-06-09 12:30:35.511,-0.04265944,0.074677095,0.039764326,0.006537957,0.048651226,-0.036421295,0.0,0.0,0.0,-0.009285132,0.011021145,0.28214586,-0.03920226,-0.031152148,0.38655856,-0.09265527,0.029778354,0.035554197,-0.010967923,-0.0937531,-0.0029864323,-0.018247662,0.057998672,0.06106487,-0.05155013,0.047615062,0.048374493,-0.01392802,-0.0025584218,0.052880414,-0.02837146,0.043038897,0.12721696,-0.010906256,-2.0,2.0,-2.0,2.0,2.0,-2.0,2.0,0.29251915,-2.0,-2.0,0.54124564,-2.0,-2.0,2.0,-2.0,2.0,2.0,-2.0,2.0,-0.14504522,-2.0,-2.0,0.70121807,-2.0
2025-06-09 12:30:35.531,-0.057514805,0.0925249,0.0023745345,0.021599213,-0.029215159,0.025766231,0.0,0.0,0.0,-0.009853519,0.009771341,0.31766942,-0.058077388,-0.013900317,0.39612117,-0.09961814,0.048899535,0.051180698,-0.014240217,-0.07904543,0.029798348,-0.02715285,-0.06415199,0.11217649,-0.11997222,-0.007144404,0.04901606,-0.08687366,-0.036202855,0.09085622,-0.054114524,-0.01378117,0.11762612,-0.10919362,-2.0,2.0,-2.0,2.0,2.0,-2.0,2.0,-0.14504522,-2.0,-2.0,0.70121807,-2.0,-2.0,2.0,-2.0,2.0,2.0,-2.0,2.0,-0.039688647,-2.0,-2.0,0.47435266,-2.0
2025-06-09 12:30:35.551,0.053886082,-0.00073125,-0.04952632,0.052304782,0.04131313,0.014304815,0.0,0.0,0.0,-0.009430183,0.001240912,0.3413409,-0.07556785,-0.0072583416,0.421804,-0.114620596,0.048007466,0.067686185,-0.021691808,-0.06552773,0.05962229,-0.045122784,-0.037675623,0.041571315,-0.07742546,0.036005512,0.0024989683,-0.018112747,0.06737771,0.037342574,0.02933246,0.0022435552,0.0647466,-0.06438722,-2.0,2.0,-2.0,2.0,2.0,-2.0,2.0,-0.039688647,-2.0,-2.0,0.47435266,-2.0,-2.0,2.0,-2.0,2.0,2.0,-2.0,2.0,0.46625215,-2.0,-2.0,0.35157645,-2.0
2025-06-09 12:30:35.573,-0.040285535,0.053676646,-0.025170775,-0.026004868,0.015442821,-0.027493538,0.0,0.0,0.0,-0.008257021,-0.009731745,0.36203575,-0.09226675,0.019281281,0.41943535,-0.12529047,0.05307937,0.09096599,-0.021203952,-0.06451928,0.07570588,-0.044174295,0.012774043,0.03698475,-0.09382356,0.091349415,0.08920706,0.02958968,-0.022091119,0.046222944,-0.049354423,-0.03251204,0.11313063,0.046603687,-2.0,2.0,-2.0,2.0,2.0,-2.0,2.0,0.46625215,-2.0,-2.0,0.35157645,-2.0,-2.0,2.0,-2.0,2.0,2.0,-2.0,2.0,0.43747288,-2.0,-2.0,0.4824506,-2.0
2025-06-09 12:30:35.593,0.023233363,-0.015099945,-0.06652655,-0.012825243,-0.023775563,0.023598865,0.0,0.0,0.0,-0.006930934,-0.018944465,0.38002622,-0.10376875,0.025163334,0.43835074,-0.14021891,0.05064561,0.11155859,-0.017749052,-0.05619193,0.105340466,-0.037106935,-0.09246388,0.10639867,0.0500636,-0.038023867,0.016340103,0.02817256,0.07635457,-0.038291812,0.025668524,0.07894553,-0.01979334,0.023003552,-2.0,2.0,-2.0,2.0,2.0,-2.0,2.0,0.43747288,-2.0,-2.0,0.4824506,-2.0,-2.0,2.0,-2.0,2.0,2.0,-2.0,2.0,1.0350335,-2.0,-2.0,0.28578955,-2.0
2025-06-09 12:30:35.610,-0.059296116,0.047191065,-0.0535345,0.011701566,0.003794166,-0.027475,0.0,0.0,0.0,-0.0056371978,-0.008644123,0.40091535,-0.10471148,0.02822034,0.42655012,-0.1370659,0.065858565,0.115775764,-0.030874293,-0.059305314,0.11970644,-0.03799056,-0.07691132,0.10112215,0.011913931,0.007843849,0.04009484,0.014312904,-0.019819813,0.069901936,0.016071783,0.07469344,0.07044335,-0.012622594,-2.0,2.0,-2.0,2.0,2.0,-2.0,2.0,1.0350335,-2.0,-2.0,0.28578955,-2.0,-2.0,2.0,-2.0,2.0,2.0,-2.0,2.0,0.9714758,-2.0,-2.0,0.254439,-2.0
2025-06-09 12:30:35.630,0.012161176,0.041067783,0.05941443,0.03230987,-0.038072105,0.021358717,0.0,0.0,0.0,-0.004875585,-0.021460103,0.4079207,-0.109102145,0.030630345,0.4381301,-0.14597903,0.055360984,0.14603409,-0.03627717,-0.0514077,0.14417876,-0.0287642,-0.042409737,-0.023507249,-0.07158305,-0.027745701,-0.042570595,0.070620716,0.055804458,0.09256992,-0.035505358,0.041814823,-0.016836459,-0.033002134,-2.0,2.0,-2.0,2.0,2.0,-2.0,2.0,0.9714758,-2.0,-2.0,0.254439,-2.0,-2.0,2.0,-2.0,2.0,2.0,-2.0,2.0,0.34230918,-2.0,-2.0,0.82507557,-2.0
2025-06-09 12:30:35.653,-0.03978041,0.013609907,-0.0039482857,0.043636266,-0.017006874,-0.046244398,0.0,0.0,0.0,-0.00484738,-0.018769082,0.42165652,-0.10612042,0.049149696,0.45916826,-0.1331214,0.056066856,0.15412916,-0.03160152,-0.064543016,0.14016448,-0.03723154,-0.051187314,0.0319874,-0.020516263,-0.07031982,0.07728533,0.05332462,-0.033549808,-0.035191767,-0.017437987,0.042606585,-0.014987426,-0.022678444,-2.0,2.0,-2.0,2.0,2.0,-2.0,2.0,0.34230918,-2.0,-2.0,0.82507557,-2.0,-2.0,2.0,-2.0,2.0,2.0,-2.0,2.0,0.63283664,-2.0,-2.0,0.75130314,-2.0
2025-06-09 12:30:35.670,-0.0017558705,-0.012513503,-0.042058904,-0.028610175,-0.03990622,0.024633076,0.0,0.0,0.0,-0.004621767,-0.032725733,0.43490568,-0.10330109,0.050133687,0.45604345,-0.12220134,0.052315332,0.15158488,-0.02778967,-0.06457395,0.1546139,-0.027872829,0.05189932,0.011020058,-0.00975862,0.021879021,-0.04545493,0.04018112,-0.044272285,0.012914024,-0.027326522,-0.05079827,-0.010671997,0.054345377,-2.0,2.0,-2.0,2.0,2.0,-2.0,2.0,0.63283664,-2.0,-2.0,0.75130314,-2.0,-2.0,2.0,-2.0,2.0,2.0,-2.0,2.0,1.1104991,-2.0,-2.0,0.54762197,-2.0
2025-06-09 12:30:35.690,-0.081087925,0.0049462733,0.03978424,0.062269274,0.02625958,-0.03360056,0.0,0.0,0.0,-0.0041136597,-0.03579113,0.43598711,-0.09651541,0.043898135,0.46260855,-0.1303005,0.062573224,0.17586634,-0.0253757,-0.059669442,0.15862648,-0.011628272,-0.07805269,-0.04682641,0.027748702,-0.030664226,0.008015614,0.05553138,0.020675626,0.03817254,-0.045716766,-0.05755231,0.046784453,0.016753726,-2.0,2.0,-2.0,2.0,2.0,-2.0,2.0,1.1104991,-2.0,-2.0,0.54762197,-2.0,-2.0,2.0,-2.0,2.0,2.0,-2.0,2.0,0.3899396,-2.0,-2.0,0.8065155,-2.0
2025-06-09 12:30:35.711,-0.026973678,0.015067003,-0.022786893,0.01352683,-0.03459263,-0.026417887,0.0,0.0,0.0,-0.0039787306,-0.030867225,0.45062792,-0.09570582,0.0495267,0.46059528,-0.10632842,0.06374695,0.17446287,-0.026852123,-0.055501938,0.15529568,-0.023751799,-0.052427657,-0.039600823,0.019835422,-0.07441613,0.058269996,-0.0035501532,-0.019677848,0.004768483,-0.045201935,0.013930514,-0.06220031,0.031130899,-2.0,2.0,-2.0,2.0,2.0,-2.0,2.0,0.3899396,-2.0,-2.0,0.8065155,-2.0,-2.0,2.0,-2.0,2.0,2.0,-2.0,2.0,0.84494466,-2.0,-2.0,0.6729037,-2.0
2025-06-09 12:30:35.730,-0.040164966,0.03685343,-0.024103103,0.0011233642,-0.04377789,0.019111918,0.0,0.0,0.0,-0.0036923804,-0.030037329,0.4484853,-0.10479917,0.04325369,0.47651276,-0.1182748,0.05960739,0.17478776,-0.00847928,-0.06314107,0.17002964,0.00077972905,0.03297093,-0.0031743045,-0.05847982,-0.014935763,-0.04618258,0.04174061,0.04058829,0.0026110306,0.07368288,0.03703337,0.07460769,0.028612448,-2.0,2.0,-2.0,2.0,2.0,-2.0,2.0,0.84494466,-2.0,-2.0,0.6729037,-2.0,-2.0,2.0,-2.0,2.0,2.0,-2.0,2.0,0.7967059,-2.0,-2.0,0.690951,-2.0
2025-06-09 12:30:35.753,0.03436074,0.054126285,-0.011509376,0.063758776,-0.011649854,0.016674343,0.0,0.0,0.0,-0.003359627,-0.031733032,0.46451515,-0.09553806,0.04995394,0.47135973,-0.10422542,0.055151388,0.17849997,-0.018542105,-0.068217,0.16636199,0.001042969,0.061752662,-0.06432451,-0.04259497,0.061090767,-0.06146281,-1.05706495e-05,0.018707516,-0.05929512,0.038371813,0.0072611067,0.044214107,0.048122115,-2.0,2.0,-2.0,2.0,2.0,-2.0,2.0,0.7967059,-2.0,-2.0,0.690951,-2.0,-2.0,2.0,-2.0,2.0,2.0,-2.0,2.0,0.773385,-2.0,-2.0,0.8149427,-2.0
2025-06-09 12:30:35.771,0.003599459,0.012121268,0.004315677,0.064968035,8.657871e-05,-0.047577985,0.0,0.0,0.0,-0.003149436,-0.040261246,0.46675968,-0.09831729,0.053794377,0.48314634,-0.09957571,0.04854408,0.18067783,-0.0100013185,-0.05698793,0.17473559,-0.010199691,-0.039064072,0.041941278,0.045792725,0.046357047,0.010154606,0.037121117,-0.004611511,0.050269354,-0.07180939,0.054003,-0.05719596,-0.026108302,-2.0,2.0,-2.0,2.0,2.0,-2.0,2.0,0.773385,-2.0,-2.0,0.8149427,-2.0,-2.0,2.0,-2.0,2.0,2.0,-2.0,2.0,0.90499943,-2.0,-2.0,0.7517349,-2.0
2025-06-09 12:30:35.791,-0.048650946,0.008364188,-0.05065643,0.05702305,-0.043227855,0.0010127884,0.0,0.0,0.0,-0.0029176548,-0.043684293,0.46335417,-0.106023274,0.05634496,0.4840604,-0.092891835,0.053736854,0.18641646,-0.017178282,-0.05794252,0.18409882,0.0070564183,0.035047326,-0.07063806,0.026067581,0.048983946,0.058424734,-0.06650662,0.056625117,0.07825151,0.011610596,-0.03704001,0.04752433,0.03277436,-2.0,2.0,-2.0,2.0,2.0,-2.0,2.0,0.90499943,-2.0,-2.0,0.7517349,-2.0,-2.0,2.0,-2.0,2.0,2.0,-2.0,2.0,0.8944518,-2.0,-2.0,0.56323045,-2.0
2025-06-09 12:30:35.811,-0.04761198,0.0032045424,-0.010671158,-0.020676937,0.00092183246,-0.04638206,0.0,0.0,0.0,-0.0027569057,-0.05064205,0.47326618,-0.10880136,0.051904257,0.4780512,-0.09315622,0.056638476,0.19374508,-0.01552404,-0.07064604,0.1728219,-0.0005696776,0.02551449,0.015067136,0.07181024,-0.019319264,-0.07740979,-0.036897104,-0.03706203,0.0034258002,-0.002729129,0.0003737836,0.061316483,-0.012697834,-2.0,2.0,-2.0,2.0,2.0,-2.0,2.0,0.8944518,-2.0,-2.0,0.56323045,-2.0,-2.0,2.0,-2.0,2.0,2.0,-2.0,2.0,0.98152035,-2.0,-2.0,0.6807441,-2.0
2025-06-09 12:30:35.831,-0.026817158,0.034308404,-0.018710028,0.012588746,-0.03507039,-0.020386461,0.0,0.0,0.0,-0.0028350963,-0.05063611,0.46225107,-0.111788414,0.05571168,0.47540385,-0.10581778,0.059350718,0.1827571,-0.035096686,-0.06007461,0.16622938,-0.0021578108,-0.009544961,0.012685974,-0.044230767,0.06225257,-0.014857049,0.033124976,-0.04653372,-0.04916038,-0.027572617,0.003043499,-0.060870677,0.02060916,-2.0,2.0,-2.0,2.0,2.0,-2.0,2.0,0.98152035,-2.0,-2.0,0.6807441,-2.0,-2.0,2.0,-2.0,2.0,2.0,-2.0,2.0,1.0589128,-2.0,-2.0,0.7276503,-2.0
2025-06-09 12:30:35.854,-0.042845417,0.01799977,-0.0017577679,0.06479651,0.016612785,-0.0036888407,0.0,0.0,0.0,-0.0031179306,-0.04553244,0.46486598,-0.11349352,0.04294308,0.48461655,-0.09847786,0.05719146,0.18978228,-0.04058134,-0.07000384,0.16941752,-0.0031941456,0.07152297,-0.010990271,0.064855576,-0.034999322,0.041519526,0.016928893,0.04687385,0.05647711,-0.07192057,-0.01830357,-0.049218863,-0.035112225,-2.0,2.0,-2.0,2.0,2.0,-2.0,2.0,1.0589128,-2.0,-2.0,0.7276503,-2.0,-2.0,2.0,-2.0,2.0,2.0,-2.0,2.0,0.93119353,-2.0,-2.0,0.7664501,-2.0
2025-06-09 12:30:35.871,0.00268875,0.02159448,0.028120259,0.025658723,0.021482294,-0.031266674,0.0,0.0,0.0,-0.0035311305,-0.042987455,0.45843044,-0.10338063,0.049619135,0.48027888,-0.08672982,0.06068674,0.20663641,-0.031544205,-0.06598534,0.18062727,0.00042658407,0.026333265,0.016462978,0.04018026,0.024761613,0.038153123,0.032737426,0.02200826,0.06939009,-0.061608337,-0.065242805,-0.0036349322,0.03263163,-2.0,2.0,-2.0,2.0,2.0,-2.0,2.0,0.93119353,-2.0,-2.0,0.7664501,-2.0,-2.0,2.0,-2.0,2.0,2.0,-2.0,2.0,0.6876134,-2.0,-2.0,0.9132383,-2.0
2025-06-09 12:30:35.891,-0.06071876,0.011484254,-0.0058909226,0.050189987,0.039503343,-0.041236848,0.0,0.0,0.0,-0.003900277,-0.04593212,0.4554835,-0.11055367,0.049666014,0.47274485,-0.088822946,0.042119835,0.19937389,-0.042268146,-0.074457265,0.1643659,-0.012471911,-0.034223612,0.060318932,-0.008438174,0.050604817,-0.021951301,0.026302472,-0.0024360989,-0.05448674,0.058152467,0.015860017,0.056139365,-0.07538563,-2.0,2.0,-2.0,2.0,2.0,-2.0,2.0,0.6876134,-2.0,-2.0,0.9132383,-2.0,-2.0,2.0,-2.0,2.0,2.0,-2.0,2.0,0.7381403,-2.0,-2.0,0.74222904,-2.0
2025-06-09 12:30:35.911,0.025156759,-0.032846738,0.028080398,0.04160924,-0.031054908,-0.010942004,0.0,0.0,0.0,-0.003918083,-0.046434473,0.45596054,-0.097681895,0.04686543,0.46839562,-0.10054455,0.043299526,0.1846953,-0.04024744,-0.07714857,0.17034008,-0.018045437,0.05835305,0.04028871,-0.07536954,0.06366886,-0.040278867,-0.028421476,0.073640816,0.053162634,-0.056886263,0.039922073,0.052138004,-0.020081785,-2.0,2.0,-2.0,2.0,2.0,-2.0,2.0,0.7381403,-2.0,-2.0,0.74222904,-2.0,-2.0,2.0,-2.0,2.0,2.0,-2.0,2.0,0.5554089,-2.0,-2.0,0.86269796,-2.0
2025-06-09 12:30:35.931,-0.032482106,0.00844045,-0.05237623,0.07576905,-0.020748071,0.014010216,0.0,0.0,0.0,-0.003720152,-0.040209092,0.45370856,-0.097400196,0.04813772,0.45495805,-0.09421453,0.056079775,0.17937656,-0.03565066,-0.059890993,0.16209514,-0.014541477,-0.027250342,-0.066100635,-0.030120218,0.03304829,-0.072456524,-0.044290874,0.069484554,-0.022437649,0.039173577,-0.026749432,0.056053,0.025161458,-2.0,2.0,-2.0,2.0,2.0,-2.0,2.0,0.5554089,-2.0,-2.0,0.86269796,-2.0,-2.0,2.0,-2.0,2.0,2.0,-2.0,2.0,0.8256672,-2.0,-2.0,0.47949022,-2.0
2025-06-09 12:30:35.954,-0.0075603286,0.007863412,0.0068205995,0.075795636,-0.033018235,0.0008153589,0.0,0.0,0.0,-0.0032739474,-0.049854733,0.4549965,-0.10710862,0.052552037,0.46902,-0.08949527,0.05467995,0.18859376,-0.05122121,-0.062380467,0.17281981,-0.024828749,-0.04066043,0.033847548,0.0037107095,-0.037819296,0.053482417,-0.06750574,-0.02782741,-0.0074262726,-0.011700229,0.04152855,-0.0042952597,-0.06642549,-2.0,2.0,-2.0,2.0,2.0,-2.0,2.0,0.8256672,-2.0,-2.0,0.47949022,-2.0,-2.0,2.0,-2.0,2.0,2.0,-2.0,2.0,0.70156246,-2.0,-2.0,0.7710892,-2.0
2025-06-09 12:30:35.971,-0.019511715,-0.02787523,0.03375989,0.009740358,-0.004386123,0.031119114,0.0,0.0,0.0,-0.00300349,-0.05044503,0.44040897,-0.11244958,0.052234575,0.45391077,-0.0980204,0.053370465,0.17132854,-0.046478264,-0.05988326,0.1681263,-0.023636736,-0.059060767,0.04589906,0.031026958,0.00865857,-0.029256573,-0.06976214,0.029520048,-0.059043597,-0.03455977,-0.04785086,0.03842468,0.024323676,-2.0,2.0,-2.0,2.0,2.0,-2.0,2.0,0.70156246,-2.0,-2.0,0.7710892,-2.0,-2.0,2.0,-2.0,2.0,2.0,-2.0,2.0,0.46299773,-2.0,-2.0,0.92251986,-2.0
2025-06-09 12:30:35.992,0.008130857,-0.045772072,0.011871623,0.041109335,-0.012726027,-0.009808685,0.0,0.0,0.0,-0.0028301463,-0.048269782,0.43552214,-0.097860634,0.047545113,0.459385,-0.10467238,0.058460988,0.16438358,-0.034697447,-0.07161688,0.15462326,-0.027436247,-0.005815478,-0.021219125,-0.04741332,-0.04772557,-0.036596686,-0.06613224,0.018141385,0.0090649165,-0.043082703,0.05004688,-0.0006018114,0.012212522,-2.0,2.0,-2.0,2.0,2.0,-2.0,2.0,0.46299773,-2.0,-2.0,0.92251986,-2.0,-2.0,2.0,-2.0,2.0,2.0,-2.0,2.0,0.5534434,-2.0,-2.0,0.8241424,-2.0
2025-06-09 12:30:36.012,0.027553825,-0.06543687,-0.018075984,0.010853215,0.044304322,-0.009236219,0.0,0.0,0.0,-0.0023898177,-0.04744111,0.43683118,-0.11303497,0.04362787,0.4489435,-0.09576286,0.05879295,0.16240989,-0.05336519,-0.05589408,0.1518414,-0.03966922,-0.0054095965,0.038818516,0.018697288,0.019808462,-0.012971441,-0.045370292,-0.059454627,0.026681162,0.005841452,0.021846775,-0.020205697,0.032617386,-2.0,2.0,-2.0,2.0,2.0,-2.0,2.0,0.5534434,-2.0,-2.0,0.8241424,-2.0,-2.0,2.0,-2.0,2.0,2.0,-2.0,2.0,0.8584792,-2.0,-2.0,0.66233796,-2.0
2025-06-09 12:30:36.032,-0.061871883,0.023606893,0.0028734715,0.04258187,-0.016295893,0.025575615,0.0,0.0,0.0,-0.0018081814,-0.051301137,0.4286198,-0.09616972,0.050704535,0.43828404,-0.09864186,0.06446552,0.16758008,-0.054761905,-0.054974943,0.16092773,-0.028326599,0.04071445,-0.07218834,-0.0025564914,0.034178965,0.045951147,-0.05322183,0.0016602139,-0.049937442,0.0116859,0.07542762,-0.022576267,0.011599606,-2.0,2.0,-2.0,2.0,2.0,-2.0,2.0,0.8584792,-2.0,-2.0,0.66233796,-2.0,-2.0,2.0,-2.0,2.0,2.0,-2.0,2.0,0.60084397,-2.0,-2.0,0.8378413,-2.0
2025-06-09 12:30:36.054,-0.023756724,-0.052319307,-0.02948855,0.04545878,0.02333946,-0.03999446,0.0,0.0,0.0,-0.0015308362,-0.044336047,0.4238428,-0.10676055,0.05275918,0.44370398,-0.09581298,0.050663207,0.16365138,-0.05604238,-0.06529665,0.17036648,-0.03596692,-0.056277383,0.024560383,-0.06018888,-0.057468645,-0.073710725,0.061457895,-0.06900601,-0.0745028,0.046653297,-0.009618685,-0.0016281599,-0.012769778,-2.0,2.0,-2.0,2.0,2.0,-2.0,2.0,0.60084397,-2.0,-2.0,0.8378413,-2.0,-2.0,2.0,-2.0,2.0,2.0,-2.0,2.0,0.8607014,-2.0,-2.0,0.58120495,-2.0
2025-06-09 12:30:36.072,0.008577088,-0.022421654,-0.01191704,0.006290589,0.017842736,-0.01885979,0.0,0.0,0.0,-0.0013716829,-0.040851247,0.424026,-0.10460845,0.047605373,0.45158783,-0.09451611,0.05056449,0.15745519,-0.054791678,-0.050566714,0.16062243,-0.039804403,0.07453179,0.032188635,0.015947862,0.06905879,0.049047075,0.05902896,-0.041580863,0.04686664,-0.06504382,0.025950085,-0.01582497,-0.0068718772,-2.0,2.0,-2.0,2.0,2.0,-2.0,2.0,0.8607014,-2.0,-2.0,0.58120495,-2.0,-2.0,2.0,-2.0,2.0,2.0,-2.0,2.0,0.91769254,-2.0,-2.0,0.70345277,-2.0
2025-06-09 12:30:36.092,0.011152012,-0.016249591,0.05138725,0.02799752,0.020640625,0.024065813,0.0,0.0,0.0,-0.0014906464,-0.054558855,0.4148486,-0.1056191,0.055042833,0.4347315,-0.09282386,0.066659346,0.15306087,-0.056078773,-0.06733333,0.16929333,-0.049978398,-0.009718422,-0.0036866185,-0.046529733,0.07842481,0.045634195,-0.013161296,0.031628456,0.035797838,-0.011521496,-0.028103702,-0.0730025,0.0077416254,-2.0,2.0,-2.0,2.0,2.0,-2.0,2.0,0.91769254,-2.0,-2.0,0.70345277,-2.0,-2.0,2.0,-2.0,2.0,2.0,-2.0,2.0,0.40416104,-2.0,-2.0,0.9968118,-2.0
2025-06-09 12:30:36.112,-0.02035281,-0.01372016,-0.047799155,0.020678196,0.0356815,-0.044141293,0.0,0.0,0.0,-0.0019013837,-0.037855737,0.4094322,-0.10357148,0.046438962,0.43682584,-0.10399279,0.050030466,0.15874605,-0.06278771,-0.0522794,0.16399983,-0.0551243,0.0025929655,-0.0051933993,0.06583705,0.013620134,-0.055047777,-0.06458197,0.067960754,0.012686892,0.037769057,0.023671314,0.06676368,-0.05639677,-2.0,2.0,-2.0,2.0,2.0,-2.0,2.0,0.40416104,-2.0,-2.0,0.9968118,-2.0,-2.0,2.0,-2.0,2.0,2.0,-2.0,2.0,0.7410793,-2.0,-2.0,0.47151357,-2.0
2025-06-09 12:30:36.132,-0.010575293,0.033813264,0.05740895,0.081135154,0.036751445,-0.012297421,0.0,0.0,0.0,-0.0019890417,-0.05584498,0.4120249,-0.08597967,0.057932634,0.43531835,-0.10224413,0.0538294,0.16134098,-0.05280965,-0.06410513,0.15936147,-0.061926074,0.012987096,-0.0034628948,0.047798466,0.05394146,-0.009851457,-0.031303465,-0.054244332,-0.05192213,-0.02846734,-0.050948262,-0.07280963,0.012242761,-2.0,2.0,-2.0,2.0,2.0,-2.0,2.0,0.7410793,-2.0,-2.0,0.47151357,-2.0,-2.0,2.0,-2.0,2.0,2.0,-2.0,2.0,0.5170031,-2.0,-2.0,0.9996024,-2.0
2025-06-09 12:30:36.153,-0.013838312,-0.021821354,0.02894499,0.07277455,0.025967987,0.0023457203,0.0,0.0,0.0,-0.0021269342,-0.053909,0.39984235,-0.100679435,0.044176314,0.42696592,-0.10943146,0.06150914,0.1569938,-0.055389997,-0.052382264,0.15595499,-0.06263993,0.065191194,-0.04618171,-0.006698613,-0.0069280225,-0.03925912,-0.025798855,-0.07123167,-0.051188555,-0.007845913,0.020048473,0.004002093,-0.013307227,-2.0,2.0,-2.0,2.0,2.0,-2.0,2.0,0.5170031,-2.0,-2.0,0.9996024,-2.0,-2.0,2.0,-2.0,2.0,2.0,-2.0,2.0,0.38587862,-2.0,-2.0,0.9851728,-2.0
2025-06-09 12:30:36.172,-0.03597716,-0.030977009,-0.042621206,0.07848034,0.01832532,0.009665947,0.0,0.0,0.0,-0.0020884182,-0.04881394,0.3948662,-0.09209256,0.05639037,0.4357503,-0.09735684,0.05101838,0.14593564,-0.06545361,-0.06368323,0.1589659,-0.06704666,0.038350146,0.03614861,0.05495663,-0.038547646,0.050400455,0.059072345,-0.04349979,-0.046167865,0.074330606,0.0007651115,0.031648092,-0.06422085,-2.0,2.0,-2.0,2.0,2.0,-2.0,2.0,0.38587862,-2.0,-2.0,0.9851728,-2.0,-2.0,2.0,-2.0,2.0,2.0,-2.0,2.0,0.72801334,-2.0,-2.0,0.5853037,-2.0
2025-06-09 12:30:36.192,-0.034642637,-0.023871519,0.012169746,0.011025818,0.013898024,0.025926689,0.0,0.0,0.0,-0.0016464726,-0.050271112,0.40915972,-0.10123787,0.058297183,0.432444,-0.09674829,0.05609264,0.15268306,-0.06360252,-0.06472864,0.15140574,-0.06690768,-0.01558402,-0.07015576,0.030623581,0.025206694,-0.045814518,-0.038871232,-0.03863531,-0.008589657,0.062277205,0.0013238734,0.04461411,0.009770885,-2.0,2.0,-2.0,2.0,2.0,-2.0,2.0,0.72801334,-2.0,-2.0,0.5853037,-2.0,-2.0,2.0,-2.0,2.0,2.0,-2.0,2.0,0.5088088,-2.0,-2.0,0.73529476,-2.0
2025-06-09 12:30:36.212,0.05967873,-0.032615732,-0.03384208,-0.006033615,0.02462577,-0.032434236,0.0,0.0,0.0,-0.001372668,-0.047063105,0.39913505,-0.09421542,0.04784413,0.43140483,-0.10713572,0.06280943,0.14094672,-0.0577072,-0.060877025,0.14625478,-0.059128545,-0.031472832,0.07001502,0.053969987,0.040841084,-0.049299426,0.046373725,-0.02671523,0.043641843,0.03780603,-0.025477987,-0.0022822474,-0.0038870764,-2.0,2.0,-2.0,2.0,2.0,-2.0,2.0,0.5088088,-2.0,-2.0,0.73529476,-2.0,-2.0,2.0,-2.0,2.0,2.0,-2.0,2.0,0.928621,-2.0,-2.0,0.43331409,-2.0
2025-06-09 12:30:36.233,-0.04113836,0.037885085,0.041619353,0.022853654,0.022152405,0.047171682,0.0,0.0,0.0,-0.001233274,-0.053252127,0.39936057,-0.09532496,0.057344258,0.436794,-0.10633268,0.06260932,0.15270954,-0.049420185,-0.051778596,0.1442913,-0.06628802,0.03832457,-0.012610808,0.031866577,-0.029534046,-0.043329515,-0.01164673,-0.0045832694,0.047746412,-0.017259443,0.04230904,0.012221571,-0.045073453,-2.0,2.0,-2.0,2.0,2.0,-2.0,2.0,0.928621,-2.0,-2.0,0.43331409,-2.0,-2.0,2.0,-2.0,2.0,2.0,-2.0,2.0,0.4675811,-2.0,-2.0,0.8172662,-2.0
2025-06-09 12:30:36.253,0.036014218,-0.030880757,0.043076895,0.06956766,0.020743622,0.03794972,0.0,0.0,0.0,-0.0015106138,-0.050948244,0.39226487,-0.096730754,0.060831405,0.42746535,-0.1018802,0.05720371,0.14623398,-0.064170934,-0.048126232,0.15274425,-0.062117964,-0.052638937,-0.049887683,-0.024686413,-0.051178493,-0.03560486,0.0069331573,0.050816786,0.03954561,-0.022640416,0.04978099,0.037677832,-0.032600254,-2.0,2.0,-2.0,2.0,2.0,-2.0,2.0,0.4675811,-2.0,-2.0,0.8172662,-2.0,-2.0,2.0,-2.0,2.0,2.0,-2.0,2.0,0.15678388,-2.0,-2.0,0.89303404,-2.0
2025-06-09 12:30:36.273,-0.010913227,0.024000937,0.01726998,-0.013053726,0.010336276,0.0020989873,0.0,0.0,0.0,-0.001761439,-0.05543014,0.39953345,-0.10459787,0.056152545,0.4308153,-0.10173616,0.06811019,0.15032451,-0.04393247,-0.059197318,0.14198864,-0.050302748,-0.043770302,0.069377445,-0.032393284,0.04055913,-0.022231443,0.0039275764,0.029085966,0.008429401,0.059386432,0.029873593,-0.06393991,-0.0041649714,-2.0,2.0,-2.0,2.0,2.0,-2.0,2.0,0.15678388,-2.0,-2.0,0.89303404,-2.0,-2.0,2.0,-2.0,2.0,2.0,-2.0,2.0,0.549385,-2.0,-2.0,0.86255133,-2.0
2025-06-09 12:30:36.292,0.021287546,-0.015830666,-0.023292681,0.011932694,-0.04033117,-0.0056656674,0.0,0.0,0.0,-0.0015036283,-0.041409776,0.39931133,-0.09947222,0.040174875,0.42983449,-0.09911393,0.06597466,0.13530849,-0.04586779,-0.06700825,0.15553057,-0.057800744,-0.020419491,0.051922224,-0.05886526,0.050455384,0.015977668,0.06506992,0.074195035,0.034025528,-0.007215605,-0.0008161481,0.02432149,-0.043298304,-2.0,2.0,-2.0,2.0,2.0,-2.0,2.0,0.549385,-2.0,-2.0,0.86255133,-2.0,-2.0,2.0,-2.0,2.0,2.0,-2.0,2.0,0.6083154,-2.0,-2.0,0.5687912,-2.0
2025-06-09 12:30:36.313,-0.009431881,0.032141525,0.005951068,0.009243635,0.017618233,0.049602043,0.0,0.0,0.0,-0.0010380219,-0.048721116,0.4081107,-0.08784806,0.05514605,0.43405667,-0.10050399,0.06202622,0.13611114,-0.059069216,-0.066326275,0.14735281,-0.05732581,-0.04423785,0.006193233,-0.023448873,-0.037516292,0.024252208,0.05019463,-0.065156676,0.04670844,0.03220086,0.024898121,0.019139964,-0.04649533,-2.0,2.0,-2.0,2.0,2.0,-2.0,2.0,0.6083154,-2.0,-2.0,0.5687912,-2.0,-2.0,2.0,-2.0,2.0,2.0,-2.0,2.0,0.5512982,-2.0,-2.0,0.6677386,-2.0
2025-06-09 12:30:36.333,0.053862173,-0.010740602,0.0008152964,0.011766272,0.023080172,0.008422282,0.0,0.0,0.0,-0.00081504526,-0.054974414,0.40379345,-0.10478038,0.05146015,0.4252724,-0.105450906,0.060627133,0.14046155,-0.05573659,-0.046606533,0.15132527,-0.056411836,-0.009450548,-0.047938704,0.034081604,0.039998356,-0.021521656,-0.05233673,0.05641728,-0.00816307,0.025679134,-0.059878327,0.0038224652,0.05899822,-2.0,2.0,-2.0,2.0,2.0,-2.0,2.0,0.5512982,-2.0,-2.0,0.6677386,-2.0,-2.0,2.0,-2.0,2.0,2.0,-2.0,2.0,0.5342817,-2.0,-2.0,0.77026516,-2.0
2025-06-09 12:30:36.353,-0.038641166,-0.04010148,0.015163312,0.023718657,0.030393917,0.035990857,0.0,0.0,0.0,-0.0007815742,-0.047267776,0.3965676,-0.089369185,0.056453645,0.42272848,-0.10391428,0.06789126,0.14628704,-0.046977025,-0.061307665,0.1605509,-0.05921146,-0.049700655,0.01237657,-0.025700253,0.012873995,-0.0037514274,-0.02173353,-0.051591415,-0.047009606,-0.0043197586,-0.018633716,-0.06368948,-0.045489445,-2.0,2.0,-2.0,2.0,2.0,-2.0,2.0,0.5342817,-2.0,-2.0,0.77026516,-2.0,-2.0,2.0,-2.0,2.0,2.0,-2.0,2.0,0.60539013,-2.0,-2.0,0.8365752,-2.0
2025-06-09 12:30:36.373,0.00393804,0.010059272,0.040829226,3.4374152e-05,0.03041244,-0.04507542,0.0,0.0,0.0,-0.00076462905,-0.05645392,0.39262408,-0.09180419,0.056574985,0.42766553,-0.11002193,0.05752628,0.14099878,-0.05555739,-0.05766031,0.14460576,-0.049714215,0.014758526,0.021821147,0.07445104,-0.06983267,0.07584998,-0.0034722944,-0.038491447,-0.017717782,0.014843562,-0.051299665,0.0065421066,-0.054233238,-2.0,2.0,-2.0,2.0,2.0,-2.0,2.0,0.60539013,-2.0,-2.0,0.8365752,-2.0,-2.0,2.0,-2.0,2.0,2.0,-2.0,2.0,0.32985193,-2.0,-2.0,0.94240516,-2.0
2025-06-09 12:30:36.393,-0.011007783,0.031307917,0.020391451,0.07015246,-0.0012174016,-0.00040200524,0.0,0.0,0.0,-0.00073191425,-0.04961102,0.40705085,-0.09595024,0.05070209,0.43546385,-0.10602184,0.059368182,0.14010738,-0.046078015,-0.0644889,0.15398368,-0.061749827,0.030908529,0.062075224,-0.044707812,-0.07600167,0.028007263,-0.041845314,0.04537285,-0.003117704,0.02399197,-0.0062143193,0.026627574,0.06990818,-2.0,2.0,-2.0,2.0,2.0,-2.0,2.0,0.32985193,-2.0,-2.0,0.94240516,-2.0,-2.0,2.0,-2.0,2.0,2.0,-2.0,2.0,0.36800355,-2.0,-2.0,0.8686999,-2.0
2025-06-09 12:30:36.413,-0.010312082,0.013933724,-0.057411015,-0.0060293865,0.0435543,0.028191557,0.0,0.0,0.0,-0.00046779934,-0.048606936,0.40546793,-0.101473354,0.037050623,0.4297721,-0.10120654,0.06619136,0.15056305,-0.046695504,-0.05096977,0.1664644,-0.04854921,-0.06490618,-0.073469244,0.049040437,-0.043381255,0.07131074,-0.043206654,-0.021543724,0.055598848,-0.017741185,0.035487268,0.06008631,0.03937381,-2.0,2.0,-2.0,2.0,2.0,-2.0,2.0,0.36800355,-2.0,-2.0,0.8686999,-2.0,-2.0,2.0,-2.0,2.0,2.0,-2.0,2.0,0.6321959,-2.0,-2.0,0.47052032,-2.0
2025-06-09 12:30:36.434,0.041028664,0.055218175,-0.01964066,0.030192263,-0.02147092,0.026127206,0.0,0.0,0.0,-6.6212738e-06,-0.054265484,0.4018951,-0.10308077,0.050916765,0.4475608,-0.09929658,0.066259,0.14808103,-0.052806195,-0.048853695,0.15628505,-0.0498103,0.067741536,-0.010453865,-0.06286783,-0.0026469869,0.026619883,0.029808521,0.020313663,0.026998043,0.048427355,0.0037502313,-0.033511993,-0.021319164,-2.0,2.0,-2.0,2.0,2.0,-2.0,2.0,0.6321959,-2.0,-2.0,0.47052032,-2.0,-2.0,2.0,-2.0,2.0,2.0,-2.0,2.0,0.76444346,-2.0,-2.0,0.7077289,-2.0
2025-06-09 12:30:36.454,-0.022507528,0.01982165,0.0380213,-0.00092669996,0.02658978,0.028354479,0.0,0.0,0.0,0.00011471045,-0.047526613,0.41354036,-0.09906504,0.045628797,0.44545966,-0.10762002,0.070678085,0.14536361,-0.0480906,-0.04496783,0.15873784,-0.051262606,-0.012410298,0.04299567,-0.015829155,0.055515148,0.064171545,-0.058477525,0.0039055008,0.066684134,-0.034898106,-0.06461338,-0.047051385,-0.011406717,-2.0,2.0,-2.0,2.0,2.0,-2.0,2.0,0.76444346,-2.0,-2.0,0.7077289,-2.0,-2.0,2.0,-2.0,2.0,2.0,-2.0,2.0,0.48194307,-2.0,-2.0,0.9570164,-2.0
2025-06-09 12:30:36.473,-0.04623196,-0.025209904,-0.023956051,0.043885197,-0.03742843,-0.037423167,0.0,0.0,0.0,-0.00013077454,-0.04898515,0.40446454,-0.10747067,0.04008722,0.43352273,-0.1116404,0.06589523,0.15749095,-0.05031364,-0.063571,0.15352122,-0.051760066,0.03171986,0.07408202,0.07137573,0.0013100262,0.007240194,0.016439006,-0.04769895,-0.0081760995,0.040265404,0.030798392,0.051491022,0.012997787,-2.0,2.0,-2.0,2.0,2.0,-2.0,2.0,0.48194307,-2.0,-2.0,0.9570164,-2.0,-2.0,2.0,-2.0,2.0,2.0,-2.0,2.0,0.7048462,-2.0,-2.0,0.56979966,-2.0
2025-06-09 12:30:36.493,0.022286057,0.055884983,0.02585343,0.054960437,-0.040380143,-0.04351403,0.0,0.0,0.0,-0.00026237147,-0.05311551,0.4178364,-0.10583078,0.05115825,0.44894376,-0.1069189,0.057196103,0.14712663,-0.04374697,-0.0550897,0.1506739,-0.049067765,0.029284824,-0.04449453,-0.03739847,0.044568624,0.0455269,0.03466673,0.007200726,0.0517411,0.04927697,-0.013996628,0.0072666993,0.053900193,-2.0,2.0,-2.0,2.0,2.0,-2.0,2.0,0.7048462,-2.0,-2.0,0.56979966,-2.0,-2.0,2.0,-2.0,2.0,2.0,-2.0,2.0,0.41599232,-2.0,-2.0,0.85803336,-2.0
2025-06-09 12:30:36.513,0.015601186,-0.025568476,0.04215278,0.019766303,0.039683443,-0.0028896471,0.0,0.0,0.0,-0.00051519915,-0.059714098,0.40632135,-0.10798078,0.049087245,0.44970584,-0.10598062,0.0531652,0.14267483,-0.049402945,-0.060956933,0.15900733,-0.046084605,0.064845316,0.012541457,0.058822747,0.06915006,-0.06028409,-0.0005211069,0.014702697,-0.027510278,0.07103237,0.024563123,0.06581177,0.030090228,-2.0,2.0,-2.0,2.0,2.0,-2.0,2.0,0.41599232,-2.0,-2.0,0.85803336,-2.0,-2.0,2.0,-2.0,2.0,2.0,-2.0,2.0,0.2689156,-2.0,-2.0,1.0702896,-2.0
2025-06-09 12:30:36.536,0.04837071,-0.004033686,0.01959552,0.009672731,0.0010269758,0.027726693,0.0,0.0,0.0,-0.0006615122,-0.044797737,0.42035827,-0.101931594,0.056469645,0.43622088,-0.099394314,0.058333952,0.15963908,-0.046692524,-0.053667318,0.1587314,-0.0526897,-0.006096015,-0.020324955,0.07416693,-0.014443146,0.054310333,0.058085036,-0.06343149,0.0685496,0.026004935,-0.034280922,-0.029408026,0.0378536,-2.0,2.0,-2.0,2.0,2.0,-2.0,2.0,0.2689156,-2.0,-2.0,1.0702896,-2.0,-2.0,2.0,-2.0,2.0,2.0,-2.0,2.0,0.5449311,-2.0,-2.0,0.8736314,-2.0
2025-06-09 12:30:36.554,-0.016647374,0.035697285,0.025417415,0.062634856,0.02599686,-0.04584699,0.0,0.0,0.0,-0.00032345022,-0.058000118,0.41927767,-0.108095326,0.05697931,0.45244262,-0.11037166,0.05618231,0.15661319,-0.042347733,-0.052220657,0.16473521,-0.05453811,-0.039494585,0.026523275,0.013329575,0.013544852,0.0407069,0.0048602633,0.000106011474,0.010282038,0.055778075,-0.04833505,-0.042418733,0.018188946,-2.0,2.0,-2.0,2.0,2.0,-2.0,2.0,0.5449311,-2.0,-2.0,0.8736314,-2.0,-2.0,2.0,-2.0,2.0,2.0,-2.0,2.0,0.52409536,-2.0,-2.0,0.9072016,-2.0
2025-06-09 12:30:36.574,-0.001382906,-0.00054170145,-0.0407919,0.022003261,0.0028976013,0.022653298,0.0,0.0,0.0,0.0001552538,-0.06166318,0.41878465,-0.10115669,0.04949,0.43863276,-0.10858616,0.053154297,0.14552431,-0.03539138,-0.051027924,0.1753115,-0.054432962,-0.059253387,0.0047950894,-0.0077748373,0.053366266,0.008508264,-0.017801762,-0.056224365,-0.03833545,0.010420054,-0.016789097,-0.013660653,0.018895462,-2.0,2.0,-2.0,2.0,2.0,-2.0,2.0,0.52409536,-2.0,-2.0,0.9072016,-2.0,-2.0,2.0,-2.0,2.0,2.0,-2.0,2.0,0.8251491,-2.0,-2.0,0.613762,-2.0
2025-06-09 12:30:36.594,-0.04664311,-0.02035665,0.022280013,0.012262629,0.01891631,-0.030182509,0.0,0.0,0.0,0.00057681947,-0.051568665,0.41413036,-0.09285501,0.048379153,0.45841265,-0.10060907,0.07137733,0.15078862,-0.0499817,-0.05437114,0.17018722,-0.043027114,0.019476017,0.07302154,-0.063482985,-0.024509046,0.0074163578,0.051482927,0.05322062,0.023350941,-0.03141317,-0.011972835,0.03884429,-0.02045798,-2.0,2.0,-2.0,2.0,2.0,-2.0,2.0,0.8251491,-2.0,-2.0,0.613762,-2.0,-2.0,2.0,-2.0,2.0,2.0,-2.0,2.0,0.4448815,-2.0,-2.0,0.8476577,-2.0
2025-06-09 12:30:36.614,0.004883265,0.0048811655,0.011761794,0.047064133,-0.015036604,0.024519425,0.0,0.0,0.0,0.00058038,-0.058550384,0.4165687,-0.10443555,0.050452895,0.45747012,-0.097977474,0.06893817,0.14415461,-0.047016945,-0.049967155,0.17010084,-0.05224747,-0.008174894,-0.011709826,-0.072172016,0.048781887,0.03393442,-0.013409774,-0.063860014,0.04559939,0.06812141,0.059801556,0.07258522,0.046361648,-2.0,2.0,-2.0,2.0,2.0,-2.0,2.0,0.4448815,-2.0,-2.0,0.8476577,-2.0,-2.0,2.0,-2.0,2.0,2.0,-2.0,2.0,0.2909246,-2.0,-2.0,0.92478925,-2.0
2025-06-09 12:30:36.637,0.030293161,0.016062792,-0.025043529,0.052749783,-0.048698552,0.010443702,0.0,0.0,0.0,0.00048691122,-0.051045872,0.41378504,-0.091272414,0.056307476,0.45789278,-0.096071005,0.06337345,0.14711267,-0.044262588,-0.04804998,0.17081474,-0.04787632,-0.07070143,0.055990905,-0.05589252,-0.036277607,0.009809946,0.04569214,0.04763838,-0.029353186,-0.048169147,0.053615913,-0.050020225,-0.010828067,-2.0,2.0,-2.0,2.0,2.0,-2.0,2.0,0.2909246,-2.0,-2.0,0.92478925,-2.0,-2.0,2.0,-2.0,2.0,2.0,-2.0,2.0,0.70231324,-2.0,-2.0,0.6939437,-2.0
2025-06-09 12:30:36.654,-0.023676649,0.004345807,0.04049016,0.010877491,0.002101407,-0.029557107,0.0,0.0,0.0,0.0006476976,-0.053422842,0.408477,-0.10366019,0.042075135,0.4565074,-0.09709322,0.06766096,0.15318269,-0.039282862,-0.061176196,0.17136048,-0.05098646,0.058467023,0.06656333,-0.008781304,0.064309984,0.06897865,0.042555373,0.03361475,0.042480763,0.019905528,-0.020507837,-0.0497643,0.07717266,-2.0,2.0,-2.0,2.0,2.0,-2.0,2.0,0.70231324,-2.0,-2.0,0.6939437,-2.0,-2.0,2.0,-2.0,2.0,2.0,-2.0,2.0,0.4946316,-2.0,-2.0,1.0334184,-2.0
2025-06-09 12:30:36.674,-0.06409849,0.026479194,-0.05033118,0.03658627,-0.03945471,-0.011913223,0.0,0.0,0.0,0.0006553411,-0.05321852,0.40691817,-0.09982964,0.046537027,0.44950488,-0.10366506,0.06972158,0.14195378,-0.038989473,-0.059768062,0.1749825,-0.04965865,-0.027442416,0.06568358,0.013812519,0.009206186,-0.06986549,-0.03628414,-0.03298601,0.052292187,-0.035939608,-0.03388844,0.045523826,0.061286252,-2.0,2.0,-2.0,2.0,2.0,-2.0,2.0,0.4946316,-2.0,-2.0,1.0334184,-2.0,-2.0,2.0,-2.0,2.0,2.0,-2.0,2.0,0.81755835,-2.0,-2.0,0.384499,-2.0
2025-06-09 12:30:36.694,0.016332213,0.0018724593,0.013411488,-0.013882819,-0.0032461358,0.035075516,0.0,0.0,0.0,0.0006939876,-0.050017457,0.41625714,-0.10781978,0.050143655,0.44941142,-0.09927785,0.065509245,0.16242938,-0.047752116,-0.045752287,0.1613353,-0.05223736,0.04373042,0.03473946,-0.056502517,-0.061623644,0.042282764,-0.028885331,-0.024538742,0.0565129,0.0031656239,0.022132026,-0.0699622,0.03554598,-2.0,2.0,-2.0,2.0,2.0,-2.0,2.0,0.81755835,-2.0,-2.0,0.384499,-2.0,-2.0,2.0,-2.0,2.0,2.0,-2.0,2.0,0.78366417,-2.0,-2.0,0.82103837,-2.0
2025-06-09 12:30:36.714,-0.03271409,-0.029470151,0.045794223,0.015258332,-0.046816833,4.3702905e-05,0.0,0.0,0.0,0.00033970116,-0.061789695,0.4142992,-0.098225914,0.05196111,0.45244268,-0.10966353,0.07118681,0.15820226,-0.038589697,-0.05772603,0.15790875,-0.050901458,-0.0063800565,0.06505887,-0.03967608,-0.054614805,-0.012200536,0.016033089,0.061350722,-0.009740676,-0.026275242,0.018318463,0.06505741,0.041065183,-2.0,2.0,-2.0,2.0,2.0,-2.0,2.0,0.78366417,-2.0,-2.0,0.82103837,-2.0,-2.0,2.0,-2.0,2.0,2.0,-2.0,2.0,0.22719401,-2.0,-2.0,0.90875196,-2.0
2025-06-09 12:30:36.776,-0.011862434,-0.011395075,0.008091093,0.0030057705,0.048277043,-0.02278551,0.0,0.0,0.0,-0.00024341143,-0.0452474,0.41302645,-0.107227676,0.047060683,0.4419887,-0.10059841,0.053393822,0.14559099,-0.04318719,-0.06754739,0.16465524,-0.047953065,0.045966838,2.3294491e-05,-0.0048500462,-0.03746955,0.024986349,0.04499598,-0.051076267,-0.044814147,-0.0017528111,-0.06351721,-0.030636566,0.015373555,-2.0,2.0,-2.0,2.0,2.0,-2.0,2.0,0.22719401,-2.0,-2.0,0.90875196,-2.0,-2.0,2.0,-2.0,2.0,2.0,-2.0,2.0,0.6179444,-2.0,-2.0,0.95997363,-2.0
2025-06-09 12:30:36.795,0.016055314,0.034008685,-0.039612725,0.0037217182,-0.02639842,-0.033163734,0.0,0.0,0.0,-0.00042216788,-0.05190443,0.4211047,-0.096377,0.05323145,0.4545941,-0.0967495,0.06741558,0.15758915,-0.034855668,-0.06085628,0.16551462,-0.045627967,0.031290717,-0.051713318,0.0069086193,0.055370457,0.046142984,0.06486638,-0.034735363,0.009758578,-0.01687517,0.0692654,0.037863895,0.00026730387,-2.0,2.0,-2.0,2.0,2.0,-2.0,2.0,0.6179444,-2.0,-2.0,0.95997363,-2.0,-2.0,2.0,-2.0,2.0,2.0,-2.0,2.0,0.7255946,-2.0,-2.0,0.63838416,-2.0
2025-06-09 12:30:36.815,-0.019583954,0.055014018,-0.03545603,-0.011054642,-0.030871414,-0.030659257,0.0,0.0,0.0,-0.0003243337,-0.048122082,0.40763637,-0.099816285,0.046725824,0.43845516,-0.10939768,0.059861735,0.157057,-0.040388513,-0.06192125,0.16127546,-0.03652467,0.053253915,-0.013847005,0.046804674,-0.008535789,0.066114515,0.0016281733,-0.002051203,0.07317426,0.06065104,0.047912147,-0.048433434,-0.019383732,-2.0,2.0,-2.0,2.0,2.0,-2.0,2.0,0.7255946,-2.0,-2.0,0.63838416,-2.0,-2.0,2.0,-2.0,2.0,2.0,-2.0,2.0,0.9543012,-2.0,-2.0,0.52782404,-2.0
2025-06-09 12:30:36.837,0.036362745,-0.030721236,0.06913775,0.022253374,-0.042113557,0.041693468,0.0,0.0,0.0,-0.00039160714,-0.06176833,0.40907532,-0.102712095,0.0639765,0.4463497,-0.091740854,0.057213355,0.15303071,-0.0513912,-0.058502562,0.15963528,-0.035271112,0.01734471,-0.0068861526,0.056127083,0.041274283,0.056104127,0.05462629,-0.06945254,-0.059730373,0.0461234,0.046723828,0.06659902,-0.0011906985,-2.0,2.0,-2.0,2.0,2.0,-2.0,2.0,0.9543012,-2.0,-2.0,0.52782404,-2.0,-2.0,2.0,-2.0,2.0,2.0,-2.0,2.0,0.046024382,-2.0,-2.0,1.0217388,-2.0
2025-06-09 12:30:36.854,-0.0054577854,-0.06887542,0.032689087,-0.010884896,0.040868618,0.015031503,0.0,0.0,0.0,-0.00087217713,-0.05855658,0.4170895,-0.09549707,0.062809244,0.44977817,-0.10445039,0.06613109,0.15158632,-0.047366746,-0.06606609,0.16640691,-0.0382375,0.010314207,0.038158614,-0.0034649498,0.003770434,0.04482147,-0.0059732,-0.010516637,0.053327985,-0.034208003,0.046250015,-0.07912385,-0.07398622,-2.0,2.0,-2.0,2.0,2.0,-2.0,2.0,0.046024382,-2.0,-2.0,1.0217388,-2.0,-2.0,2.0,-2.0,2.0,2.0,-2.0,2.0,0.4952218,-2.0,-2.0,1.0506938,-2.0
2025-06-09 12:30:36.875,-0.01590084,0.03228628,0.016743116,0.07826246,0.03216686,0.023041243,0.0,0.0,0.0,-0.00088070513,-0.047536273,0.40784076,-0.093003005,0.046735667,0.451647,-0.111188546,0.051531862,0.15680365,-0.037787057,-0.055679683,0.17195828,-0.044402353,0.04893227,-0.01922099,-0.0635099,-0.025791863,-0.048397176,0.06053073,0.060309753,0.047392152,0.03569022,0.008956759,-0.003346904,-0.007854503,-2.0,2.0,-2.0,2.0,2.0,-2.0,2.0,0.4952218,-2.0,-2.0,1.0506938,-2.0,-2.0,2.0,-2.0,2.0,2.0,-2.0,2.0,0.47952443,-2.0,-2.0,0.8987134,-2.0
2025-06-09 12:30:36.894,-0.035530474,-0.018347643,-0.040641528,0.082958244,0.01056076,0.03818297,0.0,0.0,0.0,-0.0003943047,-0.060716536,0.41940242,-0.09710423,0.045552928,0.44344074,-0.10372816,0.05075975,0.15347469,-0.037460536,-0.05141284,0.16925606,-0.052576147,0.049144067,0.019578414,-0.0018516356,-0.073151365,-0.021156678,0.054283164,0.07558519,0.05392219,-0.017731978,-0.048413504,0.0063125757,-0.0021083094,-2.0,2.0,-2.0,2.0,2.0,-2.0,2.0,0.47952443,-2.0,-2.0,0.8987134,-2.0,-2.0,2.0,-2.0,2.0,2.0,-2.0,2.0,0.85141474,-2.0,-2.0,0.5165978,-2.0
2025-06-09 12:30:36.914,0.047244254,0.009074774,-0.038172632,0.01238049,-0.024938073,-0.0066819144,0.0,0.0,0.0,0.00017218366,-0.056948934,0.40646833,-0.09332081,0.046428166,0.45292398,-0.10587899,0.064410746,0.15674444,-0.041462116,-0.052926954,0.16003159,-0.040587854,0.05402644,-0.04194857,0.06760833,0.026403379,0.04190097,0.010177327,0.053183246,0.054365803,-0.012017587,0.01123288,0.03511391,-0.033961575,-2.0,2.0,-2.0,2.0,2.0,-2.0,2.0,0.85141474,-2.0,-2.0,0.5165978,-2.0,-2.0,2.0,-2.0,2.0,2.0,-2.0,2.0,0.8200421,-2.0,-2.0,0.5605965,-2.0
2025-06-09 12:30:36.937,-0.04536129,0.006847489,0.026409386,0.05646613,0.02210419,0.029473174,0.0,0.0,0.0,0.00026300302,-0.058174305,0.40956962,-0.10525715,0.058080893,0.45103347,-0.09144708,0.06411628,0.1598895,-0.053244025,-0.049674626,0.16392095,-0.04863997,-0.0114065325,0.055451732,0.06537984,-0.066573694,-0.039027233,-0.04499858,0.022217643,-0.058029022,-0.009992169,-0.05674753,-0.009376302,0.020351466,-2.0,2.0,-2.0,2.0,2.0,-2.0,2.0,0.8200421,-2.0,-2.0,0.5605965,-2.0,-2.0,2.0,-2.0,2.0,2.0,-2.0,2.0,0.5690941,-2.0,-2.0,0.8480225,-2.0
2025-06-09 12:30:36.955,-0.051058542,0.020555694,0.0071679107,0.014668135,0.028760076,0.03194538,0.0,0.0,0.0,-0.00013959786,-0.044842415,0.4082353,-0.10500866,0.061658032,0.4509274,-0.10023587,0.06427544,0.15962623,-0.0448971,-0.06124402,0.17121215,-0.044740025,-0.005591273,-0.056996975,0.014053286,-0.041862056,-0.07615079,0.06495715,-0.030629715,0.021967893,0.0075650997,-0.07442597,-0.008375575,0.0029715202,-2.0,2.0,-2.0,2.0,2.0,-2.0,2.0,0.5690941,-2.0,-2.0,0.8480225,-2.0,-2.0,2.0,-2.0,2.0,2.0,-2.0,2.0,0.64408726,-2.0,-2.0,0.7844706,-2.0
2025-06-09 12:30:36.974,2.3773239e-06,-0.0396571,-0.014194373,0.052945305,-0.050672013,0.036577553,0.0,0.0,0.0,-0.0005068314,-0.04670894,0.41822654,-0.088945836,0.054306258,0.4526152,-0.09200773,0.056694426,0.15314414,-0.051999085,-0.050488904,0.16051666,-0.045459487,0.0043350356,0.070445225,-0.056635935,-0.0662638,-0.06715582,0.06416407,0.065618746,0.07712618,0.057466105,-0.072343804,0.044683814,-0.057031248,-2.0,2.0,-2.0,2.0,2.0,-2.0,2.0,0.64408726,-2.0,-2.0,0.7844706,-2.0,-2.0,2.0,-2.0,2.0,2.0,-2.0,2.0,0.69857866,-2.0,-2.0,0.5319894,-2.0
2025-06-09 12:30:36.995,0.02582997,-0.00380924,0.034638286,0.07230828,-0.026723582,-0.00066665036,0.0,0.0,0.0,-0.00075064745,-0.05025911,0.41665155,-0.098080106,0.050652552,0.44927317,-0.09314982,0.053636648,0.15797436,-0.048854083,-0.06564849,0.16690174,-0.04738329,0.057438258,0.06922709,-0.057237737,0.013350455,0.0051018693,-0.032443434,0.009296156,-0.03819575,0.0011946373,-0.0700409,0.05869611,-0.036634218,-2.0,2.0,-2.0,2.0,2.0,-2.0,2.0,0.69857866,-2.0,-2.0,0.5319894,-2.0,-2.0,2.0,-2.0,2.0,2.0,-2.0,2.0,0.3656525,-2.0,-2.0,0.9301626,-2.0
2025-06-09 12:30:37.015,-0.009139284,0.03611534,0.011623199,0.03251234,0.047867116,-0.031944834,0.0,0.0,0.0,-0.0011041377,-0.05595378,0.4098806,-0.09222569,0.050971277,0.43274972,-0.0986789,0.06201559,0.16134831,-0.054032158,-0.053076204,0.14839573,-0.044893987,0.034942806,0.02523332,0.008281621,0.05861611,-0.020957183,-0.06707937,-0.060354915,-0.012219075,-0.0025562944,-0.052625537,-0.07209804,0.014996246,-2.0,2.0,-2.0,2.0,2.0,-2.0,2.0,0.3656525,-2.0,-2.0,0.9301626,-2.0,-2.0,2.0,-2.0,2.0,2.0,-2.0,2.0,0.7049884,-2.0,-2.0,0.8723422,-2.0
2025-06-09 12:30:37.037,0.017110383,0.018689785,0.027309649,0.05864927,-0.024855653,-0.019751128,0.0,0.0,0.0,-0.0011539661,-0.05911724,0.41110277,-0.10522467,0.06389461,0.43355653,-0.10424926,0.060930416,0.15718994,-0.05586988,-0.06373811,0.15419503,-0.03774996,0.038932517,-0.043696426,-0.05574581,0.037087843,0.071753904,0.035855874,0.029771479,0.03990345,-0.0662899,-0.031123472,-0.0091465125,0.029370263,-2.0,2.0,-2.0,2.0,2.0,-2.0,2.0,0.7049884,-2.0,-2.0,0.8723422,-2.0,-2.0,2.0,-2.0,2.0,2.0,-2.0,2.0,0.37445527,-2.0,-2.0,0.866849,-2.0
2025-06-09 12:30:37.055,0.03363057,0.024427453,-0.042777643,0.039187998,-0.029064026,0.022367455,0.0,0.0,0.0,-0.0010158622,-0.046759028,0.41875526,-0.10319794,0.046528526,0.45060667,-0.096479855,0.055523094,0.14639622,-0.045330625,-0.055633128,0.15763132,-0.051794324,-0.0026841115,-0.019753363,0.06036665,-0.00016563859,0.06696018,0.05794751,-0.03501491,0.0102460245,0.05316185,0.04327864,-0.057485737,0.07170269,-2.0,2.0,-2.0,2.0,2.0,-2.0,2.0,0.37445527,-2.0,-2.0,0.866849,-2.0,-2.0,2.0,-2.0,2.0,2.0,-2.0,2.0,0.87179667,-2.0,-2.0,0.6067235,-2.0
2025-06-09 12:30:37.075,0.004010756,-0.0052640475,0.04344191,0.050325353,0.023452373,-0.023393245,0.0,0.0,0.0,-0.0006868579,-0.049725544,0.4168672,-0.08995729,0.048750028,0.4429651,-0.10158245,0.053723183,0.15326175,-0.055183377,-0.059366737,0.17082027,-0.054364387,0.06309233,-0.050956972,0.058084324,0.020254584,0.031266723,-0.044888772,0.06430731,-0.051268354,-0.064962044,-0.05370515,-0.03446319,0.041066486,-2.0,2.0,-2.0,2.0,2.0,-2.0,2.0,0.87179667,-2.0,-2.0,0.6067235,-2.0,-2.0,2.0,-2.0,2.0,2.0,-2.0,2.0,0.42957717,-2.0,-2.0,1.0193006,-2.0
2025-06-09 12:30:37.095,-0.008000263,-0.0030675947,-0.0141534535,0.022407869,-0.021880995,0.036433958,0.0,0.0,0.0,-0.0006027283,-0.058320157,0.42024955,-0.09217572,0.05858738,0.4412341,-0.09808684,0.06301423,0.15499635,-0.05910036,-0.06409847,0.15382682,-0.041261297,-0.049643405,-0.035639398,0.0615666,0.060406044,-0.045027707,0.0035731755,0.0026616147,-0.011945887,0.0028952905,0.041255902,0.061326835,0.05342395,-2.0,2.0,-2.0,2.0,2.0,-2.0,2.0,0.42957717,-2.0,-2.0,1.0193006,-2.0,-2.0,2.0,-2.0,2.0,2.0,-2.0,2.0,0.550036,-2.0,-2.0,0.63484997,-2.0
2025-06-09 12:30:37.115,-0.017764015,-0.012627447,-0.018736605,-0.005070069,0.043437704,-0.011866785,0.0,0.0,0.0,-0.0004100074,-0.06606254,0.40664303,-0.106827445,0.043787394,0.43673927,-0.10211103,0.059959825,0.15324433,-0.047297593,-0.057649493,0.16400175,-0.046359353,-0.023603586,0.0046654087,-0.034390453,-0.012544929,0.04619375,0.043323383,-0.03424557,0.06702024,0.047155727,0.07046487,0.022483021,-0.055726085,-2.0,2.0,-2.0,2.0,2.0,-2.0,2.0,0.550036,-2.0,-2.0,0.63484997,-2.0,-2.0,2.0,-2.0,2.0,2.0,-2.0,2.0,0.64826876,-2.0,-2.0,0.64003855,-2.0
2025-06-09 12:30:37.137,0.05051701,0.019553035,-0.04420928,0.023894375,-0.003775954,0.046724223,0.0,0.0,0.0,-0.00021853816,-0.054130137,0.41886348,-0.10053236,0.05514359,0.449485,-0.10124679,0.062376283,0.1466897,-0.04602188,-0.05785235,0.1586326,-0.052417297,0.056642864,0.014738808,0.03327439,-0.061234962,-0.025319124,-0.019491902,-0.071809694,0.050273374,-0.05895258,-0.014292116,-0.042561494,-0.04232847,-2.0,2.0,-2.0,2.0,2.0,-2.0,2.0,0.64826876,-2.0,-2.0,0.64003855,-2.0,-2.0,2.0,-2.0,2.0,2.0,-2.0,2.0,1.1259446,-2.0,-2.0,0.49070472,-2.0
2025-06-09 12:30:37.155,-0.01703158,0.03111839,0.036979675,0.059641916,-0.0014938,0.024770562,0.0,0.0,0.0,-0.0002440994,-0.054049913,0.42013434,-0.09092669,0.063094676,0.44092658,-0.09508651,0.056610994,0.15086403,-0.047185656,-0.06466326,0.16174127,-0.038069796,-0.059541043,0.0031500503,-0.071412124,0.07867768,-0.030606894,-0.022860719,-0.03291482,0.057297375,0.043490365,0.047939006,0.06839355,0.022949142,-2.0,2.0,-2.0,2.0,2.0,-2.0,2.0,1.1259446,-2.0,-2.0,0.49070472,-2.0,-2.0,2.0,-2.0,2.0,2.0,-2.0,2.0,0.3380335,-2.0,-2.0,0.7381847,-2.0
2025-06-09 12:30:37.175,-0.0053093443,-0.006884115,-0.03129629,0.07480678,-0.027802922,-0.04501944,0.0,0.0,0.0,-0.00080160826,-0.046268504,0.4059195,-0.09275703,0.06317193,0.44465846,-0.09322583,0.05040104,0.16063161,-0.05313927,-0.05603272,0.15792072,-0.04607287,0.011430454,0.070750564,0.057256088,-0.041046545,-0.026575197,-0.011612858,0.010839157,0.028302694,-0.018692255,0.028586827,-0.007561551,-0.03095957,-2.0,2.0,-2.0,2.0,2.0,-2.0,2.0,0.3380335,-2.0,-2.0,0.7381847,-2.0,-2.0,2.0,-2.0,2.0,2.0,-2.0,2.0,0.8883694,-2.0,-2.0,0.45923513,-2.0
2025-06-09 12:30:37.195,-0.029105183,-0.024150684,0.014486424,0.029624814,-0.032302447,0.024891848,0.0,0.0,0.0,-0.0012452065,-0.044481654,0.40701216,-0.10459754,0.050844837,0.43781096,-0.10559951,0.04690923,0.16161239,-0.06277079,-0.069433935,0.15679549,-0.030712793,0.06914018,0.031034125,0.050711185,0.064414084,0.025678068,0.03849366,0.0017642819,0.006236474,7.599085e-05,-0.05223795,-0.012567496,0.021856194,-2.0,2.0,-2.0,2.0,2.0,-2.0,2.0,0.8883694,-2.0,-2.0,0.45923513,-2.0,-2.0,2.0,-2.0,2.0,2.0,-2.0,2.0,0.7510101,-2.0,-2.0,0.7468171,-2.0
2025-06-09 12:30:37.216,-0.022154268,0.022225227,-0.004119076,-0.00042884095,-0.025589673,-0.01642958,0.0,0.0,0.0,-0.0017587395,-0.05668722,0.41589543,-0.10608208,0.064041145,0.43923798,-0.0940188,0.046791025,0.16657974,-0.06165535,-0.06865442,0.1556279,-0.04271043,0.047034997,-0.030595433,0.021088975,-0.03172032,0.014588361,0.060957678,-0.07329098,0.0727645,-0.05001678,0.038853507,-0.05819512,0.011317513,-2.0,2.0,-2.0,2.0,2.0,-2.0,2.0,0.7510101,-2.0,-2.0,0.7468171,-2.0,-2.0,2.0,-2.0,2.0,2.0,-2.0,2.0,0.87308264,-2.0,-2.0,0.61779296,-2.0
2025-06-09 12:30:37.237,-0.037026435,-0.015096642,-0.0045562307,0.046697043,0.019700496,0.028272623,0.0,0.0,0.0,-0.0022560188,-0.053409293,0.41970953,-0.089194745,0.066303015,0.44719127,-0.10802954,0.054793958,0.16926657,-0.05557518,-0.061391953,0.1488544,-0.040133588,-0.025616046,0.07316496,-0.07045667,-0.028382966,0.0634239,-0.066912025,0.010801525,0.021135254,0.019999396,0.069102295,0.07462974,-0.020444488,-2.0,2.0,-2.0,2.0,2.0,-2.0,2.0,0.87308264,-2.0,-2.0,0.61779296,-2.0,-2.0,2.0,-2.0,2.0,2.0,-2.0,2.0,0.5543938,-2.0,-2.0,0.6209794,-2.0
2025-06-09 12:30:37.255,0.036913473,0.037114985,-0.008680096,0.019659106,0.031120414,-0.021279305,0.0,0.0,0.0,-0.0027144314,-0.048645884,0.42503187,-0.103727706,0.062413637,0.44533858,-0.09553128,0.061237328,0.15755369,-0.052149054,-0.060208574,0.14872141,-0.048180226,-0.05521551,0.034879122,-0.019342985,-0.06806317,0.057850298,0.036200102,-0.0629744,-0.02518195,0.074180916,-0.015502597,0.0055584926,0.01891018,-2.0,2.0,-2.0,2.0,2.0,-2.0,2.0,0.5543938,-2.0,-2.0,0.6209794,-2.0,-2.0,2.0,-2.0,2.0,2.0,-2.0,2.0,0.66418916,-2.0,-2.0,0.70664114,-2.0
2025-06-09 12:30:37.276,0.008026438,0.022938715,-0.017810386,0.024696905,0.006725574,0.031622734,0.0,0.0,0.0,-0.00298183,-0.048954558,0.4153875,-0.10369911,0.06628335,0.42875195,-0.09838164,0.045871228,0.15402353,-0.05754681,-0.06999682,0.14791252,-0.043495942,-0.026711801,-0.062222358,-0.030617248,-0.02602101,0.016034326,0.0041139484,-0.0711996,0.05140542,0.06848411,0.022989744,-0.06339057,0.0021961732,-2.0,2.0,-2.0,2.0,2.0,-2.0,2.0,0.66418916,-2.0,-2.0,0.70664114,-2.0,-2.0,2.0,-2.0,2.0,2.0,-2.0,2.0,0.82069725,-2.0,-2.0,0.5512583,-2.0
2025-06-09 12:30:37.295,-0.030864673,-0.025267549,-0.0027235874,0.06181721,-0.012679414,0.049142636,0.0,0.0,0.0,-0.003012202,-0.041863516,0.4228984,-0.08919201,0.05914374,0.44198063,-0.091080934,0.06071952,0.16778868,-0.06130543,-0.07224574,0.14894617,-0.034303073,0.025031945,-0.00911189,0.039450977,-0.016785005,0.02083,-0.0015888972,-0.03686348,-0.008815879,-0.021798655,-0.059158076,-0.028722135,0.014716335,-2.0,2.0,-2.0,2.0,2.0,-2.0,2.0,0.82069725,-2.0,-2.0,0.5512583,-2.0,-2.0,2.0,-2.0,2.0,2.0,-2.0,2.0,0.8084412,-2.0,-2.0,0.6652239,-2.0
2025-06-09 12:30:37.316,-0.017200788,0.014993786,-0.02190445,-0.008846123,0.027544115,-0.023991669,0.0,0.0,0.0,-0.0030631458,-0.04481756,0.4255773,-0.10287615,0.062037747,0.42818415,-0.09487155,0.04353308,0.17259003,-0.053631205,-0.06858707,0.15367891,-0.032281782,0.05355073,0.07640111,0.003105055,0.057602406,0.03891343,0.017585317,-0.06772005,0.05501605,0.030956108,-0.038339816,-0.012887108,-0.018544408,-2.0,2.0,-2.0,2.0,2.0,-2.0,2.0,0.8084412,-2.0,-2.0,0.6652239,-2.0,-2.0,2.0,-2.0,2.0,2.0,-2.0,2.0,1.0743749,-2.0,-2.0,0.5438846,-2.0
2025-06-09 12:30:37.337,0.014611107,0.030908523,-0.0074218833,0.04804743,-0.009726298,-0.0348884,0.0,0.0,0.0,-0.00313262,-0.036922507,0.4225787,-0.09984202,0.056211602,0.43691155,-0.099134535,0.05844232,0.15748262,-0.055893768,-0.07124976,0.15263708,-0.042030305,0.027876409,-0.02681401,0.04343714,0.02334519,-0.06156699,-0.056691412,0.0045384644,0.0033808309,-0.0070641832,0.050745197,0.07920468,0.036276102,-2.0,2.0,-2.0,2.0,2.0,-2.0,2.0,1.0743749,-2.0,-2.0,0.5438846,-2.0,-2.0,2.0,-2.0,2.0,2.0,-2.0,2.0,0.6666859,-2.0,-2.0,0.572432,-2.0
2025-06-09 12:30:37.356,0.032701638,-0.03338686,0.024315536,0.002459818,-0.010795414,-0.045742366,0.0,0.0,0.0,-0.0033952836,-0.039997388,0.42659664,-0.10160926,0.055453848,0.44294983,-0.08836532,0.05425336,0.17084764,-0.054975815,-0.0770717,0.1615114,-0.028479103,-0.04387392,0.048943624,-0.07559267,-0.06406438,0.022141745,0.013802019,0.03176387,-0.03276339,-0.042751115,-0.027754465,0.0046079396,0.07127268,-2.0,2.0,-2.0,2.0,2.0,-2.0,2.0,0.6666859,-2.0,-2.0,0.572432,-2.0,-2.0,2.0,-2.0,2.0,2.0,-2.0,2.0,0.5249072,-2.0,-2.0,0.8127469,-2.0
2025-06-09 12:30:37.376,0.037295844,0.024816753,-0.00916408,-0.011386378,0.00311365,-0.024138302,0.0,0.0,0.0,-0.003616078,-0.043249503,0.4116308,-0.09504474,0.058598977,0.44470048,-0.101511985,0.04404219,0.1656451,-0.067788675,-0.07346544,0.1530008,-0.04005328,0.04409114,-0.008083104,-0.009792224,-0.060920957,0.00010280139,0.010821002,-0.063660406,0.024615387,-0.05314246,0.04111361,0.074176565,-0.06593538,-2.0,2.0,-2.0,2.0,2.0,-2.0,2.0,0.5249072,-2.0,-2.0,0.8127469,-2.0,-2.0,2.0,-2.0,2.0,2.0,-2.0,2.0,0.62022024,-2.0,-2.0,0.66518396,-2.0
2025-06-09 12:30:37.396,0.008820305,0.014691584,-0.024464635,0.06267456,-0.050531078,0.023791345,0.0,0.0,0.0,-0.0034432579,-0.039335676,0.41161206,-0.09799587,0.06558692,0.43031943,-0.0965269,0.05072568,0.16465116,-0.05786118,-0.07758895,0.14978258,-0.03441484,-0.05183201,-0.022960171,0.0209863,-0.07723183,0.04851956,0.04399332,0.0731361,-0.07657933,-0.053150494,-0.0088136215,-0.01997683,0.036302987,-2.0,2.0,-2.0,2.0,2.0,-2.0,2.0,0.62022024,-2.0,-2.0,0.66518396,-2.0,-2.0,2.0,-2.0,2.0,2.0,-2.0,2.0,0.7345019,-2.0,-2.0,0.5418247,-2.0
2025-06-09 12:30:37.416,0.056736976,0.027700648,0.035527818,0.0051401975,-0.03776446,0.019872777,0.0,0.0,0.0,-0.0030560915,-0.055952985,0.4199658,-0.09240254,0.056808062,0.444576,-0.107639916,0.044249307,0.1556994,-0.06297978,-0.057540644,0.14039537,-0.027649146,0.043655686,0.004943337,-0.06286968,-0.032601938,-0.02870131,-0.064907834,-0.061797112,0.0064505297,-0.0012129751,0.0005102769,0.025415277,0.054906387,-2.0,2.0,-2.0,2.0,2.0,-2.0,2.0,0.7345019,-2.0,-2.0,0.5418247,-2.0,-2.0,2.0,-2.0,2.0,2.0,-2.0,2.0,0.46167237,-2.0,-2.0,0.87608296,-2.0
2025-06-09 12:30:37.438,0.016257977,0.020957602,0.011914012,-0.008534689,-0.034254055,-0.00011066087,0.0,0.0,0.0,-0.0027636378,-0.057997998,0.41549352,-0.093807,0.05098599,0.4467694,-0.10464467,0.05976912,0.16458522,-0.04486516,-0.0725597,0.15029857,-0.041111577,0.0069686063,0.044036575,0.007075069,-0.057987545,0.04415193,-0.07052682,-0.021434393,0.06764381,-0.059963867,0.07262245,-0.016224667,-0.0263994,-2.0,2.0,-2.0,2.0,2.0,-2.0,2.0,0.46167237,-2.0,-2.0,0.87608296,-2.0,-2.0,2.0,-2.0,2.0,2.0,-2.0,2.0,0.5948189,-2.0,-2.0,0.7596842,-2.0
2025-06-09 12:30:37.457,-0.040063377,0.03483665,-0.012361297,0.065617576,0.016590826,0.003926635,0.0,0.0,0.0,-0.0022766776,-0.062783174,0.40644804,-0.10229189,0.06358796,0.42927074,-0.10563689,0.04977073,0.14932258,-0.046838477,-0.05742378,0.14940584,-0.038779717,0.017681096,0.0019121317,-0.03061063,-0.06144412,0.023754124,0.057808477,0.017519062,0.044005193,-0.019494899,0.049645614,-0.027671436,-0.07434126,-2.0,2.0,-2.0,2.0,2.0,-2.0,2.0,0.5948189,-2.0,-2.0,0.7596842,-2.0,-2.0,2.0,-2.0,2.0,2.0,-2.0,2.0,0.69483095,-2.0,-2.0,0.5958919,-2.0
2025-06-09 12:30:37.477,0.007957465,0.014536672,-0.056219257,0.036349516,-0.028266272,-0.03583098,0.0,0.0,0.0,-0.001683982,-0.05024048,0.4102088,-0.093294546,0.059421796,0.4321629,-0.09346478,0.050612148,0.16268899,-0.05014869,-0.06028344,0.15826577,-0.028574945,-0.0019435459,-0.07089819,0.063856386,-0.043538265,-0.057065304,0.0073620277,-0.06960821,-0.012007304,-0.04949176,0.019900309,0.0007479024,0.06534169,-2.0,2.0,-2.0,2.0,2.0,-2.0,2.0,0.69483095,-2.0,-2.0,0.5958919,-2.0,-2.0,2.0,-2.0,2.0,2.0,-2.0,2.0,1.0468225,-2.0,-2.0,0.35845643,-2.0
2025-06-09 12:30:37.497,-0.05070426,0.04490281,0.027565248,0.051810555,0.03817436,-0.03674313,0.0,0.0,0.0,-0.0013043223,-0.060184374,0.41063407,-0.09984289,0.05347992,0.440143,-0.10425076,0.056277014,0.1640924,-0.055082325,-0.06983175,0.14704147,-0.04313917,-0.040382132,-0.04213983,-0.00677497,0.060009148,0.061347786,0.035663236,0.05750885,-0.04764639,0.06075807,0.06012786,-0.0676135,0.008206949,-2.0,2.0,-2.0,2.0,2.0,-2.0,2.0,1.0468225,-2.0,-2.0,0.35845643,-2.0,-2.0,2.0,-2.0,2.0,2.0,-2.0,2.0,0.5458545,-2.0,-2.0,0.8322512,-2.0
2025-06-09 12:30:37.520,-0.05366457,-0.0026788672,-0.042190492,0.0699134,-0.043400027,0.035347812,0.0,0.0,0.0,-0.0015237302,-0.0440485,0.4202891,-0.09181952,0.059715148,0.44157398,-0.10395884,0.060400624,0.1513527,-0.05136252,-0.06647727,0.15124631,-0.038340665,-0.05415362,0.032130376,-0.0011016169,0.016812298,0.036948588,0.07267253,0.018177481,-0.036005225,-0.048816774,-0.06892656,-0.0047916924,0.008444612,-2.0,2.0,-2.0,2.0,2.0,-2.0,2.0,0.5458545,-2.0,-2.0,0.8322512,-2.0,-2.0,2.0,-2.0,2.0,2.0,-2.0,2.0,0.8442871,-2.0,-2.0,0.46216816,-2.0
2025-06-09 12:30:37.537,-0.021207852,-0.007988286,-0.00936756,0.021849362,-0.035444688,-0.012776563,0.0,0.0,0.0,-0.0017324483,-0.048939474,0.41956055,-0.09185318,0.06013638,0.43825805,-0.10362884,0.055078167,0.15907513,-0.053994384,-0.06590387,0.14723843,-0.03410178,-0.018804142,0.0357646,0.05737066,-0.067486264,0.061395932,-0.03365642,0.052962106,-0.011515833,-0.016379897,0.00894501,-0.01320082,-0.021379136,-2.0,2.0,-2.0,2.0,2.0,-2.0,2.0,0.8442871,-2.0,-2.0,0.46216816,-2.0,-2.0,2.0,-2.0,2.0,2.0,-2.0,2.0,0.76490384,-2.0,-2.0,0.579881,-2.0
2025-06-09 12:30:37.557,0.030258732,0.013196337,0.030531632,0.0731126,0.012954249,0.014131295,0.0,0.0,0.0,-0.0020337715,-0.040604997,0.41613537,-0.10255408,0.062665105,0.43662244,-0.09669045,0.04570259,0.1521058,-0.06422907,-0.05870281,0.14949185,-0.03836029,-0.009279784,-0.00041628646,0.038916465,0.06546016,0.011692169,-0.06497846,-0.024082573,0.06649546,-0.0010611438,0.060346916,-0.07741913,-0.036251444,-2.0,2.0,-2.0,2.0,2.0,-2.0,2.0,0.76490384,-2.0,-2.0,0.579881,-2.0,-2.0,2.0,-2.0,2.0,2.0,-2.0,2.0,0.6417697,-2.0,-2.0,0.7605868,-2.0
2025-06-09 12:30:37.577,0.0054187193,-0.027723085,-0.019656172,0.034254532,0.010379077,-0.045183826,0.0,0.0,0.0,-0.002445673,-0.041839633,0.4182551,-0.10482908,0.05618365,0.44435942,-0.10863715,0.048174053,0.15856698,-0.047114182,-0.065342724,0.14485054,-0.044956855,0.0056832624,-0.025732182,0.075825475,0.05079259,-0.028184135,0.05406028,-0.030224172,0.06719046,0.044591285,-0.047513478,0.014786969,0.065338045,-2.0,2.0,-2.0,2.0,2.0,-2.0,2.0,0.6417697,-2.0,-2.0,0.7605868,-2.0,-2.0,2.0,-2.0,2.0,2.0,-2.0,2.0,0.84336823,-2.0,-2.0,0.5119413,-2.0
2025-06-09 12:30:37.597,0.011776579,-0.044354104,0.043323338,0.07470346,-0.03521248,0.04308658,0.0,0.0,0.0,-0.0026586682,-0.053893574,0.4088419,-0.10795087,0.06573099,0.4460287,-0.10232841,0.044785418,0.15682068,-0.056316216,-0.05795934,0.15231538,-0.030768545,-0.041041486,0.027392818,0.063256614,0.017135886,0.031318672,0.031490184,-0.03174502,0.011392896,0.024119416,0.032687873,-0.05048684,0.024452085,-2.0,2.0,-2.0,2.0,2.0,-2.0,2.0,0.84336823,-2.0,-2.0,0.5119413,-2.0,-2.0,2.0,-2.0,2.0,2.0,-2.0,2.0,0.51406544,-2.0,-2.0,0.8480714,-2.0
2025-06-09 12:30:37.620,-0.0037962461,0.009869269,0.03962804,0.026220037,-0.013192443,0.029162625,0.0,0.0,0.0,-0.002891988,-0.05490051,0.42517138,-0.107884906,0.06331731,0.42808786,-0.10675436,0.047940023,0.16626583,-0.06413542,-0.07382781,0.14545532,-0.038903065,0.058187857,-0.060853325,0.021227432,-0.02079585,-0.016241036,-0.051320072,0.06132637,-0.06538865,0.027212782,-0.05241385,-0.0015080137,-0.07274507,-2.0,2.0,-2.0,2.0,2.0,-2.0,2.0,0.51406544,-2.0,-2.0,0.8480714,-2.0,-2.0,2.0,-2.0,2.0,2.0,-2.0,2.0,0.41071695,-2.0,-2.0,0.98482996,-2.0
2025-06-09 12:30:37.637,-0.03767594,-0.036123894,0.003710574,-0.0033059644,-0.024782695,-0.03155092,0.0,0.0,0.0,-0.0028538562,-0.051561918,0.40909883,-0.09655544,0.053040206,0.43104318,-0.09712505,0.051041566,0.16795184,-0.044432096,-0.06414856,0.15905832,-0.04950879,-0.06658162,-0.052238815,0.02162992,0.039373886,0.045683995,0.011144928,0.0062978,0.014901165,0.017843112,0.06117308,0.057995953,-0.071248606,-2.0,2.0,-2.0,2.0,2.0,-2.0,2.0,0.41071695,-2.0,-2.0,0.98482996,-2.0,-2.0,2.0,-2.0,2.0,2.0,-2.0,2.0,0.38000768,-2.0,-2.0,0.73498756,-2.0
2025-06-09 12:30:37.659,0.023827752,0.021125441,-0.029626409,-0.007997159,-0.0017506907,0.029880213,0.0,0.0,0.0,-0.0023086185,-0.045582797,0.41751337,-0.09454467,0.05763258,0.43756226,-0.09903637,0.04405421,0.15811649,-0.05905593,-0.064747,0.1574391,-0.044990603,-0.026288824,0.030751288,-0.013629982,0.010646413,0.05621749,0.05295361,-0.034192026,0.0023226726,0.0062975623,0.048560422,-0.008451387,0.010754948,-2.0,2.0,-2.0,2.0,2.0,-2.0,2.0,0.38000768,-2.0,-2.0,0.73498756,-2.0,-2.0,2.0,-2.0,2.0,2.0,-2.0,2.0,0.8295296,-2.0,-2.0,0.6027984,-2.0
2025-06-09 12:30:37.679,0.040381003,0.039937977,-0.06207539,0.034492057,-0.004309707,-0.011849136,0.0,0.0,0.0,-0.0015327774,-0.061810397,0.4141367,-0.097423114,0.06173965,0.43508732,-0.09274977,0.060699556,0.16171332,-0.05457653,-0.05685004,0.15562192,-0.04247402,0.021177907,-0.053019714,-0.04876509,-0.058629233,0.0728249,0.05484405,0.005476493,0.06316384,0.007670433,0.0180256,-0.047592323,0.024199946,-2.0,2.0,-2.0,2.0,2.0,-2.0,2.0,0.8295296,-2.0,-2.0,0.6027984,-2.0,-2.0,2.0,-2.0,2.0,2.0,-2.0,2.0,1.0153487,-2.0,-2.0,0.39376616,-2.0
2025-06-09 12:30:37.699,0.0041705407,0.013076592,0.003471855,0.08461348,0.04368996,0.012590623,0.0,0.0,0.0,-0.0010715575,-0.06155504,0.40433162,-0.10960104,0.056479055,0.43511188,-0.1005816,0.0632615,0.150088,-0.05811588,-0.06815148,0.16190311,-0.04203065,0.03277044,0.05025454,0.018205777,-0.042458974,0.011212961,-0.025273666,-0.04721983,-0.036724046,0.03012591,-0.029753847,-0.039530516,-0.07088895,-2.0,2.0,-2.0,2.0,2.0,-2.0,2.0,1.0153487,-2.0,-2.0,0.39376616,-2.0,-2.0,2.0,-2.0,2.0,2.0,-2.0,2.0,0.7539993,-2.0,-2.0,0.7246968,-2.0
2025-06-09 12:30:37.720,-0.053357713,-0.0345075,-0.0059300186,0.018285785,0.03653512,-0.029615212,0.0,0.0,0.0,-0.0012596382,-0.0559518,0.4135113,-0.10876228,0.061271477,0.43389028,-0.106029995,0.047440633,0.16149606,-0.05522086,-0.054203164,0.15541154,-0.045527678,-0.011330577,0.037034202,-0.018721128,-0.019664858,0.06414863,-0.060399327,-0.0115053775,-0.03383792,-0.009047942,0.012297481,0.019542065,-0.05920069,-2.0,2.0,-2.0,2.0,2.0,-2.0,2.0,0.7539993,-2.0,-2.0,0.7246968,-2.0,-2.0,2.0,-2.0,2.0,2.0,-2.0,2.0,0.63050956,-2.0,-2.0,0.7013364,-2.0
2025-06-09 12:30:37.741,0.012539576,-0.010079414,-0.007082046,-0.012339308,-0.048284736,0.046262003,0.0,0.0,0.0,-0.0016406436,-0.05655399,0.4072888,-0.10064927,0.061348617,0.43620276,-0.10086127,0.046756577,0.16644143,-0.05554799,-0.07038563,0.16387525,-0.03240401,-0.07238636,-0.016216584,-0.04924689,0.020965409,0.009546185,-0.027620684,0.014522484,-0.018691305,-0.055647194,0.058535602,-0.049838945,0.06420701,-2.0,2.0,-2.0,2.0,2.0,-2.0,2.0,0.63050956,-2.0,-2.0,0.7013364,-2.0,-2.0,2.0,-2.0,2.0,2.0,-2.0,2.0,0.72230715,-2.0,-2.0,0.66344273,-2.0
2025-06-09 12:30:37.760,-0.04258528,-0.0054260767,0.055027436,0.028180085,-0.020237042,-0.045797408,0.0,0.0,0.0,-0.0018999056,-0.055707175,0.40753207,-0.10232135,0.059323452,0.43705627,-0.0918903,0.051105257,0.16727944,-0.06358604,-0.0680234,0.14829163,-0.037184577,0.04625638,-0.035781126,0.07502596,0.032231815,-0.049175978,-0.04816171,0.03482348,-0.016467225,0.04599629,-0.051690377,0.042014617,0.0068027284,-2.0,2.0,-2.0,2.0,2.0,-2.0,2.0,0.72230715,-2.0,-2.0,0.66344273,-2.0,-2.0,2.0,-2.0,2.0,2.0,-2.0,2.0,0.28347296,-2.0,-2.0,0.923383,-2.0
2025-06-09 12:30:37.779,0.007587447,-0.04639766,-0.0014322129,0.013899191,0.0148321465,0.026972549,0.0,0.0,0.0,-0.0021031003,-0.052883815,0.41215506,-0.09737059,0.06149681,0.4469028,-0.101114854,0.04538035,0.16275495,-0.043533556,-0.061784342,0.1648318,-0.033759765,0.021919621,-0.059723925,-0.064424574,-0.028020592,0.056355838,-0.022400593,-0.057164796,0.06317696,0.0073681567,0.037719827,0.03473393,0.052759066,-2.0,2.0,-2.0,2.0,2.0,-2.0,2.0,0.28347296,-2.0,-2.0,0.923383,-2.0,-2.0,2.0,-2.0,2.0,2.0,-2.0,2.0,0.48612303,-2.0,-2.0,0.8287026,-2.0
2025-06-09 12:30:37.799,0.0043100463,0.032513425,-0.07585994,0.024025429,0.022148162,-0.027238527,0.0,0.0,0.0,-0.0018777407,-0.05588279,0.4135075,-0.10832335,0.05336179,0.43639946,-0.09622989,0.058876477,0.1560122,-0.048889384,-0.07003186,0.14685553,-0.03619961,-0.0323601,-0.025573095,-0.035738207,-0.05135331,-0.010371246,0.016392458,-0.061441727,0.052687082,0.0067091035,0.030229967,0.06456992,-0.025948392,-2.0,2.0,-2.0,2.0,2.0,-2.0,2.0,0.48612303,-2.0,-2.0,0.8287026,-2.0,-2.0,2.0,-2.0,2.0,2.0,-2.0,2.0,0.89484984,-2.0,-2.0,0.22260864,-2.0
2025-06-09 12:30:37.820,0.038495526,0.007923991,-0.018374097,0.044275045,-0.016036948,-0.030807327,0.0,0.0,0.0,-0.0013578902,-0.061584137,0.41144797,-0.10879556,0.065272,0.43486065,-0.09236301,0.052199885,0.1585229,-0.04371425,-0.063003056,0.16027336,-0.048010603,0.034139108,0.05087297,0.008548157,0.07011466,-0.046073914,0.047325876,0.017663559,-0.04754657,0.0109262755,0.048923526,0.016922161,-0.010230624,-2.0,2.0,-2.0,2.0,2.0,-2.0,2.0,0.89484984,-2.0,-2.0,0.22260864,-2.0,-2.0,2.0,-2.0,2.0,2.0,-2.0,2.0,0.9643579,-2.0,-2.0,0.587331,-2.0
2025-06-09 12:30:37.842,-0.003215829,-0.029927375,-0.0051386096,0.015699726,-0.0519096,-0.038142357,0.0,0.0,0.0,-0.0013573419,-0.041390844,0.40610772,-0.09629601,0.04975788,0.42803743,-0.0976272,0.052878324,0.15318418,-0.058626868,-0.061209563,0.16050068,-0.038705975,0.0081238095,0.046936113,0.058254395,0.025106398,0.05494839,-0.0049729436,-0.03848765,0.0287069,0.04751461,-0.07570791,-0.014237533,0.035482634,-2.0,2.0,-2.0,2.0,2.0,-2.0,2.0,0.9643579,-2.0,-2.0,0.587331,-2.0,-2.0,2.0,-2.0,2.0,2.0,-2.0,2.0,0.78625375,-2.0,-2.0,0.6133356,-2.0
2025-06-09 12:30:37.862,-0.020569736,0.0026929292,0.011411797,0.05937,-0.049875736,0.0076090596,0.0,0.0,0.0,-0.0018202913,-0.044603113,0.42420548,-0.095816605,0.053411175,0.43041462,-0.10881251,0.05837544,0.14983325,-0.049200892,-0.06322175,0.15563422,-0.03771585,0.03693467,-0.029647272,-0.020322964,0.024970258,0.024387978,-0.05889791,0.042699233,0.046343736,-0.055190887,0.0065281535,-0.012672147,0.025113747,-2.0,2.0,-2.0,2.0,2.0,-2.0,2.0,0.78625375,-2.0,-2.0,0.6133356,-2.0,-2.0,2.0,-2.0,2.0,2.0,-2.0,2.0,0.57206386,-2.0,-2.0,0.70314384,-2.0
2025-06-09 12:30:37.882,0.04269316,-0.0053417166,-0.036692355,0.010345412,-0.038546883,0.041535374,0.0,0.0,0.0,-0.002349846,-0.048265927,0.40843233,-0.103055306,0.05949531,0.44139937,-0.094491564,0.049753003,0.16133428,-0.053236358,-0.061087493,0.15561858,-0.040375058,-0.018314065,0.037517045,0.00929986,-0.027907394,0.04195109,0.04477857,0.019156279,-0.064713515,-0.027361916,0.052469406,-0.054465905,-0.061445244,-2.0,2.0,-2.0,2.0,2.0,-2.0,2.0,0.57206386,-2.0,-2.0,0.70314384,-2.0,-2.0,2.0,-2.0,2.0,2.0,-2.0,2.0,0.9478422,-2.0,-2.0,0.59630775,-2.0
2025-06-09 12:30:37.904,-0.026908861,-0.004664808,0.051654935,0.03495248,0.04349933,-0.018861942,0.0,0.0,0.0,-0.0026459657,-0.049074925,0.40904176,-0.107191786,0.060105707,0.4311511,-0.110005744,0.05382828,0.15456656,-0.053142507,-0.05930131,0.16014774,-0.039076954,0.058847014,0.030156717,-0.06623531,-0.044249516,-0.068534546,-0.03130851,-0.0013467206,-0.028550796,0.055034127,0.043459266,0.0696062,-0.07347664,-2.0,2.0,-2.0,2.0,2.0,-2.0,2.0,0.9478422,-2.0,-2.0,0.59630775,-2.0,-2.0,2.0,-2.0,2.0,2.0,-2.0,2.0,0.24207419,-2.0,-2.0,0.9189794,-2.0
2025-06-09 12:30:37.925,0.0039462917,-0.0055634207,0.0034543788,0.017264452,-0.0421392,-0.014471629,0.0,0.0,0.0,-0.0029494516,-0.048361152,0.40907615,-0.099217996,0.06009583,0.44066772,-0.10225582,0.049323387,0.16107774,-0.058537703,-0.074357875,0.16154723,-0.041204523,-0.008303602,-0.0318747,-0.07392119,-0.007917812,-0.061547086,-0.033977535,-0.032889113,0.028695265,0.07736638,-0.04771262,-0.053714775,-0.030161377,-2.0,2.0,-2.0,2.0,2.0,-2.0,2.0,0.24207419,-2.0,-2.0,0.9189794,-2.0,-2.0,2.0,-2.0,2.0,2.0,-2.0,2.0,0.6370351,-2.0,-2.0,0.76361746,-2.0
2025-06-09 12:30:37.943,0.022777576,0.037768405,-0.049943376,0.046864547,-0.05075395,-0.003445096,0.0,0.0,0.0,-0.0027627721,-0.058929294,0.4221145,-0.1059682,0.057856455,0.42882916,-0.10371613,0.042874936,0.15654705,-0.052347895,-0.07133001,0.15338732,-0.045342237,0.055103958,0.026150057,-0.026406124,-0.07533028,0.021485101,-0.04954336,-0.05180768,-0.063031636,0.016230503,0.07682026,-0.055486385,0.015317168,-2.0,2.0,-2.0,2.0,2.0,-2.0,2.0,0.6370351,-2.0,-2.0,0.76361746,-2.0,-2.0,2.0,-2.0,2.0,2.0,-2.0,2.0,1.0621662,-2.0,-2.0,0.4897632,-2.0
2025-06-09 12:30:37.962,-0.049604677,-0.013447309,0.018094622,-0.012136302,0.039592948,0.03988689,0.0,0.0,0.0,-0.0022888782,-0.05222554,0.42129433,-0.08995669,0.053668987,0.43037447,-0.10019442,0.057999205,0.16165935,-0.046121515,-0.073258206,0.15649168,-0.05095357,-0.06150395,-0.010023757,0.004682341,-0.0026152201,-0.06522971,0.037645817,0.06794443,0.042063113,0.0059047267,-0.060238205,-0.059922904,-0.018861722,-2.0,2.0,-2.0,2.0,2.0,-2.0,2.0,1.0621662,-2.0,-2.0,0.4897632,-2.0,-2.0,2.0,-2.0,2.0,2.0,-2.0,2.0,0.82261527,-2.0,-2.0,0.64240444,-2.0
2025-06-09 12:30:37.982,0.009793198,-0.008320622,-0.029385353,-0.0090132775,-0.04056269,0.041247923,0.0,0.0,0.0,-0.0022236947,-0.046264287,0.4169765,-0.10476544,0.065194406,0.43977594,-0.10720373,0.04697845,0.16223209,-0.061172683,-0.064193584,0.15108906,-0.046019286,0.057915173,0.04454135,0.0172909,0.074352175,0.011705843,-0.06737215,0.041793544,-0.012470028,-0.05684285,0.024596132,-0.05922723,0.07198578,-2.0,2.0,-2.0,2.0,2.0,-2.0,2.0,0.82261527,-2.0,-2.0,0.64240444,-2.0,-2.0,2.0,-2.0,2.0,2.0,-2.0,2.0,1.0999985,-2.0,-2.0,0.57009363,-2.0
2025-06-09 12:30:38.004,-0.05572118,-0.014008281,0.0105491625,0.03238747,0.033087276,0.035768714,0.0,0.0,0.0,-0.0024040856,-0.05138521,0.4153738,-0.09543984,0.06815314,0.4437359,-0.0975577,0.04854104,0.17134877,-0.06410192,-0.055263776,0.15581945,-0.047450222,0.035728782,-0.011934351,-0.053515915,0.06233359,-0.039835103,0.04947015,-0.022670487,-0.0052478197,0.035587825,0.01644612,0.05688634,-0.013686495,-2.0,2.0,-2.0,2.0,2.0,-2.0,2.0,1.0999985,-2.0,-2.0,0.57009363,-2.0,-2.0,2.0,-2.0,2.0,2.0,-2.0,2.0,0.6288313,-2.0,-2.0,0.73910445,-2.0
2025-06-09 12:30:38.024,0.015584505,-0.01661956,-0.01481502,0.07805516,0.02048399,-0.014969167,0.0,0.0,0.0,-0.0028281827,-0.051128604,0.4239957,-0.10680263,0.056038577,0.44290334,-0.092178196,0.043034606,0.17096464,-0.06869944,-0.07001141,0.15859708,-0.041137762,0.040313248,-0.036897827,0.045072,0.041268673,-0.0068303305,0.03982228,0.026136559,0.0022980778,-0.018981269,-0.07083194,-0.021092499,-0.029585248,-2.0,2.0,-2.0,2.0,2.0,-2.0,2.0,0.6288313,-2.0,-2.0,0.73910445,-2.0,-2.0,2.0,-2.0,2.0,2.0,-2.0,2.0,0.81933695,-2.0,-2.0,0.64579666,-2.0
2025-06-09 12:30:38.045,-0.018699849,0.022094926,0.0014250963,0.044593286,0.0061411522,-0.041910067,0.0,0.0,0.0,-0.0031076493,-0.03793644,0.4132662,-0.09851838,0.071752965,0.42978615,-0.09239099,0.041099716,0.16548012,-0.06505117,-0.07652891,0.15116994,-0.03711955,0.018031143,0.044289507,-0.019076163,-0.060879003,-0.031096093,-0.050390147,0.009145393,-0.017462341,-0.018360956,0.03454646,0.06301683,0.00810525,-2.0,2.0,-2.0,2.0,2.0,-2.0,2.0,0.81933695,-2.0,-2.0,0.64579666,-2.0,-2.0,2.0,-2.0,2.0,2.0,-2.0,2.0,0.63367134,-2.0,-2.0,0.5729192,-2.0
2025-06-09 12:30:38.064,0.058123026,0.019354086,-0.04652925,0.03876246,-0.008980038,-0.03922997,0.0,0.0,0.0,-0.0032473078,-0.05549851,0.42699072,-0.09044484,0.059186865,0.4411081,-0.09789275,0.04566813,0.16820645,-0.066154726,-0.06924056,0.1628005,-0.04509618,-0.03607124,-0.036340173,0.026454346,-0.012367763,0.040075958,0.056440223,-0.021041986,0.00047431057,0.030961182,-0.0117199,0.06085586,0.07124029,-2.0,2.0,-2.0,2.0,2.0,-2.0,2.0,0.63367134,-2.0,-2.0,0.5729192,-2.0,-2.0,2.0,-2.0,2.0,2.0,-2.0,2.0,0.80332893,-2.0,-2.0,0.45322555,-2.0
2025-06-09 12:30:38.087,0.03738969,0.02416951,0.04067584,0.06499452,-0.029603561,-0.027731102,0.0,0.0,0.0,-0.0032902185,-0.053570542,0.4230214,-0.10909861,0.05695552,0.446227,-0.09510757,0.040185537,0.16708693,-0.065172486,-0.058986995,0.15037774,-0.032437593,-0.016429076,-0.05524524,0.005364289,0.06972761,-0.034575406,0.06414419,-0.06220747,0.025760904,-0.035793316,-0.037125442,-0.07520254,0.083556324,-2.0,2.0,-2.0,2.0,2.0,-2.0,2.0,0.80332893,-2.0,-2.0,0.45322555,-2.0,-2.0,2.0,-2.0,2.0,2.0,-2.0,2.0,0.6327278,-2.0,-2.0,0.8364065,-2.0
2025-06-09 12:30:38.107,-0.010731039,-0.03823418,0.01465866,0.03625726,0.0030127564,0.041204866,0.0,0.0,0.0,-0.0033934852,-0.05396388,0.4173249,-0.10761539,0.067868404,0.4458749,-0.10559056,0.0532036,0.1553799,-0.05277706,-0.063135095,0.14558303,-0.043850474,-0.023331353,-0.04076474,0.06251841,0.0639955,-0.035779513,-0.070948385,-0.02910324,0.06523365,-0.06913424,0.01025065,0.057159808,0.0024028039,-2.0,2.0,-2.0,2.0,2.0,-2.0,2.0,0.6327278,-2.0,-2.0,0.8364065,-2.0,-2.0,2.0,-2.0,2.0,2.0,-2.0,2.0,0.47874552,-2.0,-2.0,0.699902,-2.0
2025-06-09 12:30:38.126,0.031860247,-0.0042062076,-0.042284045,-0.007508709,-0.02417734,0.0031660632,0.0,0.0,0.0,-0.0032875994,-0.05929276,0.41787514,-0.09722443,0.062194437,0.43759537,-0.099598706,0.04327594,0.15622738,-0.062067866,-0.07303703,0.1570242,-0.040476426,-0.058729038,-0.01284279,0.011661263,-0.010037353,-0.057925697,-0.0069481437,0.056333542,0.048736542,0.014883558,0.04070727,-0.052621678,0.06953793,-2.0,2.0,-2.0,2.0,2.0,-2.0,2.0,0.47874552,-2.0,-2.0,0.699902,-2.0,-2.0,2.0,-2.0,2.0,2.0,-2.0,2.0,0.98399955,-2.0,-2.0,0.36210746,-2.0
2025-06-09 12:30:38.146,-0.010469224,0.007920642,-0.02479381,0.06741867,0.016228514,-0.011059659,0.0,0.0,0.0,-0.0028837456,-0.049243003,0.41927984,-0.10940358,0.06069254,0.44270545,-0.103906654,0.05139069,0.15098569,-0.064277396,-0.07398686,0.13968104,-0.040684123,-0.033622213,-0.0015413477,-0.074957706,-0.021124484,0.027359279,0.007031479,-0.027143206,-0.048820376,-0.009529342,-0.007091288,-0.07575061,-0.05952327,-2.0,2.0,-2.0,2.0,2.0,-2.0,2.0,0.98399955,-2.0,-2.0,0.36210746,-2.0,-2.0,2.0,-2.0,2.0,2.0,-2.0,2.0,0.96564263,-2.0,-2.0,0.5370491,-2.0
2025-06-09 12:30:38.166,-0.06284702,-0.034409698,0.06012622,0.02015089,0.019215705,0.0001911455,0.0,0.0,0.0,-0.00280169,-0.054110352,0.4202282,-0.11062997,0.0622378,0.44034094,-0.09706855,0.052340064,0.16947934,-0.05156727,-0.072830625,0.1421855,-0.04126639,-0.011029493,-0.0022922514,-0.055866078,-0.05554775,-0.069876105,-0.041620962,-0.06594618,0.040949244,-0.07206461,-0.06335557,0.008900035,-0.015082898,-2.0,2.0,-2.0,2.0,2.0,-2.0,2.0,0.96564263,-2.0,-2.0,0.5370491,-2.0,-2.0,2.0,-2.0,2.0,2.0,-2.0,2.0,0.42483658,-2.0,-2.0,0.8298475,-2.0
2025-06-09 12:30:38.187,-0.01847956,0.002516594,0.031247355,0.070693895,0.013945523,0.0450788,0.0,0.0,0.0,-0.0030698634,-0.05370342,0.4231352,-0.09101239,0.0636716,0.4415435,-0.08919385,0.054247603,0.1579278,-0.05657534,-0.076494254,0.15407427,-0.040248793,-0.036931667,0.049802594,-0.06280224,0.065494254,-0.047833223,-0.065785795,0.020567777,0.058686916,-0.061647113,-0.05688485,0.052458588,-0.03359236,-2.0,2.0,-2.0,2.0,2.0,-2.0,2.0,0.42483658,-2.0,-2.0,0.8298475,-2.0,-2.0,2.0,-2.0,2.0,2.0,-2.0,2.0,0.38242322,-2.0,-2.0,0.77911127,-2.0
2025-06-09 12:30:38.207,0.049228735,-0.045821935,0.019339887,0.076257184,0.0070432653,0.024154825,0.0,0.0,0.0,-0.0030096676,-0.057148874,0.42331678,-0.11029968,0.056023497,0.4376214,-0.08973769,0.0425457,0.15288025,-0.051774852,-0.06229091,0.15863375,-0.03408266,-0.03289199,-0.025240432,0.052132655,0.055416144,-0.030743122,-0.055502694,-0.029155355,0.040380254,0.009277459,-0.0503488,-0.021249978,-0.00053259655,-2.0,2.0,-2.0,2.0,2.0,-2.0,2.0,0.38242322,-2.0,-2.0,0.77911127,-2.0,-2.0,2.0,-2.0,2.0,2.0,-2.0,2.0,0.55522805,-2.0,-2.0,0.807053,-2.0
2025-06-09 12:30:38.226,-0.037527833,-0.034866553,-0.028090447,0.018131463,0.022149006,-0.0017882166,0.0,0.0,0.0,-0.0025105325,-0.0449106,0.42210612,-0.10576764,0.051402196,0.43718114,-0.09834759,0.051313873,0.14760947,-0.04253702,-0.05586894,0.1446523,-0.033614352,-0.05408719,-0.00032661966,0.034548987,-0.05102481,-0.02198049,-0.013845677,-0.0069446494,-0.035959102,-0.06698963,0.039592605,-0.009001351,0.048078068,-2.0,2.0,-2.0,2.0,2.0,-2.0,2.0,0.55522805,-2.0,-2.0,0.807053,-2.0,-2.0,2.0,-2.0,2.0,2.0,-2.0,2.0,0.80525595,-2.0,-2.0,0.54591703,-2.0
2025-06-09 12:30:38.247,-0.054688387,-0.018832633,0.0017872879,0.07754992,-0.0071132774,0.0131400535,0.0,0.0,0.0,-0.001852293,-0.056347754,0.41128317,-0.10724237,0.062965564,0.44223213,-0.103501484,0.05447384,0.16453798,-0.057249814,-0.054375444,0.15988615,-0.046336643,-0.03639179,0.07221025,0.002362975,0.036210492,0.006698939,0.056284644,-0.043730132,0.0027242058,-0.0012211987,0.027068945,0.031813167,0.0024883905,-2.0,2.0,-2.0,2.0,2.0,-2.0,2.0,0.80525595,-2.0,-2.0,0.54591703,-2.0,-2.0,2.0,-2.0,2.0,2.0,-2.0,2.0,0.6641055,-2.0,-2.0,0.63172835,-2.0
2025-06-09 12:30:38.266,0.045350593,-0.005275375,0.04245436,0.0512516,-0.04872562,0.044130195,0.0,0.0,0.0,-0.0014849222,-0.04418361,0.41734025,-0.09449495,0.05768831,0.43538523,-0.092639856,0.06422443,0.14919034,-0.043196104,-0.05664297,0.1475887,-0.03199319,-0.039713416,0.059690524,-0.0529131,0.037490595,-0.06771618,-0.07461173,0.03750928,-0.0744452,0.013977123,-0.04671502,-0.04175118,-0.046118587,-2.0,2.0,-2.0,2.0,2.0,-2.0,2.0,0.6641055,-2.0,-2.0,0.63172835,-2.0,-2.0,2.0,-2.0,2.0,2.0,-2.0,2.0,0.45687717,-2.0,-2.0,0.9288072,-2.0
2025-06-09 12:30:38.286,-0.04109089,0.026060143,-0.056462485,0.06268089,0.016805973,-0.002827237,0.0,0.0,0.0,-0.0013617936,-0.044520743,0.4117296,-0.10034321,0.048009213,0.44513717,-0.089713775,0.05184643,0.16030432,-0.042520884,-0.055468664,0.15401456,-0.043210108,0.030790683,0.052898817,-0.07172742,0.0048006875,-0.027521247,0.019625751,0.020461377,0.055930097,0.060288195,-0.003947689,0.078209236,-0.07772709,-2.0,2.0,-2.0,2.0,2.0,-2.0,2.0,0.45687717,-2.0,-2.0,0.9288072,-2.0,-2.0,2.0,-2.0,2.0,2.0,-2.0,2.0,0.8191162,-2.0,-2.0,0.39572114,-2.0
2025-06-09 12:30:38.307,0.037856888,-0.011748627,0.006855233,0.052501842,0.011722383,0.020050367,0.0,0.0,0.0,-0.0010658619,-0.062431674,0.42238587,-0.09618915,0.047014225,0.44370493,-0.09081242,0.061412387,0.15331355,-0.058895852,-0.0579934,0.14854407,-0.03320212,0.040725205,0.011322556,0.030968696,-0.0015528077,0.0152967265,-0.013918614,-0.016847719,0.073003456,-0.0068508177,-0.038461104,0.049779195,0.017508646,-2.0,2.0,-2.0,2.0,2.0,-2.0,2.0,0.8191162,-2.0,-2.0,0.39572114,-2.0,-2.0,2.0,-2.0,2.0,2.0,-2.0,2.0,0.5816321,-2.0,-2.0,0.683117,-2.0
2025-06-09 12:30:38.328,0.053137325,0.008364859,-0.026443643,0.0043957806,0.012494624,-0.003898569,0.0,0.0,0.0,-0.0010674455,-0.04497613,0.41066384,-0.10397915,0.049364142,0.4442551,-0.1065205,0.04804762,0.15315175,-0.059448898,-0.054810688,0.16148594,-0.041272007,-0.009227793,-0.060030647,-0.0015908714,0.029033996,0.03223677,0.06964349,-0.045552023,-0.0095031625,-0.065585695,0.030661482,-0.06399441,0.0108840875,-2.0,2.0,-2.0,2.0,2.0,-2.0,2.0,0.5816321,-2.0,-2.0,0.683117,-2.0,-2.0,2.0,-2.0,2.0,2.0,-2.0,2.0,0.8662531,-2.0,-2.0,0.6743246,-2.0
2025-06-09 12:30:38.348,-0.013588906,0.01299466,0.044369586,0.00023621073,0.039805856,-0.014676199,0.0,0.0,0.0,-0.0012188931,-0.047494598,0.40787828,-0.10714459,0.06690181,0.44688204,-0.10442194,0.05210178,0.15131749,-0.051192418,-0.05737727,0.15907717,-0.04258166,-0.03340384,-0.02183013,0.006331093,-0.060756464,0.05057524,0.00549324,-0.063008204,0.080395274,-0.019550264,0.009900237,-0.0412588,-0.009938808,-2.0,2.0,-2.0,2.0,2.0,-2.0,2.0,0.8662531,-2.0,-2.0,0.6743246,-2.0,-2.0,2.0,-2.0,2.0,2.0,-2.0,2.0,0.45627886,-2.0,-2.0,0.8754172,-2.0
2025-06-09 12:30:38.370,-0.02793311,-0.060461987,-0.0066881706,0.022179056,-0.034331873,0.0005285969,0.0,0.0,0.0,-0.001481332,-0.05723642,0.42055145,-0.09278994,0.05615357,0.44882333,-0.0956342,0.049251843,0.16547264,-0.04977372,-0.059867676,0.15400542,-0.04296472,0.030105181,0.06049469,-0.009550691,-0.045146167,0.008738271,0.003943806,0.010662454,0.031016381,0.017392436,0.0005101585,-0.06521257,0.06165112,-2.0,2.0,-2.0,2.0,2.0,-2.0,2.0,0.45627886,-2.0,-2.0,0.8754172,-2.0,-2.0,2.0,-2.0,2.0,2.0,-2.0,2.0,0.83753186,-2.0,-2.0,0.6830783,-2.0
2025-06-09 12:30:38.389,-0.023928672,-0.008905169,-0.0049051363,-0.006084269,0.0290357,0.046637267,0.0,0.0,0.0,-0.0015267555,-0.05008929,0.40738472,-0.09755082,0.06733435,0.437058,-0.098385826,0.060979933,0.16070285,-0.057669066,-0.06845521,0.1584022,-0.05237811,-0.056520477,-0.03935694,0.025770957,0.026152253,-0.021834593,0.0019125865,0.045641232,0.020346254,-0.07242617,0.03700629,0.02179955,0.055378668,-2.0,2.0,-2.0,2.0,2.0,-2.0,2.0,0.83753186,-2.0,-2.0,0.6830783,-2.0,-2.0,2.0,-2.0,2.0,2.0,-2.0,2.0,0.6435651,-2.0,-2.0,0.61071837,-2.0
2025-06-09 12:30:38.409,-0.006383158,-0.020776557,0.04756769,0.056759916,-0.013644882,0.0031084884,0.0,0.0,0.0,-0.001581665,-0.047948413,0.40526175,-0.10083001,0.049720395,0.44880858,-0.09991563,0.05517191,0.1524925,-0.049414918,-0.056264874,0.1651268,-0.04821879,0.07123957,0.011731025,0.020749241,0.03083108,0.025479296,-0.042220578,0.03170069,-0.023969054,-0.04043757,-0.03702546,0.009952402,0.02678097,-2.0,2.0,-2.0,2.0,2.0,-2.0,2.0,0.6435651,-2.0,-2.0,0.61071837,-2.0,-2.0,2.0,-2.0,2.0,2.0,-2.0,2.0,0.31940442,-2.0,-2.0,1.0453931,-2.0
2025-06-09 12:30:38.429,0.032283675,0.022441125,0.011380173,-0.010760211,-0.050344784,0.00028630844,0.0,0.0,0.0,-0.0017269419,-0.043392126,0.41638136,-0.091207266,0.04724505,0.43554518,-0.110532954,0.0472835,0.1538436,-0.045863993,-0.067557625,0.15511385,-0.043396015,-0.013463467,-0.046486206,0.026362631,-0.08101952,0.07607668,-0.0663854,0.046123475,-0.047306966,0.03805824,0.049100153,0.05238426,0.05798397,-2.0,2.0,-2.0,2.0,2.0,-2.0,2.0,0.31940442,-2.0,-2.0,1.0453931,-2.0,-2.0,2.0,-2.0,2.0,2.0,-2.0,2.0,0.32274503,-2.0,-2.0,0.88420445,-2.0
2025-06-09 12:30:38.449,0.054985475,0.001618175,0.0134420255,0.068811335,0.03610362,0.029341815,0.0,0.0,0.0,-0.0014428555,-0.057868402,0.41614273,-0.09975169,0.06067863,0.43649334,-0.09926217,0.053551417,0.14906028,-0.057720285,-0.05375459,0.15069672,-0.05402262,0.05696269,-0.015624258,0.01645074,0.028733643,-0.03855121,-0.06887749,0.033069134,0.054267406,-0.026802836,0.037305612,-0.014566797,-0.0063288687,-2.0,2.0,-2.0,2.0,2.0,-2.0,2.0,0.32274503,-2.0,-2.0,0.88420445,-2.0,-2.0,2.0,-2.0,2.0,2.0,-2.0,2.0,0.5542254,-2.0,-2.0,0.82990766,-2.0
2025-06-09 12:30:38.470,-0.04888135,0.006102919,-0.0098625505,-0.012081893,0.045409422,-0.009983554,0.0,0.0,0.0,-0.0007814767,-0.052284956,0.40085527,-0.100177914,0.06269526,0.43818796,-0.09367381,0.056950103,0.15112486,-0.037300702,-0.054947633,0.16588323,-0.043259982,0.03382224,0.002740312,0.029484006,0.018761123,-0.02486397,0.011993153,-0.014717557,0.0649237,0.036093645,-0.042454284,0.02342207,0.060221814,-2.0,2.0,-2.0,2.0,2.0,-2.0,2.0,0.5542254,-2.0,-2.0,0.82990766,-2.0,-2.0,2.0,-2.0,2.0,2.0,-2.0,2.0,0.68678087,-2.0,-2.0,0.67757505,-2.0
2025-06-09 12:30:38.490,0.04207237,-0.031263318,0.012906809,0.04622883,-2.0228621e-05,-0.038901877,0.0,0.0,0.0,-0.00013929779,-0.06507246,0.41145355,-0.09768915,0.052849986,0.4382989,-0.092718065,0.063778415,0.14775915,-0.047794033,-0.053863365,0.1689872,-0.04228302,-0.067810275,0.0281465,0.056837097,-0.03342839,-0.029914929,0.04460763,0.02643791,0.056812543,0.048832662,-0.039860763,0.054378185,-0.006025532,-2.0,2.0,-2.0,2.0,2.0,-2.0,2.0,0.68678087,-2.0,-2.0,0.67757505,-2.0,-2.0,2.0,-2.0,2.0,2.0,-2.0,2.0,0.43008965,-2.0,-2.0,0.6716384,-2.0
2025-06-09 12:30:38.510,-0.019908464,0.034860168,0.0120699685,0.058851227,-0.039812453,0.018505221,0.0,0.0,0.0,0.00018480813,-0.056738436,0.41196242,-0.10907484,0.04501253,0.43933752,-0.10570499,0.06855743,0.152381,-0.044345625,-0.061610702,0.15010875,-0.054883488,0.064336255,0.069231905,0.04586896,0.06397665,0.022407034,-0.010631034,0.074939206,-0.059337184,0.004269532,0.063938186,0.014522933,0.057464827,-2.0,2.0,-2.0,2.0,2.0,-2.0,2.0,0.43008965,-2.0,-2.0,0.6716384,-2.0,-2.0,2.0,-2.0,2.0,2.0,-2.0,2.0,0.5338997,-2.0,-2.0,0.8753287,-2.0
2025-06-09 12:30:38.530,-0.026564624,-0.050255056,-0.056146834,0.0085241,0.03567586,-0.0027514412,0.0,0.0,0.0,0.00032353474,-0.061937295,0.39989886,-0.107081294,0.05728957,0.4455141,-0.10518571,0.06890275,0.15379943,-0.04499293,-0.06444287,0.16755599,-0.04321755,0.06677444,-0.06706286,0.0035033477,-0.02256291,-0.04945643,-0.0531427,0.052098077,-0.050821524,-0.008550222,0.0060831206,0.04719322,-0.04967696,-2.0,2.0,-2.0,2.0,2.0,-2.0,2.0,0.5338997,-2.0,-2.0,0.8753287,-2.0,-2.0,2.0,-2.0,2.0,2.0,-2.0,2.0,0.7740204,-2.0,-2.0,0.58126694,-2.0
2025-06-09 12:30:38.553,-0.050867476,0.040731717,-0.024239765,0.069277264,-0.0061684004,0.006637528,0.0,0.0,0.0,0.00044747168,-0.0527714,0.40893617,-0.09347137,0.045572054,0.44767326,-0.10539593,0.059119303,0.15659016,-0.043308266,-0.054224283,0.15143383,-0.038929217,-0.019885607,-0.0049659135,0.021111192,0.06515859,-0.006572264,-0.00087246473,0.0049586175,0.0063495087,-0.060921203,0.029767413,-0.027054992,-0.032733757,-2.0,2.0,-2.0,2.0,2.0,-2.0,2.0,0.7740204,-2.0,-2.0,0.58126694,-2.0,-2.0,2.0,-2.0,2.0,2.0,-2.0,2.0,0.86426157,-2.0,-2.0,0.5388624,-2.0
2025-06-09 12:30:38.570,0.024989685,-0.04010928,0.0016597384,-0.0049675335,-0.005516657,-0.034262102,0.0,0.0,0.0,0.00026126634,-0.04580248,0.40539652,-0.08932236,0.060856916,0.43313733,-0.09422845,0.05510377,0.14979258,-0.048623413,-0.04647345,0.16272478,-0.03654264,0.07038418,-0.020859784,0.020739457,0.024792254,0.05502335,-0.04391229,-0.0554991,0.032528933,0.026032245,0.021174492,0.008162489,-0.06851939,-2.0,2.0,-2.0,2.0,2.0,-2.0,2.0,0.86426157,-2.0,-2.0,0.5388624,-2.0,-2.0,2.0,-2.0,2.0,2.0,-2.0,2.0,0.6417901,-2.0,-2.0,0.75924915,-2.0
2025-06-09 12:30:38.591,-0.03196424,0.012382664,0.034938835,0.054750934,-0.025572507,0.010514571,0.0,0.0,0.0,-0.000344324,-0.046106342,0.4136301,-0.09467469,0.06407034,0.43719733,-0.101920284,0.06355028,0.15605865,-0.054187853,-0.057881743,0.1526891,-0.04767824,-0.035969015,-0.020768948,0.065790646,-0.013569283,0.056451697,-0.0009128726,-0.0018292642,0.06573064,-0.035306945,-0.022714222,0.0635531,0.004913849,-2.0,2.0,-2.0,2.0,2.0,-2.0,2.0,0.6417901,-2.0,-2.0,0.75924915,-2.0,-2.0,2.0,-2.0,2.0,2.0,-2.0,2.0,0.28626388,-2.0,-2.0,0.76768595,-2.0
2025-06-09 12:30:38.613,-0.020561425,0.00018431967,-0.0011400102,0.07280217,0.007805069,0.002356555,0.0,0.0,0.0,-0.00095548783,-0.046596352,0.41246098,-0.08950836,0.06522395,0.44730887,-0.105043665,0.061635476,0.15683971,-0.04779741,-0.0643811,0.1506991,-0.042454753,-0.01850674,-0.042116765,0.03471183,0.059021242,0.033367645,0.014656041,-0.018881008,0.050420843,0.023383463,-0.042389307,-0.043394525,0.0040086405,-2.0,2.0,-2.0,2.0,2.0,-2.0,2.0,0.28626388,-2.0,-2.0,0.76768595,-2.0,-2.0,2.0,-2.0,2.0,2.0,-2.0,2.0,0.6542552,-2.0,-2.0,0.7164927,-2.0
2025-06-09 12:30:38.631,-0.03826892,-0.0124948295,0.03847468,0.015451963,0.04657247,0.03996093,0.0,0.0,0.0,-0.001179707,-0.047542203,0.419829,-0.088240765,0.057099327,0.44525203,-0.1032515,0.049112048,0.15458463,-0.04780993,-0.05742078,0.16208136,-0.03419981,-0.0417474,-0.027812868,-0.037541144,-0.06935394,-0.05564512,0.012572208,-0.074336015,-0.05876957,-0.026117066,0.012055779,0.014187912,-0.053299163,-2.0,2.0,-2.0,2.0,2.0,-2.0,2.0,0.6542552,-2.0,-2.0,0.7164927,-2.0,-2.0,2.0,-2.0,2.0,2.0,-2.0,2.0,0.4419803,-2.0,-2.0,0.9469027,-2.0
2025-06-09 12:30:38.653,0.008581213,-0.053136744,-0.013511996,-0.009383295,0.024553342,0.0049284594,0.0,0.0,0.0,-0.001256639,-0.060493063,0.40947798,-0.10624778,0.057337284,0.44002682,-0.10012007,0.06619529,0.14350891,-0.05723944,-0.06173332,0.15697697,-0.052473698,-0.0033265166,-0.011411497,0.020266794,-0.059464525,0.014866375,0.049918666,-0.047485057,-0.027472634,0.05849949,0.0013354141,-0.008141033,-0.069897875,-2.0,2.0,-2.0,2.0,2.0,-2.0,2.0,0.4419803,-2.0,-2.0,0.9469027,-2.0,-2.0,2.0,-2.0,2.0,2.0,-2.0,2.0,0.6277775,-2.0,-2.0,0.77427024,-2.0
2025-06-09 12:30:38.672,0.034874257,0.02609817,-0.048348077,0.06342781,0.0054515395,0.0068600997,0.0,0.0,0.0,-0.0010805178,-0.05253738,0.413833,-0.10382786,0.05387933,0.43593073,-0.104444064,0.053562548,0.15238208,-0.051765516,-0.06610597,0.16218312,-0.048520457,0.017340207,0.017941458,0.0201623,0.042187076,-0.068962984,-0.037313312,0.045115102,-0.042161476,-0.069309294,0.054459926,0.022113198,0.024099013,-2.0,2.0,-2.0,2.0,2.0,-2.0,2.0,0.6277775,-2.0,-2.0,0.77427024,-2.0,-2.0,2.0,-2.0,2.0,2.0,-2.0,2.0,0.93230504,-2.0,-2.0,0.45617265,-2.0
2025-06-09 12:30:38.749,-0.001903788,0.05513908,-0.002137273,0.08094068,-0.014061635,-0.001400782,0.0,0.0,0.0,-0.00082856586,-0.058870655,0.40415287,-0.10201784,0.05741432,0.44794244,-0.10091155,0.04972354,0.14814575,-0.046302237,-0.057622217,0.15902723,-0.03563732,-0.0005698692,-0.05907195,-0.018604435,0.028639091,0.0037442471,-0.017611874,-0.0654428,-0.018344881,-0.031556394,0.055405885,0.05830226,0.0055912663,-2.0,2.0,-2.0,2.0,2.0,-2.0,2.0,0.93230504,-2.0,-2.0,0.45617265,-2.0,-2.0,2.0,-2.0,2.0,2.0,-2.0,2.0,0.49971038,-2.0,-2.0,0.69310206,-2.0
2025-06-09 12:30:38.767,-0.023096932,0.039132345,-0.037327442,0.030612841,0.009427068,0.021229742,0.0,0.0,0.0,-0.0010083856,-0.061947867,0.41791183,-0.09761709,0.05402685,0.4479241,-0.10339104,0.049606416,0.14973147,-0.05031756,-0.067040525,0.15479825,-0.05194706,-0.003343837,-0.044581857,0.033654425,0.02455797,-0.031157028,0.038608164,0.050684728,-0.05268477,-0.029106438,-0.04938859,0.024678946,-0.0019678746,-2.0,2.0,-2.0,2.0,2.0,-2.0,2.0,0.49971038,-2.0,-2.0,0.69310206,-2.0,-2.0,2.0,-2.0,2.0,2.0,-2.0,2.0,0.8023898,-2.0,-2.0,0.57792956,-2.0
2025-06-09 12:30:38.786,-0.007381651,0.045995817,0.018900456,0.049699124,0.030393789,0.004667922,0.0,0.0,0.0,-0.0012469749,-0.061477743,0.41730085,-0.10115528,0.05933768,0.43436545,-0.09762968,0.05083078,0.14803816,-0.048772663,-0.07070452,0.14578323,-0.034823976,-0.015356466,0.0031331487,-0.046171546,0.0089058615,0.0063840263,-0.003051954,0.016682217,0.05731493,0.059050072,0.04341297,0.041896947,0.06217724,-2.0,2.0,-2.0,2.0,2.0,-2.0,2.0,0.8023898,-2.0,-2.0,0.57792956,-2.0,-2.0,2.0,-2.0,2.0,2.0,-2.0,2.0,0.45029217,-2.0,-2.0,0.6934578,-2.0
2025-06-09 12:30:38.810,0.0489249,-0.041496277,0.01575357,-0.008671107,0.023802683,-0.03057625,0.0,0.0,0.0,-0.0015574833,-0.049375214,0.40454465,-0.10293836,0.057631467,0.43279958,-0.09393758,0.047816146,0.16153862,-0.045102663,-0.054770097,0.15048067,-0.031372696,-0.0022159144,0.047887873,0.026467487,-0.03768231,-0.059264936,0.008937128,0.06420943,0.038108703,0.06716115,-0.0012702598,0.060007356,0.044436984,-2.0,2.0,-2.0,2.0,2.0,-2.0,2.0,0.45029217,-2.0,-2.0,0.6934578,-2.0,-2.0,2.0,-2.0,2.0,2.0,-2.0,2.0,0.5023325,-2.0,-2.0,0.7324927,-2.0
2025-06-09 12:30:38.828,0.055343382,0.035628695,0.01556529,0.030204548,-0.003894242,-0.028340816,0.0,0.0,0.0,-0.0017352545,-0.04451823,0.40938205,-0.0988608,0.06467353,0.435205,-0.10642974,0.048493017,0.14123374,-0.044521075,-0.052852366,0.15763754,-0.04848271,-0.017429875,-0.016557984,0.037158094,0.038865153,-0.042280093,-0.0371994,0.034892377,0.003012427,-0.037016165,-0.019256605,-0.07661812,-0.0072070505,-2.0,2.0,-2.0,2.0,2.0,-2.0,2.0,0.5023325,-2.0,-2.0,0.7324927,-2.0,-2.0,2.0,-2.0,2.0,2.0,-2.0,2.0,0.6710879,-2.0,-2.0,0.79484683,-2.0
2025-06-09 12:30:38.847,-0.05887098,0.018332059,0.02118883,0.013400801,-0.010023443,-0.0062227068,0.0,0.0,0.0,-0.0016788292,-0.05698965,0.4091944,-0.10435068,0.051546745,0.44141155,-0.10718135,0.0634926,0.1481109,-0.054315947,-0.055459477,0.16074006,-0.040682733,0.008036983,0.054060142,-0.0019650154,-0.0043407516,0.0049453005,0.02945525,0.059401825,-0.064972565,0.027088229,-0.006240008,0.0494537,0.07061472,-2.0,2.0,-2.0,2.0,2.0,-2.0,2.0,0.6710879,-2.0,-2.0,0.79484683,-2.0,-2.0,2.0,-2.0,2.0,2.0,-2.0,2.0,0.37215585,-2.0,-2.0,0.89533913,-2.0
2025-06-09 12:30:38.870,0.044554215,-0.023780316,0.013809543,0.08380004,-0.032309547,0.04018583,0.0,0.0,0.0,-0.0015330451,-0.046373338,0.40508643,-0.102861844,0.059373554,0.44468516,-0.099659316,0.065685876,0.16143925,-0.051336776,-0.06837903,0.15607493,-0.035561375,0.060947254,-0.07344151,-0.0018500412,-0.025821337,-0.049902957,0.048005924,-0.020406462,0.027459197,-0.039412115,-0.054925486,0.07859747,-0.043225497,-2.0,2.0,-2.0,2.0,2.0,-2.0,2.0,0.37215585,-2.0,-2.0,0.89533913,-2.0,-2.0,2.0,-2.0,2.0,2.0,-2.0,2.0,0.350756,-2.0,-2.0,0.8213913,-2.0
2025-06-09 12:30:38.888,0.05836439,0.03335134,0.006358279,0.06962349,-0.03272761,-0.013774835,0.0,0.0,0.0,-0.0011364153,-0.0656175,0.41037145,-0.09093554,0.05665374,0.43933567,-0.10702945,0.056849405,0.15397361,-0.038827226,-0.06841123,0.1612754,-0.050792232,-0.048138484,0.05891826,-0.032337807,-0.07941192,0.046180844,-0.06816717,0.0054626213,0.031818766,-0.013980754,0.030537164,0.05797897,0.023732567,-2.0,2.0,-2.0,2.0,2.0,-2.0,2.0,0.350756,-2.0,-2.0,0.8213913,-2.0,-2.0,2.0,-2.0,2.0,2.0,-2.0,2.0,0.38983935,-2.0,-2.0,0.71106714,-2.0
2025-06-09 12:30:38.908,0.043003064,-0.0029018975,0.0050812517,0.017372197,-0.04042927,0.008501993,0.0,0.0,0.0,-0.0005261479,-0.056119192,0.40373415,-0.10034286,0.048633117,0.44524536,-0.09231876,0.06588284,0.14506362,-0.0541433,-0.058451463,0.15313654,-0.042681806,0.00280049,-0.06961135,-0.029875122,-0.021291317,-0.026113579,-0.073099576,0.036349252,0.026252382,-0.018341789,-0.02438769,-0.058562722,0.003144807,-2.0,2.0,-2.0,2.0,2.0,-2.0,2.0,0.38983935,-2.0,-2.0,0.71106714,-2.0,-2.0,2.0,-2.0,2.0,2.0,-2.0,2.0,0.55627996,-2.0,-2.0,0.8232917,-2.0
2025-06-09 12:30:38.929,0.024887146,0.052014075,-0.041553304,0.038862154,-0.005341284,-0.028435217,0.0,0.0,0.0,6.7229485e-05,-0.061356634,0.40700856,-0.10030079,0.058971383,0.4350129,-0.0942108,0.07064576,0.14646041,-0.05282206,-0.05949345,0.16604316,-0.05289609,-0.033439897,-0.026187146,-0.01986685,-0.05069522,0.0056997747,-0.012295471,-0.04937368,0.021719977,-0.017190754,-0.008435529,-0.018789029,-0.005197523,-2.0,2.0,-2.0,2.0,2.0,-2.0,2.0,0.55627996,-2.0,-2.0,0.8232917,-2.0,-2.0,2.0,-2.0,2.0,2.0,-2.0,2.0,0.76128715,-2.0,-2.0,0.49700534,-2.0
2025-06-09 12:30:38.948,-0.03123578,0.025293062,-0.002402253,0.06097815,0.019450573,-0.010149957,0.0,0.0,0.0,0.00051822246,-0.053948592,0.41640046,-0.09666945,0.049737167,0.44561422,-0.09387095,0.05518438,0.13546623,-0.048311472,-0.056169506,0.16533235,-0.037247214,0.075738505,-0.017194128,-0.0018625869,0.023154322,0.055482738,-0.026170747,0.06382536,0.07928675,-0.006843271,0.027903378,-0.07658211,0.013229232,-2.0,2.0,-2.0,2.0,2.0,-2.0,2.0,0.76128715,-2.0,-2.0,0.49700534,-2.0,-2.0,2.0,-2.0,2.0,2.0,-2.0,2.0,0.7417657,-2.0,-2.0,0.72345376,-2.0
2025-06-09 12:30:38.970,0.023300333,0.028715314,0.04224432,0.08144769,0.03061405,0.030540505,0.0,0.0,0.0,0.0005005853,-0.062023826,0.41213906,-0.1033097,0.052402753,0.4398991,-0.095617466,0.057956964,0.140041,-0.043879166,-0.04772826,0.1541229,-0.037354436,0.018176222,-0.053308673,-0.023705073,0.024935627,-0.059620596,0.030683113,0.03704293,0.011966496,0.016996551,0.04836089,0.07612577,-0.01774911,-2.0,2.0,-2.0,2.0,2.0,-2.0,2.0,0.7417657,-2.0,-2.0,0.72345376,-2.0,-2.0,2.0,-2.0,2.0,2.0,-2.0,2.0,0.1631226,-2.0,-2.0,0.9309567,-2.0
2025-06-09 12:30:38.988,0.05950358,-0.03661365,0.03203812,0.07336663,0.004678704,0.007971129,0.0,0.0,0.0,0.00015665671,-0.05684421,0.4084131,-0.09694803,0.061488327,0.43895775,-0.1054861,0.06567271,0.15542208,-0.05573139,-0.049329255,0.15485592,-0.05444604,-0.015035428,-0.005406986,-0.01783527,0.0017730807,-0.063412994,0.010426082,-0.03668841,-0.0020858066,0.05270174,0.035822503,0.044549827,0.061973948,-2.0,2.0,-2.0,2.0,2.0,-2.0,2.0,0.1631226,-2.0,-2.0,0.9309567,-2.0,-2.0,2.0,-2.0,2.0,2.0,-2.0,2.0,0.27361614,-2.0,-2.0,0.9401724,-2.0
2025-06-09 12:30:39.008,-0.021231743,-0.05880561,0.007034216,0.05484945,-0.03973625,-0.03536169,0.0,0.0,0.0,0.00014157702,-0.059758507,0.39802176,-0.10421217,0.057876,0.43794322,-0.098131284,0.051027283,0.14285888,-0.051901396,-0.04902,0.1486157,-0.040509395,0.033866663,-0.04590602,0.019381944,-0.023404872,-0.06903273,0.0597293,-0.0713131,0.0634407,-0.01961508,-0.011084316,-0.012327337,0.051737014,-2.0,2.0,-2.0,2.0,2.0,-2.0,2.0,0.27361614,-2.0,-2.0,0.9401724,-2.0,-2.0,2.0,-2.0,2.0,2.0,-2.0,2.0,0.56302303,-2.0,-2.0,0.70591444,-2.0
2025-06-09 12:30:39.029,-0.049929976,-0.036156554,-0.027016575,-0.016926922,-0.02201837,-0.032894436,0.0,0.0,0.0,0.00051442644,-0.0666818,0.40798092,-0.10633269,0.0566111,0.44158745,-0.10415545,0.06765436,0.14668146,-0.038165048,-0.057554036,0.16038881,-0.055581085,0.02925338,-0.04599559,-0.06132826,0.04891304,-0.04132233,0.05471691,0.044714987,0.07196385,-0.054403394,0.06505155,-0.059563126,0.00853429,-2.0,2.0,-2.0,2.0,2.0,-2.0,2.0,0.56302303,-2.0,-2.0,0.70591444,-2.0,-2.0,2.0,-2.0,2.0,2.0,-2.0,2.0,0.8756683,-2.0,-2.0,0.5567311,-2.0
