openverse-orca/OrcaGym/log/simulation_log_20250721_090025.csv
timestamp,sim_time,physics_step,control_step,imu_angle_roll,imu_angle_pitch,imu_angle_yaw,imu_angular_velocity_roll,imu_angular_velocity_pitch,imu_angular_velocity_yaw,imu_acc_x,imu_acc_y,imu_acc_z,fl_joint1_pos,fl_joint1_vel,fl_joint1_torque,fl_joint2_pos,fl_joint2_vel,fl_joint2_torque,fl_joint3_pos,fl_joint3_vel,fl_joint3_torque,fr_joint1_pos,fr_joint1_vel,fr_joint1_torque,fr_joint2_pos,fr_joint2_vel,fr_joint2_torque,fr_joint3_pos,fr_joint3_vel,fr_joint3_torque,hl_joint1_pos,hl_joint1_vel,hl_joint1_torque,hl_joint2_pos,hl_joint2_vel,hl_joint2_torque,hl_joint3_pos,hl_joint3_vel,hl_joint3_torque,hr_joint1_pos,hr_joint1_vel,hr_joint1_torque,hr_joint2_pos,hr_joint2_vel,hr_joint2_torque,hr_joint3_pos,hr_joint3_vel,hr_joint3_torque,fl_force_x,fl_force_y,fl_force_z,fr_force_x,fr_force_y,fr_force_z,hl_force_x,hl_force_y,hl_force_z,hr_force_x,hr_force_y,hr_force_z,fl_hip_action,fl_thigh_action,fl_calf_action,fr_hip_action,fr_thigh_action,fr_calf_action,hl_hip_action,hl_thigh_action,hl_calf_action,hr_hip_action,hr_thigh_action,hr_calf_action
2025-07-21 09:00:26.462,0.0,0,0,-0.019241594,-0.041049343,-0.007279006,0.027545895,0.04204314,-0.041523382,1.7917008,-0.5510056,0.0,0.0,0.0010778629,-0.0029118874,0.008404615,0.007747562,-0.0002294624,-0.0023679074,-0.008560944,-0.0031121972,-0.0034377603,-0.0056535685,-0.0050925845,0.0001739718,0.026808532,-0.04116189,-0.032167807,0.03340502,0.046259508,-0.006067819,0.020166628,0.040190574,-0.034144606,0.050158024,-0.009442294,-0.043955352,0.0,0.0,0.0,0.0,0.0,0.0,0.0,0.0,0.0,0.0,0.0,0.0,2.0,2.0,-0.044906914,-2.0,2.0,-0.77026874,-1.0358664,-1.0495387,-1.4885108,2.0,2.0,-1.1285533
2025-07-21 09:00:26.478,0.02,20,1,-0.20534669,0.056029364,0.03277594,-0.018501235,0.010084327,-0.019514147,0.0,0.0,0.0,0.0,0.03053639,0.036136147,-0.0003438055,-0.04803837,0.053485997,-0.029150316,-0.032265462,-0.03625957,-0.040627234,0.049174845,0.059865627,-0.03591737,0.10064808,0.20253508,0.030209709,-0.08267882,0.17712176,-0.04859179,-0.07129341,-0.22735348,-0.044528563,0.14784607,0.23874752,-0.106607184,2.0,2.0,-0.044906914,-2.0,2.0,-0.77026874,-1.0358664,-1.0495387,-1.4885108,2.0,2.0,-1.1285533,-2.0,-2.0,-1.6676395,-2.0,-2.0,-2.0,2.0,2.0,-0.97537994,2.0,-2.0,2.0
2025-07-21 09:00:26.493,0.04,40,2,0.23600522,0.22174351,0.030485004,0.05343278,0.00359328,-0.03150445,0.0,0.0,0.0,-0.00094647193,0.039537534,0.029847858,-0.040273964,-0.09367456,0.050475385,-0.06600463,-0.00775803,-0.05939788,-0.061697997,0.09704283,0.09584764,0.011890085,-0.0810605,-0.13604213,-0.029118095,-0.07538531,-0.051896922,-0.05313317,0.07462851,-0.035653338,-0.06361091,0.05308259,-0.014375497,0.09582528,-2.0,-2.0,-1.6676395,-2.0,-2.0,-2.0,2.0,2.0,-0.97537994,2.0,-2.0,2.0,0.73171854,-2.0,-2.0,1.3156565,-2.0,-1.6043605,2.0,2.0,-0.6217958,1.545088,-2.0,2.0
2025-07-21 09:00:26.513,0.06,60,3,0.48218042,0.10663629,-0.0638061,-0.0032057564,-0.030674757,-0.032056596,0.0,0.0,0.0,-0.0026878996,0.04697898,-0.023407975,-0.094513334,-0.06355579,-0.0517141,-0.0977642,0.06442495,-0.017242262,-0.07189981,0.13517216,0.046290014,0.066215396,0.055984344,-0.07697965,-0.11964574,0.17770019,-0.3263779,-0.031276923,0.104787566,0.21202895,0.022706209,0.0032822557,-0.18351713,0.18215784,0.73171854,-2.0,-2.0,1.3156565,-2.0,-1.6043605,2.0,2.0,-0.6217958,1.545088,-2.0,2.0,-2.0,0.6551731,-2.0,-0.20609504,-1.391378,-0.85922915,2.0,-2.0,2.0,-0.9247892,2.0,2.0
2025-07-21 09:00:26.533,0.08,80,4,-0.21332444,-0.37982368,-0.03479596,-0.046375517,-0.056994863,-0.018702248,0.0,0.0,0.0,-0.0020346148,0.009182823,-0.013435521,-0.13318603,-0.057435513,-0.14413849,-0.11428893,0.1085705,-0.014394599,0.00012355631,0.0806502,0.027868187,0.09195631,-0.13131876,0.08120503,-0.04839558,0.062492963,-0.2558724,-0.029212054,0.056955174,-0.07394056,0.11594827,-0.17479472,0.12891209,0.13958415,-2.0,0.6551731,-2.0,-0.20609504,-1.391378,-0.85922915,2.0,-2.0,2.0,-0.9247892,2.0,2.0,2.0,-2.0,-2.0,-2.0,-1.1568654,1.1742318,2.0,-0.40806594,2.0,-1.9416739,1.963544,2.0
2025-07-21 09:00:26.553,0.1,100,5,-0.06605671,-0.2571412,0.049401514,0.014694168,-0.04323071,-0.041467242,0.0,0.0,0.0,-0.001370487,0.0034217993,-0.014317068,-0.16715302,-0.098805256,-0.20655262,-0.061211027,0.14122391,-0.03730143,0.042378478,0.017649643,0.07967591,0.1310232,0.08593545,-0.10633066,-0.0067628897,-0.1659777,-0.18929729,0.11721532,0.13975833,0.0088672135,0.19110066,-0.16581693,0.20603168,0.121091254,2.0,-2.0,-2.0,-2.0,-1.1568654,1.1742318,2.0,-0.40806594,2.0,-1.9416739,1.963544,2.0,2.0,-2.0,-2.0,-1.583012,2.0,1.7464526,1.4499002,-1.058799,2.0,-2.0,-2.0,-2.0
2025-07-21 09:00:26.574,0.12000000000000001,120,6,0.0454144,0.08031511,0.058025658,-0.048597787,-0.06088693,0.015595029,0.0,0.0,0.0,-0.0014234178,0.0685445,-0.08275143,-0.19098172,-0.1340113,-0.22296593,-0.013104749,0.1574397,-0.09790586,0.08398233,-0.039332125,0.110852435,0.07277019,0.16147108,-0.16311644,0.0027988967,-0.045399163,-0.019711338,0.18199548,0.007524104,-0.12979014,0.11707546,-0.1560811,-0.1062499,-0.109648675,2.0,-2.0,-2.0,-1.583012,2.0,1.7464526,1.4499002,-1.058799,2.0,-2.0,-2.0,-2.0,2.0,-2.0,-1.1207545,0.84010714,2.0,0.12724869,2.0,0.7685338,2.0,-2.0,0.85253966,-2.0
2025-07-21 09:00:26.594,0.14,140,7,-0.021694794,0.5132035,0.101805866,-0.045508645,-0.076891474,0.0339824,0.0,0.0,0.0,-0.0021791658,0.102736354,-0.20217998,-0.18654016,-0.101370394,-0.19530281,-0.027768375,0.20050907,-0.11369223,0.130951,-0.08329532,0.14855413,0.011652915,0.029414782,-0.31204507,-0.028951392,0.14884974,0.14133921,0.02903473,0.14727907,0.062172428,0.056595474,-0.09572341,0.15389042,-0.09203221,2.0,-2.0,-1.1207545,0.84010714,2.0,0.12724869,2.0,0.7685338,2.0,-2.0,0.85253966,-2.0,1.1058242,-2.0,0.47365385,2.0,-1.2528651,-2.0,1.8958851,-2.0,2.0,-2.0,-2.0,-2.0
2025-07-21 09:00:26.615,0.16,160,8,0.42025402,0.16939636,0.013556312,0.047518685,-0.0013391089,0.011079726,0.0,0.0,0.0,-0.0039767716,0.12272654,-0.31830215,-0.14574128,-0.062211618,-0.18323669,-0.06509173,0.22348727,-0.11313159,0.14838706,-0.13132802,0.10906671,-0.056071386,0.03305195,-0.30269572,0.063601546,0.1520887,0.007699006,-0.055559248,0.008920899,-0.0842733,0.020136843,-0.11810879,-0.27641973,-0.16411518,1.1058242,-2.0,0.47365385,2.0,-1.2528651,-2.0,1.8958851,-2.0,2.0,-2.0,-2.0,-2.0,2.0,-0.9966318,0.5106202,-0.82426715,2.0,-2.0,2.0,2.0,2.0,-2.0,2.0,2.0
2025-07-21 09:00:26.634,0.18,180,9,-0.13702172,0.019935453,-0.015435116,-0.0034889658,-0.10760538,-0.031022413,0.0,0.0,0.0,-0.004476454,0.14719446,-0.35471475,-0.105734594,-0.06606941,-0.15681607,-0.124748744,0.26937512,-0.08870649,0.17803507,-0.17983592,0.10221493,-0.006534267,0.10932402,-0.0018289724,0.08919765,-0.06667662,0.16547634,-0.11588892,0.03498405,0.1499582,0.1000143,-0.06414653,0.15270947,0.13382371,2.0,-0.9966318,0.5106202,-0.82426715,2.0,-2.0,2.0,2.0,2.0,-2.0,2.0,2.0,0.5470089,-2.0,1.851064,2.0,-2.0,-1.7111998,2.0,-2.0,2.0,-2.0,-2.0,2.0
2025-07-21 09:00:26.654,0.19999999999999998,200,10,-0.037302986,-0.21286736,0.03680848,0.005091615,-0.07973561,-0.048869204,0.0,0.0,0.0,-0.0044741617,0.15863836,-0.39088985,-0.05970652,-0.05019542,-0.14777476,-0.15042232,0.2826192,-0.10306416,0.19409819,-0.19616082,0.056357756,0.044418883,0.022581525,-0.23609969,0.17418559,0.08575079,-0.034365032,-0.033807505,0.08033915,-0.07387771,0.12546279,-0.13306987,-0.26071262,0.14696857,0.5470089,-2.0,1.851064,2.0,-2.0,-1.7111998,2.0,-2.0,2.0,-2.0,-2.0,2.0,2.0,2.0,1.975848,0.15295607,-2.0,-2.0,2.0,2.0,2.0,-2.0,2.0,2.0
2025-07-21 09:00:26.674,0.21999999999999997,220,11,-0.24849749,0.009254194,-0.23220752,-0.01832235,-0.07174341,-0.009553195,0.0,0.0,0.0,-0.0049357107,0.17789888,-0.39608383,0.010571525,-0.04973465,-0.17197576,-0.17769103,0.29315948,-0.09088198,0.19879885,-0.22901927,0.056673646,0.088997856,0.07587671,-0.020456197,0.1814445,0.001378535,-0.11339595,-0.102582246,0.0045558354,0.19410603,0.04482905,-0.10172325,0.13902667,0.10561388,2.0,2.0,1.975848,0.15295607,-2.0,-2.0,2.0,2.0,2.0,-2.0,2.0,2.0,-2.0,2.0,-1.5029261,1.1028934,-2.0,0.9061895,2.0,-2.0,2.0,1.2709798,-2.0,2.0
2025-07-21 09:00:26.696,0.23999999999999996,240,12,-0.0015147527,0.07799345,-0.16664906,0.05429684,0.015784914,0.0045568207,0.0,0.0,0.0,-0.0030361416,0.18245828,-0.3478646,-0.03993841,-0.026850386,-0.2384327,-0.13209942,0.30361897,-0.075212374,0.22022115,-0.17170468,0.04852479,0.14476877,-0.018856626,0.0895551,-0.08555205,0.046799112,-0.2657594,0.06777234,0.025890697,0.009197664,0.06220284,0.20540482,-0.15928929,0.1371056,-2.0,2.0,-1.5029261,1.1028934,-2.0,0.9061895,2.0,-2.0,2.0,1.2709798,-2.0,2.0,-2.0,2.0,-2.0,-2.0,-2.0,-1.6636196,2.0,-2.0,2.0,1.4107412,2.0,2.0
2025-07-21 09:00:26.714,0.25999999999999995,260,13,-0.22475806,-0.31047764,0.22960141,-0.026255501,-0.036825802,0.04289405,0.0,0.0,0.0,-0.000325179,0.12578078,-0.3038165,-0.09900643,-0.05061811,-0.33514702,-0.15559095,0.31898707,-0.106410384,0.24013168,-0.12604693,0.03328729,0.14704454,-0.20070612,0.15442312,-0.17460516,-0.15438633,-0.18933246,-0.08041942,-0.016921239,-0.07264985,0.03285894,0.11037865,0.029935481,0.098946586,-2.0,2.0,-2.0,-2.0,-2.0,-1.6636196,2.0,-2.0,2.0,1.4107412,2.0,2.0,2.0,2.0,-2.0,-2.0,-0.6395708,-1.5225798,2.0,2.0,2.0,-2.0,-2.0,2.0
2025-07-21 09:00:26.734,0.27999999999999997,280,14,-0.0772732,-0.13728547,-0.09693675,0.013046423,0.01996403,0.021013029,0.0,0.0,0.0,-0.0016292594,0.12635525,-0.22181925,-0.1310373,-0.097309135,-0.36393178,-0.17235869,0.3229847,-0.11184498,0.24260896,-0.14197628,0.036457695,0.19063532,0.029569812,0.20045371,-0.033140026,-0.15077457,0.071729526,-0.013453592,-0.061507735,0.063992776,0.030489476,-0.07944248,-0.03293845,-0.0038181029,2.0,2.0,-2.0,-2.0,-0.6395708,-1.5225798,2.0,2.0,2.0,-2.0,-2.0,2.0,0.4420982,-2.0,-2.0,1.8598472,-1.6044234,-1.6347226,2.0,-2.0,2.0,-2.0,-2.0,2.0
2025-07-21 09:00:26.755,0.3,300,15,0.27015406,-0.20713896,-0.21867275,-0.019982016,-0.030731324,0.046865787,0.0,0.0,0.0,-0.001522441,0.13688432,-0.19053072,-0.16031864,-0.07437206,-0.3932496,-0.18385252,0.31973368,-0.12100827,0.25917742,-0.18422624,-0.012752339,0.21243897,-0.008339613,-0.13000907,-0.03926886,0.2218246,-0.1864432,0.02469921,0.05633274,-0.12860863,-0.006978612,-0.12139306,-0.14893144,0.07295267,0.4420982,-2.0,-2.0,1.8598472,-1.6044234,-1.6347226,2.0,-2.0,2.0,-2.0,-2.0,2.0,2.0,0.24783905,-2.0,-2.0,2.0,-0.75709665,2.0,-0.16156974,2.0,-2.0,1.5973927,2.0
2025-07-21 09:00:26.774,0.32,320,16,0.1081821,-0.113007054,-0.0784892,-0.069562234,-0.005483076,-0.004965633,0.0,0.0,0.0,0.0019793448,0.15676941,-0.17659423,-0.18633395,-0.07165131,-0.39290497,-0.16583706,0.33172,-0.12983206,0.27396196,-0.20452526,-0.025563242,0.2164383,0.030150497,0.16697814,-0.124068394,-0.048163854,0.15514778,0.05413848,0.04521415,0.084562466,-0.006449974,-0.08034254,0.12848188,0.055323288,2.0,0.24783905,-2.0,-2.0,2.0,-0.75709665,2.0,-0.16156974,2.0,-2.0,1.5973927,2.0,2.0,-2.0,-2.0,2.0,0.85344285,-1.5993775,2.0,-2.0,2.0,-2.0,2.0,-2.0
2025-07-21 09:00:26.794,0.34,340,17,0.14855993,0.36171204,0.060374167,0.00046682608,-0.03485661,-0.026559731,0.0,0.0,0.0,0.0053285435,0.20262627,-0.17971428,-0.20650968,-0.06758219,-0.31401423,-0.19397624,0.32893583,-0.17342673,0.2880059,-0.22417767,0.07137468,0.14756809,0.12617244,-0.16275363,-0.10115721,0.10551073,0.21260011,0.007994641,0.020227065,-0.16477567,0.04993324,-0.113121554,0.32913047,-0.21971752,2.0,-2.0,-2.0,2.0,0.85344285,-1.5993775,2.0,-2.0,2.0,-2.0,2.0,-2.0,1.2191674,-2.0,-2.0,2.0,2.0,-2.0,2.0,2.0,2.0,-2.0,-2.0,-2.0
2025-07-21 09:00:26.814,0.36000000000000004,360,18,-0.028040577,0.3629612,-0.13203444,0.02555231,-0.03189617,0.0027030304,0.0,0.0,0.0,0.005948695,0.19593734,-0.27936175,-0.23265119,-0.0069806674,-0.25369292,-0.22993965,0.35165176,-0.17208047,0.28461576,-0.2611114,0.11720483,0.05675086,0.059736393,-0.20439763,-0.10332984,0.1125137,0.14834055,-0.06901992,-0.015501404,0.09622205,-0.044364408,-0.08752732,-0.026346616,-0.21793851,1.2191674,-2.0,-2.0,2.0,2.0,-2.0,2.0,2.0,2.0,-2.0,-2.0,-2.0,-0.20289464,-2.0,-2.0,-0.89823073,2.0,-2.0,2.0,-2.0,2.0,-2.0,-2.0,0.6100345
2025-07-21 09:00:26.841,0.38000000000000006,380,19,-0.12852183,-0.062190272,0.067143515,0.02366756,-0.083062835,-0.016021216,0.0,0.0,0.0,0.0067802374,0.16688149,-0.3725188,-0.2445185,-0.02167441,-0.1937716,-0.25059405,0.36728692,-0.18887839,0.28776047,-0.2745454,0.047635082,0.06676997,-0.13490409,-0.18307602,-0.05615254,-0.047110204,0.11945503,-0.101200625,0.026910232,-0.07452138,0.0669852,-0.03464919,-0.23995149,0.041246217,-0.20289464,-2.0,-2.0,-0.89823073,2.0,-2.0,2.0,-2.0,2.0,-2.0,-2.0,0.6100345,-0.5775299,2.0,0.06495184,1.1177858,2.0,-2.0,2.0,2.0,2.0,-2.0,1.5805392,2.0
2025-07-21 09:00:26.854,0.4000000000000001,400,20,-0.359691,0.25883317,-0.06484023,-0.031553663,0.002354313,0.038738776,0.0,0.0,0.0,0.0063098036,0.121966586,-0.37839118,-0.20426902,-0.01584965,-0.12393231,-0.2815562,0.38448897,-0.1559763,0.27352315,-0.2911679,0.025277736,0.105113834,-0.15488291,0.16334714,0.1403455,0.0706775,0.28555253,-0.012583338,0.023753196,0.10397502,-0.073600344,0.023959307,0.08920515,0.030777825,-0.5775299,2.0,0.06495184,1.1177858,2.0,-2.0,2.0,2.0,2.0,-2.0,1.5805392,2.0,-2.0,2.0,-2.0,2.0,-2.0,-2.0,2.0,-2.0,2.0,-2.0,-2.0,2.0
2025-07-21 09:00:26.879,0.4200000000000001,420,21,-0.13953406,-0.08458656,-0.13700381,-0.04675376,-0.01863388,0.039238766,0.0,0.0,0.0,0.005555959,0.059800338,-0.327363,-0.23030992,0.01815856,-0.09865216,-0.2904621,0.38661447,-0.12221344,0.28785753,-0.30396542,0.012459589,0.13652813,-0.120419614,0.14765944,-0.068670355,0.1414463,-0.030097794,-0.056848697,0.03615192,0.039216124,0.004418113,-0.114414416,-0.022224655,0.07309482,-2.0,2.0,-2.0,2.0,-2.0,-2.0,2.0,-2.0,2.0,-2.0,-2.0,2.0,-0.025531068,2.0,-2.0,0.76445705,-2.0,-2.0,2.0,-2.0,2.0,-2.0,-2.0,2.0
2025-07-21 09:00:26.894,0.4400000000000001,440,22,0.13768324,-0.15484643,-0.2290283,-0.053198915,0.03423174,0.0008214596,0.0,0.0,0.0,0.0075259656,0.06261986,-0.2829304,-0.25876606,0.02103567,-0.11705266,-0.28698444,0.37156853,-0.13663208,0.29531085,-0.31885868,-0.028437475,0.17262189,-0.023942722,0.07816139,-0.013808593,0.06254653,-0.14393558,-0.018821137,0.023793304,-0.10730275,-0.049790666,-0.08188109,-0.21385834,0.04309802,-0.025531068,2.0,-2.0,0.76445705,-2.0,-2.0,2.0,-2.0,2.0,-2.0,-2.0,2.0,1.2631581,2.0,-2.0,-1.1236582,-2.0,-2.0,2.0,0.14837632,2.0,-2.0,2.0,2.0
2025-07-21 09:00:26.915,0.46000000000000013,460,23,-0.09466582,-0.03839586,-0.26062202,0.0037043628,0.016297223,-0.010445937,0.0,0.0,0.0,0.011280489,0.076610394,-0.20482735,-0.26524055,-0.0006001679,-0.20455143,-0.30063736,0.38260484,-0.12305906,0.29769504,-0.32698524,-0.024944142,0.18525897,0.052795526,0.16818686,0.02786919,-0.028468618,-0.24301372,-0.08602125,0.0041724714,0.14959092,0.06981769,-0.00826551,0.02394674,-0.033514842,1.2631581,2.0,-2.0,-1.1236582,-2.0,-2.0,2.0,0.14837632,2.0,-2.0,2.0,2.0,2.0,-0.46858424,-2.0,-0.052791655,2.0,-0.72689134,2.0,-2.0,2.0,-1.3078926,2.0,2.0
2025-07-21 09:00:26.934,0.48000000000000015,480,24,0.08470083,0.16971523,0.10422488,0.038220916,0.034573045,0.046845526,0.0,0.0,0.0,0.016119128,0.12044318,-0.19621956,-0.27712217,0.0058265924,-0.24220563,-0.28222257,0.381644,-0.10615587,0.30980062,-0.32135925,0.033472147,0.20781909,0.030494787,0.018907346,-0.061091017,-0.010523574,-0.045855507,0.082311295,0.056606185,-0.09783468,-0.006913171,-0.000458857,0.2672754,0.118949614,2.0,-0.46858424,-2.0,-0.052791655,2.0,-0.72689134,2.0,-2.0,2.0,-1.3078926,2.0,2.0,2.0,-0.7208454,-2.0,1.5264331,2.0,-1.3283759,2.0,-0.117123276,2.0,-2.0,-2.0,2.0
2025-07-21 09:00:26.954,0.5000000000000001,500,25,-0.0057646236,0.15747698,-0.03168139,0.0034602988,-0.070666395,0.027752902,0.0,0.0,0.0,0.016819464,0.16189621,-0.2074,-0.27381608,0.021273943,-0.19671397,-0.2747675,0.38869983,-0.10192127,0.29897752,-0.32292944,0.039833233,0.22906351,0.018958405,-0.10243546,0.052492738,0.075298674,0.13870189,0.06654218,-0.01897189,0.017899185,0.07058568,-0.08360468,-0.09745294,0.059832398,2.0,-0.7208454,-2.0,1.5264331,2.0,-1.3283759,2.0,-0.117123276,2.0,-2.0,-2.0,2.0,-0.61101043,1.1148874,-2.0,0.305151,-2.0,-2.0,2.0,-1.6408447,2.0,-2.0,-2.0,2.0
2025-07-21 09:00:26.974,0.5200000000000001,520,26,0.13994265,-0.16327511,-0.08943319,-0.032730434,-0.062301096,-0.031974185,0.0,0.0,0.0,0.01661423,0.12291855,-0.1811489,-0.28571936,0.024237351,-0.21571405,-0.27384156,0.39500663,-0.123519875,0.31104857,-0.33855656,-0.024803417,0.2512237,-0.095023714,0.2561324,-0.036255356,-0.041941762,-0.07520125,0.015548098,0.0061397813,-0.0887634,0.06267303,0.0162355,-0.3507629,0.023107463,-0.61101043,1.1148874,-2.0,0.305151,-2.0,-2.0,2.0,-1.6408447,2.0,-2.0,-2.0,2.0,2.0,-1.0542818,-2.0,-0.42071182,-1.8844029,-2.0,2.0,1.5713441,2.0,-2.0,2.0,2.0
2025-07-21 09:00:26.995,0.5400000000000001,540,27,0.13833398,-0.11097521,-0.009032552,-0.008520536,-0.021331796,-0.015656611,0.0,0.0,0.0,0.017393038,0.15615417,-0.17291957,-0.30093578,0.021187572,-0.27884856,-0.29577765,0.39469045,-0.10403691,0.29993206,-0.3376523,-0.07561435,0.25524357,0.027625361,-0.054882612,-0.074374594,-0.10993325,-0.22403844,-0.018045245,-0.048182316,0.076499194,-0.00038075965,-0.09109666,0.061195392,0.0012237394,2.0,-1.0542818,-2.0,-0.42071182,-1.8844029,-2.0,2.0,1.5713441,2.0,-2.0,2.0,2.0,1.8644135,-2.0,-2.0,0.893215,2.0,-2.0,2.0,-2.0,2.0,-2.0,0.95691526,2.0
2025-07-21 09:00:27.015,0.5600000000000002,560,28,0.12288976,0.06986845,0.20865728,-0.021227306,-0.015046924,-0.03697355,0.0,0.0,0.0,0.01841314,0.18926413,-0.26754728,-0.30360347,0.026790213,-0.29466042,-0.31029806,0.3864633,-0.109716065,0.31111446,-0.3353741,-0.03268632,0.26865572,0.12442349,-0.29478952,-0.008918337,-0.016548637,-0.01306618,-0.04466739,0.083898984,-0.13668899,-0.054896746,-0.07038291,0.24198736,-0.020659491,1.8644135,-2.0,-2.0,0.893215,2.0,-2.0,2.0,-2.0,2.0,-2.0,0.95691526,2.0,2.0,-0.37045616,-2.0,1.6907996,2.0,-2.0,2.0,2.0,2.0,-2.0,-2.0,2.0
2025-07-21 09:00:27.035,0.5800000000000002,580,29,-0.11892752,0.21956147,-0.17748418,0.031068794,-0.006203088,-0.014461299,0.0,0.0,0.0,0.016612105,0.19957876,-0.2940558,-0.2887515,0.06454134,-0.27639964,-0.30670735,0.39457533,-0.09701155,0.30228543,-0.35190576,-0.024370223,0.2787095,0.044188663,0.014332612,0.06535677,0.13924271,0.09357232,-0.007693858,-0.04659026,0.09640141,-0.0813976,0.020196134,-0.076224856,-0.031225216,2.0,-0.37045616,-2.0,1.6907996,2.0,-2.0,2.0,2.0,2.0,-2.0,-2.0,2.0,-1.8066418,0.7719372,-1.6728811,-2.0,0.20355053,-2.0,2.0,-2.0,2.0,-2.0,-2.0,2.0
2025-07-21 09:00:27.057,0.6000000000000002,600,30,-0.112696,-0.17005962,0.06434469,-0.05392998,-0.02383944,-0.009567986,0.0,0.0,0.0,0.016953265,0.15539876,-0.23145926,-0.30109394,0.015656587,-0.22865926,-0.32038006,0.3836142,-0.07411995,0.29888386,-0.35759962,-0.07317056,0.27738705,-0.22901936,0.18177943,0.08672267,-0.22144729,0.087029226,0.03256806,-0.014356441,-0.054245003,-0.052270986,-0.017116824,-0.12767987,0.07570578,-1.8066418,0.7719372,-1.6728811,-2.0,0.20355053,-2.0,2.0,-2.0,2.0,-2.0,-2.0,2.0,1.8362274,2.0,-2.0,0.5179517,-2.0,-2.0,2.0,-1.7273698,2.0,-2.0,-2.0,2.0
2025-07-21 09:00:27.075,0.6200000000000002,620,31,0.39817652,-0.05528812,-0.14515434,-0.012711591,0.00010717534,-0.0398916,0.0,0.0,0.0,0.01707423,0.15064852,-0.10517483,-0.31475624,0.007707017,-0.23986702,-0.31788987,0.394855,-0.097084396,0.30184367,-0.34169656,-0.12282457,0.29900566,0.10918742,0.14895609,-0.088479094,0.08517842,-0.091544345,0.06493375,0.021341871,-0.06144621,-0.046582434,0.02332044,-0.24606702,0.08231468,1.8362274,2.0,-2.0,0.5179517,-2.0,-2.0,2.0,-1.7273698,2.0,-2.0,-2.0,2.0,1.6362566,-1.1119426,-2.0,-1.0220163,-1.7583678,-2.0,2.0,-1.039675,2.0,-2.0,2.0,2.0
2025-07-21 09:00:27.098,0.6400000000000002,640,32,0.30526447,-0.20115702,0.06264417,-0.08051366,-0.08264744,0.04845327,0.0,0.0,0.0,0.018319475,0.17955987,-0.095596015,-0.3066437,-0.0169442,-0.31302235,-0.32768807,0.39515838,-0.15028453,0.30844438,-0.35562733,-0.14634109,0.29261202,0.08825777,-0.014431277,-0.04133867,-0.12728927,-0.19026703,-0.036232542,-0.0016329497,-0.15137736,-0.03662268,-0.05177775,0.11429706,0.07519719,1.6362566,-1.1119426,-2.0,-1.0220163,-1.7583678,-2.0,2.0,-1.039675,2.0,-2.0,2.0,2.0,2.0,-2.0,-2.0,2.0,2.0,-2.0,2.0,2.0,2.0,-2.0,2.0,2.0
2025-07-21 09:00:27.115,0.6600000000000003,660,33,-0.06259344,0.075441875,0.0076408642,-0.011274174,-0.04438292,-0.035506383,0.0,0.0,0.0,0.019239154,0.21035896,-0.15179113,-0.30325392,-0.01173332,-0.32845286,-0.33616543,0.39209428,-0.15838754,0.3074878,-0.34656137,-0.06646551,0.29275772,0.02392079,-0.09416171,-0.06155099,0.11313432,0.08919276,-0.06779616,0.010130383,0.0683989,-0.07975528,-0.05843962,0.25300735,0.03424014,2.0,-2.0,-2.0,2.0,2.0,-2.0,2.0,2.0,2.0,-2.0,2.0,2.0,0.5128632,-2.0,-2.0,1.0554432,2.0,-2.0,2.0,-1.3514346,2.0,-2.0,-2.0,2.0
2025-07-21 09:00:27.140,0.6800000000000003,680,34,-0.12397288,-0.042502318,0.066683754,-0.10453632,-0.072499216,0.02957271,0.0,0.0,0.0,0.018838653,0.20611757,-0.2210419,-0.31840447,0.015857426,-0.3047684,-0.3432479,0.3858248,-0.15752977,0.31282726,-0.3495205,-0.035780255,0.29748458,-0.016112443,-0.3444388,0.07088072,0.05143431,0.07281232,0.022539213,-0.0587178,-0.02074729,-0.04568993,0.0010286599,0.031144517,-0.022156596,0.5128632,-2.0,-2.0,1.0554432,2.0,-2.0,2.0,-1.3514346,2.0,-2.0,-2.0,2.0,-0.045753613,2.0,-1.2708325,0.46704054,2.0,-2.0,2.0,2.0,2.0,-2.0,-2.0,2.0
2025-07-21 09:00:27.155,0.7000000000000003,700,35,-0.3278347,0.057267666,-0.04289169,-0.005363804,-0.024985543,0.011492506,0.0,0.0,0.0,0.01734426,0.16391316,-0.2488185,-0.2941505,0.013781864,-0.2575495,-0.3406424,0.38404927,-0.12787798,0.30140415,-0.3587142,-0.08524651,0.30317706,-0.15815406,0.09491977,0.002893373,-0.0018076418,0.0958366,0.04324301,0.04351769,0.11073424,-0.042878054,-0.055119123,-0.1940874,-0.056616124,-0.045753613,2.0,-1.2708325,0.46704054,2.0,-2.0,2.0,2.0,2.0,-2.0,-2.0,2.0,-0.4493308,2.0,-2.0,-0.3016277,-2.0,-2.0,2.0,-2.0,2.0,-2.0,2.0,2.0
2025-07-21 09:00:27.175,0.7200000000000003,720,36,-0.28181133,-0.08292048,0.08900939,0.0032199305,0.025269412,-0.038550604,0.0,0.0,0.0,0.016859133,0.13628566,-0.19567485,-0.29477686,0.017214974,-0.249281,-0.35049662,0.38338596,-0.13093273,0.3037632,-0.3616584,-0.103900865,0.30593053,-0.13916197,0.24662381,-0.03240987,-0.0045503834,-0.023475025,0.06023425,0.07020663,0.050979562,0.06013951,0.0013757569,0.13004191,-0.06813207,-0.4493308,2.0,-2.0,-0.3016277,-2.0,-2.0,2.0,-2.0,2.0,-2.0,2.0,2.0,2.0,2.0,-2.0,-0.255948,-2.0,-2.0,2.0,0.45730612,2.0,-2.0,-2.0,2.0
2025-07-21 09:00:27.195,0.7400000000000003,740,37,0.14586656,0.17512974,-0.27089897,-0.016944865,0.008552617,-0.016226217,0.0,0.0,0.0,0.015785957,0.15834507,-0.09265237,-0.30953258,0.01167747,-0.33874175,-0.35080436,0.3912668,-0.094430305,0.30040064,-0.3549429,-0.116784655,0.2948198,0.08128152,0.24709289,-0.0067077056,0.04225827,-0.31136975,-0.015056538,-0.071823314,0.1685687,-0.00466782,-0.0130389845,-0.13121945,-0.0047805463,2.0,2.0,-2.0,-0.255948,-2.0,-2.0,2.0,0.45730612,2.0,-2.0,-2.0,2.0,2.0,-0.17857163,-2.0,-1.7025675,2.0,-2.0,2.0,-2.0,2.0,-2.0,2.0,2.0
2025-07-21 09:00:27.215,0.7600000000000003,760,38,0.12457805,-0.11115416,0.12794177,-0.08731994,-0.028193044,0.04987245,0.0,0.0,0.0,0.018249094,0.1936205,-0.07192638,-0.2991806,-0.04682859,-0.34432152,-0.33141434,0.3780518,-0.084216036,0.31655553,-0.3598179,-0.09221227,0.30625787,0.022741696,-0.0043762466,0.015195468,-0.068597585,0.08333355,0.024533808,0.047598835,-0.11328741,-0.037509765,-0.077607274,0.15612441,-0.07067059,2.0,-0.17857163,-2.0,-1.7025675,2.0,-2.0,2.0,-2.0,2.0,-2.0,2.0,2.0,2.0,-2.0,-2.0,2.0,2.0,-1.9310801,2.0,-0.7248541,2.0,-2.0,0.41003808,1.3927497
2025-07-21 09:00:27.235,0.7800000000000004,780,39,0.122357614,0.011023139,0.16308177,-0.08352034,-0.058542788,-0.015858764,0.0,0.0,0.0,0.0185959,0.21235332,-0.10152296,-0.30471772,-0.029328601,-0.2976811,-0.3431453,0.40182588,-0.11134055,0.32134762,-0.35885364,-0.05617071,0.28939444,0.08069053,-0.2532318,-0.027308198,0.02376245,0.19141005,-0.025619552,0.036032576,-0.13057074,-0.0037455906,-0.025742806,0.13690314,-0.0061817346,2.0,-2.0,-2.0,2.0,2.0,-1.9310801,2.0,-0.7248541,2.0,-2.0,0.41003808,1.3927497,0.12701224,-2.0,-2.0,2.0,-0.71271354,-2.0,2.0,2.0,2.0,-2.0,-0.7460264,2.0
2025-07-21 09:00:27.255,0.8000000000000004,800,40,0.065380916,0.13692187,-0.07615367,-0.026438013,-0.023534799,-0.008654876,0.0,0.0,0.0,0.015539559,0.19694354,-0.20083985,-0.3023662,0.0029057066,-0.28607365,-0.3356504,0.40226412,-0.09776757,0.314666,-0.36280602,-0.070218824,0.29283783,-0.103341796,-0.252331,-0.022146363,0.06949964,-0.06307808,-0.07945777,0.023639403,0.1152944,0.043151326,0.047940277,-0.10893419,-0.019543702,0.12701224,-2.0,-2.0,2.0,-0.71271354,-2.0,2.0,2.0,2.0,-2.0,-0.7460264,2.0,-0.39466792,-0.54249614,-2.0,-0.45053893,1.6198735,-2.0,2.0,-1.797213,2.0,-2.0,2.0,2.0
2025-07-21 09:00:27.276,0.8200000000000004,820,41,-0.27077132,0.12617141,0.23068272,-0.08209217,-0.030691955,0.034197386,0.0,0.0,0.0,0.015104222,0.17123584,-0.2402944,-0.31101033,-0.0024797022,-0.25633037,-0.3509644,0.39220485,-0.07541621,0.32311985,-0.37335622,-0.06326458,0.2862468,-0.12807049,-0.04084227,0.046852972,-0.04408467,0.14786145,-0.035563327,0.040733732,-0.039656464,0.063330986,-0.07398789,0.07258198,0.015238666,-0.39466792,-0.54249614,-2.0,-0.45053893,1.6198735,-2.0,2.0,-1.797213,2.0,-2.0,2.0,2.0,-0.040556684,2.0,-2.0,2.0,-1.0260923,-2.0,2.0,1.2271277,2.0,-2.0,-0.71199214,2.0
2025-07-21 09:00:27.296,0.8400000000000004,840,42,-0.16561985,0.15700938,-0.22138378,-0.059652474,-0.022771763,0.04688306,0.0,0.0,0.0,0.012406576,0.14610453,-0.20880593,-0.31927562,0.025885677,-0.27346146,-0.34439337,0.40285146,-0.039045654,0.30453488,-0.36197236,-0.036757898,0.3034174,-0.02680624,0.20404966,0.05985622,0.18795362,-0.14101413,0.059000727,-0.036479983,0.23346548,-0.0082052825,-0.04916639,0.015683223,0.06063553,-0.040556684,2.0,-2.0,2.0,-1.0260923,-2.0,2.0,1.2271277,2.0,-2.0,-0.71199214,2.0,0.4190756,-1.7851049,-2.0,-0.597357,-0.7118812,-2.0,2.0,-2.0,2.0,-1.4975995,-1.8444439,2.0
2025-07-21 09:00:27.316,0.8600000000000004,860,43,0.14551839,-0.1011024,0.037929144,0.009193733,-0.061926242,0.020304576,0.0,0.0,0.0,0.012638017,0.12681389,-0.22028668,-0.3302135,0.0077051483,-0.28755164,-0.3529737,0.39649257,-0.037120834,0.30245245,-0.37023082,-0.057384137,0.30220297,0.016947754,-0.074524485,-0.03290191,0.0014076419,-0.0016565045,0.0073556188,-0.04410601,-0.13099687,0.006144231,0.009296193,-0.031019753,-0.039034992,0.4190756,-1.7851049,-2.0,-0.597357,-0.7118812,-2.0,2.0,-2.0,2.0,-1.4975995,-1.8444439,2.0,2.0,2.0,-2.0,0.6242486,2.0,-2.0,2.0,-0.8224145,2.0,-2.0,-2.0,2.0
2025-07-21 09:00:27.336,0.8800000000000004,880,44,0.2174894,0.03335111,0.039933033,-0.040111292,-0.07573029,-0.021584408,0.0,0.0,0.0,0.013428838,0.16336723,-0.20932247,-0.3286168,0.011705293,-0.27662593,-0.3565663,0.38661295,-0.06790751,0.32289335,-0.36775592,-0.1172303,0.31287265,0.009455569,0.13410933,-0.04285558,-0.0056556882,-0.026049567,-0.03723841,0.058750164,-0.019276273,-0.050487854,-0.05511754,-0.17150456,0.03742361,2.0,2.0,-2.0,0.6242486,2.0,-2.0,2.0,-0.8224145,2.0,-2.0,-2.0,2.0,2.0,1.6006614,-2.0,0.7271889,2.0,-2.0,2.0,-1.9938155,2.0,-2.0,2.0,2.0
2025-07-21 09:00:27.356,0.9000000000000005,900,45,0.028367687,0.03086624,0.23750387,-0.026739527,-0.09076903,-0.045601584,0.0,0.0,0.0,0.013262165,0.20221063,-0.14016482,-0.32284415,0.022631224,-0.24558306,-0.34889153,0.39007506,-0.10414303,0.32612598,-0.3585197,-0.11200002,0.30156654,0.11687135,0.19577096,-0.06494875,0.051123634,0.11325595,-0.040190782,0.015237509,-0.12781413,0.05919219,-0.016585367,0.056691665,-0.0056271288,2.0,1.6006614,-2.0,0.7271889,2.0,-2.0,2.0,-1.9938155,2.0,-2.0,2.0,2.0,1.9596413,-1.6144265,-2.0,2.0,-2.0,-2.0,2.0,2.0,2.0,-2.0,2.0,2.0
2025-07-21 09:00:27.376,0.9200000000000005,920,46,-0.00219791,0.14089254,0.00893672,-0.04293525,-0.024687964,-0.008756525,0.0,0.0,0.0,0.011366009,0.2280392,-0.11504355,-0.32377192,0.07296766,-0.24370474,-0.3508539,0.39293686,-0.09907423,0.31525794,-0.3612255,-0.020900141,0.30493793,0.064111955,-0.008752626,-0.06398405,0.039420508,-0.1447491,0.03021041,0.016694766,0.060635846,-0.038540836,-0.04054399,0.19217995,-0.07265929,1.9596413,-1.6144265,-2.0,2.0,-2.0,-2.0,2.0,2.0,2.0,-2.0,2.0,2.0,0.6519074,-2.0,-2.0,-0.04123181,2.0,-2.0,2.0,-1.9982096,2.0,-1.9603246,-2.0,2.0
2025-07-21 09:00:27.401,0.9400000000000005,940,47,-0.0061701024,-0.12545367,0.19209735,-0.06765154,-0.08198645,-0.041992527,0.0,0.0,0.0,0.009502338,0.20864798,-0.17667979,-0.31985867,0.05715527,-0.2726392,-0.3441483,0.3938616,-0.09878076,0.30675247,-0.35181355,0.0077040317,0.30815515,-0.07674376,-0.2544352,-0.068777874,0.02148925,-0.014694336,0.035031695,-0.0049511916,-0.021934576,0.014371359,-0.063776344,0.015117353,0.026917074,0.6519074,-2.0,-2.0,-0.04123181,2.0,-2.0,2.0,-1.9982096,2.0,-1.9603246,-2.0,2.0,2.0,0.6635447,-2.0,1.4674335,2.0,-2.0,2.0,0.9988141,2.0,-2.0,-2.0,2.0
2025-07-21 09:00:27.416,0.9600000000000005,960,48,-0.15784663,0.10436987,-0.11485747,-0.05905799,-0.055950794,-0.004845433,0.0,0.0,0.0,0.007594974,0.22851394,-0.22449477,-0.32319012,0.0884694,-0.22933006,-0.3567999,0.39069036,-0.06492197,0.3071526,-0.36217391,-0.050432846,0.30762985,0.016988717,0.10302004,-0.0031500969,0.09741398,0.023583744,0.04154013,0.030079996,0.14177312,-0.040350426,-0.07065304,-0.262682,0.033049177,2.0,0.6635447,-2.0,1.4674335,2.0,-2.0,2.0,0.9988141,2.0,-2.0,-2.0,2.0,-1.3282366,0.3169704,-2.0,-1.7279458,-1.286422,-2.0,2.0,-2.0,2.0,-2.0,2.0,2.0
2025-07-21 09:00:27.436,0.9800000000000005,980,49,-0.18134744,-0.19326176,0.17818907,-0.044263776,-0.047046874,0.03653158,0.0,0.0,0.0,0.007720023,0.16068003,-0.1536712,-0.31437656,0.030869586,-0.25087845,-0.36253092,0.38728562,-0.06903757,0.30055395,-0.3586871,-0.07712771,0.31721473,-0.24395905,0.115665816,-0.059993662,-0.14738812,-0.13805163,0.07643841,-0.058657102,-0.10372901,0.061578315,-0.078901604,0.04201153,-0.021807143,-1.3282366,0.3169704,-2.0,-1.7279458,-1.286422,-2.0,2.0,-2.0,2.0,-2.0,2.0,2.0,2.0,2.0,-2.0,0.30042183,2.0,-2.0,2.0,1.9120822,2.0,-2.0,-2.0,2.0
2025-07-21 09:00:27.456,1.0000000000000004,1000,50,0.04570755,0.08135097,-0.14871076,-0.026419759,0.013277642,0.029799875,0.0,0.0,0.0,0.0060549835,0.16934384,-0.05815101,-0.32293695,0.032493047,-0.2690667,-0.3557364,0.39655128,-0.04538615,0.2971166,-0.35553724,-0.091259904,0.32100305,0.13427354,0.28272235,0.044574376,0.019058034,0.033034805,0.005505368,0.022833081,0.0783408,0.010675245,0.027056867,0.003495031,0.041826587,2.0,2.0,-2.0,0.30042183,2.0,-2.0,2.0,1.9120822,2.0,-2.0,-2.0,2.0,-0.47682828,-2.0,-2.0,-0.22909003,-0.6370604,-2.0,2.0,-2.0,2.0,-2.0,-2.0,2.0
2025-07-21 09:00:27.476,1.0200000000000005,1020,51,-0.005486294,-0.2344428,0.11665647,-0.045837816,-0.06278836,0.028032448,0.0,0.0,0.0,0.0059163542,0.16856569,-0.008405603,-0.32062483,0.019695831,-0.25653479,-0.35250786,0.3919886,-0.064158745,0.31486613,-0.3708005,-0.111390814,0.3124542,-0.08485532,0.043209083,-0.0355553,0.016111257,-0.07225476,0.03527284,-0.05633939,-0.16687031,-0.034498382,-0.001165187,-0.08997014,0.08395119,-0.47682828,-2.0,-2.0,-0.22909003,-0.6370604,-2.0,2.0,-2.0,2.0,-2.0,-2.0,2.0,2.0,-2.0,-2.0,1.3247098,2.0,-2.0,2.0,2.0,2.0,-2.0,2.0,2.0
2025-07-21 09:00:27.501,1.0400000000000005,1040,52,-0.069778085,0.20977983,-0.006686152,-0.022174438,-0.06592195,-0.033550385,0.0,0.0,0.0,0.0061263684,0.20065269,-0.027154068,-0.33050972,0.045407068,-0.25192964,-0.35525817,0.39140275,-0.059150074,0.30622864,-0.37604418,-0.09911092,0.30328086,0.082096405,-0.07020072,-0.013372104,0.01686998,0.1603641,-0.026072524,0.015788538,0.026123365,0.050716426,0.020783233,0.17852837,0.013797919,2.0,-2.0,-2.0,1.3247098,2.0,-2.0,2.0,2.0,2.0,-2.0,2.0,2.0,-0.8086385,-2.0,-2.0,1.7704526,-1.1713772,-2.0,2.0,-0.7079977,2.0,-2.0,-1.8782039,2.0
2025-07-21 09:00:27.517,1.0600000000000005,1060,53,0.31094757,0.00034904745,-0.039300554,-0.03810609,-0.028040228,-0.027247416,0.0,0.0,0.0,0.0053059277,0.15723564,-0.12314453,-0.31529614,0.0747022,-0.2653338,-0.34887528,0.39871675,-0.07132184,0.3125889,-0.37525007,-0.083161235,0.31279975,-0.16851257,-0.32716215,-0.024075512,0.11312656,-0.17515993,-0.02479835,0.045236263,-0.026789835,-0.023339247,-0.035968706,-0.08021561,-0.045134764,-0.8086385,-2.0,-2.0,1.7704526,-1.1713772,-2.0,2.0,-0.7079977,2.0,-2.0,-1.8782039,2.0,2.0,2.0,-2.0,-0.61436397,2.0,-2.0,2.0,-0.20296529,2.0,-2.0,-0.2622365,2.0
2025-07-21 09:00:27.537,1.0800000000000005,1080,54,0.04600098,0.06275929,-0.03678209,0.006393124,-0.028947283,0.005850589,0.0,0.0,0.0,0.0057895132,0.1696119,-0.18103302,-0.32913598,0.057845097,-0.25056896,-0.3533723,0.3934125,-0.06737372,0.3061424,-0.3623726,-0.09295809,0.30967367,0.049632035,0.03421923,0.06462728,-0.14031063,0.025926474,-0.016665505,0.023133203,0.031367466,0.023293586,-0.017819887,0.0493138,-0.023720687,2.0,2.0,-2.0,-0.61436397,2.0,-2.0,2.0,-0.20296529,2.0,-2.0,-0.2622365,2.0,1.5392905,2.0,-2.0,1.7019674,2.0,-2.0,2.0,-2.0,2.0,-2.0,-2.0,2.0
2025-07-21 09:00:27.557,1.1000000000000005,1100,55,0.13130619,0.10341464,-0.03389308,-0.050423343,-0.09328263,-0.009220853,0.0,0.0,0.0,0.0068275635,0.19104022,-0.11517186,-0.32620674,0.07774182,-0.23234849,-0.36626723,0.39581087,-0.074459024,0.31797567,-0.363021,-0.12767859,0.32274422,-0.023972398,0.23737606,0.0058766883,0.10693901,0.10549576,0.024654748,-0.009694088,0.018441852,-0.03971405,-0.01224911,-0.19570655,0.0613134,1.5392905,2.0,-2.0,1.7019674,2.0,-2.0,2.0,-2.0,2.0,-2.0,-2.0,2.0,1.788602,-1.8726822,-2.0,0.14940602,-2.0,-2.0,2.0,-2.0,2.0,-2.0,1.0649586,2.0
2025-07-21 09:00:27.577,1.1200000000000006,1120,56,0.11328826,-0.17750674,0.15921989,-0.022417948,-0.07578104,0.017425662,0.0,0.0,0.0,0.0072190673,0.2048146,-0.1107295,-0.32524207,0.06586357,-0.24550126,-0.36563712,0.3907135,-0.107505135,0.32381755,-0.3661742,-0.12699252,0.31876585,0.028251039,-0.084974036,-0.034740604,-0.09720619,-0.13296555,-0.036237363,0.0076049664,-0.124770604,0.07147007,0.013672079,0.13808312,0.017201148,1.788602,-1.8726822,-2.0,0.14940602,-2.0,-2.0,2.0,-2.0,2.0,-2.0,1.0649586,2.0,2.0,-1.3304886,-2.0,2.0,2.0,-2.0,2.0,2.0,2.0,-2.0,-0.34968463,2.0
2025-07-21 09:00:27.597,1.1400000000000006,1140,57,0.049489796,0.21499106,-0.015939735,-0.076981016,-0.06530047,-0.0079143755,0.0,0.0,0.0,0.00584902,0.23426415,-0.1824142,-0.31081113,0.08337679,-0.26960143,-0.35657093,0.4033868,-0.08825807,0.3177786,-0.36178514,-0.12230797,0.31785163,-0.014428211,-0.19497848,-0.04200623,0.060943265,-0.010192475,-0.0019385561,-0.045190413,0.18213318,-0.08320174,0.059693404,0.029983655,-0.03457448,2.0,-1.3304886,-2.0,2.0,2.0,-2.0,2.0,2.0,2.0,-2.0,-0.34968463,2.0,-0.8471329,-2.0,-2.0,-0.39912826,2.0,-2.0,2.0,-2.0,2.0,-2.0,-2.0,2.0
2025-07-21 09:00:27.617,1.1600000000000006,1160,58,-0.12203398,-0.065759234,0.19449331,-0.04900292,-0.06915778,0.015225725,0.0,0.0,0.0,0.0052777794,0.17203586,-0.28431106,-0.30886275,0.069727406,-0.23206903,-0.36937952,0.38237867,-0.08328576,0.31331286,-0.36076516,-0.18337846,0.31876472,-0.16316743,-0.33406937,0.016224807,-0.067920916,0.105914444,0.046655577,-0.04024952,0.011952249,0.024377052,0.054300588,-0.123993635,-0.009780999,-0.8471329,-2.0,-2.0,-0.39912826,2.0,-2.0,2.0,-2.0,2.0,-2.0,-2.0,2.0,-1.871719,2.0,-1.7072351,0.35772866,1.3190072,-2.0,2.0,-0.2169899,2.0,-2.0,-0.0224308,2.0
2025-07-21 09:00:27.640,1.1800000000000006,1180,59,-0.2821481,0.087412834,0.21725929,-0.03339068,-0.06549659,0.02763147,0.0,0.0,0.0,0.003268908,0.09075414,-0.2995123,-0.3022162,0.058592603,-0.19496936,-0.36110392,0.40008906,-0.08433114,0.30488122,-0.3619317,-0.1746595,0.31964797,-0.2414896,0.07534936,0.03383702,-0.08445822,0.11378147,-0.0013780528,0.0676857,0.021040278,0.060932387,-0.01797178,0.11024815,-0.023879914,-1.871719,2.0,-1.7072351,0.35772866,1.3190072,-2.0,2.0,-0.2169899,2.0,-2.0,-0.0224308,2.0,-0.12546255,2.0,-2.0,2.0,-2.0,-2.0,2.0,-0.1564661,2.0,-2.0,-2.0,2.0
2025-07-21 09:00:27.657,1.2000000000000006,1200,60,-0.026875481,0.05087646,-0.17581831,9.714715e-05,-0.042897526,0.025038613,0.0,0.0,0.0,-0.00022599287,0.07837994,-0.27507773,-0.31859353,0.08850328,-0.17721109,-0.35923386,0.39553156,-0.0852759,0.31148484,-0.3661911,-0.17499778,0.30961707,0.041919988,0.09568779,-0.015118079,0.17163715,-0.105138645,0.05084774,-0.014256498,-0.010877051,0.016466834,-0.08342688,-0.06990341,-0.005291179,-0.12546255,2.0,-2.0,2.0,-2.0,-2.0,2.0,-0.1564661,2.0,-2.0,-2.0,2.0,0.06542157,2.0,-2.0,-0.60894805,-2.0,-2.0,2.0,-2.0,2.0,-2.0,2.0,2.0
2025-07-21 09:00:27.677,1.2200000000000006,1220,61,-0.13175315,-0.06917786,0.0044924445,-0.013588967,-0.0351406,-0.01749523,0.0,0.0,0.0,0.00024827375,0.058195453,-0.22628829,-0.32212406,0.067744605,-0.24012603,-0.3541761,0.39609686,-0.09626797,0.30982465,-0.36636698,-0.16612352,0.31413242,-0.095320545,0.12495362,0.024619665,-0.014130923,-0.16483562,0.03846189,-0.073180474,-0.1262711,-0.019020546,0.015248275,0.15596873,-0.052207675,0.06542157,2.0,-2.0,-0.60894805,-2.0,-2.0,2.0,-2.0,2.0,-2.0,2.0,2.0,2.0,2.0,-2.0,-1.3080187,1.9195042,-2.0,2.0,2.0,2.0,-2.0,-2.0,2.0
2025-07-21 09:00:27.697,1.2400000000000007,1240,62,0.112471834,0.08030695,-0.13872638,-0.053064473,-0.042063165,0.020206805,0.0,0.0,0.0,0.0007478302,0.10487199,-0.12630378,-0.33410692,0.023012146,-0.2708752,-0.34501994,0.3860794,-0.06653906,0.30797547,-0.37880677,-0.15507902,0.30864617,0.04805268,0.34493312,0.013110694,-0.101195335,-0.016175278,-0.015365943,-0.021639472,0.19256872,-0.010823186,-0.07776242,-0.06531222,0.041279443,2.0,2.0,-2.0,-1.3080187,1.9195042,-2.0,2.0,2.0,2.0,-2.0,-2.0,2.0,0.42230314,-2.0,-2.0,0.85316557,2.0,-2.0,2.0,-2.0,2.0,-2.0,1.0003192,0.6942434
2025-07-21 09:00:27.717,1.2600000000000007,1260,63,-0.03899309,0.07855467,0.16311173,0.02061147,-0.04137763,0.025393687,0.0,0.0,0.0,0.0017735529,0.11320558,-0.057289913,-0.32390785,0.030391809,-0.21183462,-0.3530375,0.3845206,-0.07396536,0.3234331,-0.3672286,-0.11950466,0.28267577,0.039913103,0.02598592,-0.006740702,0.05925569,0.15903497,0.0192427,0.010233829,-0.06621588,-0.052910525,0.06828025,0.2434568,-0.051160775,0.42230314,-2.0,-2.0,0.85316557,2.0,-2.0,2.0,-2.0,2.0,-2.0,1.0003192,0.6942434,-0.1736805,-2.0,-2.0,2.0,-0.6868921,-2.0,2.0,2.0,2.0,-2.0,-2.0,1.6692168
2025-07-21 09:00:27.737,1.2800000000000007,1280,64,-0.042463597,-0.067975216,-0.11067638,0.008583688,-0.03227832,0.040423363,0.0,0.0,0.0,0.00092879526,0.097619236,-0.06540328,-0.31860387,0.05409283,-0.19320776,-0.34544453,0.38217255,-0.06180712,0.30351964,-0.37426203,-0.12257578,0.27568114,-0.109351,-0.12357136,0.028901752,0.08593387,-0.10739497,0.073517025,-0.053484716,0.17019586,-0.044678036,0.063850544,-0.13189079,-0.00074238825,-0.1736805,-2.0,-2.0,2.0,-0.6868921,-2.0,2.0,2.0,2.0,-2.0,-2.0,1.6692168,0.61975586,-1.7529246,-2.0,-1.3681986,-0.17900972,-2.0,2.0,-2.0,2.0,-2.0,1.187583,2.0
2025-07-21 09:00:27.757,1.3000000000000007,1300,65,-0.015735315,-0.027812473,0.29086065,0.0033751018,-0.03650274,0.0016089493,0.0,0.0,0.0,0.00061389175,0.11078725,-0.15257558,-0.32507163,0.037033714,-0.18175448,-0.35684174,0.38374692,-0.06700137,0.3027528,-0.36538458,-0.11876908,0.26355934,0.06621829,-0.27255985,-0.012287066,-0.13086712,0.017400308,-0.027200542,0.001933865,-0.20781727,-0.004557267,0.035525613,0.1404781,0.04554689,0.61975586,-1.7529246,-2.0,-1.3681986,-0.17900972,-2.0,2.0,-2.0,2.0,-2.0,1.187583,2.0,1.8087082,2.0,-2.0,2.0,2.0,-2.0,2.0,2.0,2.0,-2.0,-1.6797832,2.0
2025-07-21 09:00:27.779,1.3200000000000007,1320,66,-0.022034405,0.3583712,-0.1089475,0.0033884698,-0.037121236,0.03123606,0.0,0.0,0.0,-0.0020294709,0.13731647,-0.17608942,-0.32287198,0.05813027,-0.14197701,-0.34882587,0.3899234,-0.08046553,0.30134702,-0.36486092,-0.13324206,0.27678078,0.044662908,0.10917931,-0.033787865,0.09902876,0.06947898,-0.07298715,0.010771763,0.028463744,0.009305851,-0.03541113,-0.11682892,-0.04809321,1.8087082,2.0,-2.0,2.0,2.0,-2.0,2.0,2.0,2.0,-2.0,-1.6797832,2.0,-2.0,1.0380872,-2.0,-0.89609736,-2.0,-2.0,2.0,-2.0,2.0,-2.0,2.0,2.0
2025-07-21 09:00:27.797,1.3400000000000007,1340,67,-0.04791986,-0.064537115,0.18360327,0.018011259,-0.036708336,-0.007192212,0.0,0.0,0.0,-0.0037320652,0.07796551,-0.09126196,-0.321885,0.04017049,-0.15909038,-0.33708626,0.38969225,-0.06726881,0.318495,-0.37102342,-0.13234173,0.2767078,-0.24812157,0.26949227,0.022194901,-0.062096372,-0.090059586,-0.021090984,0.03141056,-0.008338006,-0.025677498,-0.0687547,-0.0040660733,0.025194705,-2.0,1.0380872,-2.0,-0.89609736,-2.0,-2.0,2.0,-2.0,2.0,-2.0,2.0,2.0,2.0,0.7095929,-2.0,-0.10638255,-2.0,-2.0,2.0,-1.0130156,2.0,-2.0,0.3321381,2.0
2025-07-21 09:00:27.817,1.3600000000000008,1360,68,0.06472252,-0.12686616,0.19066781,-0.02040864,-0.0140331965,-0.0023681456,0.0,0.0,0.0,-0.005595146,0.088090725,-0.03795847,-0.32131863,0.026462276,-0.24577169,-0.3314989,0.40057105,-0.1030213,0.31170237,-0.37974894,-0.10383259,0.288235,0.09784547,0.09377729,-7.86832e-05,-0.031729773,-0.28539947,-0.060817096,0.015876472,-0.020138731,0.068401664,0.044141516,0.10609758,-0.030540483,2.0,0.7095929,-2.0,-0.10638255,-2.0,-2.0,2.0,-1.0130156,2.0,-2.0,0.3321381,2.0,2.0,2.0,-2.0,2.0,2.0,-1.9917319,2.0,2.0,2.0,-2.0,-2.0,2.0
2025-07-21 09:00:27.837,1.3800000000000008,1380,69,-0.012108626,-0.049991235,-0.20369767,-0.0063497503,-0.05788285,-0.03384318,0.0,0.0,0.0,-0.009557191,0.12633243,0.025312489,-0.34322032,0.06957538,-0.27967438,-0.3375929,0.38739368,-0.09075571,0.30921358,-0.37769094,-0.1101033,0.28129297,0.051352065,0.2650237,0.0039088475,0.18665655,0.13542281,-0.022767024,0.040668584,0.18943319,-0.0714853,0.010714879,-0.1415058,0.043615468,2.0,2.0,-2.0,2.0,2.0,-1.9917319,2.0,2.0,2.0,-2.0,-2.0,2.0,-1.0625707,-2.0,-2.0,-1.2559464,-2.0,-2.0,2.0,-2.0,2.0,-2.0,0.023745753,2.0
2025-07-21 09:00:27.858,1.4000000000000008,1400,70,-0.02950484,-0.39440948,0.25826424,-0.0498533,0.020134965,0.04246732,0.0,0.0,0.0,-0.008765809,0.09352463,0.06308859,-0.33735737,0.037559185,-0.309121,-0.33585495,0.388757,-0.08911572,0.31107482,-0.3764969,-0.09802448,0.28324428,-0.16624902,-0.097210236,0.00406661,-0.13240975,-0.122291796,0.017424932,0.04356727,-0.036939703,0.02399241,-0.055839643,-0.02073707,-0.014415905,-1.0625707,-2.0,-2.0,-1.2559464,-2.0,-2.0,2.0,-2.0,2.0,-2.0,0.023745753,2.0,2.0,0.19835575,-2.0,2.0,2.0,-2.0,2.0,0.34219226,2.0,-2.0,-0.93331754,2.0
2025-07-21 09:00:27.878,1.4200000000000008,1420,71,0.22764789,0.22508134,-0.20688796,-0.0558333,-0.0016457672,0.044240795,0.0,0.0,0.0,-0.010099673,0.11987258,0.0534633,-0.32283723,0.04502168,-0.31381002,-0.3485008,0.3910237,-0.069266096,0.30576757,-0.37415382,-0.10939275,0.30297866,0.0701962,-0.008900381,0.047072906,0.04405286,-0.051986326,-0.068321355,0.06566628,0.03214955,-0.014659177,0.04635362,-0.04765511,-0.041938696,2.0,0.19835575,-2.0,2.0,2.0,-2.0,2.0,0.34219226,2.0,-2.0,-0.93331754,2.0,1.7266443,-2.0,-2.0,-2.0,2.0,-2.0,2.0,-2.0,2.0,-2.0,-0.18513682,2.0
2025-07-21 09:00:27.898,1.4400000000000008,1440,72,-0.089162,-0.17535971,0.17642477,-0.07202102,0.019004185,0.0061400337,0.0,0.0,0.0,-0.009674199,0.16110297,0.029028915,-0.3296537,0.016673999,-0.30687234,-0.3465949,0.39572155,-0.07327219,0.3093959,-0.38346127,-0.11025905,0.29344785,0.055336084,-0.11547944,0.07524763,-0.17760645,0.09437616,-0.049097385,-0.0031560839,-0.0030929162,0.05172414,-0.012065149,-0.047624424,-0.029104853,1.7266443,-2.0,-2.0,-2.0,2.0,-2.0,2.0,-2.0,2.0,-2.0,-0.18513682,2.0,1.7195684,-2.0,-2.0,2.0,2.0,-2.0,2.0,-2.0,2.0,-2.0,2.0,-0.87895924
2025-07-21 09:00:27.918,1.4600000000000009,1460,73,-0.088410355,0.026558353,0.300871,-0.00072731654,-0.013856997,0.028211128,0.0,0.0,0.0,-0.011032599,0.17000763,-0.07143269,-0.32031134,-0.014381461,-0.25045377,-0.34774265,0.40387842,-0.11668983,0.3070344,-0.37796003,-0.040553167,0.21833147,-0.015262089,-0.3767909,-0.012500488,0.00864977,0.107985936,0.024389913,-0.019252615,-0.061653513,-0.05596135,0.0025606605,0.24526949,-0.21997115,1.7195684,-2.0,-2.0,2.0,2.0,-2.0,2.0,-2.0,2.0,-2.0,2.0,-0.87895924,0.10777013,-2.0,-2.0,2.0,1.3908024,-2.0,1.5621272,2.0,2.0,-2.0,-2.0,0.70975345
2025-07-21 09:00:27.938,1.4800000000000009,1480,74,-0.13970362,0.1760426,-0.078996494,-0.06312781,0.032196593,0.021042239,0.0,0.0,0.0,-0.016170964,0.15587156,-0.19909543,-0.3315756,0.0049149697,-0.21575707,-0.35689327,0.39406735,-0.08279083,0.3141462,-0.36115396,-0.012986072,0.21031666,-0.070212945,-0.3633087,0.06876717,0.084029384,0.04507095,0.020203568,0.030405147,0.04910189,0.03701025,0.028214883,-0.12799883,-0.030535886,0.10777013,-2.0,-2.0,2.0,1.3908024,-2.0,1.5621272,2.0,2.0,-2.0,-2.0,0.70975345,-1.5458305,1.7469593,-2.0,-0.93359345,-0.34092218,-2.0,2.0,0.98678505,2.0,-2.0,2.0,2.0
2025-07-21 09:00:27.958,1.5000000000000009,1500,75,-0.23296373,0.27080798,0.00015933621,-0.00058864907,0.028620912,-0.048904352,0.0,0.0,0.0,-0.018360376,0.0918616,-0.23725845,-0.32608145,-0.012784154,-0.1987918,-0.3519743,0.3952755,-0.005271811,0.2980022,-0.36950237,-0.0039230525,0.21254328,-0.18016098,0.00047920758,0.025826093,-0.11418184,0.07577314,-0.046401985,-0.00016376092,0.19154425,-1.8405568e-05,0.059680264,0.047941573,-0.017732428,-1.5458305,1.7469593,-2.0,-0.93359345,-0.34092218,-2.0,2.0,0.98678505,2.0,-2.0,2.0,2.0,-0.16695456,2.0,-2.0,2.0,-2.0,-2.0,2.0,-2.0,2.0,-2.0,-1.2811233,2.0
2025-07-21 09:00:27.979,1.520000000000001,1520,76,0.19974732,-0.019092664,-0.16377491,-0.017572567,0.044041984,-0.03721493,0.0,0.0,0.0,-0.017841808,0.05668989,-0.17778796,-0.33249196,0.02457719,-0.23806094,-0.34920582,0.39882845,0.024260484,0.30647746,-0.37252158,-0.01966294,0.24074274,-0.10773452,0.2354753,-0.05785382,0.16527711,-0.28480333,0.07939645,0.060777534,0.0131295975,0.009417929,0.01426158,-0.015112373,-0.020586703,-0.16695456,2.0,-2.0,2.0,-2.0,-2.0,2.0,-2.0,2.0,-2.0,-1.2811233,2.0,2.0,-1.3237327,-2.0,-0.9508254,1.7447371,-2.0,2.0,-2.0,2.0,-2.0,-2.0,2.0
2025-07-21 09:00:27.998,1.540000000000001,1540,77,0.41348943,-0.2685154,0.0005565193,-0.06995908,-0.048770208,0.0006726007,0.0,0.0,0.0,-0.016133169,0.109211825,-0.16118881,-0.33109906,0.0058915247,-0.28935763,-0.34205535,0.38586363,-0.024017269,0.31439027,-0.37743598,-0.060713097,0.25364503,0.13366964,-0.106359854,0.060815714,-0.016996749,-0.06111231,0.04304985,0.043692667,-0.24930768,0.0053266017,0.031362765,-0.22252409,0.07825986,2.0,-1.3237327,-2.0,-0.9508254,1.7447371,-2.0,2.0,-2.0,2.0,-2.0,-2.0,2.0,2.0,-0.8492374,-2.0,0.32440555,2.0,-2.0,2.0,2.0,2.0,-2.0,2.0,2.0
2025-07-21 09:00:28.018,1.560000000000001,1560,78,0.0041434206,0.12574205,0.012752796,-0.074678294,-0.033044025,-0.0005619068,0.0,0.0,0.0,-0.014690941,0.14974175,-0.18238927,-0.32686466,0.00059852476,-0.26454923,-0.3462179,0.4033229,-0.032504525,0.30620676,-0.37713045,-0.05693087,0.26207486,0.15405616,-0.13874088,0.059967294,-0.014409857,0.022637399,0.041064553,0.011750995,0.06491456,-0.06737455,0.04143268,0.13249628,0.067161106,2.0,-0.8492374,-2.0,0.32440555,2.0,-2.0,2.0,2.0,2.0,-2.0,2.0,2.0,-0.36346042,-2.0,-2.0,2.0,2.0,-2.0,2.0,-2.0,2.0,-2.0,-0.2841629,2.0
2025-07-21 09:00:28.042,1.580000000000001,1580,79,-0.03008609,-0.034026507,0.1138354,0.01568973,-0.0045456323,0.033925485,0.0,0.0,0.0,-0.014579612,0.15397686,-0.23834208,-0.32263425,0.019586988,-0.24023373,-0.35803914,0.3917553,-0.032190863,0.32082063,-0.37065533,-0.048917502,0.2775562,-0.0620747,-0.1465048,0.040651422,0.079108775,0.1637635,-0.017880036,0.04317012,-0.025509033,-0.039868787,0.051137783,-0.066969074,0.005655436,-0.36346042,-2.0,-2.0,2.0,2.0,-2.0,2.0,-2.0,2.0,-2.0,-0.2841629,2.0,-1.6086072,1.9963764,-2.0,0.3159298,-2.0,-2.0,2.0,2.0,2.0,-2.0,0.67550695,2.0
2025-07-21 09:00:28.058,1.600000000000001,1600,80,-0.26016244,0.17419326,0.07348077,-0.04312893,0.0012568177,0.038271826,0.0,0.0,0.0,-0.01592049,0.09622513,-0.24747024,-0.33701652,0.03444041,-0.23770754,-0.36000657,0.39167315,-0.004582851,0.3187726,-0.3708137,-0.021102495,0.26651555,-0.17000428,0.06344623,0.044489834,0.028124284,-0.13247621,-0.025111888,0.009183667,0.24776734,-0.041311253,0.036595255,0.12747532,0.07607135,-1.6086072,1.9963764,-2.0,0.3159298,-2.0,-2.0,2.0,2.0,2.0,-2.0,0.67550695,2.0,-0.21149112,2.0,-2.0,2.0,0.40276092,-2.0,2.0,-2.0,2.0,-2.0,-2.0,2.0
2025-07-21 09:00:28.079,1.620000000000001,1620,81,-0.107296824,0.1871412,-0.04609927,0.04134196,-0.05401518,-0.013655449,0.0,0.0,0.0,-0.017571488,0.066628926,-0.20593664,-0.3417198,0.06324586,-0.22571826,-0.35552087,0.39216402,0.04460586,0.314533,-0.3632609,-0.008748913,0.2760892,-0.0011168524,0.21959099,-0.052090254,0.13841078,0.12013116,0.0185563,0.026331833,0.104336254,0.029774304,-0.044803973,0.068430156,0.07791026,-0.21149112,2.0,-2.0,2.0,0.40276092,-2.0,2.0,-2.0,2.0,-2.0,-2.0,2.0,0.8923917,2.0,-2.0,1.1675242,-2.0,-2.0,2.0,-2.0,2.0,-2.0,-2.0,2.0
2025-07-21 09:00:28.098,1.640000000000001,1640,82,0.14939867,-0.021294868,-0.13062103,-0.003957036,-0.06306631,-0.02251602,0.0,0.0,0.0,-0.017516926,0.08590284,-0.15366915,-0.3420587,0.09366818,-0.24700724,-0.35213503,0.3751124,0.048520602,0.32801342,-0.37486964,-0.035174698,0.28062922,0.08955309,0.20938581,-0.006255791,0.014248778,-0.087780654,0.004105223,-0.046688214,-0.02168068,-0.017953075,0.04020362,-0.105898246,-0.040726367,0.8923917,2.0,-2.0,1.1675242,-2.0,-2.0,2.0,-2.0,2.0,-2.0,-2.0,2.0,2.0,0.61474854,-2.0,-0.115472496,-0.95502645,-2.0,2.0,-2.0,2.0,-2.0,-0.824388,2.0
2025-07-21 09:00:28.119,1.660000000000001,1660,83,0.13122663,-0.15037167,0.022295853,-0.018011414,-0.070130534,-0.009292304,0.0,0.0,0.0,-0.015007561,0.1314917,-0.08293106,-0.32721484,0.06900118,-0.278884,-0.3468453,0.3824105,0.017506631,0.31692168,-0.37223694,-0.07202999,0.2915521,0.055158634,0.18934588,0.05310066,-0.11171962,-0.064577214,-0.02830432,0.038283676,-0.080565296,0.04355346,0.07956158,-0.119789876,-0.037598126,2.0,0.61474854,-2.0,-0.115472496,-0.95502645,-2.0,2.0,-2.0,2.0,-2.0,-0.824388,2.0,2.0,-0.82809585,-2.0,1.9393319,2.0,-2.0,2.0,-2.0,2.0,-2.0,2.0,2.0
2025-07-21 09:00:28.138,1.680000000000001,1680,84,0.14567646,0.008918957,0.121063605,0.007016154,-0.07220332,-0.0103348,0.0,0.0,0.0,-0.013475773,0.15633303,-0.08226608,-0.32720497,0.07465484,-0.29404616,-0.34560135,0.3792993,-0.05080932,0.3290809,-0.35980123,-0.071954444,0.29872054,0.050645214,-0.12975626,0.050507803,0.049526956,0.024110787,0.057578273,0.013868729,-0.049393576,-0.0072822906,-0.025783319,0.20511286,0.06818637,2.0,-0.82809585,-2.0,1.9393319,2.0,-2.0,2.0,-2.0,2.0,-2.0,2.0,2.0,2.0,-2.0,-2.0,2.0,2.0,-2.0,2.0,1.6241064,2.0,-2.0,-2.0,2.0
2025-07-21 09:00:28.158,1.700000000000001,1700,85,0.052577768,0.23677726,-0.1402401,0.021134086,-0.07943519,0.04823967,0.0,0.0,0.0,-0.015307614,0.18899527,-0.17272083,-0.33299825,0.10490627,-0.26893392,-0.35484675,0.40186036,-0.042133253,0.32254896,-0.35682335,-0.08426016,0.30243358,0.0598975,-0.23560235,0.007791059,0.09704727,0.04188296,-0.047049556,-0.030456243,0.08268133,-0.0898214,0.031423133,-0.050147675,0.009416083,2.0,-2.0,-2.0,2.0,2.0,-2.0,2.0,1.6241064,2.0,-2.0,-2.0,2.0,-0.9816611,-0.2496125,-1.269948,-2.0,2.0,-2.0,2.0,-2.0,2.0,-2.0,-2.0,2.0
2025-07-21 09:00:28.179,1.720000000000001,1720,86,-0.18099716,-0.13985217,0.06625444,0.009428174,-0.013974047,0.030016128,0.0,0.0,0.0,-0.015214026,0.1542505,-0.20548455,-0.30929574,0.07673169,-0.2256482,-0.36617708,0.3784228,-0.022118606,0.32891393,-0.3673257,-0.14386982,0.3050013,-0.19546418,0.0868365,0.05949051,-0.22256403,0.08246663,0.042615365,0.062400226,-0.0070170276,-0.0574404,-0.018700851,-0.113563575,0.01941621,-0.9816611,-0.2496125,-1.269948,-2.0,2.0,-2.0,2.0,-2.0,2.0,-2.0,-2.0,2.0,0.72720003,2.0,-2.0,0.064208806,0.27682132,-2.0,2.0,-2.0,2.0,-2.0,-2.0,2.0
2025-07-21 09:00:29.798,1.740000000000001,1740,87,0.21051575,-0.038400028,0.06394147,0.005820486,-0.03724033,0.018221809,0.0,0.0,0.0,-0.015573595,0.13518977,-0.15009303,-0.31722853,0.060168758,-0.17342402,-0.36079618,0.39927605,-0.045005534,0.313722,-0.37372413,-0.21121049,0.30628502,-0.000462622,0.20891146,0.054626793,-0.060587633,0.06798524,-0.075727634,-0.013911791,-0.09358887,-0.046662834,0.024823958,-0.22868723,0.014783459,0.72720003,2.0,-2.0,0.064208806,0.27682132,-2.0,2.0,-2.0,2.0,-2.0,-2.0,2.0,2.0,1.2988755,-2.0,1.0019625,-2.0,-2.0,2.0,1.4176024,2.0,-2.0,2.0,2.0
2025-07-21 09:00:30.305,1.7600000000000011,1760,88,-0.0026824237,0.30013677,-0.19337915,0.04140689,-0.063927315,0.035434272,0.0,0.0,0.0,-0.016883643,0.17128688,-0.04955667,-0.32449418,0.07247669,-0.18836893,-0.35588324,0.39762032,-0.007290557,0.3217165,-0.37434638,-0.21281087,0.30746394,0.09246162,0.19581398,0.06534719,0.119996436,-0.074945405,0.06493263,0.00035103277,0.14810663,-0.019815374,-0.022365866,0.080227196,0.0027004445,2.0,1.2988755,-2.0,1.0019625,-2.0,-2.0,2.0,1.4176024,2.0,-2.0,2.0,2.0,-1.314388,-2.0,-2.0,0.7823419,-2.0,-2.0,2.0,-2.0,2.0,-2.0,2.0,2.0
2025-07-21 09:00:30.325,1.7800000000000011,1780,89,-0.26972255,-0.32828245,0.12248463,0.036775324,-0.06802346,-0.015896402,0.0,0.0,0.0,-0.014769449,0.13156468,-0.01528989,-0.30969548,0.07642728,-0.266666,-0.34336767,0.3760816,0.00096319424,0.32675362,-0.3729083,-0.14325659,0.31305972,-0.12873738,0.047184214,-0.06999192,0.07907838,-0.30776614,-0.016626826,-0.0029316018,-0.12098817,0.06390557,0.00804675,0.3360183,0.0401324,-1.314388,-2.0,-2.0,0.7823419,-2.0,-2.0,2.0,-2.0,2.0,-2.0,2.0,2.0,2.0,-2.0,-2.0,-1.0286039,2.0,-0.9351621,2.0,2.0,2.0,-2.0,-2.0,2.0
2025-07-21 09:00:30.345,1.8000000000000012,1800,90,0.051604405,-0.10624932,-0.03936106,-0.017766915,-0.06688251,0.00072552176,0.0,0.0,0.0,-0.014118312,0.14354837,-0.049028616,-0.31763676,0.052165143,-0.29856503,-0.32228845,0.3741824,0.019259157,0.31851783,-0.36214247,-0.09699491,0.30035636,0.1382892,-0.11754466,-0.02217636,-0.086081035,0.09688583,0.081792876,0.0013047376,0.16156057,-0.017528784,-0.060441326,-0.014577453,0.05410503,2.0,-2.0,-2.0,-1.0286039,2.0,-0.9351621,2.0,2.0,2.0,-2.0,-2.0,2.0,-0.4559571,-2.0,-2.0,0.008145035,1.9710128,-2.0,2.0,-2.0,2.0,-2.0,-2.0,2.0
2025-07-21 09:00:30.365,1.8200000000000012,1820,91,0.2366126,0.009244615,0.04255982,0.0018680277,-0.07254624,-0.028998591,0.0,0.0,0.0,-0.014290503,0.12281593,-0.16310427,-0.311998,0.039912347,-0.25381315,-0.3278161,0.37375927,0.01877711,0.31978953,-0.36825848,-0.11835212,0.31710702,-0.1,-0.31636223,0.01443587,-0.06526695,0.05762332,-0.06954934,-0.035530478,-0.118977964,-0.065607555,-0.06991258,-0.082074456,0.0040184627,-0.4559571,-2.0,-2.0,0.008145035,1.9710128,-2.0,2.0,-2.0,2.0,-2.0,-2.0,2.0,-0.3337636,2.0,-2.0,-0.31913567,2.0,-2.0,2.0,-1.1237001,2.0,-2.0,-1.6091074,2.0
2025-07-21 09:00:30.385,1.8400000000000012,1840,92,0.032182302,-0.09585791,0.03730265,-0.035891153,-0.05037005,0.04106585,0.0,0.0,0.0,-0.0132785365,0.105296016,-0.23025979,-0.31996286,0.019476902,-0.23084709,-0.33229065,0.3808974,-0.032865435,0.32394275,-0.36412197,-0.14269586,0.3134738,-0.032821115,-0.02023245,-0.08599105,-0.047224816,0.08482469,0.0029061735,-0.0058169113,-0.14703533,-0.05796277,0.023068316,-0.12637885,-0.044787407,-0.3337636,2.0,-2.0,-0.31913567,2.0,-2.0,2.0,-1.1237001,2.0,-2.0,-1.6091074,2.0,1.9340006,2.0,-2.0,1.0093802,-1.7948684,-2.0,2.0,2.0,2.0,-2.0,2.0,2.0
2025-07-21 09:00:30.405,1.8600000000000012,1860,93,-0.062363427,0.28951904,-0.17629,-0.011865511,-0.08103095,-0.046604954,0.0,0.0,0.0,-0.013856625,0.12808834,-0.21720684,-0.3237237,0.042523194,-0.22023454,-0.3271618,0.37645614,-0.019231375,0.31343585,-0.36405587,-0.10532674,0.31937352,0.042067632,0.13896331,-0.06952576,0.08297631,-0.08464613,-0.03665774,0.018122213,0.14731708,-0.011458886,-0.061434086,0.17514637,0.06645224,1.9340006,2.0,-2.0,1.0093802,-1.7948684,-2.0,2.0,2.0,2.0,-2.0,2.0,2.0,-1.2992284,-2.0,-2.0,0.5210853,-1.4639385,-2.0,2.0,-2.0,2.0,-2.0,0.72686464,2.0
2025-07-21 09:00:30.425,1.8800000000000012,1880,94,-0.16027012,-0.20006937,-0.019630834,0.035514627,0.003381274,0.019101154,0.0,0.0,0.0,-0.011659601,0.10165263,-0.23812884,-0.32103035,0.038361803,-0.2934411,-0.33937255,0.38286954,-0.0050483528,0.31133774,-0.36130667,-0.045906372,0.31182238,-0.16831507,-0.13451128,-0.038426835,-0.059121277,-0.13613765,-0.070868924,0.018122396,0.018660182,-0.043343585,0.018831138,0.22518037,-0.05502266,-1.2992284,-2.0,-2.0,0.5210853,-1.4639385,-2.0,2.0,-2.0,2.0,-2.0,0.72686464,2.0,2.0,2.0,-2.0,-0.27644283,2.0,-2.0,2.0,-2.0,2.0,-2.0,-2.0,2.0
2025-07-21 09:00:30.445,1.9000000000000012,1900,95,0.018312847,-0.1513887,0.047016293,-0.028878413,-0.029397126,-0.041892245,0.0,0.0,0.0,-0.0097990185,0.12604699,-0.2202396,-0.33815268,0.022428531,-0.31783727,-0.3447293,0.37894332,-0.034790695,0.31046984,-0.35939327,-0.031798396,0.31149378,0.15149046,0.19683897,0.06564147,-0.094161004,-0.089556016,0.03884654,-0.06825196,-0.046169005,-0.032687664,-0.013290589,-0.13818648,0.04252204,2.0,2.0,-2.0,-0.27644283,2.0,-2.0,2.0,-2.0,2.0,-2.0,-2.0,2.0,2.0,1.2452935,-2.0,1.0680782,2.0,-2.0,2.0,-1.5547715,2.0,-2.0,-1.0563695,2.0
2025-07-21 09:00:30.465,1.9200000000000013,1920,96,0.13090016,0.043323684,-0.12529223,-0.05498364,-0.06768336,0.023503002,0.0,0.0,0.0,-0.010144468,0.16041,-0.147783,-0.3309525,0.0345367,-0.3108903,-0.3496713,0.38377002,-0.057481814,0.32054287,-0.36304435,-0.07005075,0.31270495,0.12152168,0.17711432,0.001992513,-0.013860232,0.04208714,-0.020793224,0.034909207,-0.06679087,-0.062040478,-0.08224227,-0.08255958,0.0009768791,2.0,1.2452935,-2.0,1.0680782,2.0,-2.0,2.0,-1.5547715,2.0,-2.0,-1.0563695,2.0,2.0,-1.5311712,-2.0,-0.34535205,2.0,-2.0,2.0,-2.0,2.0,-2.0,0.7598816,2.0
2025-07-21 09:00:30.485,1.9400000000000013,1940,97,-0.018012403,-0.011794078,0.29063886,0.024687808,-0.093920775,-0.041392896,0.0,0.0,0.0,-0.009524761,0.18861993,-0.14019667,-0.33080748,0.023197694,-0.30068663,-0.34681964,0.39411345,-0.104913086,0.3308786,-0.3680765,-0.05520848,0.31889692,0.10861738,-0.08341516,0.008177655,-0.023091672,0.11477605,-0.055455737,0.037641022,-0.028741885,-0.03579967,0.05990787,0.12065603,-0.02094161,2.0,-1.5311712,-2.0,-0.34535205,2.0,-2.0,2.0,-2.0,2.0,-2.0,0.7598816,2.0,1.6902089,-2.0,-2.0,2.0,2.0,-2.0,2.0,2.0,2.0,-2.0,-2.0,2.0
2025-07-21 09:00:30.505,1.9600000000000013,1960,98,-0.056838375,0.24365327,0.034833904,-0.005948431,-0.06600407,-0.015752228,0.0,0.0,0.0,-0.011934134,0.20840389,-0.2337935,-0.32645404,0.03300538,-0.2658286,-0.3632012,0.3876813,-0.080012396,0.3164783,-0.3665168,-0.046049453,0.31082305,0.05567936,-0.32092226,-0.06073727,0.0932517,0.053100772,0.039728966,0.093883455,0.18801896,0.015679993,-0.05491853,-0.119846866,0.07455518,1.6902089,-2.0,-2.0,2.0,2.0,-2.0,2.0,2.0,2.0,-2.0,-2.0,2.0,-1.7453408,2.0,-0.04327497,-0.15197974,0.56834096,-2.0,2.0,-2.0,2.0,-2.0,-1.3385532,2.0
2025-07-21 09:00:30.525,1.9800000000000013,1980,99,-0.039069198,-0.038498957,0.06741278,-0.052707266,-0.028149178,0.029067881,0.0,0.0,0.0,-0.014538169,0.14794971,-0.27806878,-0.278259,0.020575197,-0.21682657,-0.3531849,0.38649118,-0.068851106,0.31789553,-0.35945123,-0.092019424,0.3150791,-0.2454863,0.047769614,0.17411335,-0.0943636,0.18320803,-0.07297869,0.034329634,-0.07961884,-0.02222919,-0.013137485,-0.10742138,0.06999558,-1.7453408,2.0,-0.04327497,-0.15197974,0.56834096,-2.0,2.0,-2.0,2.0,-2.0,-1.3385532,2.0,0.54696476,2.0,-2.0,0.543251,-2.0,-2.0,2.0,1.7307192,2.0,-2.0,-0.5993632,2.0
2025-07-21 09:00:30.545,2.0000000000000013,2000,100,-0.08777746,0.056948684,-0.18644612,0.04793264,-0.039723128,0.041644648,0.0,0.0,0.0,-0.015854191,0.1307125,-0.21500327,-0.2891781,0.022898033,-0.22271174,-0.35742217,0.4011528,-0.035357192,0.31091148,-0.37008494,-0.10937377,0.32013696,0.07611975,0.17799556,0.004125176,0.045519423,-0.15110314,-0.035769098,0.002088643,0.14911273,-0.03943325,0.0010288667,-0.049172968,0.007079389,0.54696476,2.0,-2.0,0.543251,-2.0,-2.0,2.0,1.7307192,2.0,-2.0,-0.5993632,2.0,-0.4408574,-1.2914263,-2.0,0.7516194,-1.9667579,-2.0,2.0,-2.0,2.0,-2.0,2.0,2.0
2025-07-21 09:00:30.568,2.0200000000000014,2020,101,-0.06265219,-0.27638194,0.22277212,-0.029284496,0.0034871346,0.025469307,0.0,0.0,0.0,-0.014237339,0.10867008,-0.21055587,-0.287716,0.053561836,-0.3007779,-0.3366962,0.39531118,-0.025106356,0.32132694,-0.3672605,-0.087430514,0.31322688,-0.12421772,-0.035185482,0.01748312,0.09955713,-0.27521107,0.085769504,0.024669707,-0.15243118,-0.052704535,-0.046829555,0.1351768,-0.062552445,-0.4408574,-1.2914263,-2.0,0.7516194,-1.9667579,-2.0,2.0,-2.0,2.0,-2.0,2.0,2.0,2.0,2.0,-2.0,0.23167473,2.0,-2.0,2.0,2.0,2.0,-2.0,-2.0,2.0
2025-07-21 09:00:30.585,2.0400000000000014,2040,102,0.21531451,-0.057659205,-0.091400094,-0.008605151,-0.07344049,0.0018341314,0.0,0.0,0.0,-0.014553432,0.136213,-0.1844678,-0.29869688,0.048014924,-0.34375453,-0.33591878,0.3865497,-0.007235543,0.31709108,-0.3761048,-0.09587089,0.31417117,0.13660173,0.24622983,0.059355333,-0.058303237,0.10252668,-0.04830231,-0.021510998,0.17758913,-0.017207036,-0.014534256,-0.012282498,0.071198694,2.0,2.0,-2.0,0.23167473,2.0,-2.0,2.0,2.0,2.0,-2.0,-2.0,2.0,-0.5700892,-0.83433,-2.0,1.1918737,-0.13272707,-2.0,2.0,-2.0,2.0,-2.0,-2.0,2.0
2025-07-21 09:00:30.606,2.0600000000000014,2060,103,0.042775005,-0.08215603,0.115418635,-0.025270859,-0.080352776,0.0048146634,0.0,0.0,0.0,-0.015144169,0.14171764,-0.15459493,-0.31122264,0.058494274,-0.31328207,-0.35612333,0.38225815,-0.015231176,0.32047412,-0.3661325,-0.112873346,0.31057215,-0.07022279,-0.0026984012,-0.05371044,0.089213744,0.025069617,-0.062242977,0.013388177,-0.16364013,-0.044518765,-0.070488185,-0.06066401,0.02773825,-0.5700892,-0.83433,-2.0,1.1918737,-0.13272707,-2.0,2.0,-2.0,2.0,-2.0,-2.0,2.0,2.0,2.0,-2.0,0.41911823,2.0,-2.0,2.0,2.0,2.0,-2.0,0.45258698,2.0
2025-07-21 09:00:30.627,2.0800000000000014,2080,104,-0.14631705,0.41544563,-0.012543869,-0.029520892,-0.0072180387,0.044589408,0.0,0.0,0.0,-0.014897258,0.17001861,-0.12332551,-0.3123408,0.06206002,-0.25433022,-0.35050085,0.36856678,0.007873888,0.30540982,-0.37009114,-0.08066558,0.30929422,0.047231115,0.21867712,-0.01367392,0.07725175,0.25611228,-0.07212274,0.07121585,0.14948545,0.04680442,-0.014469548,0.09970545,-0.071031325,2.0,2.0,-2.0,0.41911823,2.0,-2.0,2.0,2.0,2.0,-2.0,0.45258698,2.0,-2.0,-1.1035641,-2.0,2.0,-2.0,-2.0,2.0,-2.0,2.0,-2.0,-2.0,0.7819442
2025-07-21 09:00:30.646,2.1000000000000014,2100,105,0.057722412,-0.056624956,-0.04185417,0.016937198,-0.05522851,0.043517396,0.0,0.0,0.0,-0.015731394,0.13872343,-0.13286082,-0.30555514,0.09581814,-0.25287244,-0.35053283,0.37425464,0.034626476,0.31118914,-0.37483683,-0.07759309,0.27711007,-0.11937427,-0.105095886,-0.04979123,0.10991616,-0.1448737,0.037611607,0.03849367,-0.09612669,0.029574681,0.06721808,-0.09177221,-0.14046521,-2.0,-1.1035641,-2.0,2.0,-2.0,-2.0,2.0,-2.0,2.0,-2.0,-2.0,0.7819442,1.1732666,2.0,-2.0,-0.71794766,2.0,-2.0,2.0,-0.08541706,2.0,-2.0,2.0,2.0
2025-07-21 09:00:30.666,2.1200000000000014,2120,106,-0.16557653,-0.03350018,0.1270799,0.030228049,-0.054775357,0.03024012,0.0,0.0,0.0,-0.015679043,0.14283657,-0.11887598,-0.3129944,0.0806724,-0.24527642,-0.33668676,0.37998986,0.037791338,0.3205863,-0.3640086,-0.048505343,0.27746478,-0.004221713,0.080778964,-0.0453527,-0.08963047,0.080024146,-0.020519296,-0.023406282,-0.018081453,-0.030964151,0.0057648486,0.17539757,-0.0546369,1.1732666,2.0,-2.0,-0.71794766,2.0,-2.0,2.0,-0.08541706,2.0,-2.0,2.0,2.0,1.9614513,2.0,-2.0,2.0,-2.0,-2.0,2.0,-1.6639326,2.0,-2.0,-2.0,2.0
2025-07-21 09:00:30.689,2.1400000000000015,2140,107,0.20275895,-0.056052547,-0.024943715,-0.035697643,0.00656355,0.00739338,0.0,0.0,0.0,-0.017493224,0.18490785,-0.040309187,-0.33037078,0.076499134,-0.2578254,-0.35552275,0.38995296,0.020128142,0.31328267,-0.3705321,-0.05031924,0.2872587,0.076959305,0.18457599,0.0128026325,0.16016819,-0.09740935,-0.006898233,-0.057647746,-0.0025768734,0.0020551325,-0.046466365,-0.12692402,-0.048863888,1.9614513,2.0,-2.0,2.0,-2.0,-2.0,2.0,-1.6639326,2.0,-2.0,-2.0,2.0,2.0,-2.0,-2.0,0.48459953,-1.1752216,-2.0,2.0,-2.0,2.0,-2.0,0.051285423,2.0
2025-07-21 09:00:30.706,2.1600000000000015,2160,108,0.11083863,-0.25996432,0.09649612,-0.042772613,-0.00991516,-0.013989485,0.0,0.0,0.0,-0.018464876,0.19542997,-0.017846959,-0.3133519,0.08114691,-0.31078702,-0.35117373,0.37170815,-0.026989954,0.3242782,-0.37169075,-0.052254174,0.28973427,0.028204035,-0.065450944,0.07829806,0.046132855,-0.11372438,-0.027489537,0.04075307,-0.2123584,0.031564683,-0.036370855,0.037026674,0.034725092,2.0,-2.0,-2.0,0.48459953,-1.1752216,-2.0,2.0,-2.0,2.0,-2.0,0.051285423,2.0,2.0,-2.0,-2.0,2.0,2.0,-2.0,2.0,2.0,2.0,-2.0,1.5199913,2.0
2025-07-21 09:00:30.726,2.1800000000000015,2180,109,-0.10808322,0.13833982,-0.03480209,-0.008061904,-0.067201324,0.035178855,0.0,0.0,0.0,-0.01987117,0.21920055,-0.09764851,-0.32834768,0.11344576,-0.30221522,-0.35684067,0.383039,-0.031225393,0.31250778,-0.37004045,0.00070278026,0.29739666,0.11324081,-0.32002446,0.043023262,0.09812959,0.069469474,-0.01815741,-0.025368672,0.14311242,-0.05399856,0.04862637,0.2832666,-0.024560852,2.0,-2.0,-2.0,2.0,2.0,-2.0,2.0,2.0,2.0,-2.0,1.5199913,2.0,0.21892516,-2.0,-0.21365085,0.98810863,2.0,-2.0,2.0,-2.0,2.0,-2.0,-2.0,2.0
2025-07-21 09:00:30.750,2.2000000000000015,2200,110,-0.14765826,0.01543022,0.085761145,-0.02773452,-0.073644996,-0.03200154,0.0,0.0,0.0,-0.021331511,0.19626677,-0.22535697,-0.2713245,0.11315064,-0.28501222,-0.35254183,0.38595006,-0.01908355,0.32048288,-0.35430947,0.030200314,0.30546868,-0.0103788525,-0.3560047,0.16319127,-0.028124312,0.07732863,0.038822692,0.014247313,0.04236328,-0.05700122,-0.047154993,-0.09705608,-0.016169544,0.21892516,-2.0,-0.21365085,0.98810863,2.0,-2.0,2.0,-2.0,2.0,-2.0,-2.0,2.0,0.20845722,2.0,0.2857395,0.28547448,2.0,-2.0,2.0,-1.7308685,2.0,-2.0,-2.0,2.0
2025-07-21 09:00:30.766,2.2200000000000015,2220,111,-0.14225057,-0.08400235,0.12615797,-0.03721071,0.02283374,0.02712314,0.0,0.0,0.0,-0.023085756,0.18286948,-0.28029332,-0.22031234,0.092431076,-0.26805493,-0.35282326,0.38765538,-0.04257869,0.31895575,-0.35501465,0.018846473,0.30403587,0.012498646,-0.13655233,0.09634796,-0.09870191,0.07231973,-0.003700617,-0.00869007,0.009901514,-0.030630967,-0.02437341,0.0033477764,4.1114363e-05,0.20845722,2.0,0.2857395,0.28547448,2.0,-2.0,2.0,-1.7308685,2.0,-2.0,-2.0,2.0,1.5074712,2.0,-2.0,0.83506936,0.00031466782,-2.0,2.0,0.0066351593,2.0,-2.0,-2.0,2.0
2025-07-21 09:00:30.786,2.2400000000000015,2240,112,-0.016067227,0.1356792,-0.11070696,0.014329129,-0.00720624,0.00020306374,0.0,0.0,0.0,-0.025324533,0.19483571,-0.24961932,-0.23426025,0.105216466,-0.22205691,-0.366683,0.38606492,-0.025328174,0.31260183,-0.3680188,-0.02114176,0.3194112,0.0990969,0.15277481,-0.06923479,-0.028375063,0.14052217,0.022192113,0.059296317,0.03126777,0.018784817,-0.07316963,-0.013968269,0.0060874103,1.5074712,2.0,-2.0,0.83506936,0.00031466782,-2.0,2.0,0.0066351593,2.0,-2.0,-2.0,2.0,-0.67443633,2.0,-2.0,0.8553304,-2.0,-2.0,2.0,-2.0,2.0,-2.0,-2.0,2.0
2025-07-21 09:00:30.806,2.2600000000000016,2260,113,-0.042500667,-0.16950655,-0.13975148,0.020802515,-0.06242762,0.044031598,0.0,0.0,0.0,-0.024729779,0.1587261,-0.19556525,-0.26018277,0.117073014,-0.23827255,-0.35770625,0.39799985,-0.056155447,0.3246371,-0.3838429,-0.054452054,0.3257577,-0.09724358,0.17321894,-0.025533473,-0.056832038,-0.20108876,-0.052302767,-0.079558335,-0.107534334,-0.0019186875,-0.022789363,-0.058061574,0.08120086,-0.67443633,2.0,-2.0,0.8553304,-2.0,-2.0,2.0,-2.0,2.0,-2.0,-2.0,2.0,2.0,1.7923666,-2.0,-0.7496341,2.0,-2.0,2.0,-2.0,2.0,-2.0,-2.0,2.0
2025-07-21 09:00:30.826,2.2800000000000016,2280,114,0.13265304,-0.11265188,-0.0754153,-0.004105033,0.019460322,-0.00096083584,0.0,0.0,0.0,-0.022440959,0.17945403,-0.13300277,-0.27391538,0.069619946,-0.25927848,-0.35218453,0.39008775,-0.097214185,0.31615728,-0.3698554,-0.108228214,0.31475452,0.0920615,0.23170891,0.048975386,-0.1511285,0.0056292717,0.033617835,-0.05922264,-0.14075348,-0.016387962,0.04717271,-0.119975545,0.01017217,2.0,1.7923666,-2.0,-0.7496341,2.0,-2.0,2.0,-2.0,2.0,-2.0,-2.0,2.0,2.0,-2.0,-2.0,-0.05864036,1.8900422,-2.0,2.0,-0.27557173,2.0,-2.0,2.0,2.0
2025-07-21 09:00:30.846,2.3000000000000016,2300,115,0.008920297,0.078809954,0.05168153,-0.057475153,-0.06216087,-0.047394793,1.5,0.0,0.0,-0.020009808,0.22039188,-0.11183626,-0.28962773,0.06125236,-0.2342575,-0.36279532,0.39544073,-0.09676174,0.32757717,-0.3733535,-0.095518366,0.32519668,0.028438946,-0.064203605,-0.060802802,-0.060446925,0.11357114,-0.024939377,-0.021992395,-0.057126034,0.022343345,-0.003068861,0.079532966,0.04695773,2.0,-2.0,-2.0,-0.05864036,1.8900422,-2.0,2.0,-0.27557173,2.0,-2.0,2.0,2.0,2.0,-2.0,-1.8798542,-0.21297759,2.0,1.4629987,-2.0,2.0,2.0,-2.0,2.0,1.8190852
2025-07-21 09:00:30.869,2.3200000000000016,2320,116,-0.34410027,0.36478844,0.20570847,-0.008315249,-0.0048319194,0.03163074,1.5,0.0,0.0,-0.019737987,0.23446809,-0.19954632,-0.2830665,0.04639771,-0.19623727,-0.31160182,0.38861144,-0.06260356,0.30360678,-0.38334876,-0.0201497,0.30966103,-0.0122007625,-0.34514418,-0.04276885,-0.025896516,0.1285354,0.23444647,-0.022102496,0.17719686,-0.0060508344,-0.016504407,0.33393398,-0.014869907,2.0,-2.0,-1.8798542,-0.21297759,2.0,1.4629987,-2.0,2.0,2.0,-2.0,2.0,1.8190852,2.0,-2.0,2.0,-0.629373,2.0,-2.0,-2.0,-2.0,2.0,-2.0,-2.0,-2.0
2025-07-21 09:00:30.886,2.3400000000000016,2340,117,-0.39529714,-0.26351687,0.10311173,-0.026386384,0.00046064152,-0.024750344,1.5,0.0,0.0,-0.022451812,0.25042915,-0.3185988,-0.18568027,0.0052049896,-0.13185349,-0.30092543,0.34593862,-0.048359968,0.3234878,-0.3796706,0.03782654,0.21241902,0.060921777,-0.2345636,0.22083299,-0.0022787799,0.12863725,-0.03808678,-0.18799339,-0.03415461,-0.020638447,-0.037909646,-0.055165406,-0.1729918,2.0,-2.0,2.0,-0.629373,2.0,-2.0,-2.0,-2.0,2.0,-2.0,-2.0,-2.0,2.0,-1.8777624,2.0,0.5387257,2.0,-2.0,-2.0,2.0,-2.0,-1.953044,2.0,0.5297225
2025-07-21 09:00:30.907,2.3600000000000017,2360,118,-0.300355,0.14231828,0.07657171,-0.003970389,0.026779477,0.04205173,1.5,0.0,0.0,-0.025105435,0.2622374,-0.4010056,-0.1091648,0.014599502,-0.059510272,-0.32481447,0.30987358,0.023241602,0.21416177,-0.37218803,0.05646618,0.17861083,0.046360817,-0.17855093,0.25487396,-0.013890118,0.18922362,0.039171785,-0.17767888,0.27245587,-0.30758038,0.033098824,0.12614834,-0.009534398,2.0,-1.8777624,2.0,0.5387257,2.0,-2.0,-2.0,2.0,-2.0,-1.953044,2.0,0.5297225,2.0,2.0,2.0,-2.0,2.0,-2.0,-2.0,-1.1621958,-2.0,0.25541514,-0.8791987,2.0
2025-07-21 09:00:30.927,2.3800000000000017,2380,119,0.15064159,-0.17476717,0.14456385,0.026886271,0.038970377,0.015402025,1.5,0.0,0.0,-0.02692454,0.27425882,-0.40964505,-0.04068312,-0.021800483,0.033461303,-0.32230872,0.25507033,0.08201531,0.13335215,-0.37643552,0.07923931,0.19325316,0.06612788,0.12735264,0.17164752,-0.13523507,0.28575745,0.00046045898,-0.21915315,0.02134344,-0.13311855,0.033166677,-2.2504995e-05,0.01949999,2.0,2.0,2.0,-2.0,2.0,-2.0,-2.0,-1.1621958,-2.0,0.25541514,-0.8791987,2.0,2.0,2.0,2.0,-2.0,2.0,-2.0,-1.2505953,2.0,-2.0,2.0,-2.0,2.0
2025-07-21 09:00:30.947,2.4000000000000017,2400,120,0.6540258,0.14219247,-0.035703517,-0.040567365,0.027027842,0.038727604,1.5,0.0,0.0,-0.029064873,0.29843596,-0.34258294,0.022641245,-0.08677588,0.16636303,-0.32068714,0.16393027,0.12514505,0.05190451,-0.32643253,0.05168832,0.21811649,0.07577876,0.20281048,0.1932337,-0.117467485,0.2672475,0.021292334,-0.16199924,0.25972244,-0.1127663,0.20732966,-0.06849236,0.04480244,2.0,2.0,2.0,-2.0,2.0,-2.0,-1.2505953,2.0,-2.0,2.0,-2.0,2.0,1.2114638,2.0,2.0,-2.0,-2.0,-2.0,2.0,2.0,-2.0,2.0,-2.0,2.0
2025-07-21 09:00:30.967,2.4200000000000017,2420,121,0.58479327,0.37281,-0.09197522,0.023302078,-0.081109375,0.04082999,1.5,0.0,0.0,-0.029950287,0.2969595,-0.22227997,0.05179783,-0.12715244,0.22401708,-0.32179248,0.18150264,0.23677476,-0.008749578,-0.24696253,-0.0028820105,0.23475567,0.034790456,0.07298197,-0.0042478014,-0.15825398,-0.098484986,0.008362252,0.04924538,0.2644912,-0.15792005,0.1813639,-0.07825133,-0.0099461675,1.2114638,2.0,2.0,-2.0,-2.0,-2.0,2.0,2.0,-2.0,2.0,-2.0,2.0,-0.4053837,2.0,2.0,-2.0,-2.0,-1.7390436,2.0,-2.0,-2.0,2.0,0.12223444,2.0
2025-07-21 09:00:30.987,2.4400000000000017,2440,122,0.07265091,0.22178264,0.01359303,0.022706311,-0.08899935,0.0155263,1.5,0.0,0.0,-0.02902512,0.31468466,-0.19415207,0.077442765,-0.1576115,0.1424164,-0.30296162,0.20466514,0.27353573,-0.051463783,-0.18724196,-0.02263937,0.241924,0.04114698,0.11909777,0.03939073,-0.13029097,-0.2028999,-0.04281505,0.11455157,0.01167682,-0.08305711,0.14343743,0.086396,0.05896728,-0.4053837,2.0,2.0,-2.0,-2.0,-1.7390436,2.0,-2.0,-2.0,2.0,0.12223444,2.0,2.0,2.0,2.0,-2.0,-2.0,1.7171801,2.0,-2.0,-2.0,0.05844485,-2.0,2.0
2025-07-21 09:00:31.008,2.4600000000000017,2460,123,0.049667906,0.1794059,-0.1884322,0.019055305,-0.087389,0.0020246606,1.5,0.0,0.0,-0.027958956,0.33229566,-0.18465878,0.10466408,-0.18601197,0.019930908,-0.21240184,0.23041761,0.21207039,-0.11141942,-0.17121135,-0.008065996,0.2599856,0.11286076,0.11778173,0.042515796,-0.0057395143,-0.34608614,0.2925388,0.09834136,-0.2692049,-0.082119465,0.009362921,-0.056121543,0.09334903,2.0,2.0,2.0,-2.0,-2.0,1.7171801,2.0,-2.0,-2.0,0.05844485,-2.0,2.0,2.0,2.0,-2.0,-2.0,-2.0,2.0,2.0,-2.0,-2.0,0.69441444,2.0,2.0
2025-07-21 09:00:31.027,2.4800000000000018,2480,124,0.020228526,0.3013518,-0.0004076341,0.11913377,-0.03265761,0.046081033,1.5,0.0,0.0,-0.025674103,0.3415835,-0.119255014,0.0383071,-0.22586091,-0.13101849,-0.11767709,0.25407347,0.079418816,-0.13177644,-0.14523529,0.022974765,0.2782843,0.08326055,0.2759597,-0.17699073,0.0067822514,-0.31143382,0.284932,0.10239659,-0.35059112,-0.032070253,0.025586912,0.16696599,-0.041634984,2.0,2.0,-2.0,-2.0,-2.0,2.0,2.0,-2.0,-2.0,0.69441444,2.0,2.0,2.0,2.0,-2.0,-2.0,-2.0,2.0,-0.1722168,-1.3698007,2.0,-0.38782012,2.0,2.0
2025-07-21 09:00:31.047,2.5000000000000018,2500,125,-0.12657546,-0.26330194,0.06331221,0.05830264,-0.108449124,-0.015913099,1.5,0.0,0.0,-0.02397145,0.35242137,-0.018455531,-0.026629742,-0.25128588,-0.2590548,-0.058863517,0.22890432,-0.023187213,-0.0794402,-0.12772697,0.102045804,0.27746758,0.06704289,0.32442805,-0.16347495,-0.030580852,-0.33452427,0.18199308,-0.14650816,-0.25405526,0.26081058,0.07046294,0.2149369,0.023768969,2.0,2.0,-2.0,-2.0,-2.0,2.0,-0.1722168,-1.3698007,2.0,-0.38782012,2.0,2.0,2.0,-2.0,-2.0,-2.0,2.0,2.0,-2.0,2.0,2.0,-1.9795197,2.0,2.0
2025-07-21 09:00:31.067,2.520000000000002,2520,126,-0.6171866,-0.728052,0.020318232,0.035453524,0.017835286,-0.044711657,1.5,0.0,0.0,-0.02378933,0.3438488,0.038443603,-0.0715486,-0.25777796,-0.30581355,0.0051170443,0.16431269,-0.041885056,-0.02330685,-0.15898693,0.21734583,0.28095347,0.030757181,0.026804699,-0.09295162,-0.09407493,-0.002488396,0.0809555,-0.17581761,-0.06300025,0.056033436,-0.03132556,0.34249717,0.021901706,2.0,-2.0,-2.0,-2.0,2.0,2.0,-2.0,2.0,2.0,-1.9795197,2.0,2.0,2.0,-2.0,-1.9490435,-2.0,2.0,2.0,-2.0,2.0,2.0,-2.0,-2.0,-2.0
2025-07-21 09:00:31.087,2.540000000000002,2540,127,-0.5136704,-0.64135945,0.00074417435,0.006877989,0.05007615,-0.023788998,1.5,0.0,0.0,-0.024326662,0.3420418,-0.03578748,-0.11702383,-0.27730182,-0.2369879,0.047131486,0.08259445,-0.017671477,0.017625377,-0.18965888,0.2812724,0.19285095,0.027273856,-0.25955576,-0.098862216,-0.14093684,0.047282852,0.024125338,-0.19291806,0.17132662,0.078787334,-0.12693276,0.06225882,-0.27765572,2.0,-2.0,-1.9490435,-2.0,2.0,2.0,-2.0,2.0,2.0,-2.0,-2.0,-2.0,2.0,-2.0,2.0,0.6879466,2.0,2.0,-2.0,-2.0,2.0,-2.0,-2.0,-2.0
2025-07-21 09:00:31.107,2.560000000000002,2560,128,-0.32535967,-0.34439805,0.008196364,-0.07538842,0.09404122,0.018791774,1.5,0.0,0.0,-0.02399348,0.3392818,-0.17819479,-0.049437907,-0.3166853,-0.20623979,0.08701247,0.021502418,0.0023509262,0.07570609,-0.22015418,0.23209186,0.11287666,0.003986417,-0.26649794,0.20248365,-0.011325969,0.014870082,0.0690389,-0.15041068,0.07672704,0.18949932,-0.014834984,-0.24105164,-0.2590362,2.0,-2.0,2.0,0.6879466,2.0,2.0,-2.0,-2.0,2.0,-2.0,-2.0,-2.0,2.0,-2.0,2.0,-2.0,2.0,0.73622936,-1.6417292,1.7574755,2.0,-2.0,-0.35393378,-2.0
2025-07-21 09:00:31.128,2.580000000000002,2580,129,-0.026155552,-0.08069616,-0.11786125,-0.10728199,0.063789874,-0.0033857631,1.5,0.0,0.0,-0.024153663,0.35282692,-0.27661204,0.018452171,-0.332232,-0.17878048,0.083290964,-0.007720474,0.03741775,0.10302751,-0.25314662,0.19258216,0.037024733,-0.006527948,-0.3040152,0.2025971,-0.032485683,0.05385805,-0.056359224,-0.04623514,0.21229757,0.07303166,-0.10340435,0.02874685,-0.2029933,2.0,-2.0,2.0,-2.0,2.0,0.73622936,-1.6417292,1.7574755,2.0,-2.0,-0.35393378,-2.0,2.0,-1.2874571,2.0,-2.0,2.0,-0.96879154,2.0,-2.0,2.0,-2.0,-2.0,-2.0
2025-07-21 09:00:31.147,2.600000000000002,2600,130,0.35702592,0.028457073,0.04915179,-0.110047504,0.102439426,-0.026518486,1.5,0.0,0.0,-0.023126032,0.35674968,-0.34188926,0.058430195,-0.327438,-0.11219139,0.04250208,0.023227453,0.044609733,0.13934778,-0.25398773,0.1330741,-0.025507327,0.001601215,-0.06820136,0.19002198,0.0025419756,0.20016398,-0.14942092,0.16236913,-0.021328442,0.13258044,-0.09573554,-0.2759741,-0.08282439,2.0,-1.2874571,2.0,-2.0,2.0,-0.96879154,2.0,-2.0,2.0,-2.0,-2.0,-2.0,2.0,2.0,2.0,-2.0,2.0,-2.0,2.0,2.0,-2.0,1.5527368,2.0,2.0
2025-07-21 09:00:31.168,2.620000000000002,2620,131,0.3105484,0.44162533,0.11025878,-0.04254513,0.0457547,0.01575999,1.5,0.0,0.0,-0.02180814,0.35270602,-0.31945518,0.11575322,-0.32863298,0.0135766575,-0.018522425,0.06267305,0.11203638,0.0714565,-0.21195716,0.1186323,0.028366413,-0.07336851,0.20035271,0.036920834,-0.029878935,0.2979704,-0.20553388,0.11774452,0.21009383,-0.2472276,0.26601166,0.10496298,0.1992924,2.0,2.0,2.0,-2.0,2.0,-2.0,2.0,2.0,-2.0,1.5527368,2.0,2.0,2.0,2.0,2.0,-2.0,-2.0,-2.0,2.0,1.6987585,-2.0,2.0,-2.0,2.0
2025-07-21 09:00:31.190,2.640000000000002,2640,132,0.8796163,0.5404815,-0.043396983,-0.041407198,0.012726763,-0.0018976672,1.5,0.0,0.0,-0.023034975,0.35004312,-0.22386046,0.1486428,-0.33344266,0.052509405,-0.06689169,0.12321771,0.20868067,0.012005081,-0.12934043,0.1047913,0.06735133,-0.059667177,0.3492952,0.114017785,-0.047464944,-0.09386141,-0.17699783,0.16776821,0.22215503,-0.1506267,0.14701417,-0.07067544,0.07598418,2.0,2.0,2.0,-2.0,-2.0,-2.0,2.0,1.6987585,-2.0,2.0,-2.0,2.0,1.0932548,2.0,2.0,-2.0,-2.0,-1.4841746,2.0,-2.0,-2.0,2.0,-0.060428374,2.0
2025-07-21 09:00:31.208,2.660000000000002,2660,133,0.279192,0.15313563,-0.06425029,-0.013252863,-0.08194301,0.03734301,1.5,0.0,0.0,-0.022776285,0.3700973,-0.1554278,0.14670523,-0.3483861,0.0032080812,-0.10023157,0.15114127,0.22866757,-0.03416919,-0.056706496,0.0932568,0.121255465,0.057092845,0.097244315,-0.031548962,0.0053173453,-0.2521001,-0.02133342,0.09408648,-0.09599153,-0.19721076,0.17536023,-0.09537293,0.06275746,1.0932548,2.0,2.0,-2.0,-2.0,-1.4841746,2.0,-2.0,-2.0,2.0,-0.060428374,2.0,2.0,2.0,2.0,-2.0,-2.0,2.0,2.0,-2.0,-2.0,0.98337305,2.0,2.0
2025-07-21 09:00:31.228,2.680000000000002,2680,134,-0.14881498,0.091071844,-0.032459583,-0.0031351557,-0.08393173,0.021535447,1.5,0.0,0.0,-0.021122908,0.38950402,-0.0977336,0.1684581,-0.34566835,-0.12580541,-0.039625168,0.19486512,0.16841866,-0.085359074,-0.04180285,0.12053908,0.1378326,0.061354306,0.19603498,-0.026667813,-0.036758773,-0.33263758,0.14974321,0.14601071,-0.19626863,-0.10598171,0.107090354,0.17636533,0.012754494,2.0,2.0,2.0,-2.0,-2.0,2.0,2.0,-2.0,-2.0,0.98337305,2.0,2.0,2.0,2.0,-2.0,-2.0,-2.0,2.0,2.0,-2.0,-0.5524714,-0.39275932,1.4236795,2.0
2025-07-21 09:00:31.253,2.700000000000002,2700,135,-0.19740018,-0.077166215,0.02016647,-0.0033155128,-0.013644825,0.0054822727,1.5,0.0,0.0,-0.0196468,0.38527688,0.0024658288,0.09527467,-0.3495242,-0.2465581,0.023628514,0.22164525,0.016675955,-0.0958806,-0.043049365,0.20166475,0.1749367,-0.04781952,0.37620473,-0.19688138,0.006479387,-0.23552507,0.151378,0.020456713,-0.4264095,0.041563224,0.027397418,0.24627663,0.051753033,2.0,2.0,-2.0,-2.0,-2.0,2.0,2.0,-2.0,-0.5524714,-0.39275932,1.4236795,2.0,2.0,-2.0,-2.0,-2.0,-2.0,2.0,-2.0,2.0,2.0,-0.50767314,2.0,2.0
2025-07-21 09:00:31.268,2.720000000000002,2720,136,-0.3106372,-0.364362,-0.0015642985,-0.05864132,-0.021439075,0.0062637404,1.5,0.0,0.0,-0.019003082,0.3731823,0.045338392,0.037484974,-0.3618409,-0.3582173,0.062241424,0.20430727,-0.05689459,-0.033372752,-0.045404047,0.30154,0.18214425,-0.01704722,0.047560062,-0.20360242,0.00029086048,-0.2263497,0.16808683,-0.048267752,0.00055298564,0.10889471,-0.06046368,0.30682695,0.10292363,2.0,-2.0,-2.0,-2.0,-2.0,2.0,-2.0,2.0,2.0,-0.50767314,2.0,2.0,2.0,-2.0,-2.0,-2.0,2.0,2.0,-1.6681609,2.0,2.0,-1.2752446,-2.0,-2.0
2025-07-21 09:00:31.288,2.740000000000002,2740,137,-0.25954574,-0.25954902,-0.1236395,-0.037481766,0.013475883,0.041731134,1.5,0.0,0.0,-0.019417059,0.37887925,0.013183103,-0.02084588,-0.37227276,-0.37656483,0.10519425,0.16406731,-0.04052147,0.0032536206,-0.09127123,0.34215733,0.117641225,-0.046656214,-0.18187365,-0.15005602,-0.087902054,0.015399721,0.13223822,-0.12645659,0.11371673,0.1359415,-0.04122193,-0.03274441,-0.24235757,2.0,-2.0,-2.0,-2.0,2.0,2.0,-1.6681609,2.0,2.0,-1.2752446,-2.0,-2.0,2.0,-2.0,1.917974,-2.0,2.0,2.0,-1.6187248,-2.0,2.0,-2.0,-2.0,-2.0
2025-07-21 09:00:31.308,2.760000000000002,2760,138,-0.029244643,-0.3255065,0.0025094727,-0.063671924,0.044843875,-0.033885494,1.5,0.0,0.0,-0.01752999,0.36129174,-0.1234886,0.018295167,-0.371037,-0.33863035,0.11236385,0.12190637,-0.027486678,0.06589234,-0.12301056,0.30409318,0.054730944,-0.031511415,-0.37246248,0.16173945,-0.03465321,0.028972676,0.007840827,-0.09959147,-0.03407614,0.1737664,-0.15611565,-0.14589164,-0.19971286,2.0,-2.0,1.917974,-2.0,2.0,2.0,-1.6187248,-2.0,2.0,-2.0,-2.0,-2.0,2.0,-2.0,2.0,-1.6486863,2.0,2.0,2.0,2.0,2.0,-2.0,1.1890866,-2.0
2025-07-21 09:00:31.328,2.780000000000002,2780,139,-0.12291125,0.4075105,0.036754895,-0.04931555,0.054868117,0.042096995,1.5,0.0,0.0,-0.01644321,0.37005255,-0.23323351,0.06478792,-0.37972227,-0.29748976,0.14149973,0.15825075,0.028700953,0.102425076,-0.16844556,0.33083856,-0.015222742,-0.04753632,-0.2449406,0.07969728,-0.03718688,0.20703173,0.022377728,0.06615865,0.2645808,0.08669901,-0.13774906,0.15923966,-0.19343525,2.0,-2.0,2.0,-1.6486863,2.0,2.0,2.0,2.0,2.0,-2.0,1.1890866,-2.0,2.0,-2.0,2.0,-1.5382341,2.0,-1.4956181,-0.55727315,-2.0,2.0,-2.0,-2.0,-2.0
2025-07-21 09:00:31.348,2.800000000000002,2800,140,0.042420585,-0.1460928,0.038624782,-0.046583205,0.045110185,-0.037472647,1.5,0.0,0.0,-0.017256107,0.3485238,-0.3540935,0.11425932,-0.36465922,-0.21286385,0.07564165,0.16405861,0.05895665,0.12797002,-0.18619287,0.28803706,-0.06211865,0.02793499,-0.16732231,0.09922909,0.041504454,0.17427324,-0.100736685,-0.023632172,0.020251898,0.038963594,-0.013938504,-0.26017407,-0.11439663,2.0,-2.0,2.0,-1.5382341,2.0,-1.4956181,-0.55727315,-2.0,2.0,-2.0,-2.0,-2.0,2.0,-0.84539825,2.0,-0.034317493,2.0,-2.0,-0.6750175,2.0,-2.0,-1.8923076,2.0,-2.0
2025-07-21 09:00:31.369,2.820000000000002,2820,141,-0.10382304,0.23293057,-0.09430875,-0.055753235,0.01575207,0.03394942,1.5,0.0,0.0,-0.018406956,0.3534578,-0.3724334,0.1388086,-0.3403962,-0.09844542,0.0115226135,0.12891027,0.15353094,0.08117586,-0.2243834,0.2900456,-0.10798495,-0.032956753,-0.03844955,0.02200107,0.11895945,0.3083997,-0.13583548,-0.05021308,0.31565288,-0.17091368,-0.06452171,0.16552119,-0.13333723,2.0,-0.84539825,2.0,-0.034317493,2.0,-2.0,-0.6750175,2.0,-2.0,-1.8923076,2.0,-2.0,2.0,2.0,2.0,-2.0,2.0,-2.0,0.9953444,-0.81262195,-2.0,-1.0447369,-2.0,-1.4967622
2025-07-21 09:00:31.389,2.840000000000002,2840,142,0.038232155,0.044578485,0.046243105,0.017966101,0.0117574055,-0.036185212,1.5,0.0,0.0,-0.018011408,0.35455817,-0.33326906,0.16765715,-0.35047913,0.036719117,-0.060575876,0.13912743,0.23317353,0.0043882416,-0.21586992,0.2560711,-0.12406075,0.066739164,0.19414034,-0.025154535,-0.05837267,0.3739938,-0.18537216,0.0062697725,0.113017276,-0.15784983,0.024040025,-0.15466906,-0.070630476,2.0,2.0,2.0,-2.0,2.0,-2.0,0.9953444,-0.81262195,-2.0,-1.0447369,-2.0,-1.4967622,2.0,2.0,2.0,-2.0,-2.0,-2.0,2.0,2.0,-2.0,2.0,-2.0,2.0
2025-07-21 09:00:31.409,2.860000000000002,2860,143,0.13481976,0.18368132,-0.19492365,0.022493843,0.016217606,-0.034652494,1.5,0.0,0.0,-0.018004311,0.38035777,-0.27080745,0.1819772,-0.34496644,0.10314152,-0.101316266,0.17034927,0.3366598,-0.049702197,-0.1657105,0.18372728,-0.06962618,0.0050272965,0.18064842,0.054091867,0.019490357,0.06565105,-0.11819515,0.052741673,0.28931352,-0.18280637,0.136375,-0.2107454,0.20972516,2.0,2.0,2.0,-2.0,-2.0,-2.0,2.0,2.0,-2.0,2.0,-2.0,2.0,-1.5152916,2.0,2.0,-2.0,-2.0,-2.0,2.0,-2.0,-2.0,2.0,2.0,2.0
2025-07-21 09:00:31.429,2.880000000000002,2880,144,-0.09072665,0.043478977,-0.04355106,0.043733478,0.017885804,0.023752922,1.5,0.0,0.0,-0.016172592,0.37669045,-0.20949793,0.19561946,-0.33886433,0.049387522,-0.14127772,0.20268683,0.3525956,-0.08842928,-0.13397038,0.1986212,-0.004248393,0.0045493776,0.07223149,0.075729564,-0.050752178,-0.2038544,-0.115960434,0.13544247,-0.11715982,-0.103165105,0.13556375,0.0814463,0.19309556,-1.5152916,2.0,2.0,-2.0,-2.0,-2.0,2.0,-2.0,-2.0,2.0,2.0,2.0,2.0,2.0,2.0,-2.0,-2.0,1.0929266,2.0,-2.0,-2.0,2.0,-2.0,2.0
2025-07-21 09:00:31.449,2.900000000000002,2900,145,0.14679071,-0.033579584,-0.07728651,0.031093128,0.03720179,-0.0054263505,1.5,0.0,0.0,-0.014295202,0.38289475,-0.17155276,0.20538388,-0.34189677,-0.0760823,-0.0932276,0.22188312,0.26220348,-0.13102391,-0.1107099,0.21964136,0.044503413,0.0104702795,0.08504218,-0.05210521,-0.06518866,-0.3495516,0.118514955,0.033609986,-0.3553525,-0.124512516,0.09680507,0.06222871,0.1883711,2.0,2.0,2.0,-2.0,-2.0,1.0929266,2.0,-2.0,-2.0,2.0,-2.0,2.0,2.0,2.0,-2.0,-2.0,-2.0,2.0,2.0,-1.8653721,-2.0,1.1195987,2.0,2.0
2025-07-21 09:00:31.469,2.920000000000002,2920,146,0.07925004,0.06556947,0.05339091,-0.02744903,0.018684462,0.04566449,1.5,0.0,0.0,-0.013225771,0.38858402,-0.07116815,0.13195126,-0.34017956,-0.2080766,-0.008459348,0.23944293,0.12959683,-0.14987282,-0.06730264,0.2785814,0.082829826,0.06782444,0.21648459,-0.16310428,0.04012575,-0.24342886,0.13928428,-0.020004064,-0.38394877,-0.11047786,0.10914201,0.26078293,0.04173499,2.0,2.0,-2.0,-2.0,-2.0,2.0,2.0,-1.8653721,-2.0,1.1195987,2.0,2.0,2.0,0.72268945,-2.0,-2.0,-2.0,2.0,-1.8348184,2.0,2.0,1.4887662,-0.85286593,2.0
2025-07-21 09:00:31.489,2.940000000000002,2940,147,0.3200172,-0.05123048,-0.06668117,0.006823559,-0.06877382,-0.03608743,1.5,0.0,0.0,-0.0139168445,0.40173227,-0.007622201,0.039816745,-0.36185867,-0.28921452,0.033783276,0.20283854,0.032256693,-0.1050817,-0.023332162,0.31213832,0.12655263,0.0666533,0.12693618,-0.09920312,-0.06856804,-0.12673704,0.17956986,-0.052493773,-0.009301242,0.10389768,0.12815486,-0.079840064,0.12935638,2.0,0.72268945,-2.0,-2.0,-2.0,2.0,-1.8348184,2.0,2.0,1.4887662,-0.85286593,2.0,2.0,-2.0,-2.0,-2.0,2.0,2.0,-1.2437801,0.892208,2.0,-2.0,2.0,2.0
2025-07-21 09:00:31.509,2.960000000000002,2960,148,-0.21932775,-0.080258146,-0.016883306,-0.015679121,0.016152268,0.032072276,1.5,0.0,0.0,-0.0149175655,0.39487773,0.03086611,-0.013308003,-0.37081504,-0.2968568,0.07509027,0.15433145,0.05200337,-0.036441218,-0.055039078,0.3527121,0.1590244,-0.052766412,0.025907446,-0.07149213,0.027457012,0.039808378,0.03318043,-0.2033532,0.15449375,0.18360649,-0.13385837,0.20333092,0.1389528,2.0,-2.0,-2.0,-2.0,2.0,2.0,-1.2437801,0.892208,2.0,-2.0,2.0,2.0,2.0,-2.0,0.9421435,-1.4499773,2.0,2.0,-2.0,-2.0,2.0,-2.0,-2.0,-2.0
2025-07-21 09:00:31.529,2.980000000000002,2980,149,0.04944061,-0.20717168,-0.05007316,-0.042565648,-0.006114089,-0.0151013145,1.5,0.0,0.0,-0.0138985,0.37633255,-0.044991545,0.019287251,-0.37586716,-0.26798955,0.10128358,0.10887926,0.061155286,0.022033498,-0.104478434,0.37482646,0.10798494,0.016986322,-0.21785432,0.04069646,0.008432955,0.10430956,0.05536217,-0.10545792,-0.05692866,0.12310354,-0.043412477,-0.14856388,-0.21995644,2.0,-2.0,0.9421435,-1.4499773,2.0,2.0,-2.0,-2.0,2.0,-2.0,-2.0,-2.0,2.0,-2.0,2.0,-1.4778618,2.0,2.0,0.81898224,1.2493023,2.0,-2.0,-0.5163616,-2.0
2025-07-21 09:00:31.550,3.000000000000002,3000,150,0.019896703,0.25318044,0.0035528291,-0.020919094,0.012149233,-0.02186508,1.5,0.0,0.0,-0.013202639,0.37003312,-0.17695563,0.055189002,-0.37469065,-0.2353919,0.13003542,0.1098408,0.106621936,0.05818694,-0.1553735,0.30651686,0.03804786,-0.0054990896,-0.38121575,0.13035232,0.03655281,0.20944248,0.08527447,0.03414939,0.15721399,0.039842743,-0.08556001,-0.1830006,-0.10451133,2.0,-2.0,2.0,-1.4778618,2.0,2.0,0.81898224,1.2493023,2.0,-2.0,-0.5163616,-2.0,2.0,-1.0181081,2.0,-2.0,2.0,-2.0,2.0,-2.0,2.0,-2.0,-2.0,-2.0
2025-07-21 09:00:31.570,3.0200000000000022,3020,151,0.03110474,-0.06291435,0.16202348,0.01990311,0.011243305,-0.037332214,1.5,0.0,0.0,-0.013346926,0.36961016,-0.23174074,0.09596339,-0.3565005,-0.11514747,0.069997154,0.1541745,0.14187814,0.1153313,-0.18464269,0.16816318,-0.03778645,-0.036828555,-0.12120522,0.043787606,-0.046570927,0.32563844,-0.1769123,0.029794397,-0.088485785,0.14356498,-0.097026415,-0.41490784,-0.14446382,2.0,-1.0181081,2.0,-2.0,2.0,-2.0,2.0,-2.0,2.0,-2.0,-2.0,-2.0,2.0,2.0,2.0,-1.938853,1.3240926,-2.0,1.646894,2.0,-2.0,2.0,2.0,2.0
2025-07-21 09:00:31.590,3.0400000000000023,3040,152,-0.11496249,0.22719963,0.18828504,0.031190613,0.021404188,0.033120383,1.5,0.0,0.0,-0.014679304,0.3866452,-0.22230767,0.13574407,-0.3698593,-0.008273683,-0.0024321629,0.17007634,0.20490946,0.05948185,-0.15370041,0.103171214,0.010940293,-0.057329815,0.08399616,0.08701962,-0.04212408,0.25927114,-0.07459041,0.0839781,0.32717934,-0.19611289,0.15063109,0.026902007,0.07191967,2.0,2.0,2.0,-1.938853,1.3240926,-2.0,1.646894,2.0,-2.0,2.0,2.0,2.0,1.2074176,2.0,2.0,-2.0,-2.0,-2.0,2.0,-2.0,-2.0,2.0,-2.0,2.0
2025-07-21 09:00:31.610,3.0600000000000023,3060,153,0.08190515,-0.01520083,0.021599835,-0.008194658,0.0058436934,0.010515895,1.5,0.0,0.0,-0.018065508,0.37220758,-0.18693696,0.16184546,-0.35469648,0.030109555,-0.052767266,0.20698787,0.243247,0.0004705252,-0.104793206,0.10763987,0.07397727,-0.023423651,0.09713878,0.1035473,-0.022182982,-0.006465858,-0.1954959,0.10330578,-0.04826853,-0.122985244,0.15878353,0.06369599,0.08315019,1.2074176,2.0,2.0,-2.0,-2.0,-2.0,2.0,-2.0,-2.0,2.0,-2.0,2.0,2.0,2.0,2.0,-2.0,-2.0,-1.2872561,2.0,-2.0,-2.0,2.0,-2.0,2.0
2025-07-21 09:00:31.630,3.0800000000000023,3080,154,0.24636616,-0.14745489,-0.024169775,0.004594649,-0.08540315,-0.009458403,1.5,0.0,0.0,-0.020316573,0.39108473,-0.14481872,0.16573533,-0.35865757,-0.04432767,-0.078243464,0.2210089,0.15898915,-0.051238652,-0.060933977,0.08322735,0.113393195,0.011763687,0.10445631,-0.018225292,0.07533551,-0.22290085,-0.051322047,0.1261203,-0.24122491,-0.17984977,0.12112201,-0.06756289,0.1277368,2.0,2.0,2.0,-2.0,-2.0,-1.2872561,2.0,-2.0,-2.0,2.0,-2.0,2.0,2.0,2.0,2.0,-2.0,-2.0,2.0,2.0,-2.0,-2.0,0.03207355,2.0,2.0
2025-07-21 09:00:31.650,3.1000000000000023,3100,155,-0.110357575,-0.18682526,-0.06018573,-0.032146685,-0.050927777,0.044205472,1.5,0.0,0.0,-0.02019712,0.3880446,-0.09403721,0.19600745,-0.3661953,-0.18687324,-0.008832934,0.25652376,0.015759252,-0.11191672,-0.05345745,0.13561071,0.13288586,0.057282187,0.11917059,-0.029213443,0.021428743,-0.3447147,0.1848196,-0.023036826,-0.4089246,-0.106415465,-0.030274067,0.18999098,0.030423256,2.0,2.0,2.0,-2.0,-2.0,2.0,2.0,-2.0,-2.0,0.03207355,2.0,2.0,2.0,2.0,-2.0,-2.0,-2.0,2.0,1.2528099,2.0,1.8402029,2.0,0.7719883,2.0
2025-07-21 09:00:31.670,3.1200000000000023,3120,156,0.15162718,0.08221486,-0.012778723,-0.03540107,-0.014191019,0.0012670223,1.5,0.0,0.0,-0.019097228,0.3976447,0.0084602665,0.10466841,-0.36146677,-0.31157374,0.033904843,0.23534183,-0.074392505,-0.055648185,-0.023624148,0.18267764,0.16627495,0.06568118,0.3945018,-0.26484692,0.072368845,-0.30075294,0.07777332,-0.04206037,-0.103303656,0.21007004,0.096502,0.13592738,0.05028862,2.0,2.0,-2.0,-2.0,-2.0,2.0,1.2528099,2.0,1.8402029,2.0,0.7719883,2.0,2.0,-2.0,-2.0,-2.0,1.5235403,2.0,-1.6709614,1.2058841,2.0,-1.3990085,2.0,2.0
2025-07-21 09:00:31.690,3.1400000000000023,3140,157,-0.3009938,-0.054385908,-0.053660177,-0.027488742,-0.07020017,0.011110985,1.5,0.0,0.0,-0.018047268,0.38839093,0.08066039,0.046731442,-0.36289066,-0.31923187,0.07986967,0.18817292,-0.034152735,0.009409186,-0.038241208,0.25166374,0.19028957,0.013247526,0.10138119,-0.11854657,-0.07250053,0.061252173,0.10360823,-0.10823292,0.10048007,0.153127,-0.06293018,0.29048437,0.09791655,2.0,-2.0,-2.0,-2.0,1.5235403,2.0,-1.6709614,1.2058841,2.0,-1.3990085,2.0,2.0,2.0,-2.0,-1.3433511,-2.0,2.0,2.0,-1.76739,-2.0,2.0,-2.0,-1.0331461,-2.0
2025-07-21 09:00:31.710,3.1600000000000024,3160,158,-0.1929999,-0.20511499,0.10993021,-0.04644269,0.041446887,-0.047719613,1.5,0.0,0.0,-0.017230393,0.3699791,0.051242605,0.006373042,-0.3821572,-0.27368394,0.11156059,0.14781906,0.0070317993,0.060282607,-0.09914777,0.29295933,0.1216861,0.009295472,-0.20166735,-0.0751833,0.032139122,0.19335635,0.07165812,-0.14979112,0.044901606,0.056294978,-0.090755,-0.11494016,-0.17024079,2.0,-2.0,-1.3433511,-2.0,2.0,2.0,-1.76739,-2.0,2.0,-2.0,-1.0331461,-2.0,2.0,-2.0,2.0,0.72978693,2.0,2.0,-2.0,2.0,2.0,-2.0,-1.4289579,-2.0
2025-07-21 09:00:31.731,3.1800000000000024,3180,159,-0.12551136,0.15766594,-0.0149499485,-0.03742017,0.032830328,0.01713316,1.5,0.0,0.0,-0.017922679,0.3800292,-0.08544226,0.037188288,-0.374813,-0.22983506,0.12204513,0.116623096,0.055563107,0.097417094,-0.1304594,0.24206711,0.053395588,-0.0036933406,-0.33307505,0.1503831,0.05440264,0.10856263,0.11146433,-0.08767772,0.27361265,0.10665873,-0.022306727,-0.32306492,-0.22920606,2.0,-2.0,2.0,0.72978693,2.0,2.0,-2.0,2.0,2.0,-2.0,-1.4289579,-2.0,2.0,-2.0,2.0,-1.9279326,2.0,-1.0972952,-1.5709355,-2.0,2.0,-2.0,-2.0,-2.0
2025-07-21 09:00:31.750,3.2000000000000024,3200,160,0.19300692,-0.32230797,-0.09800499,-0.06296972,-0.01807914,-0.004415244,1.5,0.0,0.0,-0.01848327,0.36858597,-0.21467365,0.084657446,-0.37494683,-0.14847086,0.08360138,0.057803813,0.08896595,0.13642022,-0.16711804,0.16910394,-0.009776972,-0.03051497,-0.27571213,0.15790485,-0.07374959,0.15514241,-0.13164032,-0.116987474,0.02446874,0.08159437,-0.019801214,-0.26695216,-0.14952582,2.0,-2.0,2.0,-1.9279326,2.0,-1.0972952,-1.5709355,-2.0,2.0,-2.0,-2.0,-2.0,2.0,-2.0,2.0,-0.95300144,2.0,-0.93970466,2.0,2.0,-0.7853468,-2.0,2.0,-2.0
2025-07-21 09:00:31.771,3.2200000000000024,3220,161,-0.19175324,0.13429688,0.1438813,-0.03817077,-0.021860475,-0.031695776,1.5,0.0,0.0,-0.016782265,0.37888035,-0.29965353,0.12162414,-0.35342285,-0.05645933,0.02624954,0.08784061,0.15344536,0.089235134,-0.2014032,0.14776425,-0.052624978,0.015820364,-0.08096811,0.02932564,0.047029264,0.3304667,-0.10199689,0.11897487,0.20638323,-0.076238915,-0.11295937,0.07502299,-0.09640371,2.0,-2.0,2.0,-0.95300144,2.0,-0.93970466,2.0,2.0,-0.7853468,-2.0,2.0,-2.0,2.0,2.0,2.0,-2.0,-1.0467777,-2.0,2.0,2.0,-2.0,0.3551752,-2.0,-1.1623574
2025-07-21 09:00:31.791,3.2400000000000024,3240,162,-0.13566273,0.14952305,-0.10181142,-0.003136616,0.048425417,0.048852876,1.5,0.0,0.0,-0.017294928,0.38917544,-0.29290852,0.14669289,-0.363205,0.010995833,-0.032768745,0.13282391,0.27540353,0.035487816,-0.17421077,0.1316945,-0.07929731,0.005293673,0.056338467,0.10809727,0.047893483,0.09563478,-0.15768826,0.09499402,0.3313791,-0.13590617,0.17356978,-0.14708199,0.02654703,2.0,2.0,2.0,-2.0,-1.0467777,-2.0,2.0,2.0,-2.0,0.3551752,-2.0,-1.1623574,-0.082798555,2.0,2.0,-2.0,-2.0,-2.0,2.0,-2.0,-2.0,2.0,2.0,2.0
2025-07-21 09:00:31.811,3.2600000000000025,3260,163,-0.2244739,0.111671016,0.09316068,-0.070014864,-0.013935783,-0.031352535,1.5,0.0,0.0,-0.018041456,0.38200146,-0.2443976,0.16819304,-0.35865775,0.0107682245,-0.069239095,0.17024744,0.31775698,-0.027200531,-0.12443079,0.14267772,-0.02402108,-0.1133709,0.13057016,0.046406258,0.05886,-0.09388388,-0.034728408,0.09762992,-0.09544993,-0.09602896,0.11282965,0.06693063,0.08724421,-0.082798555,2.0,2.0,-2.0,-2.0,-2.0,2.0,-2.0,-2.0,2.0,2.0,2.0,2.0,2.0,2.0,-2.0,-2.0,0.025088474,2.0,-2.0,-2.0,0.247437,-2.0,2.0
2025-07-21 09:00:31.831,3.2800000000000025,3280,164,0.1158568,0.01062583,-0.097478114,0.025957968,0.008513914,0.01405613,1.5,0.0,0.0,-0.018194694,0.3860095,-0.19185337,0.18673174,-0.3591431,-0.10819202,-0.0683065,0.20638986,0.24399282,-0.07165132,-0.11532316,0.15336587,0.026348298,-0.053016927,0.14432676,0.039535075,-0.042001903,-0.3456661,-0.006279473,0.026283668,-0.34706473,-0.15894496,-0.02713207,0.054184705,0.087192416,2.0,2.0,2.0,-2.0,-2.0,0.025088474,2.0,-2.0,-2.0,0.247437,-2.0,2.0,2.0,2.0,-2.0,-2.0,-2.0,2.0,2.0,-2.0,-2.0,-0.2637098,2.0,2.0
2025-07-21 09:00:31.851,3.3000000000000025,3300,165,0.05321896,0.093674056,0.021416536,0.0055117114,0.05505191,0.010290292,1.5,0.0,0.0,-0.017742677,0.3802724,-0.0707916,0.11053958,-0.35243034,-0.23154789,-0.0062400103,0.2363919,0.08748186,-0.11764673,-0.10801835,0.21650673,0.07430776,-0.046711992,0.3328829,-0.15035382,-0.018455638,-0.30591303,0.13228862,0.088484816,-0.42945778,-0.09386297,0.04688115,0.15369058,0.09432618,2.0,2.0,-2.0,-2.0,-2.0,2.0,2.0,-2.0,-2.0,-0.2637098,2.0,2.0,2.0,-1.2941089,-2.0,-2.0,-2.0,2.0,-1.4150925,2.0,2.0,0.5256518,2.0,2.0
2025-07-21 09:00:31.871,3.3200000000000025,3320,166,0.09221293,-0.029614184,0.029118527,-0.05584969,0.043055404,-0.010247004,1.5,0.0,0.0,-0.017349474,0.36398685,-0.009800781,0.039465193,-0.36105862,-0.32971433,0.0516519,0.18132932,-0.0011127818,-0.069908604,-0.083320364,0.31090513,0.118820556,-0.07785905,0.029726405,-0.11732234,-0.068729386,-0.21446209,0.1358933,-0.17339975,-0.03005253,0.12302484,0.04669129,0.2852977,0.15697235,2.0,-1.2941089,-2.0,-2.0,-2.0,2.0,-1.4150925,2.0,2.0,0.5256518,2.0,2.0,2.0,-2.0,-2.0,-2.0,2.0,2.0,-2.0,2.0,2.0,-0.7651526,-2.0,-2.0
2025-07-21 09:00:31.892,3.3400000000000025,3340,167,-0.11539816,-0.05835881,-0.038590048,-0.013773741,-0.00034905624,0.0051438254,1.5,0.0,0.0,-0.018321102,0.37159285,-0.0724708,-0.024374148,-0.36449522,-0.34330148,0.0779458,0.13525003,0.045328047,0.00061324274,-0.08010472,0.35847077,0.050942555,0.009799758,-0.30335167,-0.12464553,0.0140433675,0.011107391,0.02437912,-0.1614499,0.15380128,0.042165946,0.025451604,0.013465024,-0.11779519,2.0,-2.0,-2.0,-2.0,2.0,2.0,-2.0,2.0,2.0,-0.7651526,-2.0,-2.0,2.0,-2.0,2.0,-0.83915085,2.0,2.0,-2.0,-2.0,2.0,-2.0,-2.0,-2.0
2025-07-21 09:00:31.911,3.3600000000000025,3360,168,0.04068838,-0.14867605,0.0030098932,-0.060218863,0.05375616,0.00935939,1.5,0.0,0.0,-0.017725887,0.35664666,-0.19337507,0.02549942,-0.36981875,-0.316998,0.10841002,0.10644985,0.06175947,0.04038163,-0.12634322,0.2810542,-0.002284412,-0.036071315,-0.24886335,0.10800005,0.062598355,0.142631,0.11610694,-0.07921624,0.10680271,0.17063157,-0.1482165,-0.20108454,-0.18463168,2.0,-2.0,2.0,-0.83915085,2.0,2.0,-2.0,-2.0,2.0,-2.0,-2.0,-2.0,2.0,-2.0,2.0,-1.9265403,2.0,0.083587095,0.7389354,-1.965443,2.0,-2.0,0.5477982,-2.0
2025-07-21 09:00:31.931,3.3800000000000026,3380,169,0.14802684,-0.065443896,0.19581324,-0.04426917,0.0019812523,-0.014202587,1.5,0.0,0.0,-0.017178705,0.3587041,-0.31514406,0.07035351,-0.3794192,-0.24351767,0.08808073,0.114307255,0.0808051,0.102713756,-0.16031721,0.24915439,-0.065888464,0.060375012,-0.24711768,0.029261958,0.016551897,0.24649273,-0.10504241,0.007517498,-0.065915585,0.07600584,-0.15890491,-0.048615932,-0.122265644,2.0,-2.0,2.0,-1.9265403,2.0,0.083587095,0.7389354,-1.965443,2.0,-2.0,0.5477982,-2.0,2.0,-0.74388784,2.0,-0.8652123,2.0,-2.0,-2.0,2.0,-2.0,-2.0,0.15908745,-2.0
2025-07-21 09:00:31.951,3.4000000000000026,3400,170,-0.11870653,0.010102942,0.004992727,-0.061224338,-0.04264669,0.04387991,0.0,0.0,0.0,-0.019091817,0.3619225,-0.3189701,0.103898264,-0.35944515,-0.1460907,0.0136351725,0.08135756,0.15879479,0.031395156,-0.188968,0.22028832,-0.09979602,-0.010326182,-0.04971362,0.16353239,0.034536816,0.37065673,-0.16047832,-0.08860238,0.29499868,-0.11727686,-0.13170595,-0.007428609,-0.08434831,2.0,-0.74388784,2.0,-0.8652123,2.0,-2.0,-2.0,2.0,-2.0,-2.0,0.15908745,-2.0,2.0,2.0,2.0,-2.0,-2.0,-2.0,2.0,2.0,-2.0,1.2826248,-2.0,2.0
2025-07-21 09:00:31.971,3.4200000000000026,3420,171,0.11956839,0.2782408,-0.08138842,-0.06305778,0.0005711138,0.035504013,0.0,0.0,0.0,-0.0200895,0.38164303,-0.2846337,0.1405852,-0.3591387,-0.08479489,-0.0360602,0.10144095,0.28156233,-0.028736178,-0.152125,0.1555566,-0.050847594,0.038558025,0.15242712,0.10470923,-0.027112344,0.11654726,-0.17558704,0.08661861,0.3068981,-0.17841685,0.13765788,-0.1910925,0.23416007,2.0,2.0,2.0,-2.0,-2.0,-2.0,2.0,2.0,-2.0,1.2826248,-2.0,2.0,-2.0,2.0,2.0,-2.0,-2.0,-2.0,2.0,-2.0,-2.0,2.0,-2.0,2.0
2025-07-21 09:00:31.992,3.4400000000000026,3440,172,0.23902483,-0.040115435,-0.16541897,-0.00040709405,-0.0181831,-0.048304293,0.0,0.0,0.0,-0.01892695,0.39157212,-0.24965248,0.15212339,-0.3533546,-0.10864588,-0.08743186,0.1329402,0.3074122,-0.06511954,-0.10272368,0.11395797,0.01423168,0.060316138,0.04446566,0.07960394,-0.057748403,-0.1294382,-0.16712347,0.02617711,-0.07150012,-0.13649024,0.09366447,-0.040400956,0.13460049,-2.0,2.0,2.0,-2.0,-2.0,-2.0,2.0,-2.0,-2.0,2.0,-2.0,2.0,-2.0,2.0,-0.3791235,-2.0,-2.0,-0.57581383,2.0,-1.1159395,-1.4222008,2.0,-2.0,2.0
