openverse-orca/OrcaGym/log/simulation_log_20250719_144251.csv
timestamp,sim_time,physics_step,control_step,imu_angle_roll,imu_angle_pitch,imu_angle_yaw,imu_angular_velocity_roll,imu_angular_velocity_pitch,imu_angular_velocity_yaw,imu_acc_x,imu_acc_y,imu_acc_z,fl_joint1_pos,fl_joint1_vel,fl_joint1_torque,fl_joint2_pos,fl_joint2_vel,fl_joint2_torque,fl_joint3_pos,fl_joint3_vel,fl_joint3_torque,fr_joint1_pos,fr_joint1_vel,fr_joint1_torque,fr_joint2_pos,fr_joint2_vel,fr_joint2_torque,fr_joint3_pos,fr_joint3_vel,fr_joint3_torque,hl_joint1_pos,hl_joint1_vel,hl_joint1_torque,hl_joint2_pos,hl_joint2_vel,hl_joint2_torque,hl_joint3_pos,hl_joint3_vel,hl_joint3_torque,hr_joint1_pos,hr_joint1_vel,hr_joint1_torque,hr_joint2_pos,hr_joint2_vel,hr_joint2_torque,hr_joint3_pos,hr_joint3_vel,hr_joint3_torque,fl_force_x,fl_force_y,fl_force_z,fr_force_x,fr_force_y,fr_force_z,hl_force_x,hl_force_y,hl_force_z,hr_force_x,hr_force_y,hr_force_z,fl_hip_action,fl_thigh_action,fl_calf_action,fr_hip_action,fr_thigh_action,fr_calf_action,hl_hip_action,hl_thigh_action,hl_calf_action,hr_hip_action,hr_thigh_action,hr_calf_action
2025-07-19 14:42:51.957,0.0,0,0,0.02132502,0.040701736,0.041379213,-0.028697168,0.03282384,0.0117026055,0.0,0.0,0.0,0.0,-0.0074815745,-0.008949209,-0.0034083538,0.006831529,-0.0073962444,0.0075847977,0.0020364074,-0.008524407,-0.009892393,-0.0095926095,0.0003396903,-0.0027919365,-0.017435921,-0.031317342,0.042476196,-0.012404133,-0.0083933575,0.05631599,-0.04634337,-0.015457466,0.06026868,0.062431507,0.0629605,-0.0026910545,0.0,0.0,0.0,0.0,0.0,0.0,0.0,0.0,0.0,0.0,0.0,0.0,0.22688654,-2.0,-2.0,1.0195411,-1.4923177,-0.48864743,0.719813,2.0,0.04300177,-0.9984612,-0.4258297,-1.0905904
2025-07-19 14:42:51.968,0.02,20,1,0.056643993,-0.12359619,-0.10187845,0.025156148,-0.0053885574,-0.04543376,0.0,0.0,0.0,0.0,0.014339315,-0.023722617,-0.044990864,0.024280816,-0.024499023,-0.005312691,0.011128165,0.04078191,-0.005744512,-0.014750727,-0.023493841,-0.025662968,0.012788637,-0.053754434,-0.098334745,0.08599397,-0.12278681,0.007830826,-0.021578457,0.27533022,-0.050593216,-0.001679105,-0.008858651,-0.09941194,0.22688654,-2.0,-2.0,1.0195411,-1.4923177,-0.48864743,0.719813,2.0,0.04300177,-0.9984612,-0.4258297,-1.0905904,0.69906646,-2.0,-0.19245756,-0.18385614,0.6431356,-0.46019465,1.5537599,-1.7510176,0.3389135,-1.9454639,1.9553009,-2.0
2025-07-19 14:42:51.987,0.04,40,2,0.08161258,0.11467022,0.11022626,0.0027118393,0.024482984,0.023003189,0.0,0.0,0.0,0.0,0.03437445,-0.07402651,-0.060142856,0.013683409,-0.0014840853,-0.034879997,0.055569403,0.07157838,0.0023181408,-0.074248746,0.011176081,-0.083353445,0.11255393,-0.17832266,0.01373208,-0.06177055,0.03209099,-0.10999918,0.15718284,-0.13126141,0.03726323,-0.13680637,0.17537148,-0.16638799,0.69906646,-2.0,-0.19245756,-0.18385614,0.6431356,-0.46019465,1.5537599,-1.7510176,0.3389135,-1.9454639,1.9553009,-2.0,1.8657094,-2.0,-0.3100425,-0.12668853,1.2790142,-0.7916749,-0.17798784,2.0,2.0,-2.0,-1.5675497,1.0985157
2025-07-19 14:42:52.007,0.06,60,3,0.25372908,0.055690154,0.08261685,0.030601358,0.044195578,0.0127810305,0.0,0.0,0.0,0.0,0.0767114,-0.19738226,-0.053105928,0.016063735,0.05341515,-0.052833993,0.047956802,0.07655341,0.062421437,-0.11965514,-0.000840635,-0.049148545,0.17653164,-0.23618661,-0.063046105,-0.044450015,0.112275206,-0.03646607,0.025082523,0.14567386,0.14743038,-0.08784142,-0.15215763,0.15277931,1.8657094,-2.0,-0.3100425,-0.12668853,1.2790142,-0.7916749,-0.17798784,2.0,2.0,-2.0,-1.5675497,1.0985157,2.0,-2.0,2.0,0.5157828,-1.7683618,-2.0,-0.8056553,2.0,0.61790293,-2.0,-1.134895,2.0
2025-07-19 14:42:52.033,0.08,80,4,0.05093744,0.108322226,-0.21969397,-0.003983293,0.034029562,-0.00062881864,0.0,0.0,0.0,0.0,0.12160655,-0.31698015,0.0044169305,0.011656946,0.092318885,-0.092378825,0.030845605,0.15059854,0.06096784,-0.16481805,-0.08083595,0.023682943,0.0851615,-0.24058191,0.17769702,0.06974149,0.028913343,-0.11682038,-0.033768073,0.22773494,-0.020306038,-0.017774811,-0.17295949,0.18116246,2.0,-2.0,2.0,0.5157828,-1.7683618,-2.0,-0.8056553,2.0,0.61790293,-2.0,-1.134895,2.0,0.09326789,-2.0,2.0,-0.035536453,-2.0,-2.0,1.8186561,-1.1752391,-1.4900336,-0.0941576,2.0,2.0
2025-07-19 14:42:52.049,0.1,100,5,0.052251052,-0.37980154,0.14189023,-0.026527055,0.06930488,-0.009266101,0.0,0.0,0.0,0.0,0.1132392,-0.4024707,0.06579886,0.02170873,0.030550126,-0.1394073,0.05803299,0.20527932,0.0010739778,-0.16276906,-0.11221602,0.067436956,-0.09957637,-0.20224915,0.1429298,0.03624399,-0.16382112,-0.13070022,0.05775945,0.031276394,-0.10538926,-0.012676964,-0.006332359,0.075483,0.09326789,-2.0,2.0,-0.035536453,-2.0,-2.0,1.8186561,-1.1752391,-1.4900336,-0.0941576,2.0,2.0,0.09031424,-0.034500364,2.0,-0.704791,0.23007898,-2.0,2.0,-0.08372778,-0.37291068,-2.0,0.09879331,2.0
2025-07-19 14:42:52.068,0.12000000000000001,120,6,-0.08214112,0.05994003,0.20860097,0.0011258253,0.087649934,-0.01997767,0.0,0.0,0.0,0.0,0.09087578,-0.4546571,0.1006272,-0.016122486,0.019521313,-0.15930411,0.10705957,0.17390147,-0.010542531,-0.19039652,-0.0913113,0.088900015,-0.046926197,-0.0905936,0.0765974,-0.03897953,0.083739676,-0.09614494,0.13507871,-0.10058049,-0.03304579,-0.027062006,-0.0058680023,0.12218193,0.09031424,-0.034500364,2.0,-0.704791,0.23007898,-2.0,2.0,-0.08372778,-0.37291068,-2.0,0.09879331,2.0,0.16644165,2.0,2.0,-0.21931235,0.21373658,-2.0,1.4441848,2.0,2.0,-1.6881852,-2.0,2.0
2025-07-19 14:42:52.088,0.14,140,7,-0.109873794,0.20297962,-0.13886385,-0.028534321,0.08443233,-0.007991005,0.0,0.0,0.0,0.0,0.092880905,-0.4746416,0.11428281,-0.01993862,0.034897596,-0.198616,0.12635772,0.18791702,0.032949395,-0.20966958,-0.097256176,0.1319476,-0.036443118,-0.061153736,0.0123950625,0.038125243,0.017011913,-0.085613795,0.02231855,0.179081,0.0992712,-0.10042456,-0.00789306,0.091932215,0.16644165,2.0,2.0,-0.21931235,0.21373658,-2.0,1.4441848,2.0,2.0,-1.6881852,-2.0,2.0,-1.6360583,2.0,2.0,-2.0,-0.5025911,-2.0,2.0,-2.0,2.0,0.011915544,-2.0,2.0
2025-07-19 14:42:52.108,0.16,160,8,-0.2588078,0.21033837,-0.043922167,-0.011837855,0.028592613,-0.024511805,0.0,0.0,0.0,0.0,0.087329544,-0.4693977,0.1456952,-0.051738285,0.0061418284,-0.20189594,0.16912611,0.1651148,0.08360441,-0.21697497,-0.1316624,0.15740108,-0.07080334,-0.029771427,0.07076568,-0.20171073,-0.1421972,-0.057961144,0.14383875,-0.16629755,0.16737494,0.010318397,-0.15399393,0.012473443,-1.6360583,2.0,2.0,-2.0,-0.5025911,-2.0,2.0,-2.0,2.0,0.011915544,-2.0,2.0,-1.2644899,2.0,1.97054,-2.0,-1.9164741,-0.51291937,2.0,-0.8410476,2.0,2.0,-0.8845628,2.0
2025-07-19 14:42:52.132,0.18,180,9,-0.18583056,0.21623364,-0.06956666,-0.0375204,-0.05381161,-0.01922873,0.0,0.0,0.0,0.0,0.07724035,-0.4919949,0.16356297,-0.10863151,-0.091569126,-0.19310252,0.19772904,0.085648306,0.120629594,-0.23696253,-0.1655779,0.19328249,0.0054467027,-0.0005641902,0.0912161,-0.042850994,-0.2612541,0.11535671,0.01269697,-0.18506838,0.1454737,-0.0010736368,-0.071213566,-0.0035834098,-1.2644899,2.0,1.97054,-2.0,-1.9164741,-0.51291937,2.0,-0.8410476,2.0,2.0,-0.8845628,2.0,-2.0,2.0,-1.0788954,-2.0,-2.0,2.0,2.0,0.8234629,2.0,1.1977024,-0.25528854,2.0
2025-07-19 14:42:52.148,0.19999999999999998,200,10,0.16630381,0.058020134,0.074058115,0.036381144,-0.05398761,-0.0019998406,0.0,0.0,0.0,0.0,0.046039015,-0.45329794,0.10628422,-0.15222861,-0.2276961,-0.11503769,0.23075065,0.06448582,0.14964844,-0.22445188,-0.1622957,0.2004052,-0.06997514,0.21536028,-0.19842845,-0.09313195,-0.24257477,0.19409648,0.028621797,0.051355653,0.063150525,0.068066455,-0.047324877,0.03212694,-2.0,2.0,-1.0788954,-2.0,-2.0,2.0,2.0,0.8234629,2.0,1.1977024,-0.25528854,2.0,0.14128992,2.0,-2.0,-1.2069569,-2.0,2.0,2.0,-1.0986571,2.0,-2.0,2.0,2.0
2025-07-19 14:42:52.169,0.21999999999999997,220,11,0.20539422,0.098715544,0.07267827,-0.060949154,-0.0066732164,-0.014822966,0.0,0.0,0.0,0.0,0.032047294,-0.35685104,0.024517763,-0.16096824,-0.32823956,-0.03903928,0.25512388,0.05211376,0.17923185,-0.25628573,-0.12835014,0.20515805,-0.038421463,0.29915252,-0.18325779,0.0392111,-0.21362288,0.2012581,0.017174011,-0.10523924,0.0251719,-0.11732698,0.20320491,0.07677025,0.14128992,2.0,-2.0,-1.2069569,-2.0,2.0,2.0,-1.0986571,2.0,-2.0,2.0,2.0,0.601295,2.0,-2.0,-0.5286535,-0.8033332,2.0,-0.079536684,0.8252448,2.0,-1.7621888,2.0,2.0
2025-07-19 14:42:52.189,0.23999999999999996,240,12,0.3036061,0.19335462,-0.019624434,-0.04283778,0.016875984,0.022409737,0.0,0.0,0.0,0.0,0.054765824,-0.25206834,-0.046552293,-0.14957464,-0.34951082,0.026174134,0.22170408,0.067101814,0.20132141,-0.26466233,-0.04975783,0.22120318,0.056570865,0.2857515,-0.18130417,0.014497425,-0.028180195,0.20702589,-0.021946954,0.16646758,0.10461596,-0.051752195,0.16389674,-0.03332648,0.601295,2.0,-2.0,-0.5286535,-0.8033332,2.0,-0.079536684,0.8252448,2.0,-1.7621888,2.0,2.0,-0.20324472,1.3097893,-2.0,-0.7176054,-0.07886721,2.0,-2.0,-1.1330659,2.0,-2.0,2.0,-2.0
2025-07-19 14:42:52.209,0.25999999999999995,260,13,-0.12781209,0.43920845,0.1127506,-0.12017984,0.026656447,0.048254956,0.0,0.0,0.0,0.0,0.0326118,-0.121780835,-0.084845155,-0.1590135,-0.31953803,0.06633333,0.19343519,0.0983875,0.22326171,-0.28057367,0.09187066,0.13276635,-0.011762797,0.31719252,-0.13550773,-0.08657044,0.1523931,0.102578655,-0.07396231,0.042411353,0.02460749,0.012435686,0.35793942,-0.25406462,-0.20324472,1.3097893,-2.0,-0.7176054,-0.07886721,2.0,-2.0,-1.1330659,2.0,-2.0,2.0,-2.0,-1.1057843,-2.0,-2.0,2.0,2.0,2.0,-0.26912326,-1.6990602,2.0,-2.0,-2.0,-2.0
2025-07-19 14:42:52.229,0.27999999999999997,280,14,-0.092228524,-0.03030824,0.12824604,-0.04601853,0.0123938145,-0.045324203,0.0,0.0,0.0,0.0,0.00019078706,-0.071576305,-0.11879469,-0.1517648,-0.29191893,0.10535249,0.15048246,0.09415254,0.24215841,-0.29042247,0.16373734,0.061233554,-0.08672305,-0.038448006,-0.06952189,-0.029367164,-0.018672664,0.013386467,-0.05154467,-0.0654073,0.033991743,0.03963352,0.01632878,-0.17734194,-1.1057843,-2.0,-2.0,2.0,2.0,2.0,-0.26912326,-1.6990602,2.0,-2.0,-2.0,-2.0,2.0,-2.0,-2.0,2.0,2.0,0.8614255,-1.7715898,-1.9532526,2.0,-2.0,-2.0,-2.0
2025-07-19 14:42:52.249,0.3,300,15,-0.1133078,-0.30209768,0.10829178,-0.019865546,0.007962468,0.012393621,0.0,0.0,0.0,0.0,0.030539425,-0.13561381,-0.14897434,-0.14529291,-0.27413124,0.08844256,0.14157426,0.06398943,0.25303328,-0.3034231,0.09042741,-0.0015710812,0.13071011,-0.33397737,-0.039013807,0.07295883,0.059274536,-0.0733408,-0.059592277,-0.00948401,0.018163547,-0.008876959,-0.25521,-0.14400177,2.0,-2.0,-2.0,2.0,2.0,0.8614255,-1.7715898,-1.9532526,2.0,-2.0,-2.0,-2.0,2.0,-2.0,2.0,2.0,2.0,-2.0,-2.0,-2.0,2.0,-2.0,-2.0,1.5219619
2025-07-19 14:42:52.269,0.32,320,16,-0.26845953,-0.24689123,0.0011221884,-0.03730279,-0.01676313,0.0045615216,0.0,0.0,0.0,0.0,0.086884946,-0.25546247,-0.083606265,-0.10318576,-0.223683,0.028122647,0.12580015,0.032824706,0.27686045,-0.31032228,-0.033154882,0.030995764,0.10248298,-0.21812803,0.16860373,0.039900288,0.06660775,-0.25129938,-0.09302745,-0.045212712,-0.0028224727,-0.002093313,-0.31475082,0.16889682,2.0,-2.0,2.0,2.0,2.0,-2.0,-2.0,-2.0,2.0,-2.0,-2.0,1.5219619,2.0,-2.0,2.0,1.6147074,2.0,-2.0,-2.0,2.0,-0.63667315,-1.2509266,2.0,2.0
2025-07-19 14:42:52.289,0.34,340,17,0.07851357,-0.1180741,-0.05599444,-0.05010778,0.0019308167,0.006278074,0.0,0.0,0.0,0.0,0.12856331,-0.3541747,-0.019484043,-0.061793227,-0.17255874,-0.04706352,0.08459482,0.07980988,0.2129053,-0.30483672,-0.108265914,0.068660386,0.15012573,-0.2130951,0.12566277,0.18183109,0.22268847,-0.12320091,-0.09672324,0.22116764,-0.19108634,0.06435255,-0.0028914316,0.10119038,2.0,-2.0,2.0,1.6147074,2.0,-2.0,-2.0,2.0,-0.63667315,-1.2509266,2.0,2.0,1.1832702,-2.0,2.0,0.6250667,-0.37891027,-2.0,1.0274538,0.9034492,-2.0,0.2151923,2.0,2.0
2025-07-19 14:42:52.309,0.36000000000000004,360,18,0.02537359,-0.32847103,0.056325655,0.024409408,0.00887343,-0.011904651,0.0,0.0,0.0,0.0,0.14011863,-0.43840358,0.04265975,-0.031056998,-0.16430984,-0.0908059,0.10913945,0.15329222,0.121645235,-0.24397476,-0.06821698,0.1204524,0.05984758,-0.19146469,0.12652251,0.074813835,-0.0128575405,-0.041501258,0.05892032,0.14926016,-0.26175892,0.18269145,0.25803635,0.0606607,1.1832702,-2.0,2.0,0.6250667,-0.37891027,-2.0,1.0274538,0.9034492,-2.0,0.2151923,2.0,2.0,-1.2365289,0.5926442,2.0,-0.48757622,1.3465295,-2.0,2.0,-0.89543325,-0.5171105,-1.5088457,-2.0,2.0
2025-07-19 14:42:52.334,0.38000000000000006,380,19,-0.0069280383,0.26521572,0.09148258,0.015551024,-0.004472626,0.013290204,0.0,0.0,0.0,0.0,0.108451694,-0.46399635,0.08119292,-0.0576689,-0.11195011,-0.13860159,0.1367326,0.12975882,0.07664518,-0.24300103,-0.033372834,0.1567771,-0.15560544,0.035610963,0.12944573,-0.09345036,0.100964434,-0.03474801,0.091070816,-0.15288125,-0.04305189,-0.0067198495,-0.041493505,0.08387262,-1.2365289,0.5926442,2.0,-0.48757622,1.3465295,-2.0,2.0,-0.89543325,-0.5171105,-1.5088457,-2.0,2.0,-1.0699335,2.0,2.0,-1.3702168,1.0705321,-2.0,2.0,2.0,2.0,0.2720649,-2.0,2.0
2025-07-19 14:42:52.350,0.4000000000000001,400,20,0.16958931,0.214402,0.092034675,-0.029790597,-0.035136063,-0.004249908,0.0,0.0,0.0,0.0,0.07900676,-0.46078968,0.11021579,-0.07341964,-0.03140746,-0.17728835,0.16524708,0.1286201,0.119314276,-0.24761702,-0.03706457,0.17556742,-0.0137634715,0.021746654,0.119347006,-0.11715511,0.1613519,-0.0055364873,0.02879931,0.05744506,0.022867896,0.04059702,0.04923125,0.01884318,-1.0699335,2.0,2.0,-1.3702168,1.0705321,-2.0,2.0,2.0,2.0,0.2720649,-2.0,2.0,-1.2421486,2.0,2.0,-2.0,-2.0,-2.0,2.0,2.0,2.0,1.534018,-2.0,2.0
2025-07-19 14:42:52.369,0.4200000000000001,420,21,0.173627,0.023815177,-0.08640308,-0.0399475,-0.018752443,0.040733393,0.0,0.0,0.0,0.0,0.05797248,-0.42611614,0.13748202,-0.10929056,-0.008908422,-0.19208474,0.19773473,0.22191723,0.157193,-0.24413154,-0.01623927,0.20169632,-0.03333754,0.042881332,0.11180952,-0.058512397,-0.17693253,-0.03192594,0.11801503,0.25904784,0.08143757,-0.008218023,0.078995064,0.0843995,-1.2421486,2.0,2.0,-2.0,-2.0,-2.0,2.0,2.0,2.0,1.534018,-2.0,2.0,-2.0,2.0,2.0,-2.0,-2.0,-0.70935094,2.0,-2.0,2.0,2.0,-2.0,2.0
2025-07-19 14:42:52.389,0.4400000000000001,440,22,0.01149152,0.014449089,-0.024109753,-0.057966486,-0.02691755,-0.0493215,0.0,0.0,0.0,0.0,0.050877903,-0.40952384,0.14015709,-0.16598451,-0.10178258,-0.1699927,0.22303708,0.24639544,0.1761842,-0.25141013,-0.024521373,0.23061125,-0.03539938,-0.0068422765,0.08781394,-0.07455025,-0.3168008,-0.016895138,0.1299361,-0.10753276,0.056335557,0.06497521,-0.02450571,0.025709027,-2.0,2.0,2.0,-2.0,-2.0,-0.70935094,2.0,-2.0,2.0,2.0,-2.0,2.0,-2.0,2.0,-0.9466618,-2.0,-2.0,2.0,2.0,-1.4175832,2.0,0.8243532,-2.0,2.0
2025-07-19 14:42:52.410,0.46000000000000013,460,23,-0.13221532,-0.13282916,0.06894807,-0.032878276,0.016667848,-0.04593794,0.0,0.0,0.0,0.0,0.035802778,-0.35912126,0.08864173,-0.18499309,-0.2260209,-0.096189916,0.24129619,0.1814116,0.20739587,-0.2292244,-0.03362253,0.24383943,-0.042955764,0.15351631,-0.18990658,-0.13275634,-0.3245147,0.16011162,0.08563744,-0.27283219,-0.016607298,0.06732915,-0.13376047,0.04572156,-2.0,2.0,-0.9466618,-2.0,-2.0,2.0,2.0,-1.4175832,2.0,0.8243532,-2.0,2.0,-0.5508644,2.0,-2.0,-2.0,-2.0,2.0,2.0,-0.33570617,2.0,-1.9311239,2.0,2.0
2025-07-19 14:42:52.429,0.48000000000000015,480,24,0.116759725,0.07845031,0.03771019,0.0055116904,0.029481376,-0.0416819,0.0,0.0,0.0,0.0,0.012801453,-0.27389956,0.017983643,-0.22009797,-0.3368209,-0.03509502,0.2594338,0.12184695,0.21702565,-0.24901477,-0.0037749438,0.2523819,-0.09834556,0.19160958,-0.10875412,0.0047477563,-0.2828902,0.117528304,0.114179894,-0.10994046,0.020860692,-0.11565137,0.11109264,-0.011870772,-0.5508644,2.0,-2.0,-2.0,-2.0,2.0,2.0,-0.33570617,2.0,-1.9311239,2.0,2.0,0.6427466,2.0,-2.0,0.22273691,-0.36984745,2.0,-0.30986106,0.020236492,2.0,-1.4467194,2.0,2.0
2025-07-19 14:42:52.450,0.5000000000000001,500,25,0.1882839,0.06016822,0.0691857,-0.013898079,-0.009058492,0.007916113,0.0,0.0,0.0,0.0,0.029212827,-0.17834257,-0.035486978,-0.1861547,-0.36927134,0.02709508,0.23789531,0.10407193,0.235782,-0.25579163,0.07393197,0.24964108,-0.024458623,0.21370079,-0.20257781,0.024901815,0.016056709,0.19244209,-0.1608048,-0.0392582,0.043561254,-0.000542583,0.23429778,-0.025403677,0.6427466,2.0,-2.0,0.22273691,-0.36984745,2.0,-0.30986106,0.020236492,2.0,-1.4467194,2.0,2.0,0.3173763,0.98447263,-2.0,-0.028478665,0.6388926,2.0,-2.0,1.7825668,2.0,-2.0,0.8663021,-2.0
2025-07-19 14:42:52.474,0.5200000000000001,520,26,-0.035234787,0.15807457,-0.21738161,-0.056187753,0.03858501,0.01854194,0.0,0.0,0.0,0.0,0.03248078,-0.07423578,-0.09699822,-0.14589956,-0.29137737,0.06646789,0.17781699,0.14613461,0.24903278,-0.2882735,0.14560585,0.17933625,-0.0072810175,0.18125781,-0.16609894,-0.021626746,0.22487202,0.050064605,-0.11937994,0.12833303,0.03728462,-0.06096253,0.04873768,-0.2072756,0.3173763,0.98447263,-2.0,-0.028478665,0.6388926,2.0,-2.0,1.7825668,2.0,-2.0,0.8663021,-2.0,-2.0,-2.0,-2.0,1.3227373,2.0,2.0,-0.1234825,-2.0,2.0,-2.0,-1.0311188,-2.0
2025-07-19 14:42:52.490,0.5400000000000001,540,27,0.0022527322,-0.11588412,-0.014822658,-0.06314141,-0.036428157,-0.03026513,0.0,0.0,0.0,0.0,-0.013811599,-0.04241102,-0.123493955,-0.136679,-0.24547173,0.10942242,0.16090372,0.17416914,0.25780526,-0.29213846,0.120976284,0.09238155,-0.20790182,-0.09662253,-0.12684411,0.06241806,0.07472219,0.048294045,-0.08436095,0.07878319,-0.029672144,0.009704293,-0.17447032,-0.18080577,-2.0,-2.0,-2.0,1.3227373,2.0,2.0,-0.1234825,-2.0,2.0,-2.0,-1.0311188,-2.0,1.732221,-2.0,-2.0,2.0,2.0,-0.24514951,-0.2254037,-2.0,2.0,-2.0,-0.95326775,-2.0
2025-07-19 14:42:52.510,0.5600000000000002,560,28,-0.045314908,-0.37904578,-0.045452375,-0.026873546,0.060264576,0.006743952,0.0,0.0,0.0,0.0,0.005905953,-0.13604416,-0.15908282,-0.1084834,-0.19520755,0.06634454,0.14204837,0.19042645,0.2711862,-0.3098454,0.049769923,0.025186252,0.084748454,-0.28851813,-0.08760683,0.033855256,0.05457217,-0.048227068,-0.036435153,0.0024452468,0.08720015,-0.031988464,-0.271912,-0.16154338,1.732221,-2.0,-2.0,2.0,2.0,-0.24514951,-0.2254037,-2.0,2.0,-2.0,-0.95326775,-2.0,2.0,-2.0,2.0,1.8078682,2.0,-2.0,-2.0,-2.0,2.0,-2.0,0.76008683,1.2936746
2025-07-19 14:42:52.530,0.5800000000000002,580,29,-0.11338641,-0.21268508,0.012616747,-0.06930808,0.052589245,-0.030825723,0.0,0.0,0.0,0.0,0.07024061,-0.24859785,-0.09811165,-0.07191669,-0.1438051,-0.005677488,0.11221626,0.19105487,0.27990884,-0.3151193,0.01729214,0.035972055,0.18368383,-0.30712518,0.1353347,0.03158631,0.20053227,-0.2219739,-0.11067599,0.040959183,0.023015225,0.0041833445,0.050913565,0.02129643,2.0,-2.0,2.0,1.8078682,2.0,-2.0,-2.0,-2.0,2.0,-2.0,0.76008683,1.2936746,1.2469808,-2.0,2.0,1.1913928,2.0,-2.0,-1.8062198,-0.3087185,-1.1106461,-1.1251035,-0.63068646,2.0
2025-07-19 14:42:52.550,0.6000000000000002,600,30,-0.29783922,-0.014220258,0.008450691,0.041712675,0.0028520683,-0.012985275,0.0,0.0,0.0,0.0,0.091059566,-0.362573,-0.02972893,-0.025000164,-0.10510745,-0.07882459,0.082080156,0.2074535,0.22913052,-0.28873292,-0.026557302,0.08464666,-0.008275419,-0.26070255,0.1543471,0.1284693,0.04178312,-0.19608878,-0.09218772,0.028926047,-0.24246497,0.053457133,-0.09540636,0.07323087,1.2469808,-2.0,2.0,1.1913928,2.0,-2.0,-1.8062198,-0.3087185,-1.1106461,-1.1251035,-0.63068646,2.0,0.97628504,-2.0,2.0,1.2074574,2.0,-2.0,-0.272851,2.0,-2.0,-0.8019408,1.5789523,2.0
2025-07-19 14:42:52.570,0.6200000000000002,620,31,0.24067381,-0.058319166,0.094104126,-0.008675897,0.02800387,-0.035941776,0.0,0.0,0.0,0.0,0.113806844,-0.43382517,0.030530786,-0.012357506,-0.032673832,-0.12665203,0.051777,0.27272037,0.12492062,-0.26763004,0.00707386,0.13340294,0.032945443,-0.22602753,0.075531974,0.14493543,0.2658119,-0.11487793,-0.04196067,0.31829885,-0.2797179,0.121783756,0.11822868,0.104107425,0.97628504,-2.0,2.0,1.2074574,2.0,-2.0,-0.272851,2.0,-2.0,-0.8019408,1.5789523,2.0,-0.0978978,1.440605,2.0,0.21096112,-1.6971238,-2.0,2.0,0.81155413,-2.0,-0.7462409,-1.0915611,2.0
2025-07-19 14:42:52.590,0.6400000000000002,640,32,0.16877373,0.1559616,0.042032477,0.00915138,0.0383258,-0.022473833,0.0,0.0,0.0,0.0,0.09858561,-0.46419582,0.06172851,-0.0030743927,0.0084307995,-0.15340573,0.085443124,0.2998857,0.06489572,-0.2547641,0.008618616,0.15363012,0.04832757,0.033140313,0.09507968,0.051635727,-0.0066992096,-0.11235894,0.12120718,0.066803046,-0.18590106,0.04134514,-0.072130084,0.07279481,-0.0978978,1.440605,2.0,0.21096112,-1.6971238,-2.0,2.0,0.81155413,-2.0,-0.7462409,-1.0915611,2.0,-2.0,0.9565002,2.0,-0.64995027,0.0553749,-2.0,2.0,-1.1353676,-0.65338975,-2.0,-2.0,2.0
2025-07-19 14:42:52.611,0.6600000000000003,660,33,-0.09678704,0.35630235,-0.04118913,-0.00755047,0.048293445,-0.030010093,0.0,0.0,0.0,0.0,0.069969036,-0.44448557,0.10855944,-0.02530025,0.012622504,-0.17157196,0.12433838,0.23869757,0.034120753,-0.25947416,-0.009363044,0.1864084,-0.11221846,0.09057892,0.010090955,-0.07141732,0.025433691,-0.121533625,0.05550987,-0.23686157,-0.0046811383,-0.09505296,-0.02759357,0.12985863,-2.0,0.9565002,2.0,-0.64995027,0.0553749,-2.0,2.0,-1.1353676,-0.65338975,-2.0,-2.0,2.0,-1.8038561,2.0,1.1015908,-1.9410917,-0.25970563,-2.0,2.0,1.060574,2.0,1.7296679,-2.0,2.0
2025-07-19 14:42:52.631,0.6800000000000003,680,34,-0.045167796,0.18931392,-0.10467891,-0.08694863,-0.04436874,-0.040722646,0.0,0.0,0.0,0.0,0.03725014,-0.40883812,0.11326964,-0.07372026,-0.00920737,-0.20102759,0.16507223,0.20459262,0.06325729,-0.28191146,-0.025250236,0.21777813,-0.0023098765,0.086563714,0.06832272,-0.07723514,-0.075138465,-0.12122275,0.09797889,0.036112104,0.118591845,-0.014603773,-0.0031455893,-0.0033834917,-1.8038561,2.0,1.1015908,-1.9410917,-0.25970563,-2.0,2.0,1.060574,2.0,1.7296679,-2.0,2.0,-2.0,2.0,0.40566492,-2.0,-2.0,-0.7988557,2.0,-0.46709186,2.0,2.0,-2.0,2.0
2025-07-19 14:42:52.651,0.7000000000000003,700,35,-0.14635925,0.005011453,-0.05335714,-0.08135241,-0.0503781,0.016238468,0.0,0.0,0.0,0.0,0.014610631,-0.34479657,0.080997296,-0.11374897,-0.08245228,-0.19877908,0.18639055,0.16069962,0.10475165,-0.30283308,-0.07065996,0.23946269,-0.05211018,0.039350983,-0.106432475,-0.06171728,-0.29449892,0.08044504,0.1361268,-0.14130282,0.08067171,-0.038045168,-0.095126815,0.03161337,-2.0,2.0,0.40566492,-2.0,-2.0,-0.7988557,2.0,-0.46709186,2.0,2.0,-2.0,2.0,-2.0,2.0,-2.0,-2.0,-2.0,2.0,2.0,-0.2561714,2.0,1.7818713,-0.2898219,2.0
2025-07-19 14:42:52.671,0.7200000000000003,720,36,0.05453135,-0.06300838,-0.0030299132,0.00010817673,-0.0037657951,0.0071836226,0.0,0.0,0.0,0.0,-0.02325736,-0.27645636,0.020437324,-0.14693172,-0.21815632,-0.11343659,0.22168991,0.11917976,0.14030756,-0.2949584,-0.06634991,0.25466996,-0.015005418,0.2287307,-0.19828825,-0.117954776,-0.23794617,0.1351496,0.052698396,-0.17036529,0.1395929,-0.0014105779,-0.01560898,0.03135781,-2.0,2.0,-2.0,-2.0,-2.0,2.0,2.0,-0.2561714,2.0,1.7818713,-0.2898219,2.0,-0.48706058,2.0,-2.0,-0.77486485,-2.0,2.0,2.0,-0.5250208,2.0,-1.3848464,2.0,2.0
2025-07-19 14:42:52.696,0.7400000000000003,740,37,0.26541707,-0.072514765,0.0020415601,-0.007090411,0.018868105,0.025972243,0.0,0.0,0.0,0.0,-0.032579087,-0.19159272,-0.040242832,-0.15447447,-0.3257852,-0.02716806,0.24476375,0.07130887,0.17030574,-0.2888467,-0.02414805,0.26118377,-0.031067912,0.26361093,-0.10698227,0.03861058,-0.24904472,0.18722676,0.12595765,-0.077262454,-0.0028716542,-0.06885821,0.1414388,0.08446226,-0.48706058,2.0,-2.0,-0.77486485,-2.0,2.0,2.0,-0.5250208,2.0,-1.3848464,2.0,2.0,0.23018083,2.0,-2.0,-0.612271,0.095874846,2.0,-0.59957564,1.0464773,2.0,-0.53570485,2.0,2.0
2025-07-19 14:42:52.714,0.7600000000000003,760,38,0.35889563,-0.023486927,-0.018737938,-0.07125324,0.044655107,0.020494059,0.0,0.0,0.0,0.0,-0.020355092,-0.10546581,-0.09583059,-0.14257829,-0.3442737,0.026659746,0.2553389,0.07288197,0.20183147,-0.2784701,0.04790647,0.24504165,-0.027478134,0.3289191,-0.06160985,-0.0075662797,0.08291747,0.07235599,0.04978808,0.10102741,0.084239125,0.012907612,0.1931607,-0.06295284,0.23018083,2.0,-2.0,-0.612271,0.095874846,2.0,-0.59957564,1.0464773,2.0,-0.53570485,2.0,2.0,-0.41730592,-2.0,-2.0,0.59448785,0.13777958,2.0,-1.760325,-0.9146027,2.0,-1.8312827,0.48237613,-2.0
2025-07-19 14:42:52.732,0.7800000000000004,780,39,-0.26143646,0.024296418,0.011675682,-0.10461396,-0.00864179,0.02280731,0.0,0.0,0.0,0.0,-0.027180845,-0.034900475,-0.13701172,-0.12138619,-0.29547703,0.0771649,0.22649235,0.081380695,0.22407955,-0.2855303,0.119280756,0.18566123,0.04878219,0.049621817,-0.010776361,0.09675341,0.08971937,0.0831118,-0.13121775,-0.06380544,0.024470836,-0.0659304,0.102610335,-0.21726757,-0.41730592,-2.0,-2.0,0.59448785,0.13777958,2.0,-1.760325,-0.9146027,2.0,-1.8312827,0.48237613,-2.0,-0.48624215,-2.0,-2.0,1.5638354,2.0,2.0,-0.76236284,-1.2362921,2.0,-1.8433363,-2.0,-2.0
2025-07-19 14:42:52.756,0.8000000000000004,800,40,-0.17855637,-0.1678558,-0.018059557,-0.003035288,-0.0066579184,0.03641903,0.0,0.0,0.0,0.0,-0.040828086,-0.09822249,-0.15648139,-0.0942903,-0.2769002,0.10074865,0.17184092,0.07947751,0.2372198,-0.29388812,0.0800351,0.09060386,-0.0066812434,-0.16831355,-0.06569281,0.07037145,0.051895842,0.0981339,-0.11014658,-0.08243038,-0.025093038,-0.055766005,-0.17933775,-0.2069645,-0.48624215,-2.0,-2.0,1.5638354,2.0,2.0,-0.76236284,-1.2362921,2.0,-1.8433363,-2.0,-2.0,1.8105378,-2.0,-1.4752567,2.0,2.0,0.30174863,-1.6062899,-2.0,2.0,-2.0,-1.6871328,-2.0
2025-07-19 14:42:52.771,0.8200000000000004,820,41,-0.2187289,-0.43599522,0.015857844,-0.029864771,0.04682426,0.045625947,0.0,0.0,0.0,0.0,0.014387534,-0.20468344,-0.17454644,-0.07942197,-0.27092707,0.0721868,0.1458701,0.03947565,0.25163096,-0.30084938,-0.039639443,0.034295686,0.17074277,-0.24417219,-0.020787796,0.018787269,-0.043284528,-0.079014935,-0.056326702,-0.13050947,0.079028524,0.047120124,-0.29201645,-0.12006383,1.8105378,-2.0,-1.4752567,2.0,2.0,0.30174863,-1.6062899,-2.0,2.0,-2.0,-1.6871328,-2.0,2.0,-2.0,2.0,2.0,2.0,-2.0,-2.0,-1.1750269,2.0,-2.0,0.9391748,1.4669725
2025-07-19 14:42:52.791,0.8400000000000004,840,42,-0.15783209,-0.2684262,0.028706808,0.045408294,-0.018189149,0.020373203,0.0,0.0,0.0,0.0,0.07277971,-0.31659284,-0.10672495,-0.042572428,-0.22161858,0.0015879455,0.11499166,0.021479065,0.26788017,-0.3080145,-0.09194621,0.052572895,0.16960818,-0.27965617,0.24322674,0.061341975,0.19111933,-0.2040416,-0.023458546,-0.0021146282,-0.013197095,-0.015264007,0.04974556,0.027479762,2.0,-2.0,2.0,2.0,2.0,-2.0,-2.0,-1.1750269,2.0,-2.0,0.9391748,1.4669725,1.886205,-2.0,2.0,0.8930255,2.0,-2.0,-2.0,2.0,-0.5956532,-0.46510604,0.1358494,2.0
2025-07-19 14:42:52.815,0.8600000000000004,860,43,-0.03999395,-0.080760114,-0.036490332,0.051572446,0.01744323,0.02301833,0.0,0.0,0.0,0.0,0.10596468,-0.41453326,-0.029130546,-0.022641618,-0.15210444,-0.06278392,0.08154426,0.07254063,0.2140055,-0.26861164,-0.07563882,0.08603437,0.14781782,-0.14183858,0.21250626,0.07573731,0.122436285,-0.176968,-0.12529285,0.29979458,-0.1330542,0.067233965,0.012409406,0.10032231,1.886205,-2.0,2.0,0.8930255,2.0,-2.0,-2.0,2.0,-0.5956532,-0.46510604,0.1358494,2.0,0.8831666,-2.0,2.0,0.39316526,1.0808947,-2.0,0.34076256,0.9543608,-2.0,0.11984525,0.46773985,2.0
2025-07-19 14:42:52.832,0.8800000000000004,880,44,0.08656427,-0.11399436,0.14867336,0.055625033,0.036117315,0.049538035,0.0,0.0,0.0,0.0,0.120496236,-0.4938306,0.036390763,-0.00832662,-0.06468556,-0.118004926,0.07781986,0.1415236,0.12800775,-0.23557465,-0.036614157,0.1358863,-0.044507604,-0.18053702,0.065420166,0.07028715,0.20012969,-0.12621634,0.03706047,0.16932568,-0.16874869,0.09394663,0.11711911,0.15004577,0.8831666,-2.0,2.0,0.39316526,1.0808947,-2.0,0.34076256,0.9543608,-2.0,0.11984525,0.46773985,2.0,0.30153975,2.0,2.0,0.64937186,-0.5149924,-2.0,2.0,2.0,-2.0,-1.7309246,-2.0,2.0
2025-07-19 14:42:52.852,0.9000000000000005,900,45,0.35617748,0.03987554,-0.048777126,0.020890225,-0.008267217,-0.030369833,0.0,0.0,0.0,0.0,0.11842915,-0.50190574,0.063155755,0.013957675,-0.027511539,-0.15257902,0.095747456,0.23889945,0.05457616,-0.23304185,-0.047163237,0.1612713,0.06478496,0.07725321,0.116424374,0.05689884,0.026206285,-0.012512916,0.03795062,0.2949282,-0.121379,0.033219747,-0.08425029,0.09398521,0.30153975,2.0,2.0,0.64937186,-0.5149924,-2.0,2.0,2.0,-2.0,-1.7309246,-2.0,2.0,-2.0,-0.20127472,2.0,-0.85155857,0.65299624,-2.0,2.0,-2.0,-0.5879846,-2.0,-1.3468342,2.0
2025-07-19 14:42:52.872,0.9200000000000005,920,46,0.08509576,0.69048005,-0.042233873,0.011574502,-0.014830023,-0.023792043,0.0,0.0,0.0,0.0,0.08887571,-0.46039918,0.09296554,-0.028694797,0.03283092,-0.1798957,0.14520657,0.27160537,0.01574752,-0.26808324,-0.12604551,0.18466844,-0.1388935,0.067588985,0.017045012,-0.04684656,0.13349903,-0.004969758,0.062477242,-0.080382034,-0.008651625,-0.089838475,-0.20781559,-0.009345305,-2.0,-0.20127472,2.0,-0.85155857,0.65299624,-2.0,2.0,-2.0,-0.5879846,-2.0,-1.3468342,2.0,-0.7811243,1.1025866,2.0,-1.47192,-0.18363579,-2.0,2.0,-2.0,2.0,0.24901186,0.90477127,2.0
2025-07-19 14:42:52.892,0.9400000000000005,940,47,0.30577236,0.21914387,0.041834574,-0.07459436,-0.0352611,-0.0005505705,0.0,0.0,0.0,0.0,0.042091507,-0.4194017,0.1221397,-0.05816314,0.027453333,-0.19461982,0.19219339,0.18514606,0.06522008,-0.2835323,-0.11163889,0.19701971,-0.028598526,0.055367216,0.06992135,-0.09406825,0.022815127,-0.09919605,0.07656112,-0.19713113,0.18971989,-0.1054401,0.04885643,-0.035548173,-0.7811243,1.1025866,2.0,-1.47192,-0.18363579,-2.0,2.0,-2.0,2.0,0.24901186,0.90477127,2.0,-0.612661,2.0,1.0516884,-2.0,-1.8253319,-0.2042358,2.0,-2.0,2.0,1.0898323,-2.0,2.0
2025-07-19 14:42:52.915,0.9600000000000005,960,48,-0.00018798908,-0.033997107,0.09415963,-0.033070564,-0.014244157,0.03370439,0.0,0.0,0.0,0.0,0.032066442,-0.3884528,0.12896764,-0.10021094,-0.058573935,-0.16953553,0.21776292,0.08193273,0.11945817,-0.2817473,-0.10528509,0.21427536,-0.058629878,0.096311,-0.051282633,-0.15842113,-0.31557003,0.1078179,0.11328561,-0.28925332,0.12390054,-0.0012512649,0.015792286,-0.0032965557,-0.612661,2.0,1.0516884,-2.0,-1.8253319,-0.2042358,2.0,-2.0,2.0,1.0898323,-2.0,2.0,-1.4308102,2.0,-2.0,-2.0,-2.0,2.0,2.0,1.1275871,2.0,0.13525365,-2.0,2.0
2025-07-19 14:42:52.932,0.9800000000000005,980,49,0.00035882162,-0.12548426,-0.05789377,-0.078277275,-0.021039015,0.03436657,0.0,0.0,0.0,0.0,0.011092939,-0.31956184,0.04774408,-0.14783488,-0.1968773,-0.0889349,0.2283351,0.05407693,0.14924435,-0.26246154,-0.11419812,0.23926899,-0.037772886,0.14683779,-0.25363848,-0.1060952,-0.28719988,0.20554633,-0.017092524,0.10637045,0.06051746,0.04014942,-0.098451935,-0.027584793,-1.4308102,2.0,-2.0,-2.0,-2.0,2.0,2.0,1.1275871,2.0,0.13525365,-2.0,2.0,-0.0643169,2.0,-2.0,-1.673258,-2.0,2.0,2.0,-1.6571043,2.0,-1.9849911,2.0,2.0
2025-07-19 14:42:52.953,1.0000000000000004,1000,50,-0.021476947,0.00324192,0.097171195,-0.0014996725,0.06401123,0.04773304,0.0,0.0,0.0,0.0,0.008352533,-0.236369,-0.031457227,-0.16651304,-0.2999092,-0.009822473,0.26299378,0.039445832,0.17871395,-0.28053403,-0.08686033,0.23929353,-0.04306903,0.2660904,-0.20288773,0.010978918,-0.3158135,0.21081999,0.023815835,-0.018118551,0.13245611,-0.041586448,0.066903435,0.012280906,-0.0643169,2.0,-2.0,-1.673258,-2.0,2.0,2.0,-1.6571043,2.0,-1.9849911,2.0,2.0,0.528492,2.0,-2.0,-0.20310022,-0.43522048,2.0,-0.10126472,-0.44647068,2.0,-2.0,2.0,2.0
2025-07-19 14:42:52.973,1.0200000000000005,1020,51,-0.16147085,0.250852,0.109879464,-0.07541124,-0.013380275,0.0071612056,0.0,0.0,0.0,0.0,0.011709656,-0.16864535,-0.0887407,-0.15859161,-0.33788654,0.039867602,0.25260863,0.020188361,0.19240631,-0.29060516,-0.0031215465,0.25631204,0.083973736,0.21074541,-0.075618714,0.07275928,-0.0047120256,0.13633999,-0.11945667,-0.03521042,-0.0005132985,-0.019820053,0.27677685,0.05360725,0.528492,2.0,-2.0,-0.20310022,-0.43522048,2.0,-0.10126472,-0.44647068,2.0,-2.0,2.0,2.0,0.2550085,0.94419706,-2.0,0.3086778,0.009361457,2.0,-1.4100993,1.7760768,2.0,-2.0,-0.70318747,-0.58505225
2025-07-19 14:42:52.994,1.0400000000000005,1040,52,-0.04571551,0.0762106,-0.10961615,-0.05515522,0.0055925595,-0.036369946,0.0,0.0,0.0,0.0,0.021258172,-0.057646904,-0.118101425,-0.13218588,-0.30114213,0.06752808,0.19507493,0.05643353,0.2215732,-0.30044365,0.04598967,0.2002191,0.053904343,0.21847019,-0.024645232,0.046213705,0.055935334,0.11977895,-0.05826013,0.112307176,0.0721066,0.0019665237,0.02799774,-0.13082477,0.2550085,0.94419706,-2.0,0.3086778,0.009361457,2.0,-1.4100993,1.7760768,2.0,-2.0,-0.70318747,-0.58505225,-1.1163282,-2.0,-2.0,0.8027651,2.0,2.0,-1.2841704,-1.3741138,2.0,-2.0,-0.78149736,-2.0
2025-07-19 14:42:53.016,1.0600000000000005,1060,53,-0.008192454,0.004705338,-0.09784558,-0.070179544,-0.038453322,-0.011283039,0.0,0.0,0.0,0.0,-0.0060039493,-0.054913703,-0.1487361,-0.12185895,-0.2659157,0.10845491,0.1566903,0.071012005,0.23475507,-0.30639037,0.018651005,0.110029854,-0.04597294,-0.10550535,-0.13476348,-0.018040944,0.08222875,0.11096908,-0.17042209,-0.021970019,-0.021187657,-0.032375894,-0.16427784,-0.24384555,-1.1163282,-2.0,-2.0,0.8027651,2.0,2.0,-1.2841704,-1.3741138,2.0,-2.0,-0.78149736,-2.0,0.38631594,-2.0,-2.0,1.9041839,2.0,0.8298787,-0.10093317,-2.0,2.0,-2.0,0.37973285,-2.0
2025-07-19 14:42:53.033,1.0800000000000005,1080,54,0.07452899,-0.13757949,0.09972328,0.0015194438,0.021540008,0.04472492,0.0,0.0,0.0,0.0,-0.005941922,-0.12886485,-0.17756703,-0.108674,-0.2383066,0.089436516,0.13593195,0.07897398,0.24566121,-0.3082623,-0.0041698795,0.035357065,0.052441843,-0.24397506,-0.0872207,0.07972435,0.12535931,-0.061555464,-0.03298323,0.087082244,0.043279804,0.006152413,0.13740472,-0.17318931,0.38631594,-2.0,-2.0,1.9041839,2.0,0.8298787,-0.10093317,-2.0,2.0,-2.0,0.37973285,-2.0,1.8861636,-2.0,0.93472195,2.0,2.0,-2.0,-2.0,-2.0,2.0,-2.0,-2.0,-0.53069496
2025-07-19 14:42:53.053,1.1000000000000005,1100,55,-0.2024051,-0.18981738,-0.10315007,0.011271586,0.005568749,0.025342457,0.0,0.0,0.0,0.0,0.045629155,-0.25815764,-0.1338152,-0.06439312,-0.16795123,0.026191102,0.10746108,0.073351994,0.26140913,-0.32736668,-0.037235703,0.026767924,0.1483276,-0.2690507,0.1832965,0.057680383,0.13311437,-0.24816722,-0.034887176,-0.06022964,0.0327935,0.0001773876,-0.20303275,-0.064157076,1.8861636,-2.0,0.93472195,2.0,2.0,-2.0,-2.0,-2.0,2.0,-2.0,-2.0,-0.53069496,2.0,-2.0,2.0,1.3574721,2.0,-2.0,-2.0,-0.7091306,0.73821574,-2.0,1.1031523,2.0
2025-07-19 14:42:53.073,1.1200000000000006,1120,56,-0.21092066,-0.07040072,-0.007585768,-0.050851088,-0.003094067,-0.0044189743,0.0,0.0,0.0,0.0,0.09944889,-0.35013044,-0.04813077,-0.013455754,-0.111724526,-0.04904238,0.082085066,0.07966653,0.24659629,-0.31947652,-0.06326201,0.053510934,0.12635116,-0.29816514,0.11948972,0.005555084,0.18734027,-0.09976028,-0.1290408,-0.07893645,-0.112263046,0.035983242,0.051693343,0.10629146,2.0,-2.0,2.0,1.3574721,2.0,-2.0,-2.0,-0.7091306,0.73821574,-2.0,1.1031523,2.0,1.7123926,-2.0,2.0,0.948397,1.2528541,-2.0,-0.95912576,2.0,-0.788377,-0.056100868,0.50818604,2.0
2025-07-19 14:42:53.093,1.1400000000000006,1140,57,0.04268448,-0.1487531,0.0076247067,0.02488658,-0.038055696,-0.023304496,0.0,0.0,0.0,0.0,0.13768885,-0.436125,0.015706068,0.007976602,-0.044615503,-0.10789603,0.040649362,0.1432238,0.17818974,-0.29155838,-0.014478932,0.10945914,0.03209307,-0.11727674,0.18043947,0.12551272,0.18941896,-0.08708743,-0.10168947,0.23491633,-0.12492539,0.13724722,0.14493667,0.04369127,1.7123926,-2.0,2.0,0.948397,1.2528541,-2.0,-0.95912576,2.0,-0.788377,-0.056100868,0.50818604,2.0,-0.063544065,-0.65948135,2.0,0.19081314,-0.916041,-2.0,1.8362906,0.5432231,-2.0,0.39923152,-1.8345951,2.0
2025-07-19 14:42:53.125,1.1600000000000006,1160,58,-0.0064608217,-0.3370559,-0.05012084,-0.024901085,0.058272947,-0.03395169,0.0,0.0,0.0,0.0,0.11303437,-0.46292478,0.05703156,0.003196409,0.010752654,-0.13753441,0.065116175,0.17543985,0.10742328,-0.2230885,-0.03604604,0.14444299,-0.12187809,0.07560025,0.144333,-0.015779756,-0.023981001,-0.07356504,0.18279853,0.056499988,-0.18823712,0.091113426,-0.20100874,0.057927582,-0.063544065,-0.65948135,2.0,0.19081314,-0.916041,-2.0,1.8362906,0.5432231,-2.0,0.39923152,-1.8345951,2.0,-1.3433185,-1.7728204,2.0,0.077461764,0.34080532,-2.0,2.0,-0.44132107,0.18779655,-1.1683328,0.7907364,2.0
2025-07-19 14:42:53.175,1.1800000000000006,1180,59,-0.03929375,0.33196375,0.1752507,0.056280445,-0.015413386,-0.046213925,0.0,0.0,0.0,0.0,0.071455695,-0.46504867,0.09693534,-0.0038151648,0.019811846,-0.16935062,0.12083546,0.14607401,0.09062216,-0.21293914,-0.030715078,0.17317918,-0.047635987,-0.040629372,0.026336517,-0.028325573,0.056119043,-0.020207368,0.06621222,-0.19976494,-0.08883947,-0.042350184,0.1923164,0.08971697,-1.3433185,-1.7728204,2.0,0.077461764,0.34080532,-2.0,2.0,-0.44132107,0.18779655,-1.1683328,0.7907364,2.0,-0.65338564,2.0,1.4368838,-1.4008603,-0.3900089,-2.0,2.0,2.0,2.0,-0.13954793,-2.0,2.0
2025-07-19 14:42:53.219,1.2000000000000006,1200,60,0.12928544,-0.034422122,0.023251727,-0.009701856,-0.010209761,0.020559102,0.0,0.0,0.0,0.0,0.055509467,-0.46267796,0.107906155,-0.027469268,0.03244983,-0.20225975,0.15112491,0.13749906,0.12417524,-0.19471325,-0.01454185,0.19409955,-0.090409055,-0.0038245113,0.016582867,-0.16096082,-0.10714473,-0.039446555,0.089053825,0.16071318,0.123226166,0.09472638,-0.027303362,0.09755196,-0.65338564,2.0,1.4368838,-1.4008603,-0.3900089,-2.0,2.0,2.0,2.0,-0.13954793,-2.0,2.0,-1.7747017,2.0,2.0,-2.0,-0.90402293,-2.0,2.0,-0.24752086,2.0,1.3818657,-2.0,2.0
2025-07-19 14:42:53.238,1.2200000000000006,1220,61,0.013564601,0.16837886,0.10111424,-0.01650551,-0.036850035,0.04060995,0.0,0.0,0.0,0.0,0.042824097,-0.45184976,0.13274945,-0.08036723,-0.049182504,-0.22491534,0.18134697,0.11745995,0.15924016,-0.19884422,-0.013999136,0.21867046,-0.064876124,-0.0045456416,0.094215065,-0.09715785,-0.13508406,-0.10652296,0.12587771,-0.1260155,0.042953588,-0.03743914,-0.039863966,0.066546865,-1.7747017,2.0,2.0,-2.0,-0.90402293,-2.0,2.0,-0.24752086,2.0,1.3818657,-2.0,2.0,-2.0,2.0,1.3216584,-2.0,-1.7649016,-0.9394501,2.0,2.0,2.0,2.0,-2.0,2.0
2025-07-19 14:42:53.258,1.2400000000000007,1240,62,0.13126457,0.04116732,0.047496032,-0.032969285,-0.020957597,0.008420628,0.0,0.0,0.0,0.0,0.03385452,-0.42435476,0.12720346,-0.13691327,-0.14038886,-0.1984031,0.21250716,0.13308492,0.18431346,-0.19324993,-0.019602401,0.24208477,-0.08991738,0.015432544,-0.019047162,-0.13685752,-0.33494228,0.03168008,0.013852525,0.118884765,0.033552777,-0.030543815,0.03860192,0.031842675,-2.0,2.0,1.3216584,-2.0,-1.7649016,-0.9394501,2.0,2.0,2.0,2.0,-2.0,2.0,-2.0,2.0,-0.97367495,-2.0,-2.0,1.9596066,2.0,0.46060902,2.0,1.8129765,-2.0,2.0
2025-07-19 14:42:53.278,1.2600000000000007,1260,63,-0.020415582,-0.10301401,0.10676522,-0.001862032,0.0044846763,-0.016814074,0.0,0.0,0.0,0.0,0.0073832967,-0.37941462,0.08246831,-0.16409451,-0.26502147,-0.1295117,0.23620535,0.14679867,0.21168949,-0.16363055,-0.02013904,0.24922152,-0.11957367,0.17564303,-0.14235629,-0.06256087,-0.28940296,0.14659636,0.057175905,-0.043977957,0.05252898,0.03230096,-0.02337957,0.079312935,-2.0,2.0,-0.97367495,-2.0,-2.0,1.9596066,2.0,0.46060902,2.0,1.8129765,-2.0,2.0,-0.36920366,2.0,-2.0,-1.8583734,-2.0,2.0,2.0,-0.71031195,2.0,-1.616507,1.0663135,2.0
2025-07-19 14:42:53.299,1.2800000000000007,1280,64,0.13381569,0.15131047,0.14160588,-0.042301193,0.04513225,0.031688612,0.0,0.0,0.0,0.0,-0.008518667,-0.30230147,0.010062009,-0.20029981,-0.36316955,-0.05333522,0.2516431,0.10041417,0.23404352,-0.18113416,0.011384103,0.25756183,-0.059709124,0.24439985,-0.1343388,-0.06374253,-0.2427568,0.14612271,-0.020281227,-0.19397642,0.06750482,-0.015915584,0.18722828,0.015624078,-0.36920366,2.0,-2.0,-1.8583734,-2.0,2.0,2.0,-0.71031195,2.0,-1.616507,1.0663135,2.0,1.1128159,2.0,-2.0,0.46350247,-0.16704386,2.0,0.1584425,1.1541917,2.0,-1.7619569,1.6094651,2.0
2025-07-19 14:42:53.319,1.3000000000000007,1300,65,0.5062487,0.058180656,-0.008135303,-0.0064478233,0.04880157,0.018241704,0.0,0.0,0.0,0.0,0.015692106,-0.18787055,-0.04629608,-0.14710817,-0.39136684,0.018469375,0.23886245,0.10913143,0.23411384,-0.21128032,0.09631551,0.26648578,0.030495942,0.3533649,-0.067432754,0.19044197,0.09415041,0.19651902,-0.08246208,0.10966615,0.016086606,-0.0921103,0.33714315,0.069498196,1.1128159,2.0,-2.0,0.46350247,-0.16704386,2.0,0.1584425,1.1541917,2.0,-1.7619569,1.6094651,2.0,0.6083114,-1.6234136,-2.0,-0.59467334,-0.15612145,2.0,-2.0,-0.6130211,2.0,-2.0,-1.3445911,-2.0
2025-07-19 14:42:53.339,1.3200000000000007,1320,66,-0.3472005,0.297294,-0.0026524498,-0.098484345,0.0015041708,0.029024554,0.0,0.0,0.0,0.0,0.030236216,-0.13902071,-0.103514545,-0.1458526,-0.3376437,0.07046111,0.16874805,0.13175216,0.25170818,-0.23738009,0.16692138,0.19236884,0.028278798,-0.08821336,-0.10062798,0.0003645949,0.18367155,0.10115516,-0.22718564,-0.037474778,0.08970467,0.005397873,-0.012067986,-0.212678,0.6083114,-1.6234136,-2.0,-0.59467334,-0.15612145,2.0,-2.0,-0.6130211,2.0,-2.0,-1.3445911,-2.0,-0.6177584,-2.0,-0.8677817,2.0,2.0,1.5455722,-0.009881087,-1.0650802,2.0,-2.0,-2.0,-2.0
2025-07-19 14:42:53.359,1.3400000000000007,1340,67,-0.1493693,-0.11354722,0.058086764,0.010268479,-0.027770305,-0.04427142,0.0,0.0,0.0,0.0,0.021955272,-0.20820302,-0.102518804,-0.14453423,-0.30236325,0.08933959,0.14899194,0.107909,0.2766996,-0.24772088,0.10943317,0.10256257,-0.05771019,-0.32940117,-0.07842737,0.03772576,-0.019921785,0.029827842,-0.07310261,-0.037715435,0.0069724256,0.023243576,-0.26791033,-0.21880145,-0.6177584,-2.0,-0.8677817,2.0,2.0,1.5455722,-0.009881087,-1.0650802,2.0,-2.0,-2.0,-2.0,2.0,-2.0,1.5057232,2.0,2.0,-2.0,-2.0,-2.0,2.0,-2.0,0.3043912,-1.6348068
2025-07-19 14:42:53.382,1.3600000000000008,1360,68,-0.12517565,-0.16147624,0.12759925,0.017792983,-0.037468195,0.020349203,0.0,0.0,0.0,0.0,0.05355867,-0.32685483,-0.04256873,-0.10832364,-0.23876314,0.0025836895,0.13772705,0.08137785,0.2835982,-0.26287594,0.091196164,0.036776558,0.14876443,-0.2875946,0.14146021,0.094295084,0.089621946,-0.14516756,0.036144994,-0.0772072,0.08141662,-0.08755085,0.057472028,-0.1248221,2.0,-2.0,1.5057232,2.0,2.0,-2.0,-2.0,-2.0,2.0,-2.0,0.3043912,-1.6348068,1.8927283,-2.0,2.0,1.2463155,2.0,-2.0,-2.0,2.0,0.43940932,-2.0,-2.0,2.0
2025-07-19 14:42:53.399,1.3800000000000008,1380,69,0.046380006,0.012316356,-0.10537121,-0.017342437,-0.05267969,0.022434227,0.0,0.0,0.0,0.0,0.09922748,-0.39661625,0.011355912,-0.070053935,-0.20168947,-0.060780864,0.11119267,0.13067193,0.23427589,-0.28693724,0.031072702,0.0797064,0.14534917,-0.08986777,0.13710006,0.087630436,0.08733559,-0.2030132,-0.15899087,0.2403596,-0.14004624,-0.059974458,-0.25933734,0.18775034,1.8927283,-2.0,2.0,1.2463155,2.0,-2.0,-2.0,2.0,0.43940932,-2.0,-2.0,2.0,2.0,-2.0,2.0,0.31101742,2.0,-2.0,-0.8748814,-1.2624438,-2.0,-0.7215748,1.597863,2.0
2025-07-19 14:42:53.419,1.4000000000000008,1400,70,-0.05389954,0.07072449,0.0869976,0.018056272,-0.024732066,0.025606254,0.0,0.0,0.0,0.0,0.14562789,-0.4800936,0.056466643,-0.056255374,-0.1378598,-0.111404955,0.061320473,0.19714804,0.15402207,-0.26466668,0.018291233,0.107644066,0.0644698,-0.245096,0.107135184,-0.020594511,0.12453968,-0.11252229,-0.12514023,0.15865177,-0.14017847,0.018350955,0.09004855,0.07966827,2.0,-2.0,2.0,0.31101742,2.0,-2.0,-0.8748814,-1.2624438,-2.0,-0.7215748,1.597863,2.0,0.3434535,-0.07373235,2.0,0.87172514,1.8952806,-2.0,1.0945735,1.4027157,-2.0,-2.0,-1.5179944,2.0
2025-07-19 14:42:53.439,1.4200000000000008,1420,71,0.18102996,-0.10295921,-0.12657103,-0.026945215,0.019715236,0.0011075714,0.0,0.0,0.0,0.0,0.14845264,-0.4754064,0.096201696,-0.032402035,-0.056630794,-0.15863267,0.091544524,0.26365465,0.076435976,-0.27122024,0.014230547,0.15579978,-0.061272845,0.060634557,0.02488653,0.14295048,0.2048302,-0.04623909,0.023260843,0.116185725,-0.14982931,-0.036725666,-0.048304096,0.106651686,0.3434535,-0.07373235,2.0,0.87172514,1.8952806,-2.0,1.0945735,1.4027157,-2.0,-2.0,-1.5179944,2.0,-1.2041242,-2.0,2.0,-0.3354974,1.3287663,-2.0,2.0,-1.0832641,0.98092407,-0.91866994,-0.6738896,2.0
2025-07-19 14:42:53.459,1.4400000000000008,1440,72,-0.07813502,-0.05274418,0.13875267,-0.06252239,0.00029801682,0.0007551723,0.0,0.0,0.0,0.0,0.12281094,-0.492758,0.123462275,-0.03852364,0.03806204,-0.19219899,0.11735505,0.24762143,0.0774494,-0.2651963,0.0033945087,0.1746622,-0.12590939,-0.09909799,0.11623474,0.02711529,0.28480518,-0.035757013,0.14036344,-0.13960905,0.039929084,0.050465304,-0.06742249,0.0477345,-1.2041242,-2.0,2.0,-0.3354974,1.3287663,-2.0,2.0,-1.0832641,0.98092407,-0.91866994,-0.6738896,2.0,0.9778225,1.7171153,2.0,-0.5776679,-0.27360198,-2.0,1.9180572,1.6847827,2.0,-0.6327027,-2.0,2.0
2025-07-19 14:42:53.482,1.4600000000000009,1460,73,0.121508546,-0.15565005,-0.1550076,0.012489865,-0.016023748,0.02913841,0.0,0.0,0.0,0.0,0.14495672,-0.50128365,0.14917196,-0.038472004,0.056322154,-0.20962544,0.14975587,0.22848871,0.12918998,-0.25242805,-0.020269593,0.20745333,0.0868819,0.07274942,0.07345552,-0.07401284,-0.07333562,-0.115271434,0.072345965,0.08372019,0.073225185,-0.013573137,-0.06964435,0.023119,0.9778225,1.7171153,2.0,-0.5776679,-0.27360198,-2.0,1.9180572,1.6847827,2.0,-0.6327027,-2.0,2.0,-2.0,1.153375,2.0,-2.0,-0.8424166,-2.0,2.0,-2.0,2.0,0.25223812,-2.0,2.0
2025-07-19 14:42:53.499,1.4800000000000009,1480,74,-0.059137285,0.034469742,-0.11235891,-0.034701306,0.07407998,0.0036005492,0.0,0.0,0.0,0.0,0.14064145,-0.50290394,0.1754032,-0.08888014,-0.004883564,-0.22445782,0.1972623,0.21410093,0.15205728,-0.23376714,-0.050774433,0.2332593,-0.04340764,-0.037613593,0.012889194,-0.06892583,-0.13996793,0.004456127,0.12776987,-0.13361,0.020496126,0.056490306,-0.13281149,0.080656365,-2.0,1.153375,2.0,-2.0,-0.8424166,-2.0,2.0,-2.0,2.0,0.25223812,-2.0,2.0,-1.528015,2.0,1.6611376,-2.0,-1.6464889,-0.52303714,2.0,-1.5480609,2.0,2.0,-0.6466405,2.0
2025-07-19 14:42:53.519,1.5000000000000009,1500,75,-0.019734308,0.04679899,-0.018553374,-0.038701694,-0.0034252838,0.029419502,0.0,0.0,0.0,0.0,0.1285658,-0.48171225,0.16788766,-0.13896553,-0.10534644,-0.20835207,0.21098308,0.10942852,0.17506534,-0.24173202,-0.09754842,0.2343834,-0.049383614,0.033536617,0.036804687,-0.10241396,-0.33939493,0.03415424,0.019500103,-0.26060718,0.1339491,-0.016659593,-0.047803942,0.009331363,-1.528015,2.0,1.6611376,-2.0,-1.6464889,-0.52303714,2.0,-1.5480609,2.0,2.0,-0.6466405,2.0,-1.8684486,2.0,-1.8809147,-2.0,-2.0,2.0,2.0,1.088788,2.0,1.4820623,-1.237845,2.0
2025-07-19 14:42:53.539,1.520000000000001,1520,76,0.008924637,-0.10883666,-0.015025072,0.031745564,0.014433973,0.03239615,0.0,0.0,0.0,0.0,0.10824171,-0.4395201,0.09336118,-0.16728388,-0.23978518,-0.1237804,0.23839428,0.06228295,0.19619012,-0.21775831,-0.13167006,0.26380357,-0.045086063,0.14529349,-0.19782655,-0.02923657,-0.31380615,0.2540687,0.09430088,-0.03700891,0.1072473,0.013272411,-0.11432615,0.01696911,-1.8684486,2.0,-1.8809147,-2.0,-2.0,2.0,2.0,1.088788,2.0,1.4820623,-1.237845,2.0,-0.067555815,2.0,-2.0,-1.5764105,-2.0,2.0,2.0,-0.12177652,2.0,-1.8526053,2.0,2.0
2025-07-19 14:42:53.562,1.540000000000001,1540,77,-0.0018572733,0.10400899,0.1038851,0.037918914,-0.013850175,-0.014229096,0.0,0.0,0.0,0.0,0.09184473,-0.36897996,0.01581623,-0.18089923,-0.3372731,-0.052344177,0.25962397,0.055530634,0.21514514,-0.23162138,-0.11231432,0.26890382,-0.11497891,0.15832473,-0.1269075,-0.04819093,-0.22809915,0.15551916,0.11616382,-0.11610571,0.11015983,-0.020027917,0.11916295,-0.048230864,-0.067555815,2.0,-2.0,-1.5764105,-2.0,2.0,2.0,-0.12177652,2.0,-1.8526053,2.0,2.0,1.059233,2.0,-2.0,0.15891024,-0.65007174,2.0,-0.47611803,1.7327797,2.0,-1.9654675,2.0,2.0
2025-07-19 14:42:53.583,1.560000000000001,1560,78,0.14637971,0.326606,-0.08458688,-0.031888023,0.021512005,0.025842119,0.0,0.0,0.0,0.0,0.092730895,-0.26968983,-0.042473838,-0.1600725,-0.3602806,0.01720337,0.22880934,0.09044489,0.22955538,-0.26193225,-0.042053748,0.25954017,0.06607831,0.24431925,-0.13974008,0.048199043,-0.030146196,0.20050408,-0.05007447,0.07843403,0.022076078,-0.06228625,0.1740182,0.054507796,1.059233,2.0,-2.0,0.15891024,-0.65007174,2.0,-0.47611803,1.7327797,2.0,-1.9654675,2.0,2.0,-0.3633726,1.6484689,-2.0,-1.3085369,0.3172088,2.0,-2.0,0.5385201,2.0,-1.635109,1.671675,-2.0
2025-07-19 14:42:53.600,1.580000000000001,1580,79,-0.19453864,0.6277119,-0.016269613,-0.08637666,-0.047042325,-0.0056862966,0.0,0.0,0.0,0.0,0.07005216,-0.13028961,-0.090023175,-0.16174218,-0.29704836,0.066199355,0.17429508,0.11997705,0.24003206,-0.277377,0.090676,0.1831526,-0.020439075,0.45333737,-0.12058476,-0.12873426,0.2307326,0.02886799,-0.23162177,0.091564514,-0.035493035,-0.000360647,0.36336678,-0.24426459,-0.3633726,1.6484689,-2.0,-1.3085369,0.3172088,2.0,-2.0,0.5385201,2.0,-1.635109,1.671675,-2.0,-2.0,-2.0,-2.0,2.0,2.0,2.0,0.056417696,-2.0,2.0,-2.0,-1.7196956,-2.0
2025-07-19 14:42:53.620,1.600000000000001,1600,80,-0.046203084,0.12973967,0.12765284,-0.08798458,-0.042554155,0.046374194,0.0,0.0,0.0,0.0,0.006202558,-0.05637037,-0.13352725,-0.19668925,-0.2502004,0.09476292,0.16804808,0.13533388,0.26916006,-0.29132167,0.12919775,0.08551389,-0.22097638,0.025430564,-0.06416053,0.039535407,0.048828788,0.0782787,-0.08771043,-0.059323166,-0.0006321243,-0.07307014,-0.015859205,-0.23132715,-2.0,-2.0,-2.0,2.0,2.0,2.0,0.056417696,-2.0,2.0,-2.0,-1.7196956,-2.0,2.0,-2.0,-2.0,2.0,2.0,0.6911317,-1.8068143,-2.0,2.0,-2.0,-2.0,-2.0
2025-07-19 14:42:53.640,1.620000000000001,1620,81,-0.08127708,-0.27205914,0.013851614,-0.009344421,-0.016285777,-0.006973807,0.0,0.0,0.0,0.0,0.03096445,-0.10995824,-0.159965,-0.17090651,-0.23937619,0.0830615,0.16288714,0.11612882,0.28074938,-0.29790762,0.051461585,0.023213865,0.14336993,-0.25710818,-0.060151998,0.009344035,0.07945289,0.037742116,-0.06824972,-0.021987153,0.10088318,-0.023644071,-0.2518463,-0.2184005,2.0,-2.0,-2.0,2.0,2.0,0.6911317,-1.8068143,-2.0,2.0,-2.0,-2.0,-2.0,1.8153576,-2.0,0.56750745,2.0,2.0,-2.0,-2.0,-2.0,2.0,-2.0,-1.5628806,0.47873074
2025-07-19 14:42:53.664,1.640000000000001,1640,82,-0.24765654,-0.10206566,0.0032101776,-0.034932837,-0.0054203235,0.044343688,0.0,0.0,0.0,0.0,0.071699046,-0.23268987,-0.11215091,-0.15745305,-0.1925984,0.0014540209,0.1403976,0.09284798,0.28003356,-0.29156467,-0.075515136,0.03137847,0.07961367,-0.30286357,0.027322417,0.07324316,0.17703225,-0.23995563,-0.088070884,-0.05360499,0.06722067,-0.091263376,-0.3112826,0.0191142,1.8153576,-2.0,0.56750745,2.0,2.0,-2.0,-2.0,-2.0,2.0,-2.0,-1.5628806,0.47873074,2.0,-2.0,2.0,1.5499932,2.0,-2.0,-2.0,1.0427077,0.8961696,-1.831721,2.0,2.0
2025-07-19 14:42:53.682,1.660000000000001,1660,83,0.11399409,-0.1035587,-0.0541529,-0.011128413,-0.013053513,0.026229544,0.0,0.0,0.0,0.0,0.13109785,-0.34548697,-0.041896015,-0.11454488,-0.12503211,-0.058681715,0.120166,0.14286816,0.25496432,-0.30366236,-0.100930415,0.07283862,0.15444876,-0.28006047,0.14108627,0.086070515,0.21085879,-0.2001601,-0.03354477,0.2223831,-0.05529589,-0.07540608,0.10534462,0.17714135,2.0,-2.0,2.0,1.5499932,2.0,-2.0,-2.0,1.0427077,0.8961696,-1.831721,2.0,2.0,1.2272626,-2.0,2.0,0.4665266,0.28137806,-2.0,0.56130725,-0.942337,-2.0,-0.1956637,0.3138099,2.0
2025-07-19 14:42:53.700,1.680000000000001,1680,84,0.014337842,-0.32862076,0.07244288,0.039108966,0.033129167,0.043951258,0.0,0.0,0.0,0.0,0.14510338,-0.42829692,0.015007926,-0.0851132,-0.0807495,-0.10060032,0.11423688,0.17308505,0.16944556,-0.2644123,-0.07761081,0.11759007,0.049881216,-0.22447121,0.09314794,0.02362302,0.13869339,-0.16973925,0.051183395,-0.051509526,-0.21551083,0.112984754,0.11820479,0.09502224,1.2272626,-2.0,2.0,0.4665266,0.28137806,-2.0,0.56130725,-0.942337,-2.0,-0.1956637,0.3138099,2.0,0.20053515,-0.57554615,2.0,1.2283884,0.48106042,-2.0,1.412428,2.0,-2.0,-2.0,-1.028123,2.0
2025-07-19 14:42:53.720,1.700000000000001,1700,85,0.2745902,-0.08739582,-0.12175835,0.04017181,-0.012331273,0.017662661,0.0,0.0,0.0,0.0,0.1360696,-0.45059925,0.054585982,-0.04374986,-0.038089294,-0.12962842,0.124117196,0.20644017,0.0874985,-0.26483312,-0.084064536,0.14764829,0.03314727,-0.039990112,0.09241526,0.12022166,0.077973515,-0.09627744,0.0010867704,0.16990061,-0.15488666,-0.019278044,-0.11968513,0.0660398,0.20053515,-0.57554615,2.0,1.2283884,0.48106042,-2.0,1.412428,2.0,-2.0,-2.0,-1.028123,2.0,-0.69401544,-2.0,2.0,-0.5615914,0.64550334,-2.0,2.0,-1.8301265,0.7953245,-1.5844554,2.0,2.0
2025-07-19 14:42:53.741,1.720000000000001,1720,86,0.042116236,0.18934987,0.3389971,-0.053505603,0.06027809,0.0008708857,0.0,0.0,0.0,0.0,0.12899962,-0.474664,0.10706853,-0.050611068,0.028677734,-0.16460338,0.16311671,0.22101064,0.095752336,-0.29405144,-0.060355928,0.17165405,-0.0431663,-0.1718458,0.10559533,-0.068939686,0.14324929,-0.12615207,0.09356724,-0.120351374,-0.04400678,-0.049981583,0.07876089,0.05021544,-0.69401544,-2.0,2.0,-0.5615914,0.64550334,-2.0,2.0,-1.8301265,0.7953245,-1.5844554,2.0,2.0,1.2203695,2.0,2.0,-0.751386,-0.04075857,-2.0,1.0378512,2.0,2.0,-1.7165382,-2.0,2.0
2025-07-19 14:42:53.824,1.740000000000001,1740,87,0.042041484,-0.033478033,-0.15681008,0.013608527,-0.0024056735,0.037527222,0.0,0.0,0.0,0.0,0.13786447,-0.47579935,0.12537752,-0.07206867,0.028474325,-0.18926226,0.17788224,0.2284695,0.11290243,-0.29475653,-0.05984471,0.19436927,0.075833924,0.07463814,0.070019215,-0.09488839,-0.04308567,-0.0756018,-0.021945663,0.17972445,0.09290985,0.043174755,-0.051707745,0.02485118,1.2203695,2.0,2.0,-0.751386,-0.04075857,-2.0,1.0378512,2.0,2.0,-1.7165382,-2.0,2.0,-1.793959,-0.14514288,2.0,-2.0,-0.7816054,-2.0,2.0,-2.0,2.0,-0.39238897,-2.0,2.0
2025-07-19 14:42:53.875,1.7600000000000011,1760,88,-0.076302715,0.11113992,-0.077838816,0.029285809,0.007906654,0.028049115,0.0,0.0,0.0,0.0,0.1528512,-0.45977417,0.15267666,-0.11188356,-0.01716932,-0.22315075,0.19843312,0.21270724,0.16367371,-0.28794327,-0.08669984,0.22760926,-0.08082824,0.028487263,0.059828646,-0.04983726,-0.19501674,-0.016288074,0.05978524,-0.080042355,0.12783292,0.058768008,-0.08903676,0.013549808,-1.793959,-0.14514288,2.0,-2.0,-0.7816054,-2.0,2.0,-2.0,2.0,-0.39238897,-2.0,2.0,-1.1606107,2.0,1.4484566,-2.0,-0.92135006,-0.41168666,2.0,-2.0,2.0,2.0,-1.4525219,2.0
2025-07-19 14:42:53.888,1.7800000000000011,1780,89,-0.12057314,0.04132044,0.016427148,-0.009120281,-0.028582554,-0.03875082,0.0,0.0,0.0,0.0,0.14550331,-0.4575605,0.14674097,-0.15241465,-0.08269739,-0.18384117,0.23497123,0.13771123,0.177621,-0.29167637,-0.10531517,0.24107568,-0.036310937,0.09017397,0.0069848853,-0.12116595,-0.15289949,-0.007584084,0.09541722,-0.16565406,0.0228695,0.07716072,-0.04139592,0.075743765,-1.1606107,2.0,1.4484566,-2.0,-0.92135006,-0.41168666,2.0,-2.0,2.0,2.0,-1.4525219,2.0,-1.9581581,2.0,-0.16903204,-2.0,-2.0,2.0,2.0,-0.3539192,2.0,1.0261786,-1.9286871,2.0
2025-07-19 14:42:53.908,1.8000000000000012,1800,90,-0.15867098,0.004451829,-0.104818374,-0.04136693,-0.013926041,-0.0020670984,0.0,0.0,0.0,0.0,0.12556203,-0.41853726,0.10099177,-0.18736883,-0.1927088,-0.098375075,0.23634413,0.06975924,0.20474666,-0.2944539,-0.1573919,0.25322336,-0.08885761,0.11829225,-0.10658303,-0.024686798,-0.25865617,0.2372825,0.044022255,-0.10731134,-0.019129403,-0.0014925294,-0.07174481,0.03598236,-1.9581581,2.0,-0.16903204,-2.0,-2.0,2.0,2.0,-0.3539192,2.0,1.0261786,-1.9286871,2.0,-1.3977469,2.0,-2.0,-2.0,-2.0,2.0,2.0,-0.17890781,2.0,-0.7261424,2.0,2.0
2025-07-19 14:42:53.928,1.8200000000000012,1820,91,0.038392965,0.09973304,0.17422722,-0.022018189,0.011650838,0.027020631,0.0,0.0,0.0,0.0,0.08280491,-0.36362654,0.024934702,-0.21320613,-0.30622485,-0.036486376,0.26077846,0.047939837,0.23315477,-0.26815084,-0.1442092,0.2656286,-0.060669888,0.24049255,-0.11580905,-0.06710575,-0.19447511,0.21302684,0.1162216,-0.110290855,0.09051792,0.07428928,0.16574292,0.040851437,-1.3977469,2.0,-2.0,-2.0,-2.0,2.0,2.0,-0.17890781,2.0,-0.7261424,2.0,2.0,0.97891444,2.0,-2.0,0.827597,-2.0,2.0,1.0154543,0.6496454,2.0,-2.0,2.0,2.0
2025-07-19 14:42:53.948,1.8400000000000012,1840,92,0.37586585,-0.0631585,0.050959088,0.014263332,0.02782316,-0.017464887,0.0,0.0,0.0,0.0,0.090256855,-0.25939658,-0.02336407,-0.17636399,-0.3880354,0.020875502,0.24943054,0.08644559,0.24356383,-0.29144382,-0.08087874,0.26903224,-0.02179073,0.28094816,-0.14444757,0.18328093,-0.19878021,0.15751667,0.02745367,0.15346995,0.0096935695,-0.086855195,0.14312974,0.0050107786,0.97891444,2.0,-2.0,0.827597,-2.0,2.0,1.0154543,0.6496454,2.0,-2.0,2.0,2.0,0.71446025,2.0,-2.0,-1.7404276,0.71535647,2.0,-2.0,0.6363527,2.0,-2.0,2.0,-1.0919127
2025-07-19 14:42:53.968,1.8600000000000012,1860,93,0.07885907,0.4766235,0.07691299,-0.034169924,-0.029898878,-0.04697493,0.0,0.0,0.0,0.0,0.09839026,-0.13624853,-0.07387361,-0.1859567,-0.422946,0.070140734,0.21805719,0.12023256,0.25612742,-0.30073982,0.027644392,0.19541658,0.081732094,0.3596487,-0.07432353,-0.048164915,0.13437413,0.109952465,-0.086191565,0.0702797,-0.04658598,-0.04422104,0.33576855,-0.11524063,0.71446025,2.0,-2.0,-1.7404276,0.71535647,2.0,-2.0,0.6363527,2.0,-2.0,2.0,-1.0919127,-0.5503533,-2.0,-2.0,2.0,2.0,2.0,-1.3331474,-2.0,2.0,-2.0,-1.5826087,-2.0
2025-07-19 14:42:53.988,1.8800000000000012,1880,94,-0.18495113,0.101100236,0.01799426,-0.0058114873,-0.0020782046,0.037104063,0.0,0.0,0.0,0.0,0.07997547,-0.08331355,-0.1159147,-0.17647405,-0.36820742,0.10219287,0.17311323,0.11642345,0.27476883,-0.32403368,0.11015127,0.1029021,-0.047590975,-0.011713615,-0.14983569,0.02138898,0.10566208,0.064160936,-0.16091616,0.020552756,-0.0210948,0.012874991,0.07980329,-0.2674066,-0.5503533,-2.0,-2.0,2.0,2.0,2.0,-1.3331474,-2.0,2.0,-2.0,-1.5826087,-2.0,0.9901788,-2.0,-2.0,2.0,2.0,1.2124813,-0.8096018,-2.0,2.0,-2.0,-2.0,-2.0
2025-07-19 14:42:54.008,1.9000000000000012,1900,95,-0.14721517,-0.26043588,-0.034026057,-0.08144041,-0.07010177,-0.015275218,0.0,0.0,0.0,0.0,0.07962876,-0.1506857,-0.15062946,-0.17754236,-0.35571435,0.11254422,0.1568947,0.11647828,0.27405125,-0.3207851,0.06965163,0.03688853,0.020939572,-0.25740278,-0.10674243,0.006321463,-0.045085162,0.04443627,-0.025705708,-0.029453633,0.028155984,-0.061740473,-0.24414046,-0.10715588,0.9901788,-2.0,-2.0,2.0,2.0,1.2124813,-0.8096018,-2.0,2.0,-2.0,-2.0,-2.0,2.0,-2.0,1.3323231,2.0,2.0,-2.0,-2.0,-2.0,2.0,-2.0,0.07389815,-1.0486959
2025-07-19 14:42:54.032,1.9200000000000013,1920,96,-0.23461373,-0.19478047,-0.034581754,-0.0035913058,-0.041830804,-0.04205609,0.0,0.0,0.0,0.0,0.119577594,-0.2745624,-0.103870966,-0.13831532,-0.31263298,0.031035213,0.108181976,0.08819898,0.28907487,-0.32733977,0.03788372,0.0062055984,0.09033801,-0.30493614,0.09044323,0.13110408,0.08523402,-0.21523117,-0.14004816,-0.06511822,0.03547164,-0.061756488,0.032084573,-0.12295956,2.0,-2.0,1.3323231,2.0,2.0,-2.0,-2.0,-2.0,2.0,-2.0,0.07389815,-1.0486959,2.0,-2.0,2.0,1.1131617,2.0,-2.0,-2.0,0.59303945,1.1967314,-1.6838744,-0.38644764,2.0
2025-07-19 14:42:54.048,1.9400000000000013,1940,97,-0.07529992,-0.1943066,-0.07689392,-0.012106785,-0.05898554,-0.043672044,0.0,0.0,0.0,0.0,0.169813,-0.3581552,-0.033221234,-0.09953757,-0.27987453,-0.034218643,0.08766222,0.11672884,0.2658331,-0.31513947,-0.0020363051,0.044715893,0.14434123,-0.22244224,0.17913343,0.15800591,0.08015006,-0.2176852,-0.14729503,0.06979429,-0.010407631,0.054537505,-0.062039822,0.060088962,2.0,-2.0,2.0,1.1131617,2.0,-2.0,-2.0,0.59303945,1.1967314,-1.6838744,-0.38644764,2.0,2.0,-2.0,2.0,0.4398338,2.0,-2.0,-1.559772,0.69834405,-1.2009763,0.20541488,0.87326175,2.0
2025-07-19 14:42:54.069,1.9600000000000013,1960,98,-0.11402888,-0.101187654,-0.043417614,0.03998106,-0.01090667,-0.0012708878,0.0,0.0,0.0,0.0,0.18698116,-0.45213005,0.03628702,-0.07482716,-0.22302163,-0.10292905,0.045058295,0.16446859,0.19011189,-0.2611463,0.02655195,0.08258612,0.022220027,-0.25008374,0.15316673,0.10765831,0.17419055,-0.11395485,-0.048297457,0.05284415,-0.24432635,0.20205314,0.19847327,0.067077175,2.0,-2.0,2.0,0.4398338,2.0,-2.0,-1.559772,0.69834405,-1.2009763,0.20541488,0.87326175,2.0,0.35709256,-0.2735701,2.0,0.45119694,2.0,-2.0,0.591213,2.0,-2.0,-0.067999505,-2.0,2.0
2025-07-19 14:42:54.089,1.9800000000000013,1980,99,0.29761827,-0.08349479,-0.055840652,-0.04051247,0.04989668,0.031982392,0.0,0.0,0.0,0.0,0.18875806,-0.46114588,0.066604525,-0.051708076,-0.14153542,-0.13241725,0.038769066,0.25016004,0.10759266,-0.2349552,0.042244747,0.12606424,0.050662003,0.11701823,0.070157945,0.038010217,0.27606615,-0.042566363,0.07925171,0.29475603,-0.26755312,0.039399546,-0.07585125,0.16514842,0.35709256,-0.2735701,2.0,0.45119694,2.0,-2.0,0.591213,2.0,-2.0,-0.067999505,-2.0,2.0,-1.059654,-1.4528996,2.0,0.3117405,0.77126735,-2.0,2.0,-0.39976746,-1.5889697,-1.2284608,-1.5770657,2.0
2025-07-19 14:42:54.109,2.0000000000000013,2000,100,0.008357063,0.07500596,0.025234517,-0.054829437,0.01089538,0.026363475,0.0,0.0,0.0,0.0,0.15938233,-0.4572347,0.10566171,-0.050154876,-0.057898145,-0.1704651,0.07670735,0.2732443,0.044746675,-0.22376734,0.01661091,0.15953808,-0.028832024,-0.06678581,0.15765384,-0.055795014,0.1793087,-0.04326027,0.1294509,-0.0555437,-0.18906842,0.065402046,-0.06026929,0.0409174,-1.059654,-1.4528996,2.0,0.3117405,0.77126735,-2.0,2.0,-0.39976746,-1.5889697,-1.2284608,-1.5770657,2.0,-0.8497913,-0.15423362,2.0,0.097753,1.3483527,-2.0,2.0,0.997758,2.0,-1.6317676,-1.6582742,2.0
2025-07-19 14:42:54.132,2.0200000000000014,2020,101,0.17004536,0.1580124,-0.08254921,0.011508454,-0.008401548,0.026678825,0.0,0.0,0.0,0.0,0.14806652,-0.45207226,0.13711548,-0.051171422,0.016442366,-0.2093612,0.13147086,0.28375864,0.07722989,-0.2364613,0.01334586,0.19909029,0.025698947,0.093195066,-0.014895777,0.04951012,0.26451164,-0.018685289,0.1731208,0.12937728,0.10880781,-0.043414876,-0.053153057,0.105772614,-0.8497913,-0.15423362,2.0,0.097753,1.3483527,-2.0,2.0,0.997758,2.0,-1.6317676,-1.6582742,2.0,-0.814768,0.49233094,2.0,-1.5048656,-0.8457019,-2.0,2.0,-2.0,2.0,0.3176352,-2.0,2.0
2025-07-19 14:42:54.173,2.0400000000000014,2040,102,0.028595705,0.049140174,-0.06523656,-0.008025741,0.015323804,0.043231465,0.0,0.0,0.0,0.0,0.124705315,-0.43803352,0.1655621,-0.08181623,0.049542595,-0.22525537,0.1645482,0.24011633,0.11691945,-0.26755822,0.004052288,0.21556595,0.020676969,0.050907683,0.061126757,-0.120265976,-0.034210693,-0.099662,0.12677085,-0.19926296,0.038114436,-0.0056341775,-0.008560115,0.052513503,-0.814768,0.49233094,2.0,-1.5048656,-0.8457019,-2.0,2.0,-2.0,2.0,0.3176352,-2.0,2.0,-1.9966671,2.0,2.0,-2.0,-1.713566,-0.77093744,2.0,-1.151917,2.0,2.0,-2.0,2.0
2025-07-19 14:42:54.193,2.0600000000000014,2060,103,-0.061280258,0.018461214,-0.076078765,-0.0005509056,-0.047739252,-0.022448545,0.0,0.0,0.0,0.0,0.09967217,-0.40644538,0.16148983,-0.11084476,-0.012841115,-0.2086439,0.20131183,0.14859457,0.15476117,-0.28523383,-0.026891839,0.24112459,-0.0145093715,-0.021310493,-0.038130462,-0.10982998,-0.27838773,0.078514956,0.031496786,-0.2645096,0.06695258,0.03020253,-0.15666227,0.010705505,-1.9966671,2.0,2.0,-2.0,-1.713566,-0.77093744,2.0,-1.151917,2.0,2.0,-2.0,2.0,-2.0,2.0,-1.160519,-2.0,-2.0,1.9039546,2.0,1.7689245,2.0,2.0,0.09272368,2.0
2025-07-19 14:42:54.213,2.0800000000000014,2080,104,0.11886437,-0.058422018,0.07090712,-0.061033275,0.0038122793,-0.04358096,0.0,0.0,0.0,0.0,0.065551095,-0.3620999,0.10731217,-0.1611142,-0.15331313,-0.12549423,0.21683557,0.12137307,0.18654357,-0.25999328,-0.027801873,0.24261366,-0.14876878,0.2289294,-0.13611662,-0.14881228,-0.39598027,0.25774688,6.7649395e-05,0.083484605,0.11380485,-0.012563203,0.11322087,0.06603636,-2.0,2.0,-1.160519,-2.0,-2.0,1.9039546,2.0,1.7689245,2.0,2.0,0.09272368,2.0,0.1040903,2.0,-2.0,-0.23240659,-2.0,2.0,2.0,-1.6290696,2.0,-0.20475484,0.13054784,2.0
2025-07-19 14:42:54.233,2.1000000000000014,2100,105,0.085705735,-0.29036337,0.07803043,-0.023566362,0.0023716614,0.012185777,0.0,0.0,0.0,0.0,0.06689269,-0.29204956,0.02251531,-0.1409052,-0.2806013,-0.048519388,0.24231668,0.10203751,0.21041778,-0.24952118,-0.0022515876,0.26345825,-0.01656625,0.16657911,-0.1992686,0.060785864,-0.2261327,0.119214356,0.10086513,-0.002336407,0.102810614,0.0891427,0.027350586,-0.036202744,0.1040903,2.0,-2.0,-0.23240659,-2.0,2.0,2.0,-1.6290696,2.0,-0.20475484,0.13054784,2.0,0.011084523,2.0,-2.0,-1.7375838,-0.062703684,2.0,-0.06474597,-0.69014865,2.0,-2.0,2.0,2.0
2025-07-19 14:42:54.257,2.1200000000000014,2120,106,-0.17370786,0.3855909,0.21469375,-0.0091567915,-0.03759419,0.037909567,0.0,0.0,0.0,0.0,0.048533507,-0.20726605,-0.035437483,-0.16597277,-0.31330508,0.019590631,0.22981621,0.071409605,0.2259843,-0.27059063,0.055692453,0.26152128,-0.05107552,0.16550669,-0.14718364,-0.13728148,0.12715015,0.078772046,-0.14576857,-0.045300946,0.04407907,-0.12145033,0.24279599,-0.0078095137,0.011084523,2.0,-2.0,-1.7375838,-0.062703684,2.0,-0.06474597,-0.69014865,2.0,-2.0,2.0,2.0,0.7284742,-1.0752841,-2.0,2.0,-1.8737476,2.0,-0.027077653,0.70797783,2.0,-2.0,-0.6795109,-0.07447509
2025-07-19 14:42:54.273,2.1400000000000015,2140,107,-0.13318945,-0.3175907,-0.10409083,-0.059129268,-0.030526288,-0.02863337,0.0,0.0,0.0,0.0,0.058616854,-0.18411714,-0.08641714,-0.12600096,-0.33794287,0.059993837,0.20239204,0.10266066,0.24661696,-0.27983794,0.083734445,0.22535168,0.051138174,-0.06773916,-0.081696086,0.16707788,-0.12696499,0.117938474,-0.052544516,0.17338644,-0.030846307,0.030522324,-0.13289203,-0.11953134,0.7284742,-1.0752841,-2.0,2.0,-1.8737476,2.0,-0.027077653,0.70797783,2.0,-2.0,-0.6795109,-0.07447509,1.04912,-1.8477441,-0.14487249,-0.23167321,1.7858274,1.6487027,-2.0,-2.0,2.0,-1.0916508,2.0,-1.6385471
2025-07-19 14:42:54.293,2.1600000000000015,2160,108,-0.11440041,-0.0374925,0.004446063,-0.010910041,0.03485038,-0.040486608,0.0,0.0,0.0,0.0,0.08463026,-0.2654305,-0.07908883,-0.1284436,-0.35954294,0.07999263,0.13571735,0.086426646,0.26213297,-0.2548286,0.11515425,0.14111473,0.006869553,-0.20158097,-0.009107502,-0.024051284,-0.040025227,0.009470776,-0.12031036,-0.09849316,0.10160467,0.080146566,0.12360455,-0.25593632,1.04912,-1.8477441,-0.14487249,-0.23167321,1.7858274,1.6487027,-2.0,-2.0,2.0,-1.0916508,2.0,-1.6385471,1.8138655,1.614203,0.32088655,1.2284622,2.0,1.5088419,-1.2471011,-1.5426714,2.0,-1.8241323,-0.18813427,-2.0
2025-07-19 14:42:54.318,2.1800000000000015,2180,109,-0.05403552,-0.20681162,-0.11843725,-0.009544161,-0.045034524,0.035699107,0.0,0.0,0.0,0.0,0.11759565,-0.27909777,-0.045222223,-0.10577198,-0.36895272,0.10300959,0.093102135,0.07680128,0.27061543,-0.27918458,0.10393838,0.058484662,0.095131524,0.123014145,0.016432296,0.06917418,0.041104075,0.0021972824,-0.12551214,-0.025325298,-0.040094443,0.047817297,-0.08771566,-0.17914811,1.8138655,1.614203,0.32088655,1.2284622,2.0,1.5088419,-1.2471011,-1.5426714,2.0,-1.8241323,-0.18813427,-2.0,1.1552839,-2.0,-2.0,2.0,2.0,-1.1889402,-0.7297876,-2.0,2.0,-2.0,-0.5598379,-2.0
2025-07-19 14:42:54.333,2.2000000000000015,2200,110,-0.15728144,-0.28937045,-0.05953657,-0.0004908504,-0.022244124,-0.004335213,0.0,0.0,0.0,0.0,0.1256529,-0.31575572,-0.10342916,-0.08696565,-0.35000345,0.039166324,0.06932262,0.06339858,0.2881729,-0.27168715,0.045136757,-0.0012116357,0.09377199,-0.17372224,-0.10573447,0.11135928,0.1161804,-0.122311816,0.008992628,-0.0390195,0.0020802957,-0.03082494,-0.19216608,-0.11786192,1.1552839,-2.0,-2.0,2.0,2.0,-1.1889402,-0.7297876,-2.0,2.0,-2.0,-0.5598379,-2.0,2.0,-2.0,2.0,1.8951142,2.0,-2.0,-1.9979136,-2.0,2.0,-2.0,-0.63838565,1.4590348
2025-07-19 14:42:54.353,2.2200000000000015,2220,111,-0.17479531,-0.23469804,-0.09181854,0.07928075,-0.028213251,-0.021742657,0.0,0.0,0.0,0.0,0.1724505,-0.40163338,-0.028861014,-0.037966624,-0.31339177,-0.026237046,0.04005575,0.051550075,0.29726472,-0.2887869,-0.0120461285,0.01952083,0.0427338,-0.17312545,0.12548336,0.046610404,0.16130415,-0.2257117,-0.073738515,-0.05595575,-0.031601388,0.00029481942,-0.12537436,0.033498995,2.0,-2.0,2.0,1.8951142,2.0,-2.0,-1.9979136,-2.0,2.0,-2.0,-0.63838565,1.4590348,2.0,-2.0,2.0,1.0423479,2.0,-2.0,-1.3962618,1.5214946,0.548086,-0.9246414,1.7513022,2.0
2025-07-19 14:42:54.373,2.2400000000000015,2240,112,0.11036465,-0.20340805,-0.081048176,0.029704574,0.04926395,0.024813687,0.0,0.0,0.0,0.0,0.20442797,-0.47190577,0.019966645,0.0011080652,-0.24940158,-0.07515677,0.00057397346,0.08866877,0.25501096,-0.27222532,0.013239164,0.068922445,0.059579697,-0.10770746,0.0793821,0.04797974,0.17217708,-0.1241272,-0.15130053,0.17705593,-0.07069791,0.11243835,0.20384423,0.14661327,2.0,-2.0,2.0,1.0423479,2.0,-2.0,-1.3962618,1.5214946,0.548086,-0.9246414,1.7513022,2.0,0.89941335,-2.0,2.0,0.1939437,2.0,-2.0,0.88828886,0.9302444,-1.2714604,0.48325583,-1.8359711,2.0
2025-07-19 14:42:54.393,2.2600000000000016,2260,113,0.09556761,0.059720386,0.15217288,0.08013319,-0.0040289485,-0.016291229,0.0,0.0,0.0,0.0,0.20765398,-0.5305147,0.06913615,-0.0028275077,-0.17272884,-0.12138791,0.016148096,0.16455722,0.18502048,-0.21532746,0.023871312,0.1191365,-0.07668278,-0.15491669,0.0806314,-0.027333872,0.15129863,-0.13391095,0.057566542,0.18555585,-0.12834218,0.17908022,-0.046534937,0.08163887,0.89941335,-2.0,2.0,0.1939437,2.0,-2.0,0.88828886,0.9302444,-1.2714604,0.48325583,-1.8359711,2.0,0.6371129,1.4063023,2.0,0.8807698,2.0,-2.0,0.9393679,2.0,-0.8138223,-1.6290534,-1.9806032,2.0
2025-07-19 14:42:54.413,2.2800000000000016,2280,114,0.5242472,0.115630314,-0.016059201,0.028776877,0.053649977,0.009803238,0.0,0.0,0.0,0.0,0.19145194,-0.5406511,0.099011794,0.013796549,-0.07456148,-0.17184833,0.046988174,0.25736693,0.12683778,-0.22818278,-0.047745336,0.15963879,-0.086982474,0.121284604,0.068998985,-0.013864659,0.21737854,-0.038842075,-0.0016823184,0.24503082,-0.12095506,0.026502008,-0.2371337,0.07982185,0.6371129,1.4063023,2.0,0.8807698,2.0,-2.0,0.9393679,2.0,-0.8138223,-1.6290534,-1.9806032,2.0,-0.02064291,-0.30557713,2.0,-0.6988619,1.0742317,-2.0,1.8768806,-0.7771346,-0.39678413,-1.7807331,0.11225192,2.0
2025-07-19 14:42:54.434,2.3000000000000016,2300,115,0.51108295,0.38263404,0.04015804,-0.06680017,-0.0018763366,0.013638872,0.0,0.0,0.0,0.0,0.16651046,-0.4840026,0.12561962,-0.0034625693,0.034715727,-0.20005605,0.09587343,0.2937735,0.10227544,-0.24530047,-0.088943034,0.18321542,-0.07972162,0.07684842,0.02268544,-0.0027669922,0.20653951,-0.1152112,0.17985015,-0.004129707,-0.09912368,-0.11501489,0.08503499,-0.019503023,-0.02064291,-0.30557713,2.0,-0.6988619,1.0742317,-2.0,1.8768806,-0.7771346,-0.39678413,-1.7807331,0.11225192,2.0,-0.9992209,2.0,2.0,-0.7483875,-0.19378538,-2.0,2.0,-2.0,2.0,-0.6453431,-2.0,2.0
2025-07-19 14:42:54.456,2.3200000000000016,2320,116,0.15963444,0.04532616,0.13405555,0.0018346212,0.06455608,0.03480915,0.0,0.0,0.0,0.0,0.15071179,-0.453851,0.15976368,-0.02811071,0.030789537,-0.20940098,0.1302682,0.2563711,0.121486045,-0.24205716,-0.05695517,0.19871964,-0.033849273,0.060707927,0.0025088193,-0.012936872,-0.11792676,-0.120270565,0.08633431,-0.047889825,0.06038216,-0.010918115,0.07300911,0.11615331,-0.9992209,2.0,2.0,-0.7483875,-0.19378538,-2.0,2.0,-2.0,2.0,-0.6453431,-2.0,2.0,-1.2406559,2.0,2.0,-2.0,0.26251248,-1.8898722,2.0,-2.0,2.0,0.36587223,-2.0,2.0
2025-07-19 14:42:54.474,2.3400000000000016,2340,117,-0.18203048,0.024698855,0.24834964,-0.055183213,-0.009194508,0.018005535,0.0,0.0,0.0,0.0,0.12231725,-0.44839796,0.16345058,-0.07333625,0.04191738,-0.23059928,0.15984887,0.1956682,0.17348415,-0.24887119,-0.069095455,0.21474063,-0.06943878,-0.061601628,-0.03968021,-0.08880194,0.078479595,-0.05266908,0.15324976,-0.13639437,0.042376813,0.07034023,-0.065749004,-0.011771736,-1.2406559,2.0,2.0,-2.0,0.26251248,-1.8898722,2.0,-2.0,2.0,0.36587223,-2.0,2.0,0.14300826,2.0,2.0,-2.0,-2.0,-0.52250004,2.0,-0.31769955,2.0,0.80030394,-2.0,2.0
2025-07-19 14:42:54.499,2.3600000000000017,2360,118,-0.19516587,-0.12591334,0.10515579,0.0066093784,0.016705371,-0.042169616,0.0,0.0,0.0,0.0,0.11067069,-0.4485232,0.17572166,-0.12606196,0.0007440494,-0.19964729,0.20321573,0.13940996,0.18852425,-0.21529031,-0.07322367,0.24814452,0.032859676,-0.0077149966,-0.013909223,-0.06986361,-0.297171,0.061172154,0.122218095,-0.07484667,-0.0004212621,0.027240679,-0.10076889,0.04577173,0.14300826,2.0,2.0,-2.0,-2.0,-0.52250004,2.0,-0.31769955,2.0,0.80030394,-2.0,2.0,-1.5073501,2.0,1.5406893,-2.0,-2.0,0.9178866,2.0,0.9726892,2.0,-0.12925448,-2.0,2.0
2025-07-19 14:42:54.515,2.3800000000000017,2380,119,-0.11817625,0.03343035,-0.07491716,-0.042336494,-0.004700219,-0.025418213,0.0,0.0,0.0,0.0,0.10698308,-0.43953544,0.17972052,-0.15661243,-0.1403828,-0.14531183,0.20785111,0.15575029,0.21940064,-0.19042273,-0.1020473,0.2568868,-0.053741086,0.11542471,-0.00934278,-0.010833234,-0.3615949,0.14636528,0.12166781,0.11540269,0.09616319,0.01267889,-0.08517221,0.0043713707,-1.5073501,2.0,1.5406893,-2.0,-2.0,0.9178866,2.0,0.9726892,2.0,-0.12925448,-2.0,2.0,-1.6246494,2.0,-2.0,-2.0,-2.0,2.0,2.0,-2.0,2.0,0.54445744,-0.4691654,2.0
2025-07-19 14:42:54.534,2.4000000000000017,2400,120,-0.19916949,-0.06319519,0.20405279,0.027962973,-0.017679859,-0.014132584,0.0,0.0,0.0,0.0,0.07144241,-0.38141677,0.09304146,-0.18521224,-0.25384167,-0.056444366,0.23650594,0.12896277,0.23106351,-0.16533233,-0.1181647,0.26557863,-0.034890275,0.19848207,-0.16599464,-0.08108601,-0.25059873,0.21623734,0.10501024,-0.21768317,0.10057656,0.0047521293,0.010330859,0.017655216,-1.6246494,2.0,-2.0,-2.0,-2.0,2.0,2.0,-2.0,2.0,0.54445744,-0.4691654,2.0,0.19725046,2.0,-2.0,-0.5507316,-2.0,2.0,2.0,-1.2268836,2.0,-2.0,2.0,2.0
2025-07-19 14:42:54.554,2.4200000000000017,2420,121,0.07729257,0.10754329,0.13920882,-0.030042786,0.07973124,0.020383542,0.0,0.0,0.0,0.0,0.07288275,-0.30317074,0.017664786,-0.16803071,-0.36460656,0.008212716,0.26389444,0.03730638,0.25016358,-0.19711962,-0.08933736,0.26425737,-0.07733277,0.2696206,-0.1871583,0.057048142,-0.23356652,0.13963188,0.044306614,-0.33695522,0.09318676,-0.025749167,0.13388665,-0.049097497,0.19725046,2.0,-2.0,-0.5507316,-2.0,2.0,2.0,-1.2268836,2.0,-2.0,2.0,2.0,1.3478166,2.0,-2.0,-0.045778915,0.88543504,2.0,-1.0618064,2.0,2.0,-1.4040537,2.0,2.0
2025-07-19 14:42:54.574,2.4400000000000017,2440,122,0.2293865,0.19188946,0.032252554,0.0089282235,0.022430632,-0.014713677,0.0,0.0,0.0,0.0,0.082248226,-0.20324588,-0.048446823,-0.15496604,-0.3832511,0.060605187,0.2291991,0.022497356,0.26325503,-0.21374282,-0.011524984,0.26750126,0.13021706,0.25931004,-0.06080996,0.0044734967,0.12367984,0.18277445,-0.12758906,0.07321327,-0.036106065,-0.078024946,0.2842076,-0.06847788,1.3478166,2.0,-2.0,-0.045778915,0.88543504,2.0,-1.0618064,2.0,2.0,-1.4040537,2.0,2.0,-0.113215476,-1.8174037,-2.0,0.44991693,-0.6151896,2.0,-2.0,1.5201716,2.0,-2.0,-0.1029879,-2.0
2025-07-19 14:42:54.599,2.4600000000000017,2460,123,-0.26156336,0.5399693,-0.17613111,0.00902583,0.01366178,-0.0071461913,0.0,0.0,0.0,0.0,0.07142246,-0.15515098,-0.08105941,-0.12534523,-0.3546624,0.09311323,0.16526584,0.074826196,0.25395337,-0.23254773,0.04057433,0.1763611,-0.08865628,-0.009310811,-0.15482184,0.085514665,0.0872213,0.082917035,-0.1437872,0.107489936,0.071491346,-0.06925385,0.035375144,-0.3039266,-0.113215476,-1.8174037,-2.0,0.44991693,-0.6151896,2.0,-2.0,1.5201716,2.0,-2.0,-0.1029879,-2.0,-1.7058882,-2.0,-1.7635441,1.1621159,1.7864728,2.0,-0.39694744,-2.0,2.0,-1.990973,0.010294061,-2.0
2025-07-19 14:42:54.615,2.4800000000000018,2480,124,0.04104114,0.1050366,-0.08123144,-0.046346016,0.018276472,0.030912748,0.0,0.0,0.0,0.0,0.023235539,-0.2305264,-0.12690295,-0.09766351,-0.33052844,0.119857445,0.12186412,0.10343484,0.28062725,-0.2505728,0.03831828,0.09358203,-0.10315153,-0.27020478,-0.091723345,0.07060148,0.059445877,0.07436572,0.0013533942,0.124741755,-0.032385744,0.011895092,-0.08799902,-0.24799666,-1.7058882,-2.0,-1.7635441,1.1621159,1.7864728,2.0,-0.39694744,-2.0,2.0,-1.990973,0.010294061,-2.0,1.1719637,-2.0,0.2259301,1.4139537,2.0,0.053247087,-0.33034033,-2.0,2.0,-2.0,1.5565344,-2.0
2025-07-19 14:42:54.634,2.5000000000000018,2500,125,0.07842618,-0.0077868155,-0.04077346,-0.07312896,-0.015333836,-0.02640978,0.0,0.0,0.0,0.0,0.022974672,-0.33868206,-0.09553071,-0.07827412,-0.29119432,0.08718812,0.122593746,0.12522931,0.27592862,-0.27467674,0.064670116,0.02232004,0.07180492,-0.21386369,0.017431626,0.008870631,0.10269268,-0.030324334,-0.060310867,0.09771961,-0.01820759,0.038324974,0.24069515,-0.15073603,1.1719637,-2.0,0.2259301,1.4139537,2.0,0.053247087,-0.33034033,-2.0,2.0,-2.0,1.5565344,-2.0,1.142247,-1.6658962,2.0,1.1410344,2.0,-2.0,-0.9142764,-2.0,2.0,-2.0,-2.0,-0.2174618
2025-07-19 14:42:54.654,2.520000000000002,2520,126,-0.09788749,-0.03552969,-0.17178181,-0.02986792,-0.0254106,-0.004320691,0.0,0.0,0.0,0.0,0.066180386,-0.4068414,-0.02033941,-0.057508327,-0.23937802,0.009311109,0.08848923,0.13714989,0.28379044,-0.2803716,0.062295966,0.0070537664,0.12410751,-0.08705051,0.15777893,0.06760034,0.1557929,-0.1747644,-0.031102281,0.0151641965,0.08597061,-0.07098448,-0.17711765,0.008568462,1.142247,-1.6658962,2.0,1.1410344,2.0,-2.0,-0.9142764,-2.0,2.0,-2.0,-2.0,-0.2174618,2.0,-2.0,2.0,0.85472673,2.0,-2.0,-0.81799614,-2.0,2.0,-2.0,0.3721986,2.0
2025-07-19 14:42:54.674,2.540000000000002,2540,127,-0.13911505,-0.06103198,-0.12358769,-0.024567714,-0.0132916495,0.040852267,0.0,0.0,0.0,0.0,0.10237773,-0.4668196,0.025490426,-0.029655803,-0.19935839,-0.05091419,0.07487371,0.15745485,0.30112985,-0.2940433,0.07031147,0.061962593,0.11883988,-0.1613327,0.17910217,-0.012221741,0.1041579,-0.16009422,-0.07953705,0.027744945,-0.032726508,0.05172945,-0.004514469,0.1518116,2.0,-2.0,2.0,0.85472673,2.0,-2.0,-0.81799614,-2.0,2.0,-2.0,0.3721986,2.0,0.66583437,-2.0,2.0,0.31192812,2.0,-2.0,-0.033469625,-1.9909987,2.0,-0.28699973,-0.67042905,2.0
2025-07-19 14:42:54.698,2.560000000000002,2560,128,-0.2298821,-0.15543254,-0.0050101834,0.012582191,0.016281845,-0.022980524,0.0,0.0,0.0,0.0,0.113769524,-0.54188985,0.07602374,-0.015682472,-0.16306932,-0.10446106,0.0547795,0.14640565,0.308726,-0.2514636,0.025615485,0.0985851,0.04239263,-0.10717335,0.17886837,-0.0322706,0.1290084,-0.15201595,0.041064065,-0.028958108,-0.02592071,0.124652885,-0.22171326,0.0711395,0.66583437,-2.0,2.0,0.31192812,2.0,-2.0,-0.033469625,-1.9909987,2.0,-0.28699973,-0.67042905,2.0,1.2517574,-1.1246367,2.0,0.1122417,2.0,-2.0,-0.6168237,1.3666689,2.0,-0.15993787,0.60239524,2.0
2025-07-19 14:42:54.715,2.580000000000002,2580,129,0.18539536,-0.16164026,-0.0703232,-0.048818383,0.010872849,0.040439468,0.0,0.0,0.0,0.0,0.12383718,-0.5332286,0.12581867,-0.01964533,-0.08637845,-0.15490264,0.037564296,0.194436,0.29585958,-0.22929333,0.0278146,0.14376928,0.06582628,0.00065088074,0.10844299,-0.053328436,0.14930114,-0.12844315,-0.029549524,0.23941812,-0.0049906527,0.08848329,0.16619857,0.03621391,1.2517574,-1.1246367,2.0,0.1122417,2.0,-2.0,-0.6168237,1.3666689,2.0,-0.15993787,0.60239524,2.0,-0.6730711,-0.36496636,2.0,-0.1871274,1.8206046,-2.0,2.0,-1.8916388,0.9858696,0.585799,-2.0,2.0
2025-07-19 14:42:54.735,2.600000000000002,2600,130,0.09746591,-0.12268906,0.12621768,-0.05578038,0.02445107,-0.04503188,0.0,0.0,0.0,0.0,0.12827693,-0.5232352,0.1405671,-0.012556341,-0.0072477595,-0.18815264,0.07766919,0.23178966,0.27724683,-0.1957115,0.0643161,0.17405088,-0.0222131,0.06371008,0.056934822,0.05806061,0.2646709,-0.004789584,0.18228671,0.024725603,0.010693523,0.028310422,0.019010583,0.024448698,-0.6730711,-0.36496636,2.0,-0.1871274,1.8206046,-2.0,2.0,-1.8916388,0.9858696,0.585799,-2.0,2.0,-0.7345378,2.0,2.0,-1.1699063,0.26761535,-2.0,2.0,-1.6808548,2.0,0.34261855,-2.0,2.0
2025-07-19 14:42:54.755,2.620000000000002,2620,131,-0.17002138,0.040390514,0.18880025,-0.0029868116,0.0074428525,0.035271145,0.0,0.0,0.0,0.0,0.11686305,-0.51503927,0.16594745,-0.050950103,0.049577877,-0.21434726,0.13524243,0.19335718,0.28784558,-0.16896935,0.056785826,0.2064653,-0.05749343,-0.061907545,0.016820159,-0.053977184,0.038442865,0.012795166,0.06431463,-0.11659029,0.062040508,0.036865745,-0.0028290655,0.118223645,-0.7345378,2.0,2.0,-1.1699063,0.26761535,-2.0,2.0,-1.6808548,2.0,0.34261855,-2.0,2.0,-0.80703044,2.0,2.0,-2.0,-0.6366829,-1.7797812,2.0,0.016541779,2.0,1.2131858,-2.0,2.0
2025-07-19 14:42:54.775,2.640000000000002,2640,132,-0.14535862,0.14717908,0.1793916,0.005055061,0.008161857,0.014729804,0.0,0.0,0.0,0.0,0.08674425,-0.5055041,0.1794169,-0.09030138,0.010656088,-0.2093614,0.16400822,0.16339181,0.2861397,-0.13809425,0.037965227,0.22478333,-0.1056481,-0.032477487,0.0077311364,-0.18401432,-0.1841295,0.020929696,0.15443738,-0.12228101,-0.049921904,0.0021503177,-0.033957135,0.1239153,-0.80703044,2.0,2.0,-2.0,-0.6366829,-1.7797812,2.0,0.016541779,2.0,1.2131858,-2.0,2.0,-1.513848,2.0,2.0,-2.0,-1.2757133,-0.8983145,2.0,1.8591475,2.0,2.0,-2.0,2.0
2025-07-19 14:42:54.795,2.660000000000002,2660,133,-0.024556275,0.13486409,0.10225091,0.0076413113,0.023054471,-0.02378128,0.0,0.0,0.0,0.0,0.081177175,-0.5032424,0.18512784,-0.14247431,-0.087351955,-0.1968763,0.18160634,0.19388278,0.29586118,-0.13348834,0.00992797,0.23778522,-0.07397966,0.009182602,-0.03913994,-0.16702037,-0.21557581,0.07578962,0.14101125,0.17166424,-0.024643898,0.004074294,0.047743153,-0.01207979,-1.513848,2.0,2.0,-2.0,-1.2757133,-0.8983145,2.0,1.8591475,2.0,2.0,-2.0,2.0,-2.0,2.0,1.5011669,-2.0,-2.0,0.8367249,2.0,-0.14726466,2.0,1.5747081,-2.0,2.0
2025-07-19 14:42:54.819,2.680000000000002,2680,134,-0.113635086,0.075877436,0.24614958,0.03695497,-0.07620669,0.022257905,0.0,0.0,0.0,0.0,0.049189903,-0.47713205,0.18283696,-0.18217072,-0.20957033,-0.15740241,0.21503508,0.19663066,0.30431056,-0.09799122,0.001393054,0.26150292,-0.09920941,-0.025229914,0.048445188,-0.07442029,-0.37271965,0.17385316,0.093790285,-0.11976632,0.027720751,0.081357,0.014632058,-0.029056024,-2.0,2.0,1.5011669,-2.0,-2.0,0.8367249,2.0,-0.14726466,2.0,1.5747081,-2.0,2.0,-0.20676008,2.0,-1.8201752,-2.0,-2.0,2.0,2.0,0.0029064417,2.0,-1.2500923,-2.0,2.0
2025-07-19 14:42:54.836,2.700000000000002,2700,135,-0.25113493,0.11584142,0.031604275,0.033763763,-0.06442808,0.01824445,0.0,0.0,0.0,0.0,0.048256285,-0.4313854,0.11108377,-0.19621561,-0.30456868,-0.060980573,0.23146296,0.16030562,0.30669186,-0.12138382,-0.018137248,0.26235285,0.0489136,0.22412266,-0.19260637,-0.10295053,-0.21510452,0.1948129,0.0033386438,-0.14725782,0.008700154,-0.013524799,-0.141438,0.0394173,-0.20676008,2.0,-1.8201752,-2.0,-2.0,2.0,2.0,0.0029064417,2.0,-1.2500923,-2.0,2.0,0.759301,2.0,-2.0,-1.4681607,-2.0,2.0,1.4141965,-0.69527185,2.0,-2.0,2.0,2.0
2025-07-19 14:42:54.855,2.720000000000002,2720,136,-0.044586685,0.22085595,0.037860226,0.0032418333,-0.010330359,0.002713207,0.0,0.0,0.0,0.0,0.059352208,-0.33866465,0.030729977,-0.21959043,-0.3987506,-0.008177656,0.24265464,0.09370526,0.30164707,-0.15569714,-0.012710567,0.2694598,0.054221865,0.2686437,-0.22448152,-0.065169014,-0.26431134,0.22634493,0.028165195,-0.22253884,0.059084382,-0.17051964,0.16381101,0.067042746,0.759301,2.0,-2.0,-1.4681607,-2.0,2.0,1.4141965,-0.69527185,2.0,-2.0,2.0,2.0,0.9510372,2.0,-2.0,-0.031589434,1.0524371,2.0,-1.1070695,2.0,2.0,-0.9709008,2.0,2.0
2025-07-19 14:42:54.875,2.740000000000002,2740,137,0.14439002,0.17285858,-0.029592328,0.0037630976,-0.063068226,-0.0022190646,0.0,0.0,0.0,0.0,0.07912992,-0.20447277,-0.035398267,-0.1836689,-0.41775873,0.043968767,0.18932943,0.09841787,0.30056193,-0.1679544,0.080598086,0.2725043,-0.0294396,0.33755943,-0.16957527,0.13289262,0.13469645,0.06904804,-0.17818454,0.11600732,-0.06083935,0.056822184,0.27669707,-0.00444168,0.9510372,2.0,-2.0,-0.031589434,1.0524371,2.0,-1.1070695,2.0,2.0,-0.9709008,2.0,2.0,-0.3902184,-2.0,-2.0,0.14934577,0.2512491,2.0,-2.0,-0.5369731,2.0,-2.0,-0.34106997,-2.0
2025-07-19 14:42:54.899,2.760000000000002,2760,138,0.26460832,-0.12373501,0.013548652,0.0012246711,-0.01678886,-0.011064865,0.0,0.0,0.0,0.0,0.053446773,-0.12948032,-0.085164085,-0.15618733,-0.37872246,0.081356645,0.103293054,0.07666346,0.30770415,-0.19898663,0.14500833,0.19275044,0.003183612,0.018794762,-0.065648615,0.105161585,0.03927251,0.13930719,-0.15393764,-0.06797454,0.026972044,-0.011162798,0.023067897,-0.24129839,-0.3902184,-2.0,-2.0,0.14934577,0.2512491,2.0,-2.0,-0.5369731,2.0,-2.0,-0.34106997,-2.0,-0.103075,-2.0,-1.9413943,2.0,2.0,2.0,-0.8705472,-0.9372131,2.0,-1.6547792,-1.4727294,-2.0
2025-07-19 14:42:54.916,2.780000000000002,2780,139,0.22650434,-0.4453361,0.082186736,0.028501183,-0.027376182,-0.045733552,0.0,0.0,0.0,0.0,0.052280214,-0.18746889,-0.1076736,-0.12577099,-0.33366105,0.1104454,0.075234614,0.033310454,0.3084644,-0.21149302,0.09311332,0.11396683,-0.006460704,-0.18369327,-0.04263074,0.08986839,0.013383493,0.06844695,-0.08725145,-0.10553154,0.02447201,-0.018767443,-0.20479615,-0.19224757,-0.103075,-2.0,-1.9413943,2.0,2.0,2.0,-0.8705472,-0.9372131,2.0,-1.6547792,-1.4727294,-2.0,2.0,-2.0,-0.2328887,2.0,2.0,-0.22092284,-2.0,-1.713181,2.0,-2.0,0.38683727,-2.0
2025-07-19 14:42:54.935,2.800000000000002,2800,140,0.10783801,-0.24165438,0.04022551,-0.015929265,0.04445006,-0.032357026,0.0,0.0,0.0,0.0,0.079786815,-0.2942968,-0.09873739,-0.06537925,-0.2957797,0.07260025,0.08046201,0.03740776,0.32426545,-0.22876824,0.05330801,0.024042865,0.13876942,-0.24765249,0.007033127,0.08284617,0.067946576,-0.12663113,0.023619141,0.034173667,0.07175236,0.00452053,-0.0086600045,-0.23349576,2.0,-2.0,-0.2328887,2.0,2.0,-0.22092284,-2.0,-1.713181,2.0,-2.0,0.38683727,-2.0,1.7760289,-2.0,2.0,2.0,2.0,-2.0,-2.0,-2.0,2.0,-2.0,-2.0,2.0
2025-07-19 14:42:54.956,2.820000000000002,2820,141,-0.12779509,-0.17582846,-0.03946216,-0.042268865,-0.008611866,0.016408654,0.0,0.0,0.0,0.0,0.114053674,-0.39743152,-0.03794469,-0.0388201,-0.22572903,0.005055389,0.09316331,0.049341347,0.3141205,-0.24422376,-0.0055997614,0.06630957,0.15087779,-0.15864077,0.22360167,0.07672679,0.18329525,-0.19556762,0.00485688,0.07404424,0.023659272,0.014695675,-0.2138182,0.10676068,1.7760289,-2.0,2.0,2.0,2.0,-2.0,-2.0,-2.0,2.0,-2.0,-2.0,2.0,2.0,-2.0,2.0,1.5211363,2.0,-2.0,-1.807399,-0.16508013,-0.88350445,-1.4931161,1.4184073,2.0
2025-07-19 14:42:54.976,2.840000000000002,2840,142,-0.1775956,-0.13648774,-0.007120535,0.055780634,-0.0020556988,-0.0055110683,0.0,0.0,0.0,0.0,0.1550505,-0.47750998,0.033430222,-0.0024271063,-0.19103543,-0.068524286,0.07351216,0.06548732,0.26237577,-0.25785586,-0.022292044,0.104677916,0.013265426,-0.22324298,0.18952438,0.022461656,0.17073569,-0.11943038,-0.013937298,0.090698466,-0.22511777,0.060670774,0.01937901,0.10870259,2.0,-2.0,2.0,1.5211363,2.0,-2.0,-1.807399,-0.16508013,-0.88350445,-1.4931161,1.4184073,2.0,1.1297185,-2.0,2.0,0.91870457,1.5098476,-2.0,0.2985537,2.0,-2.0,-0.5563575,0.42977634,2.0
2025-07-19 14:42:54.996,2.860000000000002,2860,143,0.20579618,-0.19695817,0.007175369,0.06402845,0.051739424,-0.009355208,0.0,0.0,0.0,0.0,0.15510404,-0.53310436,0.068293974,0.016470935,-0.10767506,-0.11812932,0.072580814,0.1348277,0.15615675,-0.22351593,0.018526789,0.14567366,-0.059087098,-0.1961403,0.1315255,0.07656607,0.13840193,-0.16398676,-0.016202819,0.30298465,-0.2197325,0.11031557,0.09391475,0.061682705,1.1297185,-2.0,2.0,0.91870457,1.5098476,-2.0,0.2985537,2.0,-2.0,-0.5563575,0.42977634,2.0,-0.290715,0.70478755,2.0,0.099646464,0.7377173,-2.0,2.0,0.23752189,-1.4204662,-1.1535844,-0.90426964,2.0
2025-07-19 14:42:55.016,2.880000000000002,2880,144,0.09898101,0.13173193,0.16692384,0.030423224,0.069585204,0.048686754,0.0,0.0,0.0,0.0,0.13982284,-0.5423783,0.105239205,0.012276535,-0.0442515,-0.15789211,0.10014773,0.21153973,0.0863535,-0.2291055,-0.0014399542,0.18221356,-0.0051519834,-0.012422656,0.046554055,-0.019317858,0.19070415,-0.14254874,0.10634695,0.11398678,-0.12573978,0.05603744,-0.209128,0.11223247,-0.290715,0.70478755,2.0,0.099646464,0.7377173,-2.0,2.0,0.23752189,-1.4204662,-1.1535844,-0.90426964,2.0,-0.12524942,2.0,2.0,0.029312449,1.7242341,-2.0,1.6991677,1.1940601,0.33685583,-2.0,-1.5169022,2.0
2025-07-19 14:42:55.038,2.900000000000002,2900,145,0.23797703,0.2157625,-0.10094609,-0.04093486,0.06704606,0.04415799,0.0,0.0,0.0,0.0,0.12875706,-0.52227366,0.1358657,0.0035989354,0.03999307,-0.18221644,0.14304191,0.24483998,0.08867519,-0.24047297,-0.053735454,0.19660309,0.021154078,0.07496021,0.12600191,-0.053380158,0.1792757,-0.020038476,0.11805374,0.073966354,-0.049247433,-0.06891291,-0.0021887622,0.038022786,-0.12524942,2.0,2.0,0.029312449,1.7242341,-2.0,1.6991677,1.1940601,0.33685583,-2.0,-1.5169022,2.0,-1.4722258,2.0,2.0,-1.4367988,-0.06305857,-2.0,2.0,-0.9622553,2.0,-0.071917914,-2.0,2.0
2025-07-19 14:42:55.056,2.920000000000002,2920,146,-0.005937509,0.13768482,-0.039605577,0.021167465,0.0229602,0.012346118,0.0,0.0,0.0,0.0,0.11015014,-0.48222727,0.14475562,-0.028911863,0.08621696,-0.20914064,0.17863944,0.23202819,0.11596015,-0.2602725,-0.064587966,0.22370428,0.009419459,0.022811899,0.10055513,-0.12107069,-0.0577083,-0.02750591,0.034788866,-0.17341393,0.10819812,0.0135783795,-0.03633999,0.039330695,-1.4722258,2.0,2.0,-1.4367988,-0.06305857,-2.0,2.0,-0.9622553,2.0,-0.071917914,-2.0,2.0,-1.622658,2.0,2.0,-2.0,-2.0,-1.4133604,2.0,-0.45752674,2.0,2.0,-2.0,2.0
2025-07-19 14:42:55.076,2.940000000000002,2940,147,0.0012762087,0.06408553,-0.10346507,-0.08028142,0.024939833,-0.04461609,0.0,0.0,0.0,0.0,0.08840246,-0.47370717,0.16286863,-0.071928285,0.024444195,-0.2151663,0.20216534,0.15917867,0.14822707,-0.26841798,-0.08417274,0.23307413,0.016585983,-0.0045876345,0.07815062,-0.08632463,-0.21162155,0.01414211,0.07949322,-0.20914757,0.14175871,-0.049750373,-0.046457175,-0.012572249,-1.622658,2.0,2.0,-2.0,-2.0,-1.4133604,2.0,-0.45752674,2.0,2.0,-2.0,2.0,-2.0,2.0,-0.6577378,-2.0,-2.0,0.84249663,2.0,1.543016,2.0,2.0,-0.560319,2.0
2025-07-19 14:42:55.098,2.960000000000002,2960,148,0.130268,-0.1400818,-0.09250144,-0.008836816,0.044814263,-0.00026394383,0.0,0.0,0.0,0.0,0.09033283,-0.42364782,0.12114063,-0.11375278,-0.113774136,-0.16057281,0.22904071,0.15677293,0.17665365,-0.26697576,-0.101775035,0.25554264,-0.0767526,0.10606135,-0.13741235,-0.038616344,-0.3931836,0.15923369,0.108517244,0.07238328,0.06921772,0.050762665,0.014415358,-0.0188034,-2.0,2.0,-0.6577378,-2.0,-2.0,0.84249663,2.0,1.543016,2.0,2.0,-0.560319,2.0,-1.4228212,2.0,-2.0,-2.0,-2.0,2.0,2.0,-2.0,2.0,0.5051317,0.88540107,2.0
2025-07-19 14:42:55.116,2.980000000000002,2980,149,0.15891048,-0.034538165,0.14092368,-0.024867369,0.017042078,-0.041149486,0.0,0.0,0.0,0.0,0.04289996,-0.3304665,0.027343405,-0.16375539,-0.23527624,-0.06845836,0.24618553,0.14917882,0.21245024,-0.25594297,-0.07497542,0.25960803,-0.09673557,0.23527189,-0.22345711,-0.08664669,-0.24573168,0.15512817,0.019402279,-0.13016461,0.123081535,0.05793443,0.06868781,0.0017869435,-1.4228212,2.0,-2.0,-2.0,-2.0,2.0,2.0,-2.0,2.0,0.5051317,0.88540107,2.0,0.23199329,2.0,-2.0,-0.066572115,-2.0,2.0,1.784267,-2.0,2.0,-2.0,2.0,2.0
2025-07-19 14:42:55.136,3.000000000000002,3000,150,0.020397965,0.12366618,0.19837287,-0.031758286,0.053576883,0.025840918,0.0,0.0,0.0,0.0,0.030584738,-0.23873478,-0.024197934,-0.1364712,-0.3503716,-0.0014147134,0.27040318,0.10047698,0.22754723,-0.2556313,-0.0070355004,0.26393184,-0.06818005,0.2848936,-0.12612088,0.07207727,-0.31004465,0.12154923,0.11080232,-0.034752425,0.07849591,-0.024315748,0.16025746,-0.0006084948,0.23199329,2.0,-2.0,-0.066572115,-2.0,2.0,1.784267,-2.0,2.0,-2.0,2.0,2.0,0.68362796,2.0,-2.0,-0.3373693,0.680319,2.0,-0.66204935,0.6705442,2.0,-2.0,0.67127615,2.0
2025-07-19 14:42:55.156,3.0200000000000022,3020,151,-0.03851091,0.38601902,0.03603637,-0.03761677,-0.005194853,-0.0030946173,0.0,0.0,0.0,0.0,0.056123454,-0.13299063,-0.082425356,-0.12746143,-0.3651062,0.03644384,0.23909606,0.104591094,0.23150352,-0.29213676,0.038594265,0.2725178,0.08175475,0.36377186,-0.03789937,-0.040026043,0.049345344,0.07646366,-0.19012521,0.15171978,0.006481118,-0.05963196,0.14689894,0.06981226,0.68362796,2.0,-2.0,-0.3373693,0.680319,2.0,-0.66204935,0.6705442,2.0,-2.0,0.67127615,2.0,0.5987045,-2.0,-2.0,0.57377404,0.16258942,2.0,-1.5238466,-1.7320557,2.0,-2.0,-0.35736117,-2.0
2025-07-19 14:42:55.177,3.0400000000000023,3040,152,-0.27237403,0.030047035,-0.0006735477,-0.07861902,-0.031794757,0.031511374,0.0,0.0,0.0,0.0,0.06821857,-0.10638557,-0.11544655,-0.10517025,-0.34292608,0.08873065,0.18933414,0.10749486,0.2579428,-0.30218107,0.06729505,0.19281106,0.050659724,-0.033184186,-0.1561393,0.028763385,0.08141478,0.055254575,-0.056096654,-0.10711888,0.060288716,0.046657745,-0.004054594,-0.301121,0.5987045,-2.0,-2.0,0.57377404,0.16258942,2.0,-1.5238466,-1.7320557,2.0,-2.0,-0.35736117,-2.0,-0.067664176,-2.0,-1.6134319,1.6111274,2.0,1.9600296,-1.0288363,-0.62899417,2.0,-1.441488,-2.0,-2.0
2025-07-19 14:42:55.199,3.0600000000000023,3060,153,-0.22724438,-0.20976928,-0.05339546,-0.016436892,0.01158597,-0.015347309,0.0,0.0,0.0,0.0,0.052586153,-0.17006268,-0.14467059,-0.09727438,-0.33309817,0.102128625,0.13677913,0.091465324,0.2740258,-0.28856677,0.004843228,0.10883159,-0.04037713,-0.31080943,-0.009921948,0.03740351,-0.06743096,0.07133876,-0.06682768,-0.030146873,0.034539662,0.013308853,-0.2859671,-0.240276,-0.067664176,-2.0,-1.6134319,1.6111274,2.0,1.9600296,-1.0288363,-0.62899417,2.0,-1.441488,-2.0,-2.0,2.0,-2.0,1.2775575,1.9973286,2.0,-0.8806037,-2.0,-2.0,2.0,-2.0,2.0,-2.0
2025-07-19 14:42:55.216,3.0800000000000023,3080,154,-0.19603717,-0.23127972,-0.034125593,0.023212915,-0.028810464,-0.031098785,0.0,0.0,0.0,0.0,0.09762854,-0.27623346,-0.08532689,-0.078667685,-0.30335003,0.057734188,0.114200704,0.055951044,0.28730893,-0.2977764,-0.01553177,0.02354095,0.10237442,-0.25329652,0.095567055,0.020730088,0.0472264,-0.11927532,-0.10632192,-0.033729736,-0.042069178,0.0046062833,-0.00053634815,-0.19685183,2.0,-2.0,1.2775575,1.9973286,2.0,-0.8806037,-2.0,-2.0,2.0,-2.0,2.0,-2.0,2.0,-2.0,2.0,1.7469443,2.0,-2.0,-2.0,-0.67944723,2.0,-1.6966501,1.2652903,1.6043082
2025-07-19 14:42:55.267,3.1000000000000023,3100,155,-0.20902656,-0.10248753,0.011591521,0.02894421,-0.025331968,0.012521829,0.0,0.0,0.0,0.0,0.12602964,-0.3820922,-0.016290426,-0.031230262,-0.24695742,-0.011173792,0.08281988,0.053690642,0.28354406,-0.29309532,0.048802443,0.055194847,0.10007802,-0.27780235,0.17392929,0.06658466,0.097946435,-0.098080575,-0.0298148,-0.002918562,0.030245034,0.0551315,0.25508645,0.07145505,2.0,-2.0,2.0,1.7469443,2.0,-2.0,-2.0,-0.67944723,2.0,-1.6966501,1.2652903,1.6043082,0.7921359,-2.0,2.0,0.45809826,2.0,-2.0,-1.0171094,2.0,0.2703343,0.18461464,-2.0,2.0
2025-07-19 14:42:55.334,3.1200000000000023,3120,156,-0.081617355,-0.24350137,-0.09321956,0.07174402,0.008724957,0.038815375,0.0,0.0,0.0,0.0,0.12979326,-0.4725368,0.042774864,-0.019889375,-0.1701778,-0.07816129,0.049096595,0.103660725,0.24356484,-0.24674787,0.05517519,0.09797229,0.01580834,-0.18756853,0.2071953,-0.0055511985,0.2072145,-0.14928591,-0.05798529,0.17019857,-0.09986224,0.090542324,-0.0633451,0.15779299,0.7921359,-2.0,2.0,0.45809826,2.0,-2.0,-1.0171094,2.0,0.2703343,0.18461464,-2.0,2.0,0.717004,-2.0,2.0,-0.012461467,1.5787812,-2.0,1.6154355,1.9698238,-1.0338848,-0.022455892,-0.34601507,2.0
2025-07-19 14:42:55.392,3.1400000000000023,3140,157,0.18921134,-0.15121579,0.086065024,0.049283866,0.05149111,-0.035107825,0.0,0.0,0.0,0.0,0.13483617,-0.5154542,0.07847738,-0.015539056,-0.08520186,-0.1253302,0.070536144,0.2025166,0.18393263,-0.21613872,0.036220435,0.13653733,-0.0032124855,-0.12023951,0.104667775,0.026274383,0.22938056,-0.03352567,0.0527085,0.2680475,-0.09240038,0.15044893,-0.15213434,0.1156314,0.717004,-2.0,2.0,-0.012461467,1.5787812,-2.0,1.6154355,1.9698238,-1.0338848,-0.022455892,-0.34601507,2.0,1.0291214,1.6782424,2.0,-0.09000425,0.8589477,-2.0,2.0,0.9564467,0.8278832,-1.7879387,0.18185,2.0
2025-07-19 14:42:55.426,3.1600000000000024,3160,158,0.31250584,0.06781176,-0.036222465,-0.04179593,0.027932031,0.021627938,0.0,0.0,0.0,0.0,0.1508447,-0.5213871,0.108082786,-0.019284355,0.0043706256,-0.15596716,0.122053325,0.26404375,0.16703352,-0.21893829,0.0337068,0.16511582,0.019815402,0.006832643,0.042340055,0.025082143,0.17257114,-0.07516236,0.055100717,0.09075792,0.027416147,-0.06256264,-0.011704709,0.0540029,1.0291214,1.6782424,2.0,-0.09000425,0.8589477,-2.0,2.0,0.9564467,0.8278832,-1.7879387,0.18185,2.0,-0.8405035,2.0,2.0,-1.1731408,1.1174105,-2.0,2.0,-2.0,2.0,-1.5390092,-2.0,2.0
2025-07-19 14:42:55.465,3.1800000000000024,3180,159,0.19177982,0.45052934,-0.05387562,0.008733583,0.041169193,0.023582589,0.0,0.0,0.0,0.0,0.12326279,-0.48998362,0.13153881,-0.04757814,0.085957915,-0.18183957,0.1569148,0.23464079,0.20102519,-0.2493113,0.01561526,0.19553226,-0.13497068,0.14013106,0.122835755,-0.016308544,0.23610048,-0.03457854,0.049736325,-0.27201346,0.12851225,-0.07043943,-0.049684543,0.027500484,-0.8405035,2.0,2.0,-1.1731408,1.1174105,-2.0,2.0,-2.0,2.0,-1.5390092,-2.0,2.0,-0.8015825,2.0,1.8284528,-2.0,-2.0,-2.0,2.0,-0.506352,2.0,2.0,-2.0,2.0
2025-07-19 14:42:55.482,3.2000000000000024,3200,160,-0.14048357,0.15858977,0.045166217,-0.026242312,0.018623635,0.03700077,0.0,0.0,0.0,0.0,0.091703065,-0.46139017,0.1511859,-0.08821506,0.079190634,-0.19962099,0.17301601,0.16757254,0.21556997,-0.26041147,0.004423067,0.21173334,-0.07740841,0.0707001,-0.02262177,-0.15785162,-0.16484404,0.02303517,0.1114185,-0.13011734,-0.0181327,0.040648613,0.0013110408,0.11616428,-0.8015825,2.0,1.8284528,-2.0,-2.0,-2.0,2.0,-0.506352,2.0,2.0,-2.0,2.0,-2.0,2.0,1.0503886,-2.0,-2.0,-0.38708198,2.0,1.3181779,2.0,2.0,-2.0,2.0
2025-07-19 14:42:55.501,3.2200000000000024,3220,161,-0.051285584,0.009534088,-0.09277652,-0.03302678,-0.051151942,-0.016526757,0.0,0.0,0.0,0.0,0.07518882,-0.42725867,0.13844348,-0.12725429,-0.028698955,-0.1811392,0.20964102,0.16292064,0.22485518,-0.26526812,-0.010313208,0.24108188,0.058151636,0.11397673,-0.009906761,-0.0727547,-0.38163406,0.13075463,0.0028581591,0.19449759,-0.029190267,0.019586395,-0.007338981,0.104427055,-2.0,2.0,1.0503886,-2.0,-2.0,-0.38708198,2.0,1.3181779,2.0,2.0,-2.0,2.0,-2.0,2.0,-1.1557295,-2.0,-2.0,2.0,2.0,-1.5556235,2.0,2.0,-1.4205539,2.0
2025-07-19 14:42:55.521,3.2400000000000024,3240,162,-0.27171797,0.013719825,0.057351325,-0.028165609,0.0043196375,0.04700191,0.0,0.0,0.0,0.0,0.063205376,-0.39407697,0.07334096,-0.17360212,-0.17069645,-0.08811049,0.24028178,0.15067232,0.25882903,-0.256754,-0.035137735,0.24527043,-0.0022619355,0.06556013,-0.21396314,-0.047220368,-0.40050206,0.17234175,0.010165808,-0.11897199,-0.022539338,0.053761728,-0.054568537,0.07499483,-2.0,2.0,-1.1557295,-2.0,-2.0,2.0,2.0,-1.5556235,2.0,2.0,-1.4205539,2.0,-1.0980487,2.0,-2.0,-2.0,-2.0,2.0,2.0,-1.918731,2.0,-2.0,2.0,2.0
2025-07-19 14:42:55.541,3.2600000000000025,3260,163,0.09483856,0.06669999,0.106479704,-0.02240748,0.0066549256,0.011456091,0.0,0.0,0.0,0.0,0.04021026,-0.32783008,0.0012861987,-0.21424934,-0.26324564,-0.026630035,0.24782206,0.055266064,0.26056412,-0.27293938,-0.019409819,0.25484395,-0.107587256,0.19636394,-0.13679126,-0.027801143,-0.23311517,0.14865379,0.025973858,-0.23580539,0.043196023,-0.08000334,0.17295772,0.059051044,-1.0980487,2.0,-2.0,-2.0,-2.0,2.0,2.0,-1.918731,2.0,-2.0,2.0,2.0,0.88158923,2.0,-2.0,0.7564028,-1.0388385,2.0,0.763126,1.5341568,2.0,-2.0,2.0,2.0
2025-07-19 14:42:55.565,3.2800000000000025,3280,164,0.42834026,-0.2003874,-0.20316191,-0.052749574,-0.047728505,0.022765798,0.0,0.0,0.0,0.0,0.05283392,-0.2407022,-0.051849023,-0.19809836,-0.30043626,0.033789206,0.25043708,0.020334473,0.27373418,-0.29728848,0.06825581,0.27045918,0.0181162,0.25127834,-0.059714295,0.016237972,-0.10099405,0.17377691,-0.0077003236,0.025807917,0.07663463,-0.048316922,0.29889572,-0.015316392,0.88158923,2.0,-2.0,0.7564028,-1.0388385,2.0,0.763126,1.5341568,2.0,-2.0,2.0,2.0,0.32284313,0.9277112,-2.0,-2.0,1.0882165,2.0,-2.0,1.3494105,2.0,0.6068646,0.39803505,-2.0
2025-07-19 14:42:55.583,3.3000000000000025,3300,165,0.0982761,0.17061739,-0.29979318,-0.043735836,-0.05422926,-0.003219724,0.0,0.0,0.0,0.0,0.05441667,-0.13251072,-0.10481291,-0.21199034,-0.28617465,0.062121164,0.21866202,0.091429695,0.2681721,-0.28851154,0.141783,0.19333838,-0.0452549,0.24377495,-0.17014378,-0.004999345,0.09160884,0.10649191,-0.17884637,0.13726565,0.061085448,0.14184938,0.033515472,-0.23643948,0.32284313,0.9277112,-2.0,-2.0,1.0882165,2.0,-2.0,1.3494105,2.0,0.6068646,0.39803505,-2.0,-2.0,-2.0,-2.0,0.98601705,2.0,2.0,0.26072213,-2.0,2.0,-0.94692665,1.5307232,-2.0
2025-07-19 14:42:55.602,3.3200000000000025,3320,166,0.25049436,0.0038086006,-0.08579281,-0.103388295,0.0023018564,0.008773781,0.0,0.0,0.0,0.0,0.0089028515,-0.10424817,-0.14123608,-0.21750161,-0.23836014,0.105876505,0.20569243,0.14636843,0.27286327,-0.25515002,0.20036942,0.10123276,-0.124360874,-0.041051626,-0.08985608,-0.027560603,0.09315841,0.14604118,0.008434293,0.07695719,0.07695565,-0.018060056,0.22881867,-0.24706475,-2.0,-2.0,-2.0,0.98601705,2.0,2.0,0.26072213,-2.0,2.0,-0.94692665,1.5307232,-2.0,0.018262293,-2.0,-2.0,1.0408623,2.0,1.6027045,0.13521397,-2.0,2.0,-2.0,-1.7567827,-2.0
