openverse-orca/OrcaGym/log/simulation_log_20250609_150303.csv
timestamp,imu_angle_roll,imu_angle_pitch,imu_angle_yaw,imu_angular_velocity_roll,imu_angular_velocity_pitch,imu_angular_velocity_yaw,imu_acc_x,imu_acc_y,imu_acc_z,fl_joint1_pos,fl_joint1_vel,fl_joint1_torque,fl_joint2_pos,fl_joint2_vel,fl_joint2_torque,fl_joint3_pos,fl_joint3_vel,fl_joint3_torque,fr_joint1_pos,fr_joint1_vel,fr_joint1_torque,fr_joint2_pos,fr_joint2_vel,fr_joint2_torque,fr_joint3_pos,fr_joint3_vel,fr_joint3_torque,hl_joint1_pos,hl_joint1_vel,hl_joint1_torque,hl_joint2_pos,hl_joint2_vel,hl_joint2_torque,hl_joint3_pos,hl_joint3_vel,hl_joint3_torque,hr_joint1_pos,hr_joint1_vel,hr_joint1_torque,hr_joint2_pos,hr_joint2_vel,hr_joint2_torque,hr_joint3_pos,hr_joint3_vel,hr_joint3_torque,fl_force_x,fl_force_y,fl_force_z,fr_force_x,fr_force_y,fr_force_z,hl_force_x,hl_force_y,hl_force_z,hr_force_x,hr_force_y,hr_force_z,fl_hip_action,fl_thigh_action,fl_calf_action,fr_hip_action,fr_thigh_action,fr_calf_action,hl_hip_action,hl_thigh_action,hl_calf_action,hr_hip_action,hr_thigh_action,hr_calf_action
2025-06-09 15:03:03.964,-0.013835511,-0.0010200772,-0.020101318,0.009448548,0.03923627,-0.012586752,-1.4391044,0.88723147,0.0,0.0,-0.0015157652,0.004206982,0.0018455123,0.0045234724,0.004810745,-0.0022776604,-0.008092111,-0.009004516,-0.0056766733,-0.0024007757,-0.0057215663,0.003801229,0.045659382,-0.044459052,0.07227678,-0.024189277,0.013557525,0.009169033,0.023231873,2.6857115e-05,-0.0102283,0.074642904,-0.024748657,0.061435957,0.0,0.0,0.0,0.0,0.0,0.0,0.0,0.0,0.0,0.0,0.0,0.0,-2.0,2.0,-2.0,2.0,-2.0,-2.0,2.0,2.0,-2.0,-2.0,-1.2667779,-2.0
2025-06-09 15:03:03.975,0.050109874,0.18320939,0.09471571,0.011122943,-0.018364659,-0.03403841,0.0,0.0,0.0,0.0,-0.009611372,0.07106307,-0.047067773,0.014376245,-0.05942432,-0.040199634,0.007585311,0.06768816,-0.046191387,-0.02365519,-0.04750981,-0.050334357,-0.039975997,0.26660895,-0.21744208,0.08320186,-0.2042575,-0.098999634,0.05378416,0.21479492,-0.13096285,-0.0691754,-0.14223741,-0.18055274,-2.0,2.0,-2.0,2.0,-2.0,-2.0,2.0,2.0,-2.0,-2.0,-1.2667779,-2.0,-2.0,2.0,-2.0,2.0,2.0,-2.0,2.0,-2.0,-2.0,-2.0,-2.0,2.0
2025-06-09 15:03:03.998,0.15723023,0.067637056,0.008647349,0.0038474663,-0.06131897,0.035340857,0.0,0.0,0.0,-0.0014816169,-0.04528545,0.1613726,-0.10503719,0.046173688,-0.032124285,-0.107028544,0.036206637,0.045411278,-0.07026905,-0.030204145,-0.13175605,-0.0017749255,-0.060654353,0.107009955,-0.1013894,0.002060174,0.059554946,-0.08911119,0.11223895,-0.09648274,0.0123071475,-0.021266831,-0.33057842,0.19510931,-2.0,2.0,-2.0,2.0,2.0,-2.0,2.0,-2.0,-2.0,-2.0,-2.0,2.0,-2.0,2.0,-2.0,2.0,2.0,-2.0,2.0,-2.0,-2.0,-2.0,-2.0,-2.0
2025-06-09 15:03:04.017,0.13354874,0.00093318487,-0.096296445,-0.028841363,-0.035671405,0.042622387,0.0,0.0,0.0,-0.0019077333,-0.047088496,0.19228292,-0.124276176,0.05788824,-0.033724416,-0.10987994,0.03842503,-0.013850026,-0.021043135,-0.061375495,-0.22251008,-0.028480755,-0.095432065,0.044657722,0.047608647,0.03311607,0.04939797,0.05021878,0.06539377,-0.121128045,0.13660447,-0.0047615366,-0.13870831,-0.11427056,-2.0,2.0,-2.0,2.0,2.0,-2.0,2.0,-2.0,-2.0,-2.0,-2.0,-2.0,-2.0,2.0,-2.0,2.0,2.0,-2.0,2.0,-2.0,-2.0,-2.0,-2.0,-2.0
2025-06-09 15:03:04.037,0.13994122,-0.116566576,-0.13000552,-0.024002042,-0.07624519,0.0105479015,0.0,0.0,0.0,-0.0008637327,-0.054145273,0.18953416,-0.13136455,0.05198167,-0.03216567,-0.11102615,0.05044168,-0.07035049,0.0062151942,-0.060661193,-0.256717,-0.01586233,0.038496252,-0.020371541,-0.018108131,-0.0037288258,-0.012390747,-0.016387403,-0.06392618,-0.088081226,0.13803582,-0.008571969,-0.13058542,-0.042565137,-2.0,2.0,-2.0,2.0,2.0,-2.0,2.0,-2.0,-2.0,-2.0,-2.0,-2.0,-2.0,2.0,-2.0,2.0,2.0,-2.0,2.0,-2.0,-2.0,-2.0,-2.0,-2.0
2025-06-09 15:03:04.057,0.10788415,-0.14148003,-0.08722143,-0.0062086596,-0.06870399,0.00066156295,0.0,0.0,0.0,0.00091772317,-0.0654505,0.19704498,-0.12904376,0.06503957,-0.005703269,-0.1191016,0.043786816,-0.11099682,0.03309535,-0.050064772,-0.27420217,-0.0041177645,-0.090626486,0.054622784,-0.0013474122,0.018883487,-0.005664923,0.04489446,-0.054617994,-0.10825186,0.07882323,-0.06449591,-0.005333388,0.08596772,-2.0,2.0,-2.0,2.0,2.0,-2.0,2.0,-2.0,-2.0,-2.0,-2.0,-2.0,-2.0,2.0,-2.0,2.0,2.0,-2.0,2.0,-2.0,-2.0,-2.0,-2.0,-2.0
2025-06-09 15:03:04.077,0.033126175,-0.21592145,-0.16642971,-0.042841442,-0.055749327,-0.003019778,0.0,0.0,0.0,0.0030134628,-0.087132946,0.23526157,-0.15488847,0.053524375,0.022079486,-0.12842739,0.0559823,-0.14258459,0.031102361,-0.05555318,-0.2653666,-0.009347749,-0.059829533,0.107153185,-0.031110954,-0.07553233,0.048412938,0.010486959,0.051292524,-0.07762923,-0.059960008,0.03192772,0.00054690806,0.000717602,-2.0,2.0,-2.0,2.0,2.0,-2.0,2.0,-2.0,-2.0,-2.0,-2.0,-2.0,-2.0,2.0,-2.0,2.0,2.0,-2.0,2.0,-2.0,-2.0,-2.0,-2.0,-2.0
2025-06-09 15:03:04.097,-0.02778391,-0.1934078,-0.10032037,-0.031782348,-0.06612676,0.031994037,0.0,0.0,0.0,0.005334993,-0.09329723,0.2798512,-0.1675978,0.041570082,0.050602306,-0.14299531,0.051643338,-0.17412978,0.036465432,-0.051076848,-0.2650229,-0.012129787,-0.07267887,0.19173111,-0.036443528,-0.08037418,0.14947401,0.006951692,-0.006196138,-0.11822454,-0.025640229,-0.037380513,0.00594761,-0.06602323,-2.0,2.0,-2.0,2.0,2.0,-2.0,2.0,-2.0,-2.0,-2.0,-2.0,-2.0,-2.0,2.0,-2.0,2.0,2.0,-2.0,2.0,-2.0,-2.0,-2.0,-2.0,-2.0
2025-06-09 15:03:04.117,0.003940344,-0.16872624,-0.13866328,-0.09677753,0.025912112,0.020555498,0.0,0.0,0.0,0.007965489,-0.09612605,0.30777776,-0.18807076,0.046632744,0.07512937,-0.16767159,0.060185943,-0.19492643,0.036218107,-0.05622264,-0.28046295,-0.022974238,-0.040833253,0.1246032,-0.016445259,-0.06120952,0.032158773,-0.10299475,-0.0009931929,-0.07002925,0.04001395,-0.037531443,0.04401642,-0.097896345,-2.0,2.0,-2.0,2.0,2.0,-2.0,2.0,-2.0,-2.0,-2.0,-2.0,-2.0,-2.0,2.0,-2.0,2.0,2.0,-2.0,2.0,-2.0,-2.0,-2.0,-2.0,-2.0
2025-06-09 15:03:04.137,-0.076824665,-0.10634603,-0.08375384,-0.07062104,-0.006328458,0.0054347096,0.0,0.0,0.0,0.010533533,-0.08869196,0.33480746,-0.18498352,0.05496814,0.10802341,-0.18076518,0.065891035,-0.21403402,0.06106083,-0.05134039,-0.278473,-0.043033723,0.007412893,0.012310302,0.05005662,-0.014081815,0.14480527,-0.0030782972,0.015898224,-0.105900705,0.023372205,0.0072155995,-0.04483644,-0.068175815,-2.0,2.0,-2.0,2.0,2.0,-2.0,2.0,-2.0,-2.0,-2.0,-2.0,-2.0,-2.0,2.0,-2.0,2.0,2.0,-2.0,2.0,-2.0,-2.0,-2.0,-2.0,-2.0
2025-06-09 15:03:04.157,-0.052736387,-0.018056706,-0.071913,-0.057495106,-0.028632099,-0.04775938,0.0,0.0,0.0,0.0129812285,-0.106031455,0.3395779,-0.18096876,0.052489094,0.13548994,-0.18906651,0.06811178,-0.21685144,0.06549692,-0.04496335,-0.29458448,-0.06788332,0.0636634,0.018766912,0.0075563285,0.0347796,0.14031766,-0.0038878135,-0.03465362,-0.07222955,0.038583346,0.0035006022,-0.0468251,-0.09224977,-2.0,2.0,-2.0,2.0,2.0,-2.0,2.0,-2.0,-2.0,-2.0,-2.0,-2.0,-2.0,2.0,-2.0,2.0,2.0,-2.0,2.0,-2.0,-2.0,-2.0,-2.0,-2.0
2025-06-09 15:03:04.180,-0.07815391,0.00715557,-0.094566524,-0.046872634,0.0059743444,-0.035439648,0.0,0.0,0.0,0.015120109,-0.095961474,0.32253042,-0.17216484,0.060868923,0.1633923,-0.18653077,0.07952985,-0.21952303,0.079930246,-0.04196039,-0.30420533,-0.09376388,0.0462617,0.0010006939,-0.03972111,-0.017147578,0.06788149,0.0144720245,-0.040629342,-0.009794557,0.034770325,0.069135904,0.013636997,-0.10531793,-2.0,2.0,-2.0,2.0,2.0,-2.0,2.0,-2.0,-2.0,-2.0,-2.0,-2.0,-2.0,2.0,-2.0,2.0,2.0,-2.0,2.0,-2.0,-2.0,-2.0,-2.0,-2.0
2025-06-09 15:03:04.198,-0.10255365,-0.040886685,-0.105517425,-0.099046506,0.06342338,0.025919614,0.0,0.0,0.0,0.016961686,-0.101179376,0.33634114,-0.15854491,0.070711546,0.19016656,-0.18771647,0.09146203,-0.22689334,0.08326507,-0.039485607,-0.31083027,-0.09441156,-0.013821986,-0.04185874,-0.018037029,-0.0011676269,0.048860077,-0.018993715,0.08922414,-0.030924192,-0.03986401,0.06186392,0.050639905,-0.011790179,-2.0,2.0,-2.0,2.0,2.0,-2.0,2.0,-2.0,-2.0,-2.0,-2.0,-2.0,-2.0,2.0,-2.0,2.0,2.0,-2.0,2.0,-2.0,-2.0,-2.0,-2.0,-2.0
2025-06-09 15:03:04.217,-0.017538019,0.019972581,-0.08440201,-0.03260427,0.06435301,0.047941424,0.0,0.0,0.0,0.018448755,-0.09175333,0.33531108,-0.15940857,0.07943206,0.2049898,-0.1790188,0.10247987,-0.22706012,0.08611831,-0.04512329,-0.31839928,-0.1088765,-0.07236013,0.028897185,0.09758704,0.052949592,0.00947433,-0.051249713,0.07073021,-0.0071004964,0.0009558367,-0.021570941,0.0116423145,0.014475218,-2.0,2.0,-2.0,2.0,2.0,-2.0,2.0,-2.0,-2.0,-2.0,-2.0,-2.0,-2.0,2.0,-2.0,2.0,2.0,-2.0,2.0,-2.0,-2.0,-2.0,-2.0,-2.0
2025-06-09 15:03:04.238,-0.04580642,0.038696617,-0.018053854,-0.026723722,0.008377843,-0.019740874,0.0,0.0,0.0,0.019593313,-0.10508288,0.33416203,-0.13608666,0.08402138,0.22906674,-0.16910619,0.10265444,-0.23490435,0.09562885,-0.0278271,-0.3128108,-0.09774508,0.019954534,-0.04969114,0.03343773,-0.058278143,0.006364207,-0.013239099,0.01918312,-0.083075404,0.08321492,0.016934622,-0.008222808,0.060964268,-2.0,2.0,-2.0,2.0,2.0,-2.0,2.0,-2.0,-2.0,-2.0,-2.0,-2.0,-2.0,2.0,-2.0,2.0,2.0,-2.0,2.0,-2.0,-2.0,-2.0,-2.0,-2.0
2025-06-09 15:03:04.258,-0.01474682,0.039915644,-0.055081896,-0.10165469,-0.011810914,-0.036138617,0.0,0.0,0.0,0.020315802,-0.097070545,0.32913744,-0.12733757,0.08062907,0.23682898,-0.1766668,0.08947952,-0.25223887,0.08464862,-0.03487729,-0.31382996,-0.11300853,0.057835683,0.03395218,0.06536657,0.03324482,0.03994001,-0.014051371,0.06804084,0.051356453,0.07058722,-0.0048673227,0.057058286,-0.01788053,-2.0,2.0,-2.0,2.0,2.0,-2.0,2.0,-2.0,-2.0,-2.0,-2.0,-2.0,-2.0,2.0,-2.0,2.0,2.0,-2.0,2.0,-2.0,-2.0,-2.0,-2.0,-2.0
2025-06-09 15:03:04.280,-0.054039665,0.025242861,-0.04530199,-0.026606284,-0.0013859707,-0.016019836,0.0,0.0,0.0,0.02070042,-0.10747955,0.33075377,-0.11496991,0.09308548,0.23851435,-0.16994232,0.10587358,-0.25704685,0.10135267,-0.042254332,-0.32556918,-0.11108195,-0.008958886,-0.005766927,0.05463764,0.04289258,0.0008034139,0.035019524,-0.07330476,0.055309337,0.028385065,0.06482364,-0.05609729,0.02622818,-2.0,2.0,-2.0,2.0,2.0,-2.0,2.0,-2.0,-2.0,-2.0,-2.0,-2.0,-2.0,2.0,-2.0,2.0,2.0,-2.0,2.0,-2.0,-2.0,-2.0,-2.0,-2.0
2025-06-09 15:03:04.298,-0.050285537,0.060936317,0.044518046,-0.0273984,0.07106923,0.03635819,0.0,0.0,0.0,0.020852773,-0.08838948,0.33239424,-0.11161209,0.0806844,0.24460177,-0.16431326,0.09634276,-0.24886316,0.09563885,-0.030949421,-0.33362043,-0.10518384,-0.07166174,-0.06877579,-0.048712697,-0.054695264,0.093107425,0.0053146984,-0.015525344,0.022712814,-0.0743071,0.03512387,-0.024448667,0.07652487,-2.0,2.0,-2.0,2.0,2.0,-2.0,2.0,-2.0,-2.0,-2.0,-2.0,-2.0,-2.0,2.0,-2.0,2.0,2.0,-2.0,2.0,-2.0,-2.0,-2.0,-2.0,-2.0
2025-06-09 15:03:04.318,-0.009418453,0.023167705,-0.028209157,-0.007772456,-0.0058631646,0.00758656,0.0,0.0,0.0,0.020868717,-0.097629026,0.33471844,-0.11120178,0.084755786,0.24976677,-0.17244917,0.088280134,-0.24757499,0.097100236,-0.039930336,-0.32525906,-0.10421043,0.055714868,-0.0110765165,0.056626994,0.031638008,0.040605675,0.05057354,0.0057954527,-0.06955077,0.004273554,0.008830324,-0.044724762,0.07636169,-2.0,2.0,-2.0,2.0,2.0,-2.0,2.0,-2.0,-2.0,-2.0,-2.0,-2.0,-2.0,2.0,-2.0,2.0,2.0,-2.0,2.0,-2.0,-2.0,-2.0,-2.0,-2.0
2025-06-09 15:03:04.338,-0.008438596,0.08616378,-0.009427459,-0.094554946,0.05389304,0.030206826,0.0,0.0,0.0,0.020833965,-0.09157318,0.32901344,-0.10520613,0.09061747,0.26435977,-0.16640091,0.099989496,-0.25257078,0.07992099,-0.03647298,-0.3275172,-0.09667999,-0.06431292,-0.004751685,-0.02593651,0.07752897,0.06251556,0.040790237,0.013806708,0.044480268,-0.041185807,-0.04580945,-0.04923022,-0.011305497,-2.0,2.0,-2.0,2.0,2.0,-2.0,2.0,-2.0,-2.0,-2.0,-2.0,-2.0,-2.0,2.0,-2.0,2.0,2.0,-2.0,2.0,-2.0,-2.0,-2.0,-2.0,-2.0
2025-06-09 15:03:04.358,0.030930936,0.028285548,-0.050715044,-0.0007026204,0.03640833,-0.027411522,0.0,0.0,0.0,0.020816801,-0.09391803,0.32927734,-0.11778947,0.09638698,0.27831298,-0.15718749,0.08564786,-0.2662353,0.082383715,-0.032683067,-0.33977148,-0.108264506,0.011063086,0.035843793,-0.07235237,0.008674774,0.05768731,-0.05210683,0.01181931,0.0428315,-0.0071315523,-0.0580168,0.048058547,0.06553027,-2.0,2.0,-2.0,2.0,2.0,-2.0,2.0,-2.0,-2.0,-2.0,-2.0,-2.0,-2.0,2.0,-2.0,2.0,2.0,-2.0,2.0,-2.0,-2.0,-2.0,-2.0,-2.0
2025-06-09 15:03:04.380,-0.04491029,0.063333035,-0.046422496,-0.012069185,0.020708883,-0.014870004,0.0,0.0,0.0,0.020862194,-0.09266065,0.34261695,-0.105461285,0.09219771,0.27572402,-0.148581,0.08450079,-0.25274125,0.077159934,-0.039756052,-0.33769247,-0.09776259,0.031901237,0.016953565,-0.057040602,-0.017024502,0.038421188,0.011752098,-0.02055782,0.03421427,0.03061871,0.068173535,0.047122736,-0.04837546,-2.0,2.0,-2.0,2.0,2.0,-2.0,2.0,-2.0,-2.0,-2.0,-2.0,-2.0,-2.0,2.0,-2.0,2.0,2.0,-2.0,2.0,-2.0,-2.0,-2.0,-2.0,-2.0
2025-06-09 15:03:04.398,-0.0058463844,0.015883723,-0.024045367,-0.079174496,0.0098887915,0.022595776,0.0,0.0,0.0,0.020992441,-0.09404794,0.3355135,-0.10959979,0.10788463,0.27600822,-0.15247574,0.08097229,-0.26579,0.071050115,-0.046917055,-0.34382695,-0.10168751,0.018002428,-0.06119469,-0.005391257,-0.027927581,-0.011706057,0.0022220784,-0.050174206,-0.024267562,-0.05315727,0.0018948938,-0.07846458,0.051662523,-2.0,2.0,-2.0,2.0,2.0,-2.0,2.0,-2.0,-2.0,-2.0,-2.0,-2.0,-2.0,2.0,-2.0,2.0,2.0,-2.0,2.0,-2.0,-2.0,-2.0,-2.0,-2.0
2025-06-09 15:03:04.418,0.045553256,0.07082279,-0.03052094,-0.035049148,0.0060823285,0.020925427,0.0,0.0,0.0,0.021210743,-0.104646176,0.33451867,-0.12553397,0.09468401,0.28095183,-0.14213909,0.06694631,-0.2722981,0.057229042,-0.05491647,-0.35180146,-0.09106958,0.03470547,0.03917074,-0.067998774,0.025712132,0.08121715,-0.008742518,-0.028589042,0.005598401,0.020619024,-0.070611954,0.027557634,0.014145232,-2.0,2.0,-2.0,2.0,2.0,-2.0,2.0,-2.0,-2.0,-2.0,-2.0,-2.0,-2.0,2.0,-2.0,2.0,2.0,-2.0,2.0,-2.0,-2.0,-2.0,-2.0,-2.0
2025-06-09 15:03:04.438,-0.008085704,0.0058819014,-0.023578977,-0.062617145,-0.01001283,-0.021647846,0.0,0.0,0.0,0.021496084,-0.11295716,0.32999164,-0.12815863,0.10836526,0.28572136,-0.13709223,0.07374825,-0.25697994,0.053921144,-0.050155807,-0.34479675,-0.09121637,-0.032428063,-0.053975996,-0.058282644,0.046076227,-0.04656918,-0.0018548169,0.02389889,-0.056696553,-0.010322655,-0.016335532,0.05529092,0.018347869,-2.0,2.0,-2.0,2.0,2.0,-2.0,2.0,-2.0,-2.0,-2.0,-2.0,-2.0,-2.0,2.0,-2.0,2.0,2.0,-2.0,2.0,-2.0,-2.0,-2.0,-2.0,-2.0
2025-06-09 15:03:04.458,-0.012861316,0.077391475,0.004791613,-0.009767541,0.01290551,-0.0033685518,0.0,0.0,0.0,0.021820167,-0.1158937,0.3434308,-0.11384273,0.10643294,0.2888927,-0.12575413,0.07443909,-0.27451155,0.0472456,-0.039304838,-0.35078904,-0.0874425,0.009694189,-0.065610714,0.024516273,0.040344074,-0.052564986,0.086265944,0.03808983,-0.0047501586,0.028821453,0.0098121,-0.042865448,0.058485452,-2.0,2.0,-2.0,2.0,2.0,-2.0,2.0,-2.0,-2.0,-2.0,-2.0,-2.0,-2.0,2.0,-2.0,2.0,2.0,-2.0,2.0,-2.0,-2.0,-2.0,-2.0,-2.0
2025-06-09 15:03:04.481,-0.008848727,0.0014366072,-0.044803713,-0.010227325,0.014453195,0.025053682,0.0,0.0,0.0,0.022167683,-0.09997397,0.3295011,-0.117021605,0.09696216,0.27679083,-0.12164956,0.07308409,-0.26317984,0.042373292,-0.040189415,-0.3571236,-0.089009985,0.050445072,-0.017518634,0.021317033,0.074097626,-0.052587986,-0.011295235,-0.054530602,-0.06622755,-0.07943236,-0.071984485,0.045245852,0.0014985688,-2.0,2.0,-2.0,2.0,2.0,-2.0,2.0,-2.0,-2.0,-2.0,-2.0,-2.0,-2.0,2.0,-2.0,2.0,2.0,-2.0,2.0,-2.0,-2.0,-2.0,-2.0,-2.0
2025-06-09 15:03:04.498,0.03610129,0.08233289,0.02475726,-0.029400805,-0.028652335,-0.008616111,0.0,0.0,0.0,0.02252401,-0.115458176,0.3319318,-0.13740824,0.10124864,0.2843057,-0.11729765,0.06581163,-0.27081582,0.020445352,-0.037015796,-0.36502463,-0.08588984,0.027978802,0.052552376,-0.049503893,-0.011319222,-0.053226963,0.064326905,0.042277403,0.05012121,-0.09531303,0.0019191178,-0.03691429,-0.022738619,-2.0,2.0,-2.0,2.0,2.0,-2.0,2.0,-2.0,-2.0,-2.0,-2.0,-2.0,-2.0,2.0,-2.0,2.0,2.0,-2.0,2.0,-2.0,-2.0,-2.0,-2.0,-2.0
2025-06-09 15:03:04.519,0.048356302,0.09086157,-0.040777136,0.004050183,-0.010044161,0.036760334,0.0,0.0,0.0,0.022875955,-0.116602875,0.32862914,-0.12223858,0.102600306,0.28336653,-0.113348596,0.053339913,-0.28824657,0.015815735,-0.04817811,-0.36459288,-0.09497757,-0.036520183,0.02577654,0.020954918,-0.0104378695,-0.057989523,0.022070674,-0.055871155,0.017106391,0.047621652,0.023812402,0.058433257,-0.05138667,-2.0,2.0,-2.0,2.0,2.0,-2.0,2.0,-2.0,-2.0,-2.0,-2.0,-2.0,-2.0,2.0,-2.0,2.0,2.0,-2.0,2.0,-2.0,-2.0,-2.0,-2.0,-2.0
2025-06-09 15:03:04.538,0.029271359,0.07913462,-0.018032053,-0.015632397,0.040707808,0.034174625,0.0,0.0,0.0,0.023212763,-0.108991556,0.3305792,-0.13499394,0.11501042,0.29644358,-0.11206541,0.061995126,-0.27938852,0.009738577,-0.04506084,-0.36118877,-0.09362348,-0.07435565,0.058148015,0.0704032,0.022955514,-0.05301143,0.07619987,0.0020204224,0.062248968,-0.007708699,-0.065847225,-0.07135995,-0.022852503,-2.0,2.0,-2.0,2.0,2.0,-2.0,2.0,-2.0,-2.0,-2.0,-2.0,-2.0,-2.0,2.0,-2.0,2.0,2.0,-2.0,2.0,-2.0,-2.0,-2.0,-2.0,-2.0
2025-06-09 15:03:04.559,-0.0038857264,0.064526804,-0.012135443,-0.038088925,-0.031902924,0.032834176,0.0,0.0,0.0,0.023526536,-0.122393765,0.3250868,-0.13123117,0.09593276,0.30069575,-0.11278891,0.049883444,-0.28181562,-0.004103429,-0.03632982,-0.3579725,-0.08169605,-0.029900674,0.0288461,0.042632107,0.07148782,-0.0017026316,-0.023380667,0.010331347,0.059138022,0.03940572,-0.02012077,-0.055109873,0.045984667,-2.0,2.0,-2.0,2.0,2.0,-2.0,2.0,-2.0,-2.0,-2.0,-2.0,-2.0,-2.0,2.0,-2.0,2.0,2.0,-2.0,2.0,-2.0,-2.0,-2.0,-2.0,-2.0
2025-06-09 15:03:04.581,0.0244668,0.060292408,0.0028482198,-0.050100878,0.0061932546,0.022211263,0.0,0.0,0.0,0.023812221,-0.12353169,0.31434846,-0.1274423,0.113407694,0.29076636,-0.1027891,0.047539372,-0.28866252,0.0076650395,-0.04356222,-0.37385008,-0.09289399,0.069599904,-0.023780337,0.029842675,0.013991219,-0.034783088,-0.06193911,-0.06047521,0.061016243,-0.08373206,-0.059048023,-0.06843616,-0.039043237,-2.0,2.0,-2.0,2.0,2.0,-2.0,2.0,-2.0,-2.0,-2.0,-2.0,-2.0,-2.0,2.0,-2.0,2.0,2.0,-2.0,2.0,-2.0,-2.0,-2.0,-2.0,-2.0
2025-06-09 15:03:04.599,0.04477692,0.022927314,0.03675401,-0.004263221,-0.046829402,0.032828454,0.0,0.0,0.0,0.024067322,-0.12725332,0.32414374,-0.13290916,0.10424447,0.29229927,-0.103842355,0.05107497,-0.29586306,-0.015303111,-0.04640406,-0.37069687,-0.09176499,0.06055681,0.0561865,0.00077810924,0.035098813,0.020337563,0.024506474,-0.0035746025,0.017182404,0.054647006,-0.011782042,-0.024951331,0.036497716,-2.0,2.0,-2.0,2.0,2.0,-2.0,2.0,-2.0,-2.0,-2.0,-2.0,-2.0,-2.0,2.0,-2.0,2.0,2.0,-2.0,2.0,-2.0,-2.0,-2.0,-2.0,-2.0
2025-06-09 15:03:04.619,-0.019197611,0.050746594,0.0011877054,-0.05125488,0.005909691,-0.026378924,0.0,0.0,0.0,0.024291467,-0.12484618,0.30714908,-0.12927502,0.11077644,0.28825676,-0.107405126,0.044089127,-0.28569928,-0.020521598,-0.04289769,-0.36717904,-0.08216601,0.069159046,0.017600195,-0.027146824,0.023083994,-0.051292837,0.072068386,0.0108673535,-0.019487066,-0.04042042,-0.07110052,0.014426423,0.0141352955,-2.0,2.0,-2.0,2.0,2.0,-2.0,2.0,-2.0,-2.0,-2.0,-2.0,-2.0,-2.0,2.0,-2.0,2.0,2.0,-2.0,2.0,-2.0,-2.0,-2.0,-2.0,-2.0
2025-06-09 15:03:04.639,0.032080106,-0.008007555,-0.028517349,-0.031129504,0.0016390886,-0.00404211,0.0,0.0,0.0,0.024485925,-0.1127373,0.31607386,-0.14233916,0.10697913,0.29844227,-0.1081309,0.048213452,-0.2930097,-0.023666115,-0.054366987,-0.37311313,-0.096873,0.030250689,-0.07273678,0.05940168,-0.012022662,0.0057414044,0.0003062697,-0.040941738,-0.061155386,-0.019331394,-0.054648757,-0.019350044,-0.051358685,-2.0,2.0,-2.0,2.0,2.0,-2.0,2.0,-2.0,-2.0,-2.0,-2.0,-2.0,-2.0,2.0,-2.0,2.0,2.0,-2.0,2.0,-2.0,-2.0,-2.0,-2.0,-2.0
2025-06-09 15:03:04.659,0.034963716,0.0017541153,-0.003340952,-0.064037375,0.015476976,-0.030328376,0.0,0.0,0.0,0.024653133,-0.11533297,0.30544996,-0.13078955,0.11591243,0.31208238,-0.09269317,0.048616394,-0.30662632,-0.029335506,-0.03756905,-0.3663246,-0.08674898,-0.059934627,-0.05811719,-0.049960837,-0.015958438,0.075189054,0.038037837,-0.021740524,-0.06776109,-0.026996203,-0.060279064,-0.010601,0.012232346,-2.0,2.0,-2.0,2.0,2.0,-2.0,2.0,-2.0,-2.0,-2.0,-2.0,-2.0,-2.0,2.0,-2.0,2.0,2.0,-2.0,2.0,-2.0,-2.0,-2.0,-2.0,-2.0
2025-06-09 15:03:04.681,-0.0013834569,0.02530462,-0.012101856,-0.056829352,0.026289973,0.007509007,0.0,0.0,0.0,0.02479625,-0.12739258,0.30431318,-0.122418895,0.10457045,0.3092988,-0.09746966,0.045424223,-0.2935225,-0.020572262,-0.050861184,-0.36720616,-0.081178814,-0.0046897433,0.030874772,0.07480758,-0.041649513,0.06253678,0.071828485,-0.017201103,0.0350098,0.034218565,0.01524339,-0.064447686,-0.047287323,-2.0,2.0,-2.0,2.0,2.0,-2.0,2.0,-2.0,-2.0,-2.0,-2.0,-2.0,-2.0,2.0,-2.0,2.0,2.0,-2.0,2.0,-2.0,-2.0,-2.0,-2.0,-2.0
2025-06-09 15:03:04.699,0.027308533,0.032331977,0.021584993,-0.05150753,-0.010460956,-0.049368937,0.0,0.0,0.0,0.024918823,-0.113874085,0.297397,-0.12189048,0.12310428,0.3023135,-0.09293338,0.04656389,-0.3129136,-0.021768069,-0.05099337,-0.37940282,-0.079658166,0.029753609,0.03268237,-0.06915675,0.011306153,0.07753981,0.02138369,-0.036240827,0.019555725,0.03153268,-0.04784685,-0.038015764,0.06802941,-2.0,2.0,-2.0,2.0,2.0,-2.0,2.0,-2.0,-2.0,-2.0,-2.0,-2.0,-2.0,2.0,-2.0,2.0,2.0,-2.0,2.0,-2.0,-2.0,-2.0,-2.0,-2.0
2025-06-09 15:03:04.719,0.029856484,0.00084940897,0.004269825,-0.028773533,-0.06251006,0.021158608,0.0,0.0,0.0,0.025024487,-0.12396221,0.30066386,-0.1287362,0.11768354,0.3127332,-0.09440976,0.043377623,-0.31394482,-0.030091548,-0.039343666,-0.37338397,-0.093599394,-0.03905586,0.0030818675,-0.06488748,0.014286012,0.023065567,-0.0063483054,0.048766434,-0.06885598,0.06662932,0.07538017,-0.055761755,0.048209526,-2.0,2.0,-2.0,2.0,2.0,-2.0,2.0,-2.0,-2.0,-2.0,-2.0,-2.0,-2.0,2.0,-2.0,2.0,2.0,-2.0,2.0,-2.0,-2.0,-2.0,-2.0,-2.0
2025-06-09 15:03:04.740,0.030784164,0.049613718,0.0073065483,-0.060694035,-0.013622431,0.01204471,0.0,0.0,0.0,0.025116766,-0.12894452,0.29671293,-0.12081711,0.12397903,0.313814,-0.091688365,0.04742221,-0.3138208,-0.027687918,-0.04748521,-0.37976652,-0.08896559,0.020081729,-0.028288294,0.027918585,0.07683604,0.07519335,-0.0023624867,0.034217864,0.06886234,0.050428357,-0.0038673559,-0.06737039,0.032688394,-2.0,2.0,-2.0,2.0,2.0,-2.0,2.0,-2.0,-2.0,-2.0,-2.0,-2.0,-2.0,2.0,-2.0,2.0,2.0,-2.0,2.0,-2.0,-2.0,-2.0,-2.0,-2.0
2025-06-09 15:03:04.760,0.010705819,-0.01510548,-0.04775902,0.009475625,-0.0006882906,-0.04634136,0.0,0.0,0.0,0.025198855,-0.12583548,0.3038671,-0.12430607,0.11343452,0.31584132,-0.10744241,0.050210424,-0.31504124,-0.030977063,-0.04119476,-0.37608925,-0.09487576,0.015869798,0.015275926,-0.049486153,0.006304039,-0.029544242,-0.0279701,0.05255358,0.048426185,0.016386539,0.049461193,0.045592774,-0.018248362,-2.0,2.0,-2.0,2.0,2.0,-2.0,2.0,-2.0,-2.0,-2.0,-2.0,-2.0,-2.0,2.0,-2.0,2.0,2.0,-2.0,2.0,-2.0,-2.0,-2.0,-2.0,-2.0
2025-06-09 15:03:04.781,-0.019906756,-0.027866567,0.009824573,-0.040591516,-0.02892932,-0.011275388,0.0,0.0,0.0,0.025273722,-0.1247305,0.3122831,-0.13037544,0.11515328,0.3175554,-0.10812246,0.044586603,-0.31503838,-0.033844188,-0.039170433,-0.38136536,-0.09204112,-0.06639481,0.025945378,0.049253907,-0.01585137,0.058841556,0.0096263215,0.040673967,-0.01995473,0.029376224,-0.07289755,0.007247777,0.068192124,-2.0,2.0,-2.0,2.0,2.0,-2.0,2.0,-2.0,-2.0,-2.0,-2.0,-2.0,-2.0,2.0,-2.0,2.0,2.0,-2.0,2.0,-2.0,-2.0,-2.0,-2.0,-2.0
2025-06-09 15:03:04.799,0.0402987,0.046815783,-0.029403875,0.0013123302,-0.005057186,0.010598287,0.0,0.0,0.0,0.025344927,-0.1158423,0.29314065,-0.12292431,0.122187994,0.31950197,-0.10039756,0.03446932,-0.31879848,-0.05113843,-0.04569575,-0.36590663,-0.08645448,0.05272292,-0.06246448,0.02532417,-0.065308765,0.04422322,-0.042015698,-0.00053246995,0.053365722,0.018622575,0.031410307,0.048577953,0.012443077,-2.0,2.0,-2.0,2.0,2.0,-2.0,2.0,-2.0,-2.0,-2.0,-2.0,-2.0,-2.0,2.0,-2.0,2.0,2.0,-2.0,2.0,-2.0,-2.0,-2.0,-2.0,-2.0
2025-06-09 15:03:04.820,0.002059882,0.045666303,0.02943856,-0.015004103,-0.007912103,0.015948609,0.0,0.0,0.0,0.025414683,-0.11473168,0.3076645,-0.13041517,0.121746,0.33317783,-0.10155466,0.045934558,-0.3080994,-0.047643792,-0.047156595,-0.38068056,-0.081405275,-0.06563865,-0.06791352,0.071295016,-0.00075432414,-0.024368549,0.059250344,-0.011589664,0.07099803,-0.018189708,-0.037653238,-0.018051734,0.07356364,-2.0,2.0,-2.0,2.0,2.0,-2.0,2.0,-2.0,-2.0,-2.0,-2.0,-2.0,-2.0,2.0,-2.0,2.0,2.0,-2.0,2.0,-2.0,-2.0,-2.0,-2.0,-2.0
2025-06-09 15:03:04.840,0.04608119,0.0463203,0.0018956355,-0.056621592,-0.023713876,0.021205183,0.0,0.0,0.0,0.025483197,-0.117944136,0.31202072,-0.11169015,0.11689042,0.3224321,-0.10085637,0.046570383,-0.30966568,-0.045482356,-0.032748926,-0.36843273,-0.07618733,-0.034179144,0.01865287,-0.032127537,-0.070393234,-0.0021157938,0.048234973,-0.052712932,-0.014896504,-0.04964471,0.07473772,0.042706277,-0.0676376,-2.0,2.0,-2.0,2.0,2.0,-2.0,2.0,-2.0,-2.0,-2.0,-2.0,-2.0,-2.0,2.0,-2.0,2.0,2.0,-2.0,2.0,-2.0,-2.0,-2.0,-2.0,-2.0
2025-06-09 15:03:04.860,-0.030688481,0.032140765,0.024467256,-0.002922125,-0.019246385,0.042092245,0.0,0.0,0.0,0.025548689,-0.11576637,0.3040755,-0.11932632,0.11131363,0.3196276,-0.10703818,0.04446574,-0.32074478,-0.053788412,-0.0311042,-0.37524718,-0.088961475,0.041557536,0.001866034,0.013778935,-0.035738803,0.026500067,0.013403633,-0.0763922,-0.0005460816,0.017416105,0.06560958,0.029570857,0.049419347,-2.0,2.0,-2.0,2.0,2.0,-2.0,2.0,-2.0,-2.0,-2.0,-2.0,-2.0,-2.0,2.0,-2.0,2.0,2.0,-2.0,2.0,-2.0,-2.0,-2.0,-2.0,-2.0
2025-06-09 15:03:04.881,-0.020516329,0.023184337,0.018055718,-0.016658172,0.02232133,-0.0067538344,0.0,0.0,0.0,0.025608461,-0.12467513,0.29965618,-0.11547663,0.112823494,0.33331805,-0.099842995,0.039488643,-0.32508123,-0.044634,-0.03227074,-0.3778919,-0.081197694,0.011023893,0.021868465,0.031786934,-0.024738366,0.045800366,-0.07016595,0.07258024,0.06266871,-0.06665692,-0.013286312,0.0068862126,0.072740935,-2.0,2.0,-2.0,2.0,2.0,-2.0,2.0,-2.0,-2.0,-2.0,-2.0,-2.0,-2.0,2.0,-2.0,2.0,2.0,-2.0,2.0,-2.0,-2.0,-2.0,-2.0,-2.0
2025-06-09 15:03:04.900,0.0043904283,0.033540376,0.029436737,0.026205512,-0.0058444245,0.031918343,0.0,0.0,0.0,0.025660936,-0.13127525,0.31104746,-0.11025607,0.12836254,0.3237936,-0.09032797,0.035204187,-0.31669548,-0.05092817,-0.037132155,-0.38081586,-0.06754022,0.027380805,0.024282966,0.07158214,0.032740016,-0.036782224,-0.010230692,0.0017596356,0.0012698866,0.06784072,-0.060016543,0.043257207,0.023201033,-2.0,2.0,-2.0,2.0,2.0,-2.0,2.0,-2.0,-2.0,-2.0,-2.0,-2.0,-2.0,2.0,-2.0,2.0,2.0,-2.0,2.0,-2.0,-2.0,-2.0,-2.0,-2.0
2025-06-09 15:03:04.920,-0.021872308,-0.050632343,0.012558863,-0.03422513,0.01581666,0.0462973,0.0,0.0,0.0,0.025705766,-0.13097318,0.315801,-0.1260937,0.12605825,0.32527053,-0.10436928,0.046417568,-0.3231961,-0.05492746,-0.02764327,-0.38158247,-0.08165362,0.054442603,-0.006070066,0.04056742,-0.019487267,0.031001464,0.014402231,0.040373642,-0.054996807,-0.035524987,0.036202297,-0.028640544,0.055249784,-2.0,2.0,-2.0,2.0,2.0,-2.0,2.0,-2.0,-2.0,-2.0,-2.0,-2.0,-2.0,2.0,-2.0,2.0,2.0,-2.0,2.0,-2.0,-2.0,-2.0,-2.0,-2.0
2025-06-09 15:03:04.940,-0.03898019,0.0035861304,0.028684841,0.02838838,0.001262355,0.026896376,0.0,0.0,0.0,0.02574347,-0.11930604,0.31029195,-0.123086356,0.11255829,0.33159918,-0.10558758,0.039362133,-0.33292165,-0.043240964,-0.038514424,-0.36397964,-0.06635384,-0.049952894,0.02640921,0.056506805,0.017994992,0.036274508,0.011753608,-0.07375392,-0.07131007,-0.03838935,0.018208187,0.04361052,0.062488504,-2.0,2.0,-2.0,2.0,2.0,-2.0,2.0,-2.0,-2.0,-2.0,-2.0,-2.0,-2.0,2.0,-2.0,2.0,2.0,-2.0,2.0,-2.0,-2.0,-2.0,-2.0,-2.0
2025-06-09 15:03:04.960,0.031855598,0.0016574239,0.010873768,-0.033237908,-0.03264401,-0.02736616,0.0,0.0,0.0,0.025775082,-0.11525493,0.30217868,-0.114950806,0.12977533,0.33225626,-0.09575258,0.039204083,-0.3335938,-0.058457073,-0.032009475,-0.37414765,-0.06367412,0.07290327,-0.042364735,-0.013866999,0.07122774,-0.026229894,-0.07488,-0.009335899,0.02675562,-0.055973332,-0.017018875,-0.06402575,0.04553478,-2.0,2.0,-2.0,2.0,2.0,-2.0,2.0,-2.0,-2.0,-2.0,-2.0,-2.0,-2.0,2.0,-2.0,2.0,2.0,-2.0,2.0,-2.0,-2.0,-2.0,-2.0,-2.0
2025-06-09 15:03:04.981,0.028941728,0.002030549,-0.000105224986,0.004347517,-0.045366872,-0.022662025,0.0,0.0,0.0,0.025801878,-0.12924083,0.31714553,-0.12303364,0.11090576,0.32996118,-0.10339512,0.030430373,-0.3198248,-0.042569406,-0.03708575,-0.37074637,-0.07389106,-0.06434118,0.048932776,0.020999143,0.033739675,-0.05330117,0.03261055,-0.06827113,0.04104065,-0.029105844,-0.029787105,0.05138056,0.03605524,-2.0,2.0,-2.0,2.0,2.0,-2.0,2.0,-2.0,-2.0,-2.0,-2.0,-2.0,-2.0,2.0,-2.0,2.0,2.0,-2.0,2.0,-2.0,-2.0,-2.0,-2.0,-2.0
2025-06-09 15:03:05.000,0.009881159,0.024964904,0.02918363,-0.051557384,-0.0029165335,-0.004031863,0.0,0.0,0.0,0.025825199,-0.11856834,0.31251577,-0.120502695,0.12794389,0.34272602,-0.10033439,0.04101354,-0.3271079,-0.05916771,-0.025735745,-0.3634765,-0.07379086,0.011388562,-0.026385248,0.007076781,-0.06647958,-0.0077741654,0.016769044,0.031084463,0.0049684807,-0.041532625,0.030202596,0.05175211,0.030115388,-2.0,2.0,-2.0,2.0,2.0,-2.0,2.0,-2.0,-2.0,-2.0,-2.0,-2.0,-2.0,2.0,-2.0,2.0,2.0,-2.0,2.0,-2.0,-2.0,-2.0,-2.0,-2.0
2025-06-09 15:03:05.020,0.03479715,0.027008137,-0.02407411,-0.061597403,-0.03125483,0.017527426,0.0,0.0,0.0,0.025846312,-0.11416243,0.30409703,-0.11349923,0.12921223,0.34021553,-0.10863171,0.031839445,-0.32335284,-0.056840274,-0.03015293,-0.3631747,-0.06850163,0.010077577,0.009761923,0.02560722,-0.03824761,-0.021575259,0.017391352,-0.022969197,-0.0744222,0.03935671,-0.018314844,0.062602766,-0.043228,-2.0,2.0,-2.0,2.0,2.0,-2.0,2.0,-2.0,-2.0,-2.0,-2.0,-2.0,-2.0,2.0,-2.0,2.0,2.0,-2.0,2.0,-2.0,-2.0,-2.0,-2.0,-2.0
2025-06-09 15:03:05.040,-0.050628476,0.012948305,0.011994611,-0.053685177,0.03146774,-0.014226646,0.0,0.0,0.0,0.025866348,-0.11856447,0.30710888,-0.11824773,0.11289935,0.3516123,-0.110883586,0.039301217,-0.3278475,-0.051548302,-0.036090046,-0.3649358,-0.07792237,0.0077415793,0.0154152205,0.0036743176,-0.02856652,0.027339058,0.071575,0.032168888,0.042704128,0.034340948,0.04821652,-0.019699438,-0.056730986,-2.0,2.0,-2.0,2.0,2.0,-2.0,2.0,-2.0,-2.0,-2.0,-2.0,-2.0,-2.0,2.0,-2.0,2.0,2.0,-2.0,2.0,-2.0,-2.0,-2.0,-2.0,-2.0
2025-06-09 15:03:05.061,-0.04231801,0.0012104086,0.029136345,-0.007628933,0.019690488,0.036161628,0.0,0.0,0.0,0.025886253,-0.11347344,0.31810158,-0.122845426,0.117185086,0.350026,-0.09966159,0.040403582,-0.3262039,-0.04509316,-0.036212638,-0.3713802,-0.074816324,-0.06742136,-0.05840247,-0.058305148,0.074754514,-0.04344142,0.07418393,-0.045765363,0.021068275,0.01640801,-0.02174216,-0.023550699,0.030133462,-2.0,2.0,-2.0,2.0,2.0,-2.0,2.0,-2.0,-2.0,-2.0,-2.0,-2.0,-2.0,2.0,-2.0,2.0,2.0,-2.0,2.0,-2.0,-2.0,-2.0,-2.0,-2.0
2025-06-09 15:03:05.081,0.023438776,0.036619402,-0.036444485,0.017499885,-0.051977616,-0.011991364,0.0,0.0,0.0,0.025906766,-0.12502414,0.3230887,-0.1121161,0.12207847,0.34076563,-0.096772835,0.03751165,-0.33764508,-0.04465358,-0.031304512,-0.37524107,-0.057525612,-0.029694539,-0.037155956,0.06746344,-0.025214192,-0.044856757,0.03915483,-0.019706521,0.03854291,0.027307529,-0.062139384,0.05789793,0.07579746,-2.0,2.0,-2.0,2.0,2.0,-2.0,2.0,-2.0,-2.0,-2.0,-2.0,-2.0,-2.0,2.0,-2.0,2.0,2.0,-2.0,2.0,-2.0,-2.0,-2.0,-2.0,-2.0
2025-06-09 15:03:05.101,0.03325948,0.046111096,-0.04777608,-0.023628557,-0.03597117,0.027926493,0.0,0.0,0.0,0.025928427,-0.12829779,0.32060117,-0.1063625,0.11564368,0.3436182,-0.10467682,0.032789197,-0.34409764,-0.062120557,-0.023803137,-0.37782052,-0.07389547,0.065352134,0.031098014,-0.026782032,0.0020941466,-0.03396933,-0.054352235,-0.057042476,0.00659722,0.007134827,-0.017342675,-0.065573275,-0.05315035,-2.0,2.0,-2.0,2.0,2.0,-2.0,2.0,-2.0,-2.0,-2.0,-2.0,-2.0,-2.0,2.0,-2.0,2.0,2.0,-2.0,2.0,-2.0,-2.0,-2.0,-2.0,-2.0
2025-06-09 15:03:05.166,0.017464988,0.039883476,0.018688332,-0.016357122,-0.04409863,-0.04765139,0.0,0.0,0.0,0.02595152,-0.13023186,0.32151338,-0.11285147,0.11362111,0.35077104,-0.09351341,0.033895932,-0.3258322,-0.058513194,-0.03444453,-0.3640366,-0.07519006,-0.018509034,-0.010309693,0.0005302994,0.05881863,-0.04922168,-0.008317345,-0.02350222,-0.022527166,0.06788775,-0.060811013,0.0074160374,0.044881567,-2.0,2.0,-2.0,2.0,2.0,-2.0,2.0,-2.0,-2.0,-2.0,-2.0,-2.0,-2.0,2.0,-2.0,2.0,2.0,-2.0,2.0,-2.0,-2.0,-2.0,-2.0,-2.0
2025-06-09 15:03:05.186,0.025428483,0.020133965,0.036665007,0.0019345223,-0.063981704,0.04222421,0.0,0.0,0.0,0.025975123,-0.12385184,0.30687562,-0.107116915,0.12847011,0.344351,-0.10057443,0.03943907,-0.34088057,-0.049849883,-0.030201007,-0.36724374,-0.06294968,0.027030831,0.019459192,-0.00097558723,-0.026812617,0.046931043,0.02787856,-0.021022152,-0.029120246,0.030800717,-0.058900904,-0.040921073,-0.03248409,-2.0,2.0,-2.0,2.0,2.0,-2.0,2.0,-2.0,-2.0,-2.0,-2.0,-2.0,-2.0,2.0,-2.0,2.0,2.0,-2.0,2.0,-2.0,-2.0,-2.0,-2.0,-2.0
2025-06-09 15:03:05.206,0.021982871,0.033076,-0.026257198,0.010276595,-0.0408553,0.04676535,0.0,0.0,0.0,0.025997235,-0.12450803,0.31245455,-0.111051075,0.13070534,0.3535993,-0.09627067,0.019586632,-0.33942014,-0.058720734,-0.02364435,-0.3597958,-0.06539209,-0.05308877,0.053996395,-0.057164628,-0.002533347,0.045116883,-0.040035732,-0.018422201,-0.0005138896,0.06345839,-0.068142466,-0.031766884,0.0079378,-2.0,2.0,-2.0,2.0,2.0,-2.0,2.0,-2.0,-2.0,-2.0,-2.0,-2.0,-2.0,2.0,-2.0,2.0,2.0,-2.0,2.0,-2.0,-2.0,-2.0,-2.0,-2.0
2025-06-09 15:03:05.226,-0.016240114,-0.03386931,0.048073985,-0.008270741,-0.062388174,0.017110214,0.0,0.0,0.0,0.026016122,-0.12409255,0.31064293,-0.10012962,0.13005301,0.33855456,-0.11058234,0.02274378,-0.33301044,-0.05132547,-0.023466231,-0.3576696,-0.073098294,-0.043441046,0.033967152,0.074844144,-0.036520574,0.020242974,0.041251462,-0.011112735,0.02306701,-0.05642864,-0.0054006665,-0.012175562,0.030890897,-2.0,2.0,-2.0,2.0,2.0,-2.0,2.0,-2.0,-2.0,-2.0,-2.0,-2.0,-2.0,2.0,-2.0,2.0,2.0,-2.0,2.0,-2.0,-2.0,-2.0,-2.0,-2.0
2025-06-09 15:03:05.248,0.040167358,-0.037342194,0.002162203,-0.039677396,-0.027051678,-0.039629754,0.0,0.0,0.0,0.026030835,-0.11148384,0.313789,-0.11347884,0.123473294,0.33865517,-0.10552152,0.031101251,-0.32826594,-0.06205148,-0.02173764,-0.37045062,-0.07243922,0.0053404635,0.05040867,-0.0144373095,-0.010481658,0.05634247,-0.056557167,0.06555512,-0.032355987,-0.05763535,-0.045650907,-0.010941241,0.05891914,-2.0,2.0,-2.0,2.0,2.0,-2.0,2.0,-2.0,-2.0,-2.0,-2.0,-2.0,-2.0,2.0,-2.0,2.0,2.0,-2.0,2.0,-2.0,-2.0,-2.0,-2.0,-2.0
2025-06-09 15:03:05.266,-0.04272316,0.010711095,0.048620794,-0.047473222,-0.0410493,-0.019664746,0.0,0.0,0.0,0.026041305,-0.117126696,0.3119872,-0.106162444,0.11453643,0.34688333,-0.1069962,0.027193375,-0.34645456,-0.064320914,-0.036214534,-0.374209,-0.061928958,0.041792396,-0.033831876,-0.027047211,-0.0013201331,0.024416376,0.016341435,-0.07381627,0.037539862,-0.057510503,-0.048053697,0.0042590788,-0.05430977,-2.0,2.0,-2.0,2.0,2.0,-2.0,2.0,-2.0,-2.0,-2.0,-2.0,-2.0,-2.0,2.0,-2.0,2.0,2.0,-2.0,2.0,-2.0,-2.0,-2.0,-2.0,-2.0
2025-06-09 15:03:05.286,-0.045189466,0.01565789,0.015068456,0.02803836,-0.0054781064,0.031987827,0.0,0.0,0.0,0.026048163,-0.11323274,0.30815446,-0.11345551,0.122864656,0.34340826,-0.09365812,0.024631657,-0.34770834,-0.06325532,-0.030077664,-0.37212303,-0.07410643,0.027479108,-0.0069660656,0.03627981,-0.010421002,0.030734202,0.040707897,-0.062027704,0.008824584,0.02329387,0.0353936,0.06607538,-0.06055311,-2.0,2.0,-2.0,2.0,2.0,-2.0,2.0,-2.0,-2.0,-2.0,-2.0,-2.0,-2.0,2.0,-2.0,2.0,2.0,-2.0,2.0,-2.0,-2.0,-2.0,-2.0,-2.0
2025-06-09 15:03:05.306,-0.042117145,0.03047478,-0.049348585,-0.0327598,0.010598303,-0.040559378,0.0,0.0,0.0,0.02605246,-0.120740205,0.31370658,-0.11008461,0.119339615,0.3386212,-0.10762134,0.030234814,-0.33257234,-0.049847096,-0.033889752,-0.35960388,-0.06665049,-0.07456358,0.062171724,-0.03883896,-0.06740521,-0.03969809,0.071621336,-0.065107875,-0.04824654,-0.06619738,-0.035334863,-0.017369214,-0.040220287,-2.0,2.0,-2.0,2.0,2.0,-2.0,2.0,-2.0,-2.0,-2.0,-2.0,-2.0,-2.0,2.0,-2.0,2.0,2.0,-2.0,2.0,-2.0,-2.0,-2.0,-2.0,-2.0
2025-06-09 15:03:05.326,0.013757402,-0.031284697,-0.03385551,-0.03384104,-0.03810908,-0.037522826,0.0,0.0,0.0,0.026055375,-0.120915316,0.30615523,-0.10890364,0.12908827,0.33976546,-0.09805246,0.034894872,-0.3357025,-0.04873828,-0.029777318,-0.3766281,-0.07077821,0.03226381,0.006301068,-0.06833951,0.052072603,-0.06818474,0.06707204,-0.06641513,-0.03044685,-0.062182184,0.047638886,-0.03918788,-0.0077988147,-2.0,2.0,-2.0,2.0,2.0,-2.0,2.0,-2.0,-2.0,-2.0,-2.0,-2.0,-2.0,2.0,-2.0,2.0,2.0,-2.0,2.0,-2.0,-2.0,-2.0,-2.0,-2.0
2025-06-09 15:03:05.348,-0.031920332,0.02178745,0.03588556,-0.055818863,-0.06338943,0.046729416,0.0,0.0,0.0,0.02605799,-0.118536435,0.3231978,-0.1086175,0.11859339,0.35330316,-0.11005503,0.026251867,-0.32970476,-0.05711549,-0.03899681,-0.3717831,-0.0733172,-0.028690863,-0.034208726,0.064296246,0.07047106,0.04634698,0.03573486,-0.0669276,0.0450301,-0.016386487,0.010514183,0.06819801,0.065251976,-2.0,2.0,-2.0,2.0,2.0,-2.0,2.0,-2.0,-2.0,-2.0,-2.0,-2.0,-2.0,2.0,-2.0,2.0,2.0,-2.0,2.0,-2.0,-2.0,-2.0,-2.0,-2.0
2025-06-09 15:03:05.367,0.0121945245,0.047647372,0.0035367953,-0.06366358,-0.032852035,-0.042656586,0.0,0.0,0.0,0.02606114,-0.11240641,0.3076377,-0.11143132,0.11368602,0.3533772,-0.094140545,0.0361379,-0.3374349,-0.06448076,-0.027627284,-0.36036497,-0.06396425,-0.011836362,-0.05918895,-0.007003128,0.016751032,0.007607797,0.024290983,0.0061069527,0.012814313,0.035467483,-0.052971363,0.05275332,0.058912486,-2.0,2.0,-2.0,2.0,2.0,-2.0,2.0,-2.0,-2.0,-2.0,-2.0,-2.0,-2.0,2.0,-2.0,2.0,2.0,-2.0,2.0,-2.0,-2.0,-2.0,-2.0,-2.0
2025-06-09 15:03:05.386,0.04930119,0.013132073,0.048201967,0.014724858,-0.055487286,0.028106246,0.0,0.0,0.0,0.02606535,-0.12772176,0.3208092,-0.116335414,0.11754907,0.3442339,-0.106722884,0.035353955,-0.34346053,-0.053996637,-0.04048894,-0.36170304,-0.06391858,0.045291238,0.06323324,-0.024458745,0.041831743,-0.03460702,0.06481323,-0.04097874,-0.05172058,0.052151293,0.05406929,-0.046027422,-0.030951962,-2.0,2.0,-2.0,2.0,2.0,-2.0,2.0,-2.0,-2.0,-2.0,-2.0,-2.0,-2.0,2.0,-2.0,2.0,2.0,-2.0,2.0,-2.0,-2.0,-2.0,-2.0,-2.0
2025-06-09 15:03:05.406,-0.005614969,-0.0201234,0.014465468,0.02210424,-0.038384214,0.028024636,0.0,0.0,0.0,0.026070822,-0.1290443,0.32113245,-0.11488535,0.12329629,0.35076642,-0.105309285,0.030795434,-0.3300611,-0.06593719,-0.037101638,-0.37158084,-0.06311467,0.034743704,-0.07555535,-0.03464836,0.021949362,0.048036117,-0.041481417,0.071694575,-0.042715304,-0.0026720248,0.03021328,-0.057828095,0.029600661,-2.0,2.0,-2.0,2.0,2.0,-2.0,2.0,-2.0,-2.0,-2.0,-2.0,-2.0,-2.0,2.0,-2.0,2.0,2.0,-2.0,2.0,-2.0,-2.0,-2.0,-2.0,-2.0
2025-06-09 15:03:05.427,0.015916532,-0.03294004,0.006623511,-0.015639713,0.00588809,-0.022760062,0.0,0.0,0.0,0.026077488,-0.12374948,0.3216227,-0.10113027,0.113509506,0.3470352,-0.1087875,0.035323735,-0.34071174,-0.062602855,-0.026497697,-0.37472698,-0.069120035,0.07452676,0.03699871,-0.055632487,0.021920307,-0.04182787,0.04224294,-0.05489254,0.031274553,-0.053368628,0.004844157,0.0127448,0.0021479828,-2.0,2.0,-2.0,2.0,2.0,-2.0,2.0,-2.0,-2.0,-2.0,-2.0,-2.0,-2.0,2.0,-2.0,2.0,2.0,-2.0,2.0,-2.0,-2.0,-2.0,-2.0,-2.0
2025-06-09 15:03:05.449,0.032515343,0.05043301,0.027082995,-0.013734711,-0.060089055,-0.0048635947,0.0,0.0,0.0,0.026085077,-0.111862466,0.31077132,-0.11087547,0.13211134,0.3403645,-0.10236818,0.023604637,-0.32919452,-0.05191908,-0.027825786,-0.35930446,-0.07157217,0.0525198,0.012300726,0.046363324,0.014767576,0.034736488,0.06502053,-0.009999141,-0.014706331,-0.048039496,0.048070423,-0.020660758,0.02332109,-2.0,2.0,-2.0,2.0,2.0,-2.0,2.0,-2.0,-2.0,-2.0,-2.0,-2.0,-2.0,2.0,-2.0,2.0,2.0,-2.0,2.0,-2.0,-2.0,-2.0,-2.0,-2.0
2025-06-09 15:03:05.467,0.005018683,-0.009097829,0.008198943,-0.03586053,-0.06483037,0.0045129578,0.0,0.0,0.0,0.026093198,-0.1127035,0.32046795,-0.100563675,0.12662445,0.3380816,-0.10134156,0.03527477,-0.3444662,-0.0706951,-0.032715064,-0.37025297,-0.07172622,-0.026155518,-0.07254377,-0.023436181,0.03507934,0.041201502,-0.07000758,0.027268222,-0.0012124745,-0.041609418,0.06837822,-0.051144302,0.059758775,-2.0,2.0,-2.0,2.0,2.0,-2.0,2.0,-2.0,-2.0,-2.0,-2.0,-2.0,-2.0,2.0,-2.0,2.0,2.0,-2.0,2.0,-2.0,-2.0,-2.0,-2.0,-2.0
2025-06-09 15:03:05.487,0.027407639,0.007257794,-0.04322916,-0.011574449,0.008639071,0.022064235,0.0,0.0,0.0,0.02610141,-0.119507045,0.30292952,-0.11586862,0.12899536,0.3456269,-0.10600958,0.037857275,-0.33316693,-0.06472271,-0.025776733,-0.36720183,-0.064743616,0.057698905,-0.06391828,-0.0028654446,-0.04444871,-0.051526584,-0.022958884,0.052931003,-0.0056093177,-0.06728886,-0.035511043,-0.014583683,0.048360664,-2.0,2.0,-2.0,2.0,2.0,-2.0,2.0,-2.0,-2.0,-2.0,-2.0,-2.0,-2.0,2.0,-2.0,2.0,2.0,-2.0,2.0,-2.0,-2.0,-2.0,-2.0,-2.0
2025-06-09 15:03:05.507,0.02249521,0.0010845563,0.017667685,-0.03144217,-0.059947576,0.04181764,0.0,0.0,0.0,0.02610929,-0.12913655,0.31811306,-0.113504164,0.11578143,0.34954104,-0.10771029,0.023042733,-0.34334877,-0.053785313,-0.026842883,-0.364196,-0.05822747,0.059843257,0.06593551,-0.04144701,-0.03238884,0.05912103,-0.011768413,0.032116167,0.05730523,0.042110574,0.049046274,-0.052962128,-0.072736174,-2.0,2.0,-2.0,2.0,2.0,-2.0,2.0,-2.0,-2.0,-2.0,-2.0,-2.0,-2.0,2.0,-2.0,2.0,2.0,-2.0,2.0,-2.0,-2.0,-2.0,-2.0,-2.0
2025-06-09 15:03:05.527,-0.007633793,-0.0061291163,0.009908661,0.028347839,0.0089417035,0.047180075,0.0,0.0,0.0,0.026116455,-0.12003793,0.3187334,-0.101196066,0.11343611,0.34932885,-0.09087802,0.030372875,-0.34200776,-0.054165296,-0.038235422,-0.36734712,-0.06846233,-0.040263116,0.042800035,-0.02230021,0.06617555,-0.044749238,0.020494942,0.028651444,-0.0038515464,0.050196584,-0.039900318,-0.028038593,0.05707193,-2.0,2.0,-2.0,2.0,2.0,-2.0,2.0,-2.0,-2.0,-2.0,-2.0,-2.0,-2.0,2.0,-2.0,2.0,2.0,-2.0,2.0,-2.0,-2.0,-2.0,-2.0,-2.0
2025-06-09 15:03:05.548,-0.0023587057,-0.0104796905,0.023067325,-0.062477835,-0.030920198,0.016338043,0.0,0.0,0.0,0.026122624,-0.12924191,0.32136643,-0.101026624,0.11549398,0.3378299,-0.1054835,0.028246723,-0.34473372,-0.059258386,-0.026839828,-0.3663406,-0.06607728,-0.05246906,-0.061515573,0.025219291,-0.014043282,0.047224138,-0.007798249,0.04749128,0.024401018,-0.007391381,0.04089987,-0.032954555,-0.060366496,-2.0,2.0,-2.0,2.0,2.0,-2.0,2.0,-2.0,-2.0,-2.0,-2.0,-2.0,-2.0,2.0,-2.0,2.0,2.0,-2.0,2.0,-2.0,-2.0,-2.0,-2.0,-2.0
2025-06-09 15:03:05.567,0.048049815,-0.002352525,-0.025518991,0.020895742,-0.037447814,0.02267605,0.0,0.0,0.0,0.026127595,-0.115600795,0.31237698,-0.10921739,0.12972279,0.3436072,-0.09578307,0.027587606,-0.33353165,-0.063680716,-0.026112668,-0.37369874,-0.057192583,0.07377645,0.0040783673,-0.004891944,0.07455985,-0.00933957,0.063883334,0.04089294,0.039880972,0.0009634025,-0.043790177,-0.048823982,0.019968756,-2.0,2.0,-2.0,2.0,2.0,-2.0,2.0,-2.0,-2.0,-2.0,-2.0,-2.0,-2.0,2.0,-2.0,2.0,2.0,-2.0,2.0,-2.0,-2.0,-2.0,-2.0,-2.0
2025-06-09 15:03:05.587,0.00876184,0.03381798,0.017480077,-0.057970066,-0.035013102,0.042879082,0.0,0.0,0.0,0.026131276,-0.11854566,0.31665576,-0.10239467,0.12292279,0.35040188,-0.09548242,0.021002138,-0.34201646,-0.05848875,-0.02364533,-0.3670218,-0.06616917,0.0052269725,-0.05013936,0.0005477284,0.04948764,0.05955487,0.0073449607,-0.04344718,-0.01768063,-0.026731966,0.0038753932,-0.038264338,0.057815325,-2.0,2.0,-2.0,2.0,2.0,-2.0,2.0,-2.0,-2.0,-2.0,-2.0,-2.0,-2.0,2.0,-2.0,2.0,2.0,-2.0,2.0,-2.0,-2.0,-2.0,-2.0,-2.0
2025-06-09 15:03:05.607,-0.034357667,-0.023892721,0.03354224,-0.016719477,0.023144662,0.023683257,0.0,0.0,0.0,0.026133655,-0.12377284,0.3164182,-0.10706517,0.11398257,0.3434957,-0.09987262,0.027383901,-0.33170405,-0.064398915,-0.022389177,-0.3779477,-0.07663744,0.004332513,-0.069927536,0.071218826,-0.032250367,-0.04014363,-0.020290865,-0.06884358,-0.01971062,-0.014565295,-0.010602032,0.03765831,0.026921304,-2.0,2.0,-2.0,2.0,2.0,-2.0,2.0,-2.0,-2.0,-2.0,-2.0,-2.0,-2.0,2.0,-2.0,2.0,2.0,-2.0,2.0,-2.0,-2.0,-2.0,-2.0,-2.0
2025-06-09 15:03:05.627,0.018750664,0.045367282,0.038102493,0.01063329,-0.007700393,0.02988916,0.0,0.0,0.0,0.026134795,-0.12758647,0.3031205,-0.11106075,0.12556633,0.3363533,-0.10192181,0.026579918,-0.3427771,-0.055162024,-0.030516563,-0.37581992,-0.06117899,0.018701157,0.030467894,0.057144646,-0.06450551,-0.016628068,-0.061872993,0.041477136,0.0011143173,-0.0056204605,0.012053945,0.07397778,0.071067914,-2.0,2.0,-2.0,2.0,2.0,-2.0,2.0,-2.0,-2.0,-2.0,-2.0,-2.0,-2.0,2.0,-2.0,2.0,2.0,-2.0,2.0,-2.0,-2.0,-2.0,-2.0,-2.0
2025-06-09 15:03:05.647,0.0063504083,-0.028163228,0.04093781,-0.026447818,-0.060180955,0.02682037,0.0,0.0,0.0,0.026134817,-0.11634641,0.3099167,-0.103319764,0.12378981,0.3522095,-0.100934714,0.02643183,-0.3394798,-0.059372056,-0.029715987,-0.37555936,-0.059452046,0.033783104,0.04981306,0.07008328,0.022861686,0.05066212,-0.005156216,-0.05969455,0.06834231,-0.022693517,0.012973714,-0.029943965,0.012157534,-2.0,2.0,-2.0,2.0,2.0,-2.0,2.0,-2.0,-2.0,-2.0,-2.0,-2.0,-2.0,2.0,-2.0,2.0,2.0,-2.0,2.0,-2.0,-2.0,-2.0,-2.0,-2.0
2025-06-09 15:03:05.668,0.045032073,0.031949986,-0.004804967,0.026881631,0.015368897,-0.013186156,0.0,0.0,0.0,0.026133887,-0.112479806,0.31872752,-0.11468598,0.123265184,0.3453033,-0.093814306,0.028666401,-0.3324136,-0.06802171,-0.036257885,-0.3656371,-0.07212458,0.015796706,-0.024885835,0.03905029,0.068661384,0.003843472,-0.06326951,0.012437668,-0.03685402,0.031747166,0.05014483,0.006014003,-0.033107527,-2.0,2.0,-2.0,2.0,2.0,-2.0,2.0,-2.0,-2.0,-2.0,-2.0,-2.0,-2.0,2.0,-2.0,2.0,2.0,-2.0,2.0,-2.0,-2.0,-2.0,-2.0,-2.0
2025-06-09 15:03:05.687,-0.03841696,0.035340965,-0.018914038,-0.03751562,-0.0153696,-0.045430873,0.0,0.0,0.0,0.026132194,-0.12950057,0.30501637,-0.10631454,0.114178255,0.33652648,-0.091959864,0.028534222,-0.32995906,-0.05426986,-0.03469296,-0.37569922,-0.064574786,-0.018359557,0.018959152,-0.04938781,-0.06134451,0.01412209,-0.06871394,0.06178453,0.043201365,-0.06629854,-0.04080676,-0.06262218,0.05596016,-2.0,2.0,-2.0,2.0,2.0,-2.0,2.0,-2.0,-2.0,-2.0,-2.0,-2.0,-2.0,2.0,-2.0,2.0,2.0,-2.0,2.0,-2.0,-2.0,-2.0,-2.0,-2.0
2025-06-09 15:03:05.707,-0.02874776,-0.009358187,0.03529676,-0.035142045,-0.010209868,-0.024518698,0.0,0.0,0.0,0.026129931,-0.11276018,0.3189585,-0.112786695,0.13020192,0.35419095,-0.101992436,0.02629055,-0.3382857,-0.06589626,-0.033205837,-0.37110764,-0.065101095,-0.057702944,-0.06977733,-0.04911852,-0.054445352,0.047889933,0.030096674,-0.028120995,-0.011964696,-0.05824297,0.042212076,-0.04030834,0.036644757,-2.0,2.0,-2.0,2.0,2.0,-2.0,2.0,-2.0,-2.0,-2.0,-2.0,-2.0,-2.0,2.0,-2.0,2.0,2.0,-2.0,2.0,-2.0,-2.0,-2.0,-2.0,-2.0
2025-06-09 15:03:05.730,0.03568424,-0.036017142,-0.038349107,0.00024474022,0.029778915,-0.027811985,0.0,0.0,0.0,0.026127297,-0.12816335,0.30353388,-0.11859229,0.13231747,0.35002115,-0.09557827,0.03207047,-0.33152127,-0.0637994,-0.035918027,-0.37673718,-0.07382922,0.062763065,-0.05199327,0.022518886,0.07498112,0.011480751,-0.044977274,0.026965387,0.057512175,-0.03169332,-0.0378283,-0.0470777,-0.02073607,-2.0,2.0,-2.0,2.0,2.0,-2.0,2.0,-2.0,-2.0,-2.0,-2.0,-2.0,-2.0,2.0,-2.0,2.0,2.0,-2.0,2.0,-2.0,-2.0,-2.0,-2.0,-2.0
2025-06-09 15:03:05.748,0.018690389,-0.021247663,-0.011315906,-0.0588887,-0.059926808,-0.0057030143,0.0,0.0,0.0,0.026124474,-0.13109922,0.3042548,-0.11712606,0.12532483,0.3471341,-0.095242694,0.026374152,-0.33590502,-0.058494642,-0.025648037,-0.3680718,-0.069435656,0.07162328,-0.067336604,-0.014496542,-0.05708305,0.068582684,0.030031048,-0.0587803,0.02454504,0.007506317,0.05286237,-0.04834379,0.058018852,-2.0,2.0,-2.0,2.0,2.0,-2.0,2.0,-2.0,-2.0,-2.0,-2.0,-2.0,-2.0,2.0,-2.0,2.0,2.0,-2.0,2.0,-2.0,-2.0,-2.0,-2.0,-2.0
2025-06-09 15:03:05.768,-0.02998929,-0.03315419,0.02537005,0.00031802247,-0.010635399,0.044615857,0.0,0.0,0.0,0.026121622,-0.11492188,0.30548707,-0.11301125,0.12843685,0.34944174,-0.1048036,0.033973575,-0.33150184,-0.060068324,-0.028026165,-0.36362258,-0.0567536,0.057130545,0.0035536028,0.0029663052,-0.0066470075,0.06363238,-0.03055741,-0.026418569,-0.028436705,0.024118863,0.023766082,0.04612243,-0.06840964,-2.0,2.0,-2.0,2.0,2.0,-2.0,2.0,-2.0,-2.0,-2.0,-2.0,-2.0,-2.0,2.0,-2.0,2.0,2.0,-2.0,2.0,-2.0,-2.0,-2.0,-2.0,-2.0
2025-06-09 15:03:05.788,-0.041507524,0.046910048,-0.04665851,0.009473418,0.017150398,0.014631215,0.0,0.0,0.0,0.026118884,-0.13078834,0.31628376,-0.100774705,0.12760155,0.35281527,-0.10585266,0.0317836,-0.3391233,-0.055772033,-0.03389659,-0.36190546,-0.06813821,-0.0063900254,0.008141108,0.056064863,0.04608048,0.02582187,-0.050395947,0.07392694,-0.059833635,-0.006049073,-0.05803178,0.053178765,-0.040736027,-2.0,2.0,-2.0,2.0,2.0,-2.0,2.0,-2.0,-2.0,-2.0,-2.0,-2.0,-2.0,2.0,-2.0,2.0,2.0,-2.0,2.0,-2.0,-2.0,-2.0,-2.0,-2.0
2025-06-09 15:03:05.808,-0.048593704,-0.024209166,0.005179111,-0.019464316,-0.009123679,0.03410781,0.0,0.0,0.0,0.026116382,-0.119127505,0.30999187,-0.11066629,0.12837347,0.3418189,-0.09658826,0.022509124,-0.34159043,-0.070374615,-0.031899016,-0.37363198,-0.07618633,-0.041144874,-0.002507241,0.06681058,0.02570676,-0.026387574,0.038182124,0.05435799,-0.029190678,0.023340775,-0.037707385,-0.049687773,0.058388706,-2.0,2.0,-2.0,2.0,2.0,-2.0,2.0,-2.0,-2.0,-2.0,-2.0,-2.0,-2.0,2.0,-2.0,2.0,2.0,-2.0,2.0,-2.0,-2.0,-2.0,-2.0,-2.0
2025-06-09 15:03:05.830,0.04094312,0.024319084,0.0058621233,-0.015208933,-0.013253641,-0.034297492,0.0,0.0,0.0,0.026114224,-0.112392776,0.3228547,-0.10125963,0.11465267,0.34254932,-0.1046786,0.02851791,-0.33509633,-0.05827509,-0.022866534,-0.35796946,-0.07548942,-0.029269379,-0.046210144,-0.06687557,-0.022588607,0.022649098,-0.06292336,-0.060351152,0.029841146,-0.047340013,0.03867361,0.0034721668,-0.063000776,-2.0,2.0,-2.0,2.0,2.0,-2.0,2.0,-2.0,-2.0,-2.0,-2.0,-2.0,-2.0,2.0,-2.0,2.0,2.0,-2.0,2.0,-2.0,-2.0,-2.0,-2.0,-2.0
2025-06-09 15:03:05.848,0.0022145957,-0.013365525,-0.003620277,0.0041219173,-0.03665877,-0.016240956,0.0,0.0,0.0,0.026112476,-0.11687809,0.31570807,-0.103721686,0.1322176,0.34844393,-0.107779846,0.030184856,-0.33325353,-0.06176494,-0.03332825,-0.37363237,-0.066586204,0.024221616,-0.016530788,0.018105848,0.056391772,-0.017742163,-0.005311836,0.04497005,-0.05217355,-0.016337689,-0.016933301,-0.06558695,0.069053285,-2.0,2.0,-2.0,2.0,2.0,-2.0,2.0,-2.0,-2.0,-2.0,-2.0,-2.0,-2.0,2.0,-2.0,2.0,2.0,-2.0,2.0,-2.0,-2.0,-2.0,-2.0,-2.0
2025-06-09 15:03:05.868,-0.022668723,0.047929965,-0.02500545,-0.0045561097,-0.008536796,-0.035386164,0.0,0.0,0.0,0.02611118,-0.1197101,0.32215557,-0.11654722,0.12090714,0.33836806,-0.09642009,0.03260164,-0.33177286,-0.05984736,-0.02224739,-0.35837486,-0.062430326,-0.042925138,0.051706843,0.049853653,0.0009917667,0.02539684,-0.060696214,0.052029546,0.06544641,-0.047572885,-0.011747204,-0.002165414,0.053315014,-2.0,2.0,-2.0,2.0,2.0,-2.0,2.0,-2.0,-2.0,-2.0,-2.0,-2.0,-2.0,2.0,-2.0,2.0,2.0,-2.0,2.0,-2.0,-2.0,-2.0,-2.0,-2.0
2025-06-09 15:03:05.888,-0.0053367354,-0.0113260895,-0.022398885,-0.014132469,0.014701335,0.018009758,0.0,0.0,0.0,0.02611034,-0.123027176,0.30959603,-0.11040782,0.13035953,0.3522825,-0.094658956,0.028195143,-0.34398025,-0.052018646,-0.032180365,-0.36886638,-0.07033598,-0.028230831,-0.065563835,-0.06976003,0.05789109,-0.020236697,-0.07030693,-0.008260751,0.025639921,0.060350582,-0.0011162437,0.06419204,0.05074296,-2.0,2.0,-2.0,2.0,2.0,-2.0,2.0,-2.0,-2.0,-2.0,-2.0,-2.0,-2.0,2.0,-2.0,2.0,2.0,-2.0,2.0,-2.0,-2.0,-2.0,-2.0,-2.0
2025-06-09 15:03:05.908,0.01690709,-0.0017244823,0.028500728,-0.049735095,0.019894134,0.01355734,0.0,0.0,0.0,0.026109932,-0.11721407,0.30336106,-0.107121296,0.11388699,0.34994817,-0.10713616,0.024476089,-0.3470167,-0.06084102,-0.036361355,-0.37113166,-0.056672566,0.05616084,0.015110822,-0.049181063,-0.0008573209,-0.061883852,0.06370182,0.0051820683,-0.015603284,-0.0026402723,-0.03332559,0.02677674,-0.04198361,-2.0,2.0,-2.0,2.0,2.0,-2.0,2.0,-2.0,-2.0,-2.0,-2.0,-2.0,-2.0,2.0,-2.0,2.0,2.0,-2.0,2.0,-2.0,-2.0,-2.0,-2.0,-2.0
2025-06-09 15:03:05.931,-0.009674118,0.020356681,0.02661335,-0.05094029,-0.055530548,-0.010306704,0.0,0.0,0.0,0.026109913,-0.12380828,0.3196724,-0.10898311,0.12601098,0.34262607,-0.097417586,0.019003037,-0.33631325,-0.059753407,-0.040588766,-0.37386012,-0.06023243,-0.042067528,0.015300285,0.04197022,0.0035282183,0.047947343,0.059929553,0.038060725,0.034494564,0.074431375,0.042664938,-0.064510755,-0.05968269,-2.0,2.0,-2.0,2.0,2.0,-2.0,2.0,-2.0,-2.0,-2.0,-2.0,-2.0,-2.0,2.0,-2.0,2.0,2.0,-2.0,2.0,-2.0,-2.0,-2.0,-2.0,-2.0
2025-06-09 15:03:05.948,-0.029785207,-0.035090256,-0.020918299,0.024178496,0.02361375,0.03646086,0.0,0.0,0.0,0.026110226,-0.11709801,0.32284337,-0.11408124,0.12776588,0.33607456,-0.09966949,0.021681847,-0.34821403,-0.05684719,-0.025069466,-0.36912012,-0.064905725,0.0702254,-0.0723303,-0.035409335,-0.016122578,-0.019624032,0.00317483,0.027028754,0.028673172,0.037752658,0.0020837737,-0.019683398,-0.05797765,-2.0,2.0,-2.0,2.0,2.0,-2.0,2.0,-2.0,-2.0,-2.0,-2.0,-2.0,-2.0,2.0,-2.0,2.0,2.0,-2.0,2.0,-2.0,-2.0,-2.0,-2.0,-2.0
2025-06-09 15:03:05.968,0.021300307,0.011120771,0.020112295,-0.02774207,-0.0003507072,-0.015338872,0.0,0.0,0.0,0.026110806,-0.119802855,0.3110246,-0.1084769,0.12855361,0.34018293,-0.09664934,0.02865102,-0.33151713,-0.059498683,-0.022500275,-0.37498707,-0.06893373,0.06439687,-0.025115272,-0.0037444383,-0.042905513,-0.047309358,0.05255748,0.013215543,0.06494095,-0.023793725,0.0036149567,-0.03114192,0.01364603,-2.0,2.0,-2.0,2.0,2.0,-2.0,2.0,-2.0,-2.0,-2.0,-2.0,-2.0,-2.0,2.0,-2.0,2.0,2.0,-2.0,2.0,-2.0,-2.0,-2.0,-2.0,-2.0
2025-06-09 15:03:05.989,-0.016454456,0.047061674,-0.042699236,-0.024002578,-0.047555,0.021667996,0.0,0.0,0.0,0.02611158,-0.11618623,0.3212168,-0.101939075,0.116312474,0.34947914,-0.10722146,0.03254805,-0.33533528,-0.07019152,-0.03999715,-0.36126792,-0.074939825,-0.0691654,0.03687421,-0.008569884,0.058460455,-0.038904365,-0.045945957,0.019657183,-0.017122045,-0.047940947,0.035276566,-0.04267411,-0.07423853,-2.0,2.0,-2.0,2.0,2.0,-2.0,2.0,-2.0,-2.0,-2.0,-2.0,-2.0,-2.0,2.0,-2.0,2.0,2.0,-2.0,2.0,-2.0,-2.0,-2.0,-2.0,-2.0
2025-06-09 15:03:06.009,0.04437163,0.0061377706,-0.0061568106,0.026666088,-0.007931604,0.015263828,0.0,0.0,0.0,0.026112482,-0.12953472,0.3147736,-0.100964874,0.11312865,0.35067236,-0.107621476,0.037890766,-0.34537596,-0.06333245,-0.0264476,-0.36657295,-0.075711526,-0.0023587823,0.05234762,0.026541077,-0.008993759,-0.014418766,-0.014481859,0.07389339,0.07378224,0.040824164,-0.058716573,-0.04806139,0.024914,-2.0,2.0,-2.0,2.0,2.0,-2.0,2.0,-2.0,-2.0,-2.0,-2.0,-2.0,-2.0,2.0,-2.0,2.0,2.0,-2.0,2.0,-2.0,-2.0,-2.0,-2.0,-2.0
2025-06-09 15:03:06.031,0.028043238,-0.0488516,-0.008020487,-0.043174557,0.0036666717,-0.0009980324,0.0,0.0,0.0,0.026113449,-0.122098796,0.30421922,-0.10529962,0.11253301,0.34946537,-0.09795355,0.029761499,-0.3397409,-0.062267102,-0.033120736,-0.358697,-0.059745662,0.056869175,-0.034772214,0.0037507275,-0.018893879,-0.006325447,-0.06667172,-0.07441081,-0.05863766,0.054254282,-0.037716098,-0.029433887,-0.0695617,-2.0,2.0,-2.0,2.0,2.0,-2.0,2.0,-2.0,-2.0,-2.0,-2.0,-2.0,-2.0,2.0,-2.0,2.0,2.0,-2.0,2.0,-2.0,-2.0,-2.0,-2.0,-2.0
2025-06-09 15:03:06.053,-0.011561694,0.033967335,0.008875861,-0.043146774,-0.04399888,-0.018433988,0.0,0.0,0.0,0.026114425,-0.11279295,0.32258576,-0.111231074,0.119228564,0.33682978,-0.10190449,0.037551854,-0.33664492,-0.05493848,-0.023299884,-0.36892268,-0.06176927,0.029222898,-0.011093771,-0.027741564,0.06624299,0.0051998245,-0.0050079203,-0.011200838,-0.036393907,0.025922004,0.048613098,0.010326091,0.047180913,-2.0,2.0,-2.0,2.0,2.0,-2.0,2.0,-2.0,-2.0,-2.0,-2.0,-2.0,-2.0,2.0,-2.0,2.0,2.0,-2.0,2.0,-2.0,-2.0,-2.0,-2.0,-2.0
2025-06-09 15:03:06.073,0.0003014698,0.039958537,-0.013263942,-0.034203112,-0.011253692,-0.036610216,0.0,0.0,0.0,0.026115362,-0.12252721,0.31557387,-0.10082633,0.1145154,0.3438722,-0.10869206,0.032528188,-0.34711808,-0.056018326,-0.037998363,-0.37207982,-0.058551047,0.034139078,-0.05487403,0.017381676,0.048760474,0.020550875,0.037060324,0.030222898,0.039206084,0.019033853,-0.0511492,-0.0402616,0.07466332,-2.0,2.0,-2.0,2.0,2.0,-2.0,2.0,-2.0,-2.0,-2.0,-2.0,-2.0,-2.0,2.0,-2.0,2.0,2.0,-2.0,2.0,-2.0,-2.0,-2.0,-2.0,-2.0
2025-06-09 15:03:06.093,0.041253734,0.019914906,-0.023320014,0.033050578,0.021201072,0.018602211,0.0,0.0,0.0,0.02611622,-0.11579492,0.31513405,-0.11263278,0.13000429,0.34681287,-0.09419255,0.027824203,-0.33025375,-0.056702953,-0.025135236,-0.35950166,-0.06904995,-0.0031159942,0.007640895,-0.07253237,-0.009970826,0.038995236,-0.009430407,0.07337081,0.045790426,-0.04600833,-0.01576007,-0.043815393,0.050636493,-2.0,2.0,-2.0,2.0,2.0,-2.0,2.0,-2.0,-2.0,-2.0,-2.0,-2.0,-2.0,2.0,-2.0,2.0,2.0,-2.0,2.0,-2.0,-2.0,-2.0,-2.0,-2.0
2025-06-09 15:03:06.114,0.003986523,0.040872682,-0.006378917,0.029045498,0.0084703015,-0.01265744,0.0,0.0,0.0,0.026116977,-0.11244206,0.31010026,-0.111480966,0.120774575,0.35162246,-0.09277762,0.031597115,-0.33747292,-0.05708112,-0.0410931,-0.3685224,-0.07369649,0.07103206,-0.0001874007,0.04358248,0.056830555,-0.030248653,-0.024214543,0.01096399,0.058098577,-0.031694498,0.00045107864,0.053021833,0.054051556,-2.0,2.0,-2.0,2.0,2.0,-2.0,2.0,-2.0,-2.0,-2.0,-2.0,-2.0,-2.0,2.0,-2.0,2.0,2.0,-2.0,2.0,-2.0,-2.0,-2.0,-2.0,-2.0
2025-06-09 15:03:06.133,0.013419277,-0.039311185,0.013080074,0.020710116,-0.05357475,0.005304736,0.0,0.0,0.0,0.02611761,-0.11422278,0.30438346,-0.11808346,0.124888815,0.34507138,-0.09263709,0.03376133,-0.34110105,-0.05972385,-0.02417671,-0.3644092,-0.06741753,0.05487724,-0.055533037,0.07280387,-0.019091308,0.038706023,-0.050202794,-0.027185136,0.011410216,-0.014806776,0.034649003,0.0089858165,0.052680135,-2.0,2.0,-2.0,2.0,2.0,-2.0,2.0,-2.0,-2.0,-2.0,-2.0,-2.0,-2.0,2.0,-2.0,2.0,2.0,-2.0,2.0,-2.0,-2.0,-2.0,-2.0,-2.0
2025-06-09 15:03:06.154,0.029666955,-0.016448854,0.031304274,-0.043446954,0.0059128827,-0.035315562,0.0,0.0,0.0,0.026118109,-0.111526765,0.3167934,-0.11836534,0.12401763,0.34688157,-0.10283193,0.037053365,-0.3472658,-0.06539553,-0.039983995,-0.36175328,-0.06032555,-0.045215562,0.00041185602,0.047234554,-0.063346766,0.011486178,-0.025023762,-0.071557105,-0.012543513,-0.04676577,-0.057954714,-0.009964356,-0.007067895,-2.0,2.0,-2.0,2.0,2.0,-2.0,2.0,-2.0,-2.0,-2.0,-2.0,-2.0,-2.0,2.0,-2.0,2.0,2.0,-2.0,2.0,-2.0,-2.0,-2.0,-2.0,-2.0
2025-06-09 15:03:06.173,-0.018468283,-0.00565396,0.046266742,-0.027267247,-0.06561743,0.044522922,0.0,0.0,0.0,0.026118476,-0.11191646,0.32148522,-0.117340244,0.12721115,0.35221198,-0.092586,0.021090066,-0.34538528,-0.06987827,-0.033653896,-0.3719999,-0.06198228,0.016059691,-0.06426749,-0.07111312,0.036728386,-0.06727733,0.051155724,0.0136398645,-0.023949219,0.024487201,-0.073142394,-0.055095907,-0.07281188,-2.0,2.0,-2.0,2.0,2.0,-2.0,2.0,-2.0,-2.0,-2.0,-2.0,-2.0,-2.0,2.0,-2.0,2.0,2.0,-2.0,2.0,-2.0,-2.0,-2.0,-2.0,-2.0
2025-06-09 15:03:06.194,0.0006579949,-0.019739738,0.0055428967,0.027139101,0.022735676,-0.026215289,0.0,0.0,0.0,0.026118712,-0.11262782,0.30747965,-0.110888086,0.11310748,0.34061933,-0.094282106,0.022056358,-0.32977796,-0.069376945,-0.02789583,-0.36900726,-0.06655626,0.03273832,-0.0042073876,0.0029073486,-0.043749835,0.02282319,0.005539763,0.051438373,-0.0012363846,-0.0064217886,0.007803486,0.012235887,0.057725124,-2.0,2.0,-2.0,2.0,2.0,-2.0,2.0,-2.0,-2.0,-2.0,-2.0,-2.0,-2.0,2.0,-2.0,2.0,2.0,-2.0,2.0,-2.0,-2.0,-2.0,-2.0,-2.0
2025-06-09 15:03:06.214,-0.014860824,0.0426887,-0.019774405,-0.018448314,-0.045868553,-0.0008808138,0.0,0.0,0.0,0.026118828,-0.121083304,0.304522,-0.11139099,0.11289655,0.3441002,-0.09189656,0.03750114,-0.340621,-0.059570394,-0.023190958,-0.36248204,-0.07317826,-0.038282998,0.02734553,0.07124425,-0.040283352,0.02818127,-0.06155111,-0.031755067,0.06850245,0.05488961,0.05104025,0.007069314,0.07141343,-2.0,2.0,-2.0,2.0,2.0,-2.0,2.0,-2.0,-2.0,-2.0,-2.0,-2.0,-2.0,2.0,-2.0,2.0,2.0,-2.0,2.0,-2.0,-2.0,-2.0,-2.0,-2.0
2025-06-09 15:03:06.234,-0.029251786,-0.01683586,-0.03753288,-0.00057839777,-0.048732832,0.044102695,0.0,0.0,0.0,0.026118837,-0.1295748,0.30757192,-0.107569166,0.1308794,0.35402286,-0.093711086,0.036184162,-0.33512324,-0.06463624,-0.021735927,-0.3588576,-0.06342833,0.0011188476,-0.032415777,0.038572934,-0.010693426,0.03764755,-0.024248675,0.03255006,-0.043326996,-0.027301496,-0.034607742,0.057555743,0.05365528,-2.0,2.0,-2.0,2.0,2.0,-2.0,2.0,-2.0,-2.0,-2.0,-2.0,-2.0,-2.0,2.0,-2.0,2.0,2.0,-2.0,2.0,-2.0,-2.0,-2.0,-2.0,-2.0
2025-06-09 15:03:06.254,0.037860874,-0.0101180775,-0.02460952,-0.037321344,0.009079411,-0.026337717,0.0,0.0,0.0,0.026118755,-0.12479461,0.30690542,-0.10909061,0.12983072,0.352589,-0.101086244,0.024241837,-0.33718413,-0.05533286,-0.023808395,-0.3708228,-0.061329454,0.014503684,-0.055553567,-0.07307642,-0.021469533,-0.06395367,-0.028967109,-0.051139854,-0.07218599,0.055518202,0.0061870627,0.011714529,0.07158498,-2.0,2.0,-2.0,2.0,2.0,-2.0,2.0,-2.0,-2.0,-2.0,-2.0,-2.0,-2.0,2.0,-2.0,2.0,2.0,-2.0,2.0,-2.0,-2.0,-2.0,-2.0,-2.0
2025-06-09 15:03:06.274,-0.037695363,0.02624869,-0.014457379,-0.057927724,0.028785357,0.023790108,0.0,0.0,0.0,0.0261186,-0.11304689,0.30930075,-0.10514755,0.12062226,0.3384981,-0.109109014,0.019778078,-0.32956564,-0.070062086,-0.032556545,-0.37759084,-0.06859357,0.07014412,0.059377044,0.01875335,-0.036283657,0.025993045,-0.041447226,0.03170274,-0.04816548,-0.046211712,-0.048000805,0.04332441,0.01993524,-2.0,2.0,-2.0,2.0,2.0,-2.0,2.0,-2.0,-2.0,-2.0,-2.0,-2.0,-2.0,2.0,-2.0,2.0,2.0,-2.0,2.0,-2.0,-2.0,-2.0,-2.0,-2.0
2025-06-09 15:03:06.294,0.012659453,0.02102268,0.0375759,-0.05074313,-0.002319639,-0.004742311,0.0,0.0,0.0,0.026118392,-0.13066842,0.31064355,-0.117323495,0.113519385,0.35165766,-0.10001942,0.026088962,-0.33570197,-0.06602027,-0.033013314,-0.36417398,-0.066252716,-0.0072091254,0.009940814,0.05493516,-0.06314251,-0.03459317,-0.041809026,0.05554008,0.03150232,-0.06889089,-0.026643759,0.053928778,0.027118018,-2.0,2.0,-2.0,2.0,2.0,-2.0,2.0,-2.0,-2.0,-2.0,-2.0,-2.0,-2.0,2.0,-2.0,2.0,2.0,-2.0,2.0,-2.0,-2.0,-2.0,-2.0,-2.0
2025-06-09 15:03:06.314,-0.017262809,0.049353577,-0.028144738,-0.060771007,-0.0076575996,0.03767903,0.0,0.0,0.0,0.026118146,-0.114614606,0.3053071,-0.10234319,0.12444322,0.3414466,-0.10549341,0.02806015,-0.32842302,-0.0654504,-0.021735013,-0.36110312,-0.0670173,-0.035574898,0.012933321,0.05610958,0.065345936,0.062420808,0.06347332,-0.034064546,-0.011747045,-0.064687625,-0.049041715,0.046306584,0.011299545,-2.0,2.0,-2.0,2.0,2.0,-2.0,2.0,-2.0,-2.0,-2.0,-2.0,-2.0,-2.0,2.0,-2.0,2.0,2.0,-2.0,2.0,-2.0,-2.0,-2.0,-2.0,-2.0
2025-06-09 15:03:06.334,0.011739315,0.025055787,-0.007389894,0.034446165,-0.02554355,0.044245057,0.0,0.0,0.0,0.026117882,-0.120194934,0.31083658,-0.10947793,0.11267912,0.3372629,-0.102667406,0.01921289,-0.34146312,-0.051899463,-0.038417697,-0.3741294,-0.06488808,0.0054230425,-0.06803758,0.007915259,-0.015284315,0.0418118,-0.046293482,0.0048625483,0.001947166,-0.030068612,0.07316405,-0.024079526,0.046964005,-2.0,2.0,-2.0,2.0,2.0,-2.0,2.0,-2.0,-2.0,-2.0,-2.0,-2.0,-2.0,2.0,-2.0,2.0,2.0,-2.0,2.0,-2.0,-2.0,-2.0,-2.0,-2.0
2025-06-09 15:03:06.421,-0.02329811,0.028330067,0.0236535,-0.0032647874,0.016850386,-0.0428912,0.0,0.0,0.0,0.026117612,-0.12145347,0.3164002,-0.11141958,0.116104186,0.35262024,-0.106111206,0.024021316,-0.32923555,-0.06067979,-0.03351699,-0.3705757,-0.06430027,-0.05235575,0.02027267,0.019071862,-0.01750799,0.07110686,-0.012892229,0.019711196,-0.042308662,0.030326067,-0.03297224,0.04378177,0.0063759787,-2.0,2.0,-2.0,2.0,2.0,-2.0,2.0,-2.0,-2.0,-2.0,-2.0,-2.0,-2.0,2.0,-2.0,2.0,2.0,-2.0,2.0,-2.0,-2.0,-2.0,-2.0,-2.0
2025-06-09 15:03:06.462,-0.011936603,0.00045266573,0.018553864,-0.006307155,0.0057594944,-0.047641866,0.0,0.0,0.0,0.026117349,-0.122485176,0.30427957,-0.105319284,0.1269576,0.35481295,-0.10329213,0.023741009,-0.32862523,-0.05662924,-0.023807678,-0.35804975,-0.06621914,-0.04789394,0.054400768,-0.055157878,-0.06542757,0.0033708091,0.053687345,0.0025980677,-0.06277798,-0.025113424,0.017918915,-0.043175545,0.050186496,-2.0,2.0,-2.0,2.0,2.0,-2.0,2.0,-2.0,-2.0,-2.0,-2.0,-2.0,-2.0,2.0,-2.0,2.0,2.0,-2.0,2.0,-2.0,-2.0,-2.0,-2.0,-2.0
2025-06-09 15:03:06.482,0.042781442,0.022243606,0.044606756,0.033144534,-0.0020578234,0.04953064,0.0,0.0,0.0,0.026117105,-0.123783216,0.3105822,-0.113461286,0.1298326,0.3461613,-0.101923876,0.03455277,-0.33619642,-0.058902558,-0.03160115,-0.36705053,-0.059937607,-0.051926903,0.020240385,-0.031319138,-0.019892393,-0.033044036,0.044238,-0.005685103,0.066973776,-0.026827093,0.062533505,0.016568163,-0.06898302,-2.0,2.0,-2.0,2.0,2.0,-2.0,2.0,-2.0,-2.0,-2.0,-2.0,-2.0,-2.0,2.0,-2.0,2.0,2.0,-2.0,2.0,-2.0,-2.0,-2.0,-2.0,-2.0
2025-06-09 15:03:06.502,-0.037891895,-0.009212741,-0.023207886,-0.041105166,0.0016344559,-0.008598,0.0,0.0,0.0,0.026116889,-0.12838216,0.30347708,-0.119269446,0.11700627,0.34478077,-0.09210135,0.025172139,-0.34574524,-0.064133346,-0.04104156,-0.3731619,-0.061379362,-0.033672784,0.06849717,0.049366795,0.039343745,0.034791626,0.074294515,-0.052611966,-0.053986706,-0.045549884,0.04352309,0.052365527,-0.04079387,-2.0,2.0,-2.0,2.0,2.0,-2.0,2.0,-2.0,-2.0,-2.0,-2.0,-2.0,-2.0,2.0,-2.0,2.0,2.0,-2.0,2.0,-2.0,-2.0,-2.0,-2.0,-2.0
2025-06-09 15:03:06.522,-0.045372978,0.03810976,0.018878266,-0.016847726,-0.040108103,0.031210298,0.0,0.0,0.0,0.026116705,-0.11164949,0.31964764,-0.10988442,0.12686671,0.35219082,-0.09978814,0.028328622,-0.3468158,-0.054229245,-0.032277964,-0.3641872,-0.06182199,0.06907508,-0.00971541,-0.027253086,-0.059011456,-0.0708386,0.0022877106,0.032314986,0.005171846,0.011204321,-0.046478257,0.00055270793,0.03816732,-2.0,2.0,-2.0,2.0,2.0,-2.0,2.0,-2.0,-2.0,-2.0,-2.0,-2.0,-2.0,2.0,-2.0,2.0,2.0,-2.0,2.0,-2.0,-2.0,-2.0,-2.0,-2.0
2025-06-09 15:03:06.543,0.016174642,-0.02943933,0.011590258,0.019590639,-0.024596624,-0.005319075,0.0,0.0,0.0,0.026116556,-0.12685536,0.32179704,-0.10338195,0.117319375,0.33853397,-0.10591466,0.025517272,-0.34243757,-0.063804224,-0.03374461,-0.37444475,-0.057030533,0.012973887,-0.062917925,-0.02521693,-0.014996,0.05230311,-0.035064608,-0.044040933,-0.06505211,-0.024339788,0.03132406,-0.0018409608,-0.058188323,-2.0,2.0,-2.0,2.0,2.0,-2.0,2.0,-2.0,-2.0,-2.0,-2.0,-2.0,-2.0,2.0,-2.0,2.0,2.0,-2.0,2.0,-2.0,-2.0,-2.0,-2.0,-2.0
2025-06-09 15:03:06.564,-0.031033605,-0.02247974,-0.0102895545,0.021424431,-0.029471999,0.009220313,0.0,0.0,0.0,0.026116444,-0.124638766,0.32049808,-0.11660936,0.12532194,0.35130432,-0.096781105,0.025482716,-0.3309569,-0.06462336,-0.033735815,-0.3730975,-0.06892626,-0.028572226,0.051134787,0.051699147,-0.029765597,0.054761868,0.024437245,0.014628444,-0.03963564,0.019219076,0.017256603,0.015812628,0.0041511166,-2.0,2.0,-2.0,2.0,2.0,-2.0,2.0,-2.0,-2.0,-2.0,-2.0,-2.0,-2.0,2.0,-2.0,2.0,2.0,-2.0,2.0,-2.0,-2.0,-2.0,-2.0,-2.0
2025-06-09 15:03:06.582,0.04380977,0.001188994,-0.020555709,0.020891268,-0.013356395,0.037329663,0.0,0.0,0.0,0.026116367,-0.11998965,0.3131364,-0.10058385,0.115619875,0.34833375,-0.103871815,0.025087947,-0.3367772,-0.058085997,-0.032254312,-0.36103478,-0.07367696,-0.031413574,0.02114624,0.047570117,0.0202845,0.00033560646,0.049410325,0.072852895,0.033890042,0.057862174,-0.039458193,0.030317875,-0.0747022,-2.0,2.0,-2.0,2.0,2.0,-2.0,2.0,-2.0,-2.0,-2.0,-2.0,-2.0,-2.0,2.0,-2.0,2.0,2.0,-2.0,2.0,-2.0,-2.0,-2.0,-2.0,-2.0
2025-06-09 15:03:06.602,0.04605575,0.020853186,0.017846402,-0.0039005787,-0.05591469,-0.01834209,0.0,0.0,0.0,0.026116325,-0.12370698,0.31813532,-0.11516838,0.11855339,0.3440459,-0.0950969,0.030582692,-0.3327557,-0.060220387,-0.035655856,-0.37467173,-0.06510119,-0.0048920205,-0.033354454,0.06343695,-0.02197976,-0.02397562,0.06377109,0.018822858,-0.023369538,-0.0008584975,-0.054609735,0.014495632,-0.049473766,-2.0,2.0,-2.0,2.0,2.0,-2.0,2.0,-2.0,-2.0,-2.0,-2.0,-2.0,-2.0,2.0,-2.0,2.0,2.0,-2.0,2.0,-2.0,-2.0,-2.0,-2.0,-2.0
2025-06-09 15:03:06.623,-0.043466605,-0.033958852,-0.00061619835,0.03207591,0.0129649285,0.020740721,0.0,0.0,0.0,0.026116313,-0.11848916,0.3160126,-0.11027675,0.11388662,0.35324723,-0.095200635,0.032021653,-0.33199558,-0.06478878,-0.03634942,-0.37378836,-0.058106612,0.050234247,-0.04882095,0.01348063,-0.041650683,0.026601069,0.053885467,0.06287867,0.054569148,-0.05104975,-0.028054835,0.071103305,0.03980735,-2.0,2.0,-2.0,2.0,2.0,-2.0,2.0,-2.0,-2.0,-2.0,-2.0,-2.0,-2.0,2.0,-2.0,2.0,2.0,-2.0,2.0,-2.0,-2.0,-2.0,-2.0,-2.0
2025-06-09 15:03:06.643,0.039116297,0.027781878,0.0419946,0.028483637,0.0074660564,0.020399528,0.0,0.0,0.0,0.026116328,-0.11442265,0.31242895,-0.11624257,0.11695604,0.34343246,-0.10552999,0.024526265,-0.3467956,-0.06645402,-0.02814597,-0.36902013,-0.062103383,-0.0146410335,0.030430177,-0.0055168853,0.014276354,0.050310016,-0.018868882,0.049993984,0.018745473,-0.030452576,0.023105998,-0.006991159,-0.056902014,-2.0,2.0,-2.0,2.0,2.0,-2.0,2.0,-2.0,-2.0,-2.0,-2.0,-2.0,-2.0,2.0,-2.0,2.0,2.0,-2.0,2.0,-2.0,-2.0,-2.0,-2.0,-2.0
2025-06-09 15:03:06.664,0.028688148,0.020857358,-0.002670672,0.024432851,-0.06059808,-0.048505608,0.0,0.0,0.0,0.026116366,-0.12254032,0.30974287,-0.11981315,0.119247876,0.34397352,-0.10837892,0.027555568,-0.33580846,-0.05268637,-0.023613498,-0.35811952,-0.05676932,0.03572134,0.04988596,0.056923766,-0.058884326,0.010783249,0.06030531,0.045823097,-0.027392566,-0.043170273,0.014053124,0.07260666,0.027425842,-2.0,2.0,-2.0,2.0,2.0,-2.0,2.0,-2.0,-2.0,-2.0,-2.0,-2.0,-2.0,2.0,-2.0,2.0,2.0,-2.0,2.0,-2.0,-2.0,-2.0,-2.0,-2.0
2025-06-09 15:03:06.683,-0.013690075,0.022725385,-0.0127726635,0.029978482,-0.030972455,-0.043120056,0.0,0.0,0.0,0.02611642,-0.12080782,0.31139585,-0.110567175,0.1282494,0.34464204,-0.09401567,0.03434727,-0.3369905,-0.070105836,-0.032624606,-0.36352524,-0.05695727,0.034166362,-0.04416337,-0.07253297,0.07118883,-0.04946667,-0.058227193,-0.06853196,0.05173949,-0.008308965,-0.04395781,-0.058385428,-0.056378517,-2.0,2.0,-2.0,2.0,2.0,-2.0,2.0,-2.0,-2.0,-2.0,-2.0,-2.0,-2.0,2.0,-2.0,2.0,2.0,-2.0,2.0,-2.0,-2.0,-2.0,-2.0,-2.0
2025-06-09 15:03:06.703,0.0017671153,0.021157134,0.037617482,-0.008710702,-0.043603193,0.025053695,0.0,0.0,0.0,0.026116485,-0.1258977,0.30904448,-0.11393769,0.12850587,0.35333392,-0.09179886,0.037865438,-0.33090523,-0.051342066,-0.04126066,-0.35797715,-0.06267116,-0.023274926,0.0002848502,-0.026580479,0.02077495,-0.0430587,0.008346984,-0.04202399,-0.04370442,-0.050554663,-0.021730227,0.06481043,-0.03132679,-2.0,2.0,-2.0,2.0,2.0,-2.0,2.0,-2.0,-2.0,-2.0,-2.0,-2.0,-2.0,2.0,-2.0,2.0,2.0,-2.0,2.0,-2.0,-2.0,-2.0,-2.0,-2.0
2025-06-09 15:03:06.723,-0.026042178,0.035444167,0.03818154,0.013795887,0.031525135,0.013116713,0.0,0.0,0.0,0.026116556,-0.12850608,0.31696746,-0.10644592,0.11757684,0.3555152,-0.094372295,0.02824406,-0.3372889,-0.057399273,-0.029265823,-0.35883376,-0.071910605,0.033897094,-0.063336425,-0.023406303,0.054815527,0.05089435,0.06697142,-0.04999222,-0.025775531,0.051386423,0.05662992,0.0372889,-0.07092304,-2.0,2.0,-2.0,2.0,2.0,-2.0,2.0,-2.0,-2.0,-2.0,-2.0,-2.0,-2.0,2.0,-2.0,2.0,2.0,-2.0,2.0,-2.0,-2.0,-2.0,-2.0,-2.0
2025-06-09 15:03:06.743,-6.143641e-05,-0.031545814,-0.028031662,0.03545075,-0.0027994427,-0.0054434836,0.0,0.0,0.0,0.026116632,-0.11295786,0.30728835,-0.10769201,0.11559,0.34539196,-0.093844526,0.020674048,-0.33156413,-0.05410991,-0.03142984,-0.3634002,-0.07297526,0.05786816,0.0650173,0.056676973,0.046581354,0.051923737,0.03924901,-0.064348646,-0.045778155,-0.061175425,-0.07248494,0.052644096,-0.037568383,-2.0,2.0,-2.0,2.0,2.0,-2.0,2.0,-2.0,-2.0,-2.0,-2.0,-2.0,-2.0,2.0,-2.0,2.0,2.0,-2.0,2.0,-2.0,-2.0,-2.0,-2.0,-2.0
2025-06-09 15:03:06.764,-0.022396712,-0.008116909,-0.046816874,-0.038101014,0.016920442,-0.027784638,0.0,0.0,0.0,0.026116705,-0.11796797,0.31302172,-0.110998295,0.1211287,0.3443036,-0.0934605,0.02560341,-0.3475967,-0.052170165,-0.024240777,-0.3693231,-0.070064716,0.004180869,0.06296565,0.015115614,0.07212962,0.0017946702,0.057378527,-0.045199156,0.04665979,0.017731966,0.064490534,-0.058317065,0.07150043,-2.0,2.0,-2.0,2.0,2.0,-2.0,2.0,-2.0,-2.0,-2.0,-2.0,-2.0,-2.0,2.0,-2.0,2.0,2.0,-2.0,2.0,-2.0,-2.0,-2.0,-2.0,-2.0
2025-06-09 15:03:06.783,0.010242643,0.03550936,0.03814118,0.015770651,-0.03541522,-0.0044318372,0.0,0.0,0.0,0.026116775,-0.13002363,0.3044079,-0.10886002,0.12877114,0.34066078,-0.10781768,0.028377185,-0.335528,-0.052195694,-0.028291902,-0.36640728,-0.062327586,0.020571917,0.042050865,-0.003571214,-0.04728915,-0.06205849,-0.063552134,0.029633705,0.02820814,-0.05667342,0.045061376,-0.05866206,0.040100213,-2.0,2.0,-2.0,2.0,2.0,-2.0,2.0,-2.0,-2.0,-2.0,-2.0,-2.0,-2.0,2.0,-2.0,2.0,2.0,-2.0,2.0,-2.0,-2.0,-2.0,-2.0,-2.0
2025-06-09 15:03:06.803,-0.020003514,0.02162425,-0.020032804,0.0060886554,0.011841622,-0.02769965,0.0,0.0,0.0,0.026116837,-0.12774533,0.31095335,-0.11383436,0.11894459,0.34107158,-0.09398797,0.026421545,-0.33945805,-0.05467541,-0.023153158,-0.37489256,-0.06672086,-0.035806827,4.6891586e-05,-0.06724855,-0.06575278,0.028197177,0.028777208,0.03563181,-0.026076585,-0.026419403,0.037836634,-0.024645325,0.05633304,-2.0,2.0,-2.0,2.0,2.0,-2.0,2.0,-2.0,-2.0,-2.0,-2.0,-2.0,-2.0,2.0,-2.0,2.0,2.0,-2.0,2.0,-2.0,-2.0,-2.0,-2.0,-2.0
2025-06-09 15:03:06.823,-0.04611238,-0.02268096,0.007946328,-0.011388135,0.020001344,0.045972094,0.0,0.0,0.0,0.02611689,-0.116077185,0.31177935,-0.10229355,0.1212549,0.34998474,-0.0994015,0.03130891,-0.3331775,-0.052879483,-0.031615548,-0.36832008,-0.0586659,0.012532836,0.06619226,-0.010954511,0.02940238,-0.04335404,-0.003886169,-0.061169658,-0.009836428,0.017183406,0.07364608,0.0067484844,-0.05250387,-2.0,2.0,-2.0,2.0,2.0,-2.0,2.0,-2.0,-2.0,-2.0,-2.0,-2.0,-2.0,2.0,-2.0,2.0,2.0,-2.0,2.0,-2.0,-2.0,-2.0,-2.0,-2.0
2025-06-09 15:03:06.843,-0.03811734,0.03028506,-0.04105639,-0.050015,-0.0039441576,-0.03689532,0.0,0.0,0.0,0.026116936,-0.115999304,0.31983885,-0.10760338,0.1144406,0.33689144,-0.109511636,0.024669582,-0.33280325,-0.067671105,-0.024479428,-0.3615253,-0.062077593,0.045861904,0.029211292,-0.0033934517,0.0021106342,-0.054974094,-0.019321045,-0.052737057,-0.02700323,0.012050454,0.014345878,-0.060364686,0.0348622,-2.0,2.0,-2.0,2.0,2.0,-2.0,2.0,-2.0,-2.0,-2.0,-2.0,-2.0,-2.0,2.0,-2.0,2.0,2.0,-2.0,2.0,-2.0,-2.0,-2.0,-2.0,-2.0
2025-06-09 15:03:06.864,0.040560827,-0.021759722,0.048836593,-0.041385483,0.027837459,0.040852744,0.0,0.0,0.0,0.02611697,-0.12611027,0.31650335,-0.111166656,0.12046775,0.35016572,-0.09282634,0.02725038,-0.33984935,-0.067800805,-0.024038624,-0.37489557,-0.058267467,0.020014508,-0.00017837009,0.03735928,-0.016962744,-0.022990994,0.073744126,0.052622765,-0.055585023,-0.03220609,0.040480748,-0.060195323,-0.019671038,-2.0,2.0,-2.0,2.0,2.0,-2.0,2.0,-2.0,-2.0,-2.0,-2.0,-2.0,-2.0,2.0,-2.0,2.0,2.0,-2.0,2.0,-2.0,-2.0,-2.0,-2.0,-2.0
2025-06-09 15:03:06.883,0.04302244,-0.03758884,-0.04241111,-0.006816804,0.00056717434,-0.02367896,0.0,0.0,0.0,0.026116995,-0.12198928,0.32115114,-0.107319795,0.11289947,0.3481605,-0.107072294,0.037955355,-0.33214632,-0.057151593,-0.033896483,-0.37308514,-0.06583467,0.051974855,-0.010184224,-0.0010276915,-0.044186033,-0.065690845,-0.008658233,0.046846397,0.047494285,-0.027026646,0.037357762,-0.02358801,0.005988748,-2.0,2.0,-2.0,2.0,2.0,-2.0,2.0,-2.0,-2.0,-2.0,-2.0,-2.0,-2.0,2.0,-2.0,2.0,2.0,-2.0,2.0,-2.0,-2.0,-2.0,-2.0,-2.0
2025-06-09 15:03:06.903,0.033986334,0.01510657,0.03538831,0.006531967,-0.023365628,-0.013608129,0.0,0.0,0.0,0.02611701,-0.13073947,0.31047803,-0.111333944,0.11800378,0.34148416,-0.105411805,0.033443153,-0.33323276,-0.06992613,-0.030859506,-0.3776595,-0.076214254,-0.06810617,0.0517409,0.057115335,0.017310996,0.018005071,-0.015832739,0.07225804,-0.06295826,-9.440089e-05,-0.032108616,-0.045466796,-0.018303916,-2.0,2.0,-2.0,2.0,2.0,-2.0,2.0,-2.0,-2.0,-2.0,-2.0,-2.0,-2.0,2.0,-2.0,2.0,2.0,-2.0,2.0,-2.0,-2.0,-2.0,-2.0,-2.0
2025-06-09 15:03:06.924,-0.012949595,-0.046443876,-0.019734694,0.029444871,-0.019061627,0.0071312175,0.0,0.0,0.0,0.026117016,-0.12733658,0.32267183,-0.10647023,0.13219997,0.34062585,-0.10588384,0.027392725,-0.3425598,-0.07094639,-0.035418283,-0.37525448,-0.06484204,-0.0015055806,-0.0046168957,-0.037299402,0.04537859,0.01376848,-0.00479711,-0.013153581,0.041527063,-0.014660237,-0.053214334,0.033400208,0.071637705,-2.0,2.0,-2.0,2.0,2.0,-2.0,2.0,-2.0,-2.0,-2.0,-2.0,-2.0,-2.0,2.0,-2.0,2.0,2.0,-2.0,2.0,-2.0,-2.0,-2.0,-2.0,-2.0
2025-06-09 15:03:06.944,-0.011924493,-0.04729503,-0.014184802,0.033538893,0.0010296509,-0.041230585,0.0,0.0,0.0,0.026117014,-0.12037381,0.3061631,-0.101859756,0.114783585,0.3427676,-0.1079391,0.034145672,-0.32871932,-0.05313166,-0.03619974,-0.36956045,-0.063241795,0.07135273,0.03745042,0.000558757,0.0628731,0.06970899,0.032849703,0.04688583,-0.04802222,0.021561444,-0.015300427,0.027822908,-0.06151257,-2.0,2.0,-2.0,2.0,2.0,-2.0,2.0,-2.0,-2.0,-2.0,-2.0,-2.0,-2.0,2.0,-2.0,2.0,2.0,-2.0,2.0,-2.0,-2.0,-2.0,-2.0,-2.0
2025-06-09 15:03:06.964,0.0064537986,0.03353382,-0.041440636,-0.004482513,-0.016393665,0.02829004,0.0,0.0,0.0,0.026117006,-0.12716503,0.32147875,-0.10645546,0.121878184,0.34691238,-0.10509906,0.032753173,-0.3301821,-0.06477693,-0.024288971,-0.37529817,-0.06223189,-0.050856967,0.055097964,0.014935656,0.035892114,0.032754127,-0.07003055,0.06782471,0.01893698,0.010025366,0.04240226,0.015469212,-0.0112628555,-2.0,2.0,-2.0,2.0,2.0,-2.0,2.0,-2.0,-2.0,-2.0,-2.0,-2.0,-2.0,2.0,-2.0,2.0,2.0,-2.0,2.0,-2.0,-2.0,-2.0,-2.0,-2.0
2025-06-09 15:03:06.984,-0.017004525,0.034409154,-0.040270057,0.022043625,0.004757093,-0.009586205,0.0,0.0,0.0,0.026116993,-0.11809042,0.31330127,-0.112791225,0.115956075,0.35529596,-0.09377609,0.025730958,-0.3428001,-0.055417024,-0.030196905,-0.36903897,-0.07140142,-0.0017563761,-0.07451411,0.06554894,0.07060924,0.036764614,-0.03706265,0.029926177,-0.051886063,-0.071564935,0.002082131,-0.040985998,-0.045512293,-2.0,2.0,-2.0,2.0,2.0,-2.0,2.0,-2.0,-2.0,-2.0,-2.0,-2.0,-2.0,2.0,-2.0,2.0,2.0,-2.0,2.0,-2.0,-2.0,-2.0,-2.0,-2.0
2025-06-09 15:03:07.004,0.018469289,-0.042372566,0.020071667,0.0039686677,-0.013816172,0.022538012,0.0,0.0,0.0,0.026116977,-0.12479147,0.31379685,-0.10180066,0.1151111,0.34806818,-0.09741568,0.023085719,-0.33251363,-0.057931483,-0.024860375,-0.3733938,-0.06955804,0.026234968,0.015572928,-0.029852694,0.042477883,-0.024690492,-0.03414443,0.012747346,-0.06938806,-0.05773552,-0.07415225,-0.059532125,0.026131634,-2.0,2.0,-2.0,2.0,2.0,-2.0,2.0,-2.0,-2.0,-2.0,-2.0,-2.0,-2.0,2.0,-2.0,2.0,2.0,-2.0,2.0,-2.0,-2.0,-2.0,-2.0,-2.0
2025-06-09 15:03:07.024,0.0306818,-0.014338996,-0.042363312,-0.021820923,-0.007927173,0.04962553,0.0,0.0,0.0,0.026116956,-0.117831826,0.30635533,-0.111665495,0.11834145,0.34075725,-0.11025468,0.02290843,-0.33694294,-0.060977697,-0.021707319,-0.37682998,-0.057180338,0.016662726,-0.024066418,0.004461547,-0.010520446,-0.05935891,0.0067620524,-0.04986284,0.07471069,0.007103036,0.001357818,-0.0019998166,-0.07192926,-2.0,2.0,-2.0,2.0,2.0,-2.0,2.0,-2.0,-2.0,-2.0,-2.0,-2.0,-2.0,2.0,-2.0,2.0,2.0,-2.0,2.0,-2.0,-2.0,-2.0,-2.0,-2.0
2025-06-09 15:03:07.044,-0.029896423,0.011006465,-0.003883735,0.0062124236,-0.05438341,-0.034584295,0.0,0.0,0.0,0.026116936,-0.114057064,0.30776277,-0.10289749,0.12811275,0.3485612,-0.10226402,0.037230954,-0.33959192,-0.06222439,-0.03368971,-0.36073068,-0.056525644,-0.050937984,-0.0696342,0.014904766,-0.04239907,0.025110792,-0.050455246,-0.04997971,-0.0054679494,-0.0133406455,0.011507516,-0.04850854,0.00010275518,-2.0,2.0,-2.0,2.0,2.0,-2.0,2.0,-2.0,-2.0,-2.0,-2.0,-2.0,-2.0,2.0,-2.0,2.0,2.0,-2.0,2.0,-2.0,-2.0,-2.0,-2.0,-2.0
2025-06-09 15:03:07.064,-0.0050042053,-0.03315428,-0.018779777,0.008284467,0.021890646,0.030803569,0.0,0.0,0.0,0.026116915,-0.124828875,0.31212214,-0.10540335,0.13233505,0.34152818,-0.0914175,0.02538259,-0.33810207,-0.05648849,-0.025203679,-0.36497894,-0.057885427,0.004393528,-0.058771346,0.03065715,-0.041384768,0.06801523,-0.050592404,-0.06593659,0.00808844,-0.04899239,0.0038099964,0.028434154,-0.030587966,-2.0,2.0,-2.0,2.0,2.0,-2.0,2.0,-2.0,-2.0,-2.0,-2.0,-2.0,-2.0,2.0,-2.0,2.0,2.0,-2.0,2.0,-2.0,-2.0,-2.0,-2.0,-2.0
2025-06-09 15:03:07.084,-0.034980867,-0.049450748,0.015018515,-0.043518286,-0.017438257,0.0060423985,0.0,0.0,0.0,0.026116895,-0.12303734,0.31346333,-0.1010735,0.12998538,0.34100705,-0.098922685,0.038131464,-0.32987288,-0.06932068,-0.040305957,-0.36387458,-0.075102724,0.022931809,-0.019855164,-0.026733937,-0.07253259,0.072826795,-0.048712466,-0.03317504,0.043953344,0.01801872,0.0066585667,0.04847731,0.004554655,-2.0,2.0,-2.0,2.0,2.0,-2.0,2.0,-2.0,-2.0,-2.0,-2.0,-2.0,-2.0,2.0,-2.0,2.0,2.0,-2.0,2.0,-2.0,-2.0,-2.0,-2.0,-2.0
2025-06-09 15:03:07.104,0.016838558,-0.010069798,0.024724241,0.0111014955,0.0025870255,0.040975597,0.0,0.0,0.0,0.026116878,-0.11520612,0.31518367,-0.118592106,0.113548994,0.33803907,-0.10608191,0.038300272,-0.34829998,-0.063136525,-0.029522609,-0.3739222,-0.06487113,0.040483907,-0.037179515,0.004419063,0.055706747,0.010708891,-0.05672888,0.071043074,0.035882495,0.049903166,0.07216381,-0.061915442,-0.06162655,-2.0,2.0,-2.0,2.0,2.0,-2.0,2.0,-2.0,-2.0,-2.0,-2.0,-2.0,-2.0,2.0,-2.0,2.0,2.0,-2.0,2.0,-2.0,-2.0,-2.0,-2.0,-2.0
2025-06-09 15:03:07.124,-0.019314889,-0.0076405825,-0.021309592,-0.047914647,0.0057786363,-0.02168005,0.0,0.0,0.0,0.026116861,-0.1118667,0.31765124,-0.11300437,0.12112091,0.3389108,-0.10942845,0.03298577,-0.3461689,-0.06896945,-0.036794625,-0.35938966,-0.056731917,0.045532178,0.049908403,-0.03822683,0.052495338,0.058981456,0.00905073,-0.071749866,-0.047076475,0.008429491,-0.0033849592,-0.036774475,0.023625651,-2.0,2.0,-2.0,2.0,2.0,-2.0,2.0,-2.0,-2.0,-2.0,-2.0,-2.0,-2.0,2.0,-2.0,2.0,2.0,-2.0,2.0,-2.0,-2.0,-2.0,-2.0,-2.0
2025-06-09 15:03:07.144,0.012019724,0.03995104,0.023222728,-0.0009283506,-0.051596772,-0.014528761,0.0,0.0,0.0,0.026116848,-0.120462045,0.3208984,-0.11160595,0.12392581,0.35055,-0.10347099,0.02142706,-0.33807525,-0.051134795,-0.027279016,-0.36322835,-0.06366335,-0.01659826,-0.02467553,-0.0012427041,0.009587816,-0.049880862,0.073821984,0.06517231,0.0028322896,-0.036165204,0.0627589,0.015273992,-0.01226168,-2.0,2.0,-2.0,2.0,2.0,-2.0,2.0,-2.0,-2.0,-2.0,-2.0,-2.0,-2.0,2.0,-2.0,2.0,2.0,-2.0,2.0,-2.0,-2.0,-2.0,-2.0,-2.0
2025-06-09 15:03:07.164,-0.03326639,0.016283598,-0.0008741494,0.02259302,-0.001867651,-0.019648531,0.0,0.0,0.0,0.026116837,-0.12796299,0.30883828,-0.11037506,0.12469277,0.34427327,-0.109907664,0.03505771,-0.3364602,-0.05217081,-0.023945577,-0.37321535,-0.05982616,-0.07144216,0.042927634,-0.014070429,-0.0670474,-0.002279752,0.035456717,-0.053767636,0.019425062,0.046751704,-0.06591531,0.022816436,0.052582882,-2.0,2.0,-2.0,2.0,2.0,-2.0,2.0,-2.0,-2.0,-2.0,-2.0,-2.0,-2.0,2.0,-2.0,2.0,2.0,-2.0,2.0,-2.0,-2.0,-2.0,-2.0,-2.0
2025-06-09 15:03:07.184,0.0023236868,0.04570077,0.03828876,-0.033070162,-0.013582252,0.014196483,0.0,0.0,0.0,0.02611683,-0.117714934,0.3164624,-0.110967286,0.11956856,0.34838396,-0.094815634,0.03493064,-0.34494534,-0.0654179,-0.034282405,-0.36124477,-0.0738417,0.03483687,0.039997056,-0.07214677,0.044527393,-0.06191211,0.028457236,0.059690833,-0.060050655,0.06707655,0.04292919,0.051718194,-0.057627805,-2.0,2.0,-2.0,2.0,2.0,-2.0,2.0,-2.0,-2.0,-2.0,-2.0,-2.0,-2.0,2.0,-2.0,2.0,2.0,-2.0,2.0,-2.0,-2.0,-2.0,-2.0,-2.0
2025-06-09 15:03:07.205,-0.012011702,0.008037085,0.04498701,-0.0070233895,0.01658599,-0.044686086,0.0,0.0,0.0,0.026116824,-0.122317486,0.3165853,-0.11385837,0.12176644,0.34685004,-0.099117994,0.029503845,-0.34569624,-0.061098423,-0.023756152,-0.36655462,-0.067777894,0.03365543,0.0059257126,-0.04387135,-0.0026770472,0.068433754,-0.0109458985,0.066966385,0.015921047,-0.016077003,-0.032177337,-0.048626915,-0.04958014,-2.0,2.0,-2.0,2.0,2.0,-2.0,2.0,-2.0,-2.0,-2.0,-2.0,-2.0,-2.0,2.0,-2.0,2.0,2.0,-2.0,2.0,-2.0,-2.0,-2.0,-2.0,-2.0
2025-06-09 15:03:07.224,0.015275276,-0.018909402,0.013879107,-0.033352748,-0.04051188,0.020961897,0.0,0.0,0.0,0.026116822,-0.1147071,0.31349993,-0.11354739,0.12756537,0.33989257,-0.090827785,0.027104516,-0.34814674,-0.058462825,-0.02943086,-0.37377894,-0.0666874,-0.072207466,0.06316296,0.056479264,-0.01471565,-0.033587076,0.039343733,0.016281359,0.03925261,0.047775246,0.065660045,-0.021482462,0.02615141,-2.0,2.0,-2.0,2.0,2.0,-2.0,2.0,-2.0,-2.0,-2.0,-2.0,-2.0,-2.0,2.0,-2.0,2.0,2.0,-2.0,2.0,-2.0,-2.0,-2.0,-2.0,-2.0
2025-06-09 15:03:07.247,-0.020852128,0.03247152,0.022265105,-0.016315171,0.009925894,-0.0052010347,0.0,0.0,0.0,0.026116822,-0.1297903,0.30381617,-0.10821216,0.119918406,0.3392308,-0.10648375,0.031769764,-0.3363466,-0.05732966,-0.034057006,-0.36122078,-0.057846874,-0.06152234,0.04102469,-0.059533443,0.009242825,-0.014726145,-0.014921081,0.039604645,0.006552947,-0.02223436,0.04702178,-0.030640528,0.0016535548,-2.0,2.0,-2.0,2.0,2.0,-2.0,2.0,-2.0,-2.0,-2.0,-2.0,-2.0,-2.0,2.0,-2.0,2.0,2.0,-2.0,2.0,-2.0,-2.0,-2.0,-2.0,-2.0
2025-06-09 15:03:07.265,0.029726956,0.014971322,-0.033476196,-0.0048693926,0.0076955436,-0.03456116,0.0,0.0,0.0,0.026116824,-0.1159367,0.30538356,-0.11299005,0.11835295,0.34199372,-0.09477994,0.026425874,-0.34249255,-0.064006306,-0.024529237,-0.36659703,-0.06925261,-0.051015317,-0.02972605,0.07182148,-0.029828737,0.0422787,0.008280048,0.043629415,-0.061141837,0.009936189,0.028635278,-0.002355801,0.04339368,-2.0,2.0,-2.0,2.0,2.0,-2.0,2.0,-2.0,-2.0,-2.0,-2.0,-2.0,-2.0,2.0,-2.0,2.0,2.0,-2.0,2.0,-2.0,-2.0,-2.0,-2.0,-2.0
2025-06-09 15:03:07.285,-0.015136258,-0.00959756,-0.0037900712,-0.05567736,0.032675814,0.038918797,0.0,0.0,0.0,0.026116826,-0.12639655,0.31576765,-0.11285518,0.11974246,0.3420276,-0.09625961,0.035589926,-0.33175957,-0.05827093,-0.036388353,-0.36071587,-0.068871334,-0.0146160815,0.01825555,-0.05600833,-0.05062402,-0.057194166,-0.048820876,0.058180418,-0.057027902,0.042630438,0.05915905,-0.04554379,-0.0049606543,-2.0,2.0,-2.0,2.0,2.0,-2.0,2.0,-2.0,-2.0,-2.0,-2.0,-2.0,-2.0,2.0,-2.0,2.0,2.0,-2.0,2.0,-2.0,-2.0,-2.0,-2.0,-2.0
2025-06-09 15:03:07.305,0.041651886,0.01663497,-0.010821951,-0.044960644,-0.0039495695,0.014193185,0.0,0.0,0.0,0.026116831,-0.12409882,0.30743784,-0.11307972,0.11957529,0.34403625,-0.10786824,0.035888035,-0.34178743,-0.05208561,-0.038097415,-0.36347285,-0.071262434,0.038922306,-0.023757244,-0.06516463,-0.064242214,-0.03183001,0.0373469,0.074770235,0.042854473,-0.0017519206,-0.047541928,0.022861648,0.0644678,-2.0,2.0,-2.0,2.0,2.0,-2.0,2.0,-2.0,-2.0,-2.0,-2.0,-2.0,-2.0,2.0,-2.0,2.0,2.0,-2.0,2.0,-2.0,-2.0,-2.0,-2.0,-2.0
2025-06-09 15:03:07.325,-0.012154577,-0.04733244,0.020406255,-0.0003904948,-0.049579605,-0.043037165,0.0,0.0,0.0,0.026116837,-0.11432112,0.3220539,-0.1052665,0.1304745,0.34208488,-0.100747935,0.034886666,-0.34305346,-0.06367422,-0.025365844,-0.36356467,-0.06776871,-0.015467356,-0.07056814,-0.019171286,-0.073972836,0.004515265,-0.060162675,-0.00075498124,-0.021541566,-0.020422209,0.047984403,0.04729627,0.009589081,-2.0,2.0,-2.0,2.0,2.0,-2.0,2.0,-2.0,-2.0,-2.0,-2.0,-2.0,-2.0,2.0,-2.0,2.0,2.0,-2.0,2.0,-2.0,-2.0,-2.0,-2.0,-2.0
2025-06-09 15:03:07.347,0.0018229791,-0.034827583,-0.025430767,0.009445752,-0.0056199017,-0.025520777,0.0,0.0,0.0,0.026116842,-0.12656215,0.3142035,-0.109470494,0.1184615,0.34983855,-0.108357824,0.026281076,-0.3350285,-0.061521266,-0.030199867,-0.36022258,-0.063865684,0.013247746,-0.0021309215,0.05730472,-0.07417679,-0.0017834003,0.008129862,-0.07152727,-0.011199652,-0.06961957,-0.016315352,0.06224416,0.024847928,-2.0,2.0,-2.0,2.0,2.0,-2.0,2.0,-2.0,-2.0,-2.0,-2.0,-2.0,-2.0,2.0,-2.0,2.0,2.0,-2.0,2.0,-2.0,-2.0,-2.0,-2.0,-2.0
2025-06-09 15:03:07.365,0.043751158,0.038491905,-0.017100038,0.023294084,-0.03208269,-0.03906426,0.0,0.0,0.0,0.026116848,-0.12461915,0.3169866,-0.118607536,0.1252531,0.34466127,-0.10217877,0.025400693,-0.33007222,-0.06140753,-0.03795961,-0.37166122,-0.05999536,0.067854576,0.018455083,0.048403356,0.0022986946,0.03894811,-0.060816973,0.073101394,-0.03982814,0.0012176522,-0.036452353,-0.054666612,0.048482127,-2.0,2.0,-2.0,2.0,2.0,-2.0,2.0,-2.0,-2.0,-2.0,-2.0,-2.0,-2.0,2.0,-2.0,2.0,2.0,-2.0,2.0,-2.0,-2.0,-2.0,-2.0,-2.0
2025-06-09 15:03:07.385,-0.032544754,0.04040935,0.023890663,-0.02868562,-0.03725528,0.022344422,0.0,0.0,0.0,0.026116854,-0.11609961,0.30586803,-0.101905346,0.11485908,0.3433811,-0.092377976,0.022258924,-0.33289516,-0.053426314,-0.03691369,-0.35874942,-0.0709173,-0.0299698,-0.022405587,0.044041894,0.04633229,0.004498428,0.020621387,0.0018889797,-0.004241088,0.025721978,0.039506,0.024401505,0.017144034,-2.0,2.0,-2.0,2.0,2.0,-2.0,2.0,-2.0,-2.0,-2.0,-2.0,-2.0,-2.0,2.0,-2.0,2.0,2.0,-2.0,2.0,-2.0,-2.0,-2.0,-2.0,-2.0
2025-06-09 15:03:07.405,-0.047425546,0.045879815,-0.045532927,-0.04362676,0.018249562,-0.037060663,0.0,0.0,0.0,0.026116857,-0.12483895,0.3194174,-0.119598046,0.113581136,0.35498065,-0.10093091,0.036054138,-0.33323795,-0.061550356,-0.037531547,-0.35872936,-0.07420249,0.054545995,0.062262196,-0.0398815,-0.038761545,-0.050264884,-0.037922837,-0.048423294,-0.033020142,-0.027764704,0.04775548,0.06969128,-0.03871573,-2.0,2.0,-2.0,2.0,2.0,-2.0,2.0,-2.0,-2.0,-2.0,-2.0,-2.0,-2.0,2.0,-2.0,2.0,2.0,-2.0,2.0,-2.0,-2.0,-2.0,-2.0,-2.0
2025-06-09 15:03:07.425,-0.045265406,0.0021498322,0.049536984,-0.050410133,-0.006014236,-0.044746365,0.0,0.0,0.0,0.026116863,-0.12012062,0.31129625,-0.11669389,0.13070905,0.34803316,-0.099960804,0.029935986,-0.3478098,-0.05328789,-0.03662561,-0.3774554,-0.057447363,-0.031392355,-0.009015376,-0.038453314,0.049284026,0.03230582,0.021741435,-0.041549455,-0.04624261,-0.057488255,-0.006227228,-0.02336266,-0.0024245228,-2.0,2.0,-2.0,2.0,2.0,-2.0,2.0,-2.0,-2.0,-2.0,-2.0,-2.0,-2.0,2.0,-2.0,2.0,2.0,-2.0,2.0,-2.0,-2.0,-2.0,-2.0,-2.0
2025-06-09 15:03:07.447,-0.012690975,0.044083513,0.044979755,-8.8453875e-05,-0.0325576,-0.026521655,0.0,0.0,0.0,0.026116867,-0.11566949,0.32245347,-0.108806275,0.11348177,0.349554,-0.11067029,0.03616822,-0.33786264,-0.062758304,-0.033115853,-0.3658974,-0.070379354,0.01142111,-0.0018738117,-0.045040827,-0.05778018,0.003759969,-0.043034725,-0.009486196,-0.059229914,-0.047190335,-0.052861996,-0.05554634,0.032973684,-2.0,2.0,-2.0,2.0,2.0,-2.0,2.0,-2.0,-2.0,-2.0,-2.0,-2.0,-2.0,2.0,-2.0,2.0,2.0,-2.0,2.0,-2.0,-2.0,-2.0,-2.0,-2.0
2025-06-09 15:03:07.465,0.017649552,-0.02431029,0.021980178,0.032856714,-0.027830776,-0.029671201,0.0,0.0,0.0,0.02611687,-0.11568093,0.31277114,-0.10686793,0.12794767,0.35522836,-0.09752094,0.024468932,-0.33341435,-0.05206774,-0.039378833,-0.37248975,-0.07220536,0.05577258,-0.045211084,0.044753246,-0.06897391,0.006736042,-0.02029535,0.012121931,-0.03621921,-0.018807383,-0.033180684,-0.027525948,-0.015812065,-2.0,2.0,-2.0,2.0,2.0,-2.0,2.0,-2.0,-2.0,-2.0,-2.0,-2.0,-2.0,2.0,-2.0,2.0,2.0,-2.0,2.0,-2.0,-2.0,-2.0,-2.0,-2.0
2025-06-09 15:03:07.485,0.022076529,0.045946594,-0.02073003,0.01612285,0.008913633,0.037111063,0.0,0.0,0.0,0.026116872,-0.13012187,0.3115752,-0.10660048,0.12711434,0.33909482,-0.10657993,0.024613643,-0.3450079,-0.06504017,-0.031229386,-0.37037227,-0.0575894,0.049482856,0.013128938,0.062913835,0.009247243,-0.06555512,-0.025697518,0.012178818,0.03006847,0.035177518,-0.05316202,0.06546221,0.04463949,-2.0,2.0,-2.0,2.0,2.0,-2.0,2.0,-2.0,-2.0,-2.0,-2.0,-2.0,-2.0,2.0,-2.0,2.0,2.0,-2.0,2.0,-2.0,-2.0,-2.0,-2.0,-2.0
2025-06-09 15:03:07.505,0.0076980703,-0.004646691,-0.04444742,-0.029951053,-0.023089,-0.030495157,0.0,0.0,0.0,0.026116874,-0.11628478,0.31393585,-0.118872985,0.113384046,0.34856343,-0.09708536,0.01888873,-0.34502736,-0.06494858,-0.035421886,-0.37758988,-0.05809876,0.058611937,-0.03535546,0.0074487804,0.0013859,-0.051442955,0.02068795,0.018339682,-0.020209106,-0.0413617,-0.011107928,0.014778977,0.017305274,-2.0,2.0,-2.0,2.0,2.0,-2.0,2.0,-2.0,-2.0,-2.0,-2.0,-2.0,-2.0,2.0,-2.0,2.0,2.0,-2.0,2.0,-2.0,-2.0,-2.0,-2.0,-2.0
2025-06-09 15:03:07.525,0.019126086,0.026606707,-0.00682181,0.0043474706,-0.062092174,-0.043811705,0.0,0.0,0.0,0.026116876,-0.124873556,0.31052893,-0.11359262,0.12441064,0.33848932,-0.09364746,0.021239236,-0.33975488,-0.06599293,-0.028261397,-0.36909235,-0.069291584,0.05124216,-0.07481557,-0.049623128,0.059402794,0.045540925,0.056309253,-0.065027274,0.012951382,-0.02910279,0.07066037,-0.004851172,0.054679673,-2.0,2.0,-2.0,2.0,2.0,-2.0,2.0,-2.0,-2.0,-2.0,-2.0,-2.0,-2.0,2.0,-2.0,2.0,2.0,-2.0,2.0,-2.0,-2.0,-2.0,-2.0,-2.0
2025-06-09 15:03:07.547,0.0034585192,-0.023130957,0.02446548,0.029927362,-0.0630383,0.040336307,0.0,0.0,0.0,0.026116876,-0.12156701,0.3127802,-0.11382304,0.11952327,0.35011113,-0.09840402,0.036284335,-0.3375273,-0.06974168,-0.023399876,-0.36185047,-0.06675056,-0.07334933,0.0464948,-0.008264332,0.0055239904,-0.051531766,0.023576766,0.043139484,0.05086309,-0.046250932,0.056107335,-0.01790644,-0.068341166,-2.0,2.0,-2.0,2.0,2.0,-2.0,2.0,-2.0,-2.0,-2.0,-2.0,-2.0,-2.0,2.0,-2.0,2.0,2.0,-2.0,2.0,-2.0,-2.0,-2.0,-2.0,-2.0
2025-06-09 15:03:07.565,0.0044927686,0.00942941,0.0041056084,-0.034146678,-0.036913667,0.024946854,0.0,0.0,0.0,0.026116876,-0.121275805,0.3228156,-0.11588233,0.11674408,0.33824268,-0.0983656,0.019263215,-0.34126708,-0.0645632,-0.03787981,-0.35884994,-0.07575233,0.007964483,-0.022969482,0.062396463,0.006518031,-0.041561328,-0.042392198,-0.03265123,0.0616733,0.021610316,0.04142048,-0.016136108,-0.032415763,-2.0,2.0,-2.0,2.0,2.0,-2.0,2.0,-2.0,-2.0,-2.0,-2.0,-2.0,-2.0,2.0,-2.0,2.0,2.0,-2.0,2.0,-2.0,-2.0,-2.0,-2.0,-2.0
2025-06-09 15:03:07.585,0.013863473,0.023107938,-0.012742934,-0.002541494,0.028987344,-0.008815655,0.0,0.0,0.0,0.026116874,-0.1275319,0.30467412,-0.11266288,0.12929851,0.33634531,-0.10612988,0.026918706,-0.3460555,-0.065145954,-0.035545003,-0.35810503,-0.07578207,-0.050884455,0.009300838,0.027912676,-0.066248916,-0.0071657225,0.060674846,-0.06377375,-0.036816526,-0.054014787,-0.011478225,-0.012793029,0.0028640542,-2.0,2.0,-2.0,2.0,2.0,-2.0,2.0,-2.0,-2.0,-2.0,-2.0,-2.0,-2.0,2.0,-2.0,2.0,2.0,-2.0,2.0,-2.0,-2.0,-2.0,-2.0,-2.0
2025-06-09 15:03:07.606,-0.04522065,-0.01283402,-0.040552426,-0.03584852,0.0017829884,0.0056578685,0.0,0.0,0.0,0.026116874,-0.12268045,0.3048938,-0.1136995,0.11389406,0.34362802,-0.09833573,0.02735537,-0.34400383,-0.061612755,-0.022958646,-0.3748776,-0.071219444,-0.014516788,-0.005668587,-0.07314653,0.03062938,-0.060281664,0.02200225,-0.014516907,0.069649845,0.054694947,0.002345646,-0.021638976,0.07262306,-2.0,2.0,-2.0,2.0,2.0,-2.0,2.0,-2.0,-2.0,-2.0,-2.0,-2.0,-2.0,2.0,-2.0,2.0,2.0,-2.0,2.0,-2.0,-2.0,-2.0,-2.0,-2.0
2025-06-09 15:03:07.626,-0.00090962154,0.015534504,0.022568896,0.009806928,-0.03547889,-0.035891593,0.0,0.0,0.0,0.026116872,-0.13098073,0.31557015,-0.12002845,0.12669615,0.34806296,-0.10701583,0.028116858,-0.33451185,-0.06334489,-0.036492918,-0.36793792,-0.05721136,0.048668128,-0.018212814,0.027570745,0.06536092,-0.058007974,0.05153983,-0.0191244,0.0065543256,-0.05335074,-0.019392632,-0.032464787,0.015981682,-2.0,2.0,-2.0,2.0,2.0,-2.0,2.0,-2.0,-2.0,-2.0,-2.0,-2.0,-2.0,2.0,-2.0,2.0,2.0,-2.0,2.0,-2.0,-2.0,-2.0,-2.0,-2.0
2025-06-09 15:03:07.647,0.041779786,-0.045691464,-0.04509984,-0.0076642847,-0.05930451,-0.04008637,0.0,0.0,0.0,0.02611687,-0.11426361,0.3190215,-0.10183084,0.13138147,0.34686974,-0.10274842,0.02822907,-0.33522865,-0.06000778,-0.026360266,-0.36430413,-0.059206165,-0.0003896017,-0.054881107,-0.055163093,0.04023046,-0.016345665,0.039796863,0.043472987,0.017556349,-0.023291953,0.0035239873,0.0038641018,-0.05639473,-2.0,2.0,-2.0,2.0,2.0,-2.0,2.0,-2.0,-2.0,-2.0,-2.0,-2.0,-2.0,2.0,-2.0,2.0,2.0,-2.0,2.0,-2.0,-2.0,-2.0,-2.0,-2.0
2025-06-09 15:03:07.666,0.0195624,0.036671568,-0.044276886,0.021679157,-0.05279529,-0.044193935,0.0,0.0,0.0,0.026116868,-0.118299365,0.31208465,-0.10351034,0.112680614,0.34189838,-0.096545696,0.029180476,-0.3359643,-0.06650301,-0.025365755,-0.3731327,-0.06696477,-0.044438794,-0.00994026,-0.034959536,0.023554912,0.058238503,0.07100323,0.0219886,-0.02955991,0.018699292,0.024951307,0.014570739,0.046139523,-2.0,2.0,-2.0,2.0,2.0,-2.0,2.0,-2.0,-2.0,-2.0,-2.0,-2.0,-2.0,2.0,-2.0,2.0,2.0,-2.0,2.0,-2.0,-2.0,-2.0,-2.0,-2.0
2025-06-09 15:03:07.686,0.0044389185,0.043779105,-0.011675923,0.01470106,-0.048273906,0.0073160385,0.0,0.0,0.0,0.026116867,-0.11146628,0.30484557,-0.11984896,0.12536404,0.33845696,-0.104802646,0.025927993,-0.33300948,-0.07031726,-0.02558478,-0.35995847,-0.06592278,-0.04273585,0.05873233,0.041252755,-0.0033843387,-0.026488567,0.043791596,0.0135050025,-0.02731326,0.035956785,-0.038990587,0.03679314,-0.05218628,-2.0,2.0,-2.0,2.0,2.0,-2.0,2.0,-2.0,-2.0,-2.0,-2.0,-2.0,-2.0,2.0,-2.0,2.0,2.0,-2.0,2.0,-2.0,-2.0,-2.0,-2.0,-2.0
2025-06-09 15:03:07.706,0.012377124,-0.044335913,0.027377794,-0.033589642,-0.03169903,0.027185548,0.0,0.0,0.0,0.026116867,-0.12709405,0.3215996,-0.107289866,0.1267991,0.3488115,-0.10642097,0.034345098,-0.3392575,-0.0654944,-0.033890087,-0.3709224,-0.070444316,-0.07200823,0.054135993,0.013242149,0.05774816,-0.0525954,0.072548136,-0.02176745,0.03202483,0.023998998,0.045428712,-0.049291648,-0.008499246,-2.0,2.0,-2.0,2.0,2.0,-2.0,2.0,-2.0,-2.0,-2.0,-2.0,-2.0,-2.0,2.0,-2.0,2.0,2.0,-2.0,2.0,-2.0,-2.0,-2.0,-2.0,-2.0
2025-06-09 15:03:07.726,0.008975089,-0.033227142,0.02564689,-0.029155668,0.0030834903,0.042095568,0.0,0.0,0.0,0.026116865,-0.1296085,0.32290825,-0.10127894,0.114694834,0.33762506,-0.11059272,0.02126225,-0.34358186,-0.06351012,-0.03083864,-0.3661062,-0.06736205,-0.056678478,0.014456927,-0.038132075,0.02781358,-0.0695235,-0.06685186,0.07137356,-0.037071202,0.059014894,0.06704534,-0.05732401,0.026052544,-2.0,2.0,-2.0,2.0,2.0,-2.0,2.0,-2.0,-2.0,-2.0,-2.0,-2.0,-2.0,2.0,-2.0,2.0,2.0,-2.0,2.0,-2.0,-2.0,-2.0,-2.0,-2.0
2025-06-09 15:03:07.747,0.025232857,-0.037870426,0.023274327,-0.049649548,-0.004940884,-0.030392086,0.0,0.0,0.0,0.026116863,-0.11488669,0.31979513,-0.10572127,0.119526595,0.33700958,-0.09346463,0.027261768,-0.32911944,-0.06826868,-0.02291774,-0.37405986,-0.059925,0.028927097,-0.02181564,0.052148342,0.030201193,0.02611006,0.06679518,0.051623795,0.03986621,-0.056964777,-0.068227015,-0.023933377,-0.05899772,-2.0,2.0,-2.0,2.0,2.0,-2.0,2.0,-2.0,-2.0,-2.0,-2.0,-2.0,-2.0,2.0,-2.0,2.0,2.0,-2.0,2.0,-2.0,-2.0,-2.0,-2.0,-2.0
2025-06-09 15:03:07.766,0.04829662,0.009125275,0.02978676,-0.040799383,-0.045395765,0.032114428,0.0,0.0,0.0,0.026116863,-0.12497778,0.31290156,-0.10605627,0.1239625,0.33735013,-0.10004934,0.033045527,-0.33766657,-0.059341438,-0.024430254,-0.3697634,-0.07042877,0.009633627,0.051768113,0.056113716,0.0016334818,-0.04495024,-0.04727727,0.04559741,0.02968222,0.022954727,-0.048429634,0.033283815,0.0040719444,-2.0,2.0,-2.0,2.0,2.0,-2.0,2.0,-2.0,-2.0,-2.0,-2.0,-2.0,-2.0,2.0,-2.0,2.0,2.0,-2.0,2.0,-2.0,-2.0,-2.0,-2.0,-2.0
2025-06-09 15:03:07.786,-0.01537388,-0.047096066,0.011657071,-0.013254448,0.02471721,0.02170725,0.0,0.0,0.0,0.026116861,-0.11506002,0.31982914,-0.105824485,0.118181415,0.3414444,-0.09642992,0.019440224,-0.33508298,-0.059042737,-0.039571203,-0.36444274,-0.06371856,-0.0058668554,0.03161441,-0.020669494,0.06466605,0.07485543,-0.06587361,0.07283198,-0.041481692,-0.060812138,0.06226618,-0.03911183,0.030880915,-2.0,2.0,-2.0,2.0,2.0,-2.0,2.0,-2.0,-2.0,-2.0,-2.0,-2.0,-2.0,2.0,-2.0,2.0,2.0,-2.0,2.0,-2.0,-2.0,-2.0,-2.0,-2.0
2025-06-09 15:03:07.806,0.022300964,0.008355594,-0.00020882378,0.031420205,0.021141937,0.0029719528,0.0,0.0,0.0,0.026116861,-0.12913744,0.32062846,-0.11435493,0.12668666,0.35134447,-0.103672326,0.03590274,-0.3423643,-0.06868448,-0.023729714,-0.3614791,-0.06777047,-0.04677201,0.03017116,-0.048293535,0.03322516,-0.057437062,-0.012751501,0.010614426,-0.010639313,0.022713337,0.04329642,0.02806971,-0.051260035,-2.0,2.0,-2.0,2.0,2.0,-2.0,2.0,-2.0,-2.0,-2.0,-2.0,-2.0,-2.0,2.0,-2.0,2.0,2.0,-2.0,2.0,-2.0,-2.0,-2.0,-2.0,-2.0
2025-06-09 15:03:07.826,-0.014193127,0.0016259358,-0.018980319,-0.012411178,0.020211669,0.038941886,0.0,0.0,0.0,0.026116861,-0.11481846,0.3059908,-0.11321105,0.11989233,0.35397357,-0.103098,0.01904023,-0.33278295,-0.06593902,-0.022141308,-0.37227225,-0.07056984,0.05710007,0.006961484,0.042685322,-0.045003876,-0.008166625,-0.009674314,-0.07406551,0.052339945,-0.004089199,-0.055913545,0.019174732,-0.024214404,-2.0,2.0,-2.0,2.0,2.0,-2.0,2.0,-2.0,-2.0,-2.0,-2.0,-2.0,-2.0,2.0,-2.0,2.0,2.0,-2.0,2.0,-2.0,-2.0,-2.0,-2.0,-2.0
2025-06-09 15:03:07.847,-0.043498173,0.041678704,0.00878481,-0.059969433,-0.046469934,0.01610934,0.0,0.0,0.0,0.026116861,-0.11283884,0.31498194,-0.10166076,0.11757902,0.35082766,-0.10471398,0.023875073,-0.3400055,-0.055872895,-0.040939394,-0.37402022,-0.07230301,0.07100118,0.036728438,0.05868724,-0.01949645,0.045360338,0.039374445,0.007818113,-0.04526688,-0.043528434,0.0624849,-0.03421806,0.055877775,-2.0,2.0,-2.0,2.0,2.0,-2.0,2.0,-2.0,-2.0,-2.0,-2.0,-2.0,-2.0,2.0,-2.0,2.0,2.0,-2.0,2.0,-2.0,-2.0,-2.0,-2.0,-2.0
2025-06-09 15:03:07.866,0.001225197,-0.03616091,-0.007961508,-0.026318958,0.023989651,-0.015468764,0.0,0.0,0.0,0.026116861,-0.1198819,0.3069018,-0.11885867,0.118113056,0.3491781,-0.09609949,0.026553392,-0.34228316,-0.051793247,-0.026133318,-0.37015098,-0.05816792,0.02542586,-0.05691936,-0.053050265,-0.0035866564,-0.046816744,0.07225236,-0.006527501,-0.018574795,0.062098272,0.04613451,0.022583716,0.03715442,-2.0,2.0,-2.0,2.0,2.0,-2.0,2.0,-2.0,-2.0,-2.0,-2.0,-2.0,-2.0,2.0,-2.0,2.0,2.0,-2.0,2.0,-2.0,-2.0,-2.0,-2.0,-2.0
