openverse-orca/OrcaGym/log/simulation_log_20250606_161624.csv
timestamp,imu_angle_roll,imu_angle_pitch,imu_angle_yaw,imu_angular_velocity_roll,imu_angular_velocity_pitch,imu_angular_velocity_yaw,imu_acc_x,imu_acc_y,imu_acc_z,fl_joint1_pos,fl_joint1_vel,fl_joint1_torque,fl_joint2_pos,fl_joint2_vel,fl_joint2_torque,fl_joint3_pos,fl_joint3_vel,fl_joint3_torque,fr_joint1_pos,fr_joint1_vel,fr_joint1_torque,fr_joint2_pos,fr_joint2_vel,fr_joint2_torque,fr_joint3_pos,fr_joint3_vel,fr_joint3_torque,hl_joint1_pos,hl_joint1_vel,hl_joint1_torque,hl_joint2_pos,hl_joint2_vel,hl_joint2_torque,hl_joint3_pos,hl_joint3_vel,hl_joint3_torque,hr_joint1_pos,hr_joint1_vel,hr_joint1_torque,hr_joint2_pos,hr_joint2_vel,hr_joint2_torque,hr_joint3_pos,hr_joint3_vel,hr_joint3_torque,fl_force_x,fl_force_y,fl_force_z,fr_force_x,fr_force_y,fr_force_z,hl_force_x,hl_force_y,hl_force_z,hr_force_x,hr_force_y,hr_force_z,fl_hip_action,fl_thigh_action,fl_calf_action,fr_hip_action,fr_thigh_action,fr_calf_action,hl_hip_action,hl_thigh_action,hl_calf_action,hr_hip_action,hr_thigh_action,hr_calf_action
2025-06-06 16:16:24.818,-0.043040562,0.020177858,-0.038183894,0.0043214615,0.025063032,-0.03542814,1.8935398,-0.99203897,0.0,0.0,-0.00624998,-0.0031127105,0.0024339363,-0.0076117115,-0.009081004,0.0044694333,-0.0025482976,0.00011568748,-0.002054001,0.0060461,0.0012135585,0.0052904207,0.0070681316,0.073782444,0.04854611,-0.0010444407,-0.06760942,-0.022705708,0.059202787,0.046940997,-0.06874863,-0.008173333,-0.063113496,0.019919692,0.0,0.0,0.0,0.0,0.0,0.0,0.0,0.0,0.0,0.0,0.0,0.0,3.0,-1.1803405,-0.75552034,-0.4197669,-1.368699,1.8601546,-0.59455055,-0.17872426,0.87649125,1.1498557,-3.0,-2.7643704
2025-06-06 16:16:24.827,0.23243889,0.028105862,0.0015111847,0.015052761,-0.033713393,-0.019460468,0.0,0.0,0.0,0.0,0.026771668,-0.03405808,-0.010112039,-0.0034203916,-0.05728976,0.04653854,-0.007814604,-0.017034838,0.029740337,0.0033844889,-0.10611369,-0.05977321,0.040934112,-0.13053355,0.002300584,-0.06659506,-0.14319722,0.17600258,0.027929462,-0.0545058,-0.004867945,0.08692294,-0.32441977,-0.13281517,3.0,-1.1803405,-0.75552034,-0.4197669,-1.368699,1.8601546,-0.59455055,-0.17872426,0.87649125,1.1498557,-3.0,-2.7643704,3.0,1.1296892,-1.4120587,0.14923918,1.416809,0.65651286,-2.646875,-1.7887934,-0.44268602,-2.468653,-0.18673073,-3.0
2025-06-06 16:16:24.844,-0.12769455,-0.17809644,-0.055266257,0.0053701433,-0.037484683,0.021302663,0.0,0.0,0.0,-0.00065473886,0.0579607,-0.011178856,-0.0649497,-0.016233329,-0.022830615,0.071309306,-0.01890127,-0.07125278,0.00992653,-0.008907599,-0.16193236,-0.12311522,0.0008348372,0.101987526,-0.03381973,0.067448266,0.17067656,0.023185497,-0.09675275,-0.15966699,0.01056095,-0.06492233,-0.0818705,-0.02445239,3.0,1.1296892,-1.4120587,0.14923918,1.416809,0.65651286,-2.646875,-1.7887934,-0.44268602,-2.468653,-0.18673073,-3.0,3.0,0.928269,-3.0,-0.0074813347,3.0,-2.4034126,-3.0,-3.0,-3.0,-3.0,-1.4545455,-3.0
2025-06-06 16:16:24.864,0.016401198,-0.08996329,0.025988208,-0.045714453,-0.033919673,-0.02655343,0.0,0.0,0.0,-0.00081230025,0.03932322,-0.008878837,-0.062440827,-0.012594746,0.12638892,-0.016865069,-0.041506536,-0.19790176,-0.055709966,-0.005996083,-0.19339742,-0.10728222,0.024580488,-0.016391128,0.10491654,0.06545662,0.45090622,-0.26206675,-0.007318578,-0.262366,-0.28087768,0.03731325,-0.13709542,0.10508748,3.0,0.928269,-3.0,-0.0074813347,3.0,-2.4034126,-3.0,-3.0,-3.0,-3.0,-1.4545455,-3.0,3.0,0.51194406,-3.0,0.42945862,3.0,-3.0,-3.0,-3.0,-3.0,-3.0,-1.2466813,-3.0
2025-06-06 16:16:24.884,-0.019526552,-0.1465863,-0.07642455,-0.021603098,-0.023045247,0.031610236,0.0,0.0,0.0,-0.00052146445,0.035556592,-0.031982392,-0.028629921,0.0036925836,0.24408585,-0.094844855,-0.05472619,-0.29103905,-0.09342452,-0.013718015,-0.20033675,-0.08735831,-0.0058779325,-0.014682985,0.025948893,0.036998753,0.07859325,-0.17852807,-0.07954193,-0.2310286,-0.13670589,0.014728622,-0.04391813,-0.015224509,3.0,0.51194406,-3.0,0.42945862,3.0,-3.0,-3.0,-3.0,-3.0,-3.0,-1.2466813,-3.0,3.0,1.3024632,-3.0,2.5237086,3.0,-3.0,-3.0,-3.0,-3.0,-3.0,-1.8126315,-3.0
2025-06-06 16:16:24.904,0.1520445,-0.020610044,0.06383159,-0.05160516,0.015133595,-0.031582147,0.0,0.0,0.0,-2.4955232e-05,0.037442356,-0.033345748,-0.036894634,0.001605204,0.2765912,-0.11262076,-0.07742743,-0.35921398,-0.15659444,-0.010787752,-0.23180173,-0.06780098,-0.045629695,-0.0064154225,-0.07540312,-0.0074829813,0.09463503,-0.106297486,-0.06846371,-0.20070848,-0.17444344,0.028171692,-0.033260465,0.08213896,3.0,1.3024632,-3.0,2.5237086,3.0,-3.0,-3.0,-3.0,-3.0,-3.0,-1.8126315,-3.0,3.0,-0.21304068,-3.0,3.0,3.0,-3.0,-3.0,-3.0,-3.0,-3.0,-0.17775838,-3.0
2025-06-06 16:16:24.925,0.014389341,-0.16728464,-0.0396427,-0.08181049,0.014040019,0.0076497374,0.0,0.0,0.0,-0.00013305545,0.026502844,-0.026314726,-0.056377497,0.011644407,0.30385643,-0.14788817,-0.092164315,-0.4429538,-0.22315368,-0.020211423,-0.22469239,-0.083828494,-0.075335115,0.02138164,-0.037709787,0.011873849,0.15102173,-0.09110383,0.004652179,-0.12318579,-0.13975522,0.0085000135,0.086110115,-0.019614995,3.0,-0.21304068,-3.0,3.0,3.0,-3.0,-3.0,-3.0,-3.0,-3.0,-0.17775838,-3.0,3.0,0.16343838,-3.0,3.0,3.0,-3.0,-3.0,-3.0,-3.0,-3.0,-0.8834061,-3.0
2025-06-06 16:16:24.944,0.028594224,-0.11236843,-0.031610526,-0.03351681,0.019115508,0.016765995,0.0,0.0,0.0,-0.00018236462,0.024931176,-0.0028158014,-0.07574696,0.050604973,0.37545934,-0.20118701,-0.097481094,-0.48882118,-0.26163822,-0.023362514,-0.2085175,-0.0900218,-0.07186817,-0.027689671,-0.033756934,0.049229003,0.11469836,-0.12168162,-0.0063990043,-0.057499822,-0.13597612,0.02284449,0.09263225,0.0152250035,3.0,0.16343838,-3.0,3.0,3.0,-3.0,-3.0,-3.0,-3.0,-3.0,-0.8834061,-3.0,3.0,0.2726876,-3.0,3.0,3.0,-3.0,-3.0,-3.0,-3.0,-3.0,-0.7432392,-3.0
2025-06-06 16:16:24.964,0.022910114,-0.05052766,0.054348797,-0.041661594,0.059014104,-0.0016147706,0.0,0.0,0.0,-0.00025210425,0.02784377,0.012378362,-0.090875536,0.06648822,0.43300968,-0.24589254,-0.09221788,-0.5133276,-0.27443036,-0.028932875,-0.18807527,-0.1111939,0.05842098,0.024910258,-0.0405495,0.047491968,0.16066538,-0.13750143,-0.037598502,-0.10137744,-0.10632024,0.066677555,0.0035927633,-0.0066621862,3.0,0.2726876,-3.0,3.0,3.0,-3.0,-3.0,-3.0,-3.0,-3.0,-0.7432392,-3.0,3.0,-0.31273267,-3.0,3.0,3.0,-3.0,-3.0,-3.0,-3.0,-3.0,-0.15954702,-3.0
2025-06-06 16:16:24.988,-0.00092184654,-0.14263478,0.02478713,-0.04528432,0.03762256,-0.02345061,0.0,0.0,0.0,-0.0007026096,0.038567614,0.023486765,-0.09110625,0.08617511,0.48944387,-0.269331,-0.10474618,-0.5452634,-0.2923052,-0.027368663,-0.1569741,-0.11962321,0.048572574,0.0794918,0.034205258,0.09070074,0.052525636,-0.09951054,0.054262687,-0.07420744,-0.009300533,-0.049347226,-0.008820239,-0.044018056,3.0,-0.31273267,-3.0,3.0,3.0,-3.0,-3.0,-3.0,-3.0,-3.0,-0.15954702,-3.0,3.0,-0.15508968,-3.0,3.0,3.0,-3.0,-3.0,-3.0,-3.0,-3.0,-0.5844347,-3.0
2025-06-06 16:16:25.007,-0.012575745,-0.13735087,-0.003915574,-0.061542686,0.067208484,0.01903799,0.0,0.0,0.0,-0.001002874,0.026545526,0.025210537,-0.090020366,0.09585718,0.5311306,-0.28812292,-0.112247564,-0.5584232,-0.31750575,-0.019109327,-0.16152002,-0.1357171,-0.06617677,0.034359988,0.04350247,0.0027816037,0.11671342,-0.03459488,-0.023275051,0.016952787,-0.017086305,-0.03167384,-0.0021507028,-0.06472779,3.0,-0.15508968,-3.0,3.0,3.0,-3.0,-3.0,-3.0,-3.0,-3.0,-0.5844347,-3.0,3.0,0.028363407,-3.0,3.0,3.0,-3.0,-3.0,-3.0,-3.0,-3.0,-0.59106225,-3.0
2025-06-06 16:16:25.026,0.048273306,-0.111242615,0.015511933,-0.07056848,0.00019899159,-0.04705218,0.0,0.0,0.0,-0.001218299,0.025579868,0.019326298,-0.096565686,0.095324546,0.552342,-0.31063208,-0.1120898,-0.551474,-0.3228662,-0.037095945,-0.14643715,-0.14172319,-0.03771218,-0.030345941,-0.057118498,0.017688602,0.044149134,-0.044400558,-0.06885836,-0.03074776,0.0021287163,-0.03611344,-0.035338696,-0.07016846,3.0,0.028363407,-3.0,3.0,3.0,-3.0,-3.0,-3.0,-3.0,-3.0,-0.59106225,-3.0,3.0,-0.10796934,-3.0,3.0,3.0,-3.0,-3.0,-3.0,-3.0,-3.0,-0.4045717,-3.0
2025-06-06 16:16:25.045,-0.011060717,-0.10483448,0.02482141,-0.12891546,0.04739666,-0.048593726,0.0,0.0,0.0,-0.0015123641,0.021761352,0.030617941,-0.09752821,0.10154413,0.55944455,-0.30265328,-0.11861117,-0.56142676,-0.30982718,-0.0312824,-0.15222178,-0.14730793,-0.04760898,0.06699131,-0.013109154,0.055931777,0.07841738,0.0058735893,-0.07063951,-0.05686458,-0.028069984,0.06534926,-0.00941972,0.0039640362,3.0,-0.10796934,-3.0,3.0,3.0,-3.0,-3.0,-3.0,-3.0,-3.0,-0.4045717,-3.0,3.0,-0.09549421,-3.0,3.0,3.0,-3.0,-3.0,-3.0,-3.0,-3.0,-0.6235685,-3.0
2025-06-06 16:16:25.065,0.017804356,-0.12752834,-0.009031721,-0.11651586,0.018762587,-0.030451939,0.0,0.0,0.0,-0.0016768012,0.035964783,0.022599742,-0.08179121,0.11318391,0.57095474,-0.3233014,-0.11857626,-0.55927473,-0.3210722,-0.021746261,-0.152374,-0.1535391,0.01393414,-0.04404915,-0.0014942082,-0.013938486,-0.0009687962,-0.08122767,-0.03768281,0.060411416,-0.0023644567,0.00055871473,-0.066209644,-0.03163674,3.0,-0.09549421,-3.0,3.0,3.0,-3.0,-3.0,-3.0,-3.0,-3.0,-0.6235685,-3.0,3.0,0.09906238,-3.0,3.0,3.0,-3.0,-3.0,-3.0,-3.0,-3.0,-0.6258537,-3.0
2025-06-06 16:16:25.085,0.01583381,-0.088629045,-0.013465526,-0.12184337,0.07526218,-0.049438596,0.0,0.0,0.0,-0.0017324976,0.02578603,0.023291273,-0.08898915,0.11240208,0.5691603,-0.3108967,-0.11741601,-0.5531919,-0.32314175,-0.030257193,-0.15296574,-0.14279799,0.03026093,-0.060688186,0.08506375,-0.020765042,-0.058551937,-0.04644379,0.053265408,-0.033416875,0.028481435,0.015395474,0.052196246,-0.038119335,3.0,0.09906238,-3.0,3.0,3.0,-3.0,-3.0,-3.0,-3.0,-3.0,-0.6258537,-3.0,3.0,0.079147816,-3.0,3.0,3.0,-3.0,-3.0,-3.0,-3.0,-3.0,-0.6747975,-3.0
2025-06-06 16:16:25.105,0.037647393,-0.18178947,-0.034108784,-0.13974778,0.11978136,-0.04789058,0.0,0.0,0.0,-0.0017632621,0.03488778,0.007782204,-0.08298946,0.09727833,0.5769303,-0.31259155,-0.11081327,-0.5552305,-0.31441298,-0.018185103,-0.15962076,-0.14606524,0.02605541,-0.025839537,-0.054213434,-0.045832656,-0.009548706,0.037763517,0.051427547,0.012851084,0.029517632,0.06679167,-0.027478732,0.020214465,3.0,0.079147816,-3.0,3.0,3.0,-3.0,-3.0,-3.0,-3.0,-3.0,-0.6747975,-3.0,3.0,0.19523025,-3.0,3.0,3.0,-3.0,-3.0,-3.0,-3.0,-3.0,-0.8738597,-3.0
2025-06-06 16:16:25.126,0.038917165,-0.18136047,-0.04685803,-0.16358335,0.09417962,-0.018963588,0.0,0.0,0.0,-0.0017958452,0.03781018,0.008681519,-0.076036274,0.104339704,0.56867254,-0.3281784,-0.11405949,-0.556322,-0.31301513,-0.022035735,-0.16140893,-0.13378651,-0.049263045,-0.05509853,-0.05870157,-0.034782104,0.07437472,-0.035259973,0.040672902,0.06558233,0.018727794,0.07035112,0.016392313,0.028290443,3.0,0.19523025,-3.0,3.0,3.0,-3.0,-3.0,-3.0,-3.0,-3.0,-0.8738597,-3.0,3.0,0.31375974,-3.0,3.0,3.0,-3.0,-3.0,-3.0,-3.0,-3.0,-0.89786655,-3.0
2025-06-06 16:16:25.145,0.10291112,-0.16669667,0.0027452698,-0.15283874,0.090627104,-0.021498939,0.0,0.0,0.0,-0.001979172,0.037774634,-0.0008859245,-0.066046484,0.10655886,0.57560706,-0.3313822,-0.10770408,-0.5505288,-0.32600465,-0.008967757,-0.17682594,-0.12100532,0.001016589,0.0043329126,-0.034894027,-0.040053703,-0.035700403,-0.033107247,0.02903711,0.028008454,-0.065888494,0.011649703,-0.058658056,0.011712545,3.0,0.31375974,-3.0,3.0,3.0,-3.0,-3.0,-3.0,-3.0,-3.0,-0.89786655,-3.0,3.0,-0.026887119,-3.0,3.0,3.0,-3.0,-3.0,-3.0,-3.0,-3.0,-0.4903552,-3.0
2025-06-06 16:16:25.165,0.06485254,-0.12777507,0.0135074165,-0.14210278,0.08678154,0.031160487,0.0,0.0,0.0,-0.002396067,0.052328933,-0.011134566,-0.058970567,0.09264744,0.57229555,-0.3206088,-0.09996672,-0.5559955,-0.32398954,-0.015932675,-0.19173425,-0.13256021,0.066792645,-0.06395822,0.07936824,-0.040384192,-0.034506742,0.031113729,-0.026347714,0.018584615,0.075635254,-0.030321928,0.024962202,-0.02215815,3.0,-0.026887119,-3.0,3.0,3.0,-3.0,-3.0,-3.0,-3.0,-3.0,-0.4903552,-3.0,3.0,-0.1626324,-3.0,3.0,3.0,-3.0,-3.0,-3.0,-3.0,-3.0,-0.539561,-3.0
2025-06-06 16:16:25.185,0.011416745,-0.14913091,0.021875808,-0.118646935,0.12722594,0.013842659,0.0,0.0,0.0,-0.002686073,0.03773303,-0.025940811,-0.06174871,0.093527,0.5763747,-0.3231708,-0.10322951,-0.5658171,-0.29877022,-0.018603714,-0.18511303,-0.1378476,-0.06333131,-0.07393115,0.05509428,0.032878954,0.056369897,-0.0640068,0.056756467,-0.047210746,0.009481497,-0.0466277,0.06581365,0.041092727,3.0,-0.1626324,-3.0,3.0,3.0,-3.0,-3.0,-3.0,-3.0,-3.0,-0.539561,-3.0,3.0,-0.3176996,-3.0,3.0,3.0,-3.0,-3.0,-3.0,-3.0,-3.0,-0.44898623,-3.0
2025-06-06 16:16:25.209,-0.016675072,-0.08784239,0.013876841,-0.14194456,0.08356928,-0.027314395,0.0,0.0,0.0,-0.0030211504,0.054755423,-0.02403828,-0.043959577,0.09742531,0.56953263,-0.3231254,-0.10862031,-0.5892486,-0.29037416,-0.002214883,-0.16326925,-0.14555003,0.019082496,-0.04530652,0.013593334,0.07057614,-0.057597805,0.049944554,0.064132944,-0.087644055,0.0048314235,0.022756508,0.034628708,-0.09131499,3.0,-0.3176996,-3.0,3.0,3.0,-3.0,-3.0,-3.0,-3.0,-3.0,-0.44898623,-3.0,3.0,-0.21286166,-3.0,3.0,3.0,-3.0,-3.0,-3.0,-3.0,-3.0,-0.42942923,-3.0
2025-06-06 16:16:25.226,-0.06450011,-0.14600463,0.043261092,-0.14723834,0.09205421,-0.007934291,0.0,0.0,0.0,-0.003573604,0.05006499,-0.028541837,-0.03563938,0.10729961,0.5731396,-0.32338214,-0.10680007,-0.5899421,-0.28057012,-0.016087906,-0.14956632,-0.15990408,-0.04799144,0.013542749,-0.011965423,-0.061901547,-0.053221367,0.06266331,-0.02298615,-0.059670024,0.076301984,-0.06094491,-0.046389665,0.03623358,3.0,-0.21286166,-3.0,3.0,3.0,-3.0,-3.0,-3.0,-3.0,-3.0,-0.42942923,-3.0,3.0,-0.3857023,-3.0,3.0,3.0,-3.0,-3.0,-3.0,-3.0,-3.0,-0.3909399,-3.0
2025-06-06 16:16:25.245,0.011117404,-0.09642156,-0.0023910701,-0.16836971,0.09743558,0.03643029,0.0,0.0,0.0,-0.0043655043,0.055324003,-0.020252584,-0.028110644,0.1097284,0.57245666,-0.31624013,-0.091001324,-0.5993035,-0.27570936,-0.018472973,-0.14960186,-0.18071216,-0.03023165,-0.028306749,-0.010984847,-0.017831586,-0.07336527,0.015188394,0.009287999,0.023235677,0.0041419864,0.011315454,-0.025170065,-0.057076216,3.0,-0.3857023,-3.0,3.0,3.0,-3.0,-3.0,-3.0,-3.0,-3.0,-0.3909399,-3.0,3.0,-0.19713974,-3.0,3.0,3.0,-3.0,-3.0,-3.0,-3.0,-3.0,-0.5526547,-3.0
2025-06-06 16:16:25.266,0.0018028314,-0.058084287,0.049202047,-0.20314708,0.105012864,0.032882657,0.0,0.0,0.0,-0.0053516016,0.06421735,-0.01582773,-0.037805848,0.09772855,0.581053,-0.33422965,-0.10065954,-0.6003513,-0.26474532,-0.004908339,-0.1344329,-0.1942502,-0.008555155,-0.07666232,0.013562349,0.014890889,0.04082263,-0.07237018,-0.051352188,-0.03403492,-0.01618572,0.0624232,0.06844092,-0.08624657,3.0,-0.19713974,-3.0,3.0,3.0,-3.0,-3.0,-3.0,-3.0,-3.0,-0.5526547,-3.0,3.0,-0.63677406,-3.0,3.0,3.0,-3.0,-3.0,-3.0,-3.0,-3.0,0.097170904,-3.0
2025-06-06 16:16:25.285,-0.012522664,-0.1291964,0.030711696,-0.21177138,0.14964476,0.0040952135,0.0,0.0,0.0,-0.006642646,0.08085567,-0.027331518,-0.027983364,0.10157895,0.58307594,-0.32309195,-0.09806423,-0.6049331,-0.2794441,-0.016720071,-0.13974363,-0.18966295,0.05415247,0.0028637063,-0.020810353,-0.016693104,-0.037279777,0.0080494005,-0.012861101,-0.06888365,-0.04145834,0.0154725155,-0.006719515,-0.104847424,3.0,-0.63677406,-3.0,3.0,3.0,-3.0,-3.0,-3.0,-3.0,-3.0,0.097170904,-3.0,3.0,-0.5607873,-3.0,3.0,3.0,-3.0,-3.0,-3.0,-3.0,-3.0,-0.35160202,-3.0
2025-06-06 16:16:25.310,-0.03850449,-0.12331108,0.011005249,-0.20236811,0.1210732,-0.015772952,0.0,0.0,0.0,-0.007655249,0.0688586,-0.033830114,-0.027392816,0.093997054,0.5815769,-0.33412868,-0.10743232,-0.6057502,-0.2750884,-0.0035946604,-0.123182654,-0.21288647,0.062176477,-0.05080802,-0.057454616,-0.04594656,0.05307229,0.035416603,0.02300961,0.01324928,0.043512434,-0.021953354,-0.006343828,0.043634046,3.0,-0.5607873,-3.0,3.0,3.0,-3.0,-3.0,-3.0,-3.0,-3.0,-0.35160202,-3.0,3.0,-0.4493757,-3.0,3.0,3.0,-3.0,-3.0,-3.0,-3.0,-3.0,-0.42416686,-3.0
2025-06-06 16:16:25.326,0.05258465,-0.10581605,0.028844615,-0.16197045,0.19812143,-0.040608797,0.0,0.0,0.0,-0.0085805,0.08580851,-0.027655356,-0.033384267,0.09859392,0.5799469,-0.3264338,-0.102068916,-0.6055984,-0.2685923,-0.015000282,-0.12487003,-0.22346301,0.0681943,-0.03318638,-0.012876506,0.010407129,-0.011010998,-0.0051298174,-0.0076998114,-0.0045667384,0.038062092,-0.0059386687,-0.04026399,-0.004143758,3.0,-0.4493757,-3.0,3.0,3.0,-3.0,-3.0,-3.0,-3.0,-3.0,-0.42416686,-3.0,3.0,-0.44833627,-3.0,3.0,3.0,-3.0,-3.0,-3.0,-3.0,-3.0,-0.39599246,-3.0
2025-06-06 16:16:25.346,0.008248615,-0.04119689,0.03826509,-0.18638358,0.14050886,-0.04474856,0.0,0.0,0.0,-0.009714402,0.08053388,-0.040304605,-0.030433802,0.09425222,0.56296605,-0.32678288,-0.110891275,-0.5998514,-0.27820373,-0.013349684,-0.1350281,-0.2319907,-0.041964762,-0.036178954,-0.03525524,0.030021567,-0.04839413,-0.023592582,0.03246963,0.042713113,-0.041228,0.011837465,0.05453371,-0.0148310615,3.0,-0.44833627,-3.0,3.0,3.0,-3.0,-3.0,-3.0,-3.0,-3.0,-0.39599246,-3.0,3.0,-0.5433779,-3.0,3.0,3.0,-3.0,-3.0,-3.0,-3.0,-3.0,-0.34058255,-3.0
2025-06-06 16:16:25.366,-0.0069154664,-0.021532321,0.07185898,-0.17332685,0.13676131,0.0063516167,0.0,0.0,0.0,-0.010986258,0.10066417,-0.053836536,-0.01942335,0.11146036,0.5742873,-0.33016947,-0.112428226,-0.60308015,-0.26024276,-0.0063793166,-0.13761778,-0.24480982,0.008698978,-0.058045648,-0.025144393,0.027331077,0.027660903,-0.038001627,0.020842496,-0.06500981,-0.05271106,0.014513391,0.029179769,-0.04232689,3.0,-0.5433779,-3.0,3.0,3.0,-3.0,-3.0,-3.0,-3.0,-3.0,-0.34058255,-3.0,3.0,-0.7581812,-3.0,3.0,3.0,-3.0,-3.0,-3.0,-3.0,-3.0,0.08030708,-3.0
2025-06-06 16:16:25.386,-0.074751504,-0.0912328,0.0078101666,-0.1981668,0.16732042,0.00587923,0.0,0.0,0.0,-0.012248615,0.10042202,-0.054920893,-0.010597852,0.09603545,0.56793284,-0.31909826,-0.11012454,-0.60526526,-0.27772126,-0.021761402,-0.14110854,-0.24320036,0.036140185,0.038009524,-0.060712397,0.058776837,-0.03379683,0.04792743,0.040848408,0.066025525,0.01323065,0.019643165,-0.0167205,-0.08465033,3.0,-0.7581812,-3.0,3.0,3.0,-3.0,-3.0,-3.0,-3.0,-3.0,0.08030708,-3.0,3.0,-0.3688606,-3.0,3.0,3.0,-3.0,-3.0,-3.0,-3.0,-3.0,-0.72039217,-3.0
2025-06-06 16:16:25.409,0.06500215,-0.018124023,0.08363106,-0.18019977,0.17829724,-0.0045480756,0.0,0.0,0.0,-0.01308017,0.09628715,-0.06983974,-0.01667155,0.09896366,0.57179785,-0.32021752,-0.10958995,-0.6168581,-0.27427885,-0.021347191,-0.14970727,-0.25602183,-0.008560434,0.039542127,0.01678842,-0.035017222,-0.050589927,-0.07052358,-0.069502465,-0.077363074,0.0062632584,-0.008897106,-0.07104214,0.0045788633,3.0,-0.3688606,-3.0,3.0,3.0,-3.0,-3.0,-3.0,-3.0,-3.0,-0.72039217,-3.0,3.0,-0.8645134,-3.0,3.0,3.0,-3.0,-3.0,-3.0,-3.0,-3.0,0.16779979,-3.0
2025-06-06 16:16:25.426,-0.021781936,-0.044798918,0.02988123,-0.13924564,0.14352268,0.046158366,0.0,0.0,0.0,-0.014124174,0.10288848,-0.07004503,-0.023175169,0.095224395,0.5802956,-0.3294304,-0.11343444,-0.6135272,-0.28831613,-0.019227182,-0.15060824,-0.2719158,-0.023838576,0.024823144,0.021510925,-0.049115375,-0.048667923,-0.052366085,0.025730142,-0.007816998,-0.07037884,0.05785995,-0.062541425,-0.09588614,3.0,-0.8645134,-3.0,3.0,3.0,-3.0,-3.0,-3.0,-3.0,-3.0,0.16779979,-3.0,3.0,-0.60208035,-3.0,3.0,3.0,-3.0,-3.0,-3.0,-3.0,-3.0,-0.4307837,-3.0
2025-06-06 16:16:25.446,0.012890729,-0.069454856,0.02421644,-0.20919739,0.13282794,-0.006593984,0.0,0.0,0.0,-0.014841009,0.120031,-0.06899991,-0.01650308,0.1074181,0.569234,-0.31648397,-0.117610164,-0.6198002,-0.28542727,-0.013248246,-0.14957242,-0.27656758,-0.045250136,0.03406908,0.048334915,-0.037565034,0.019714752,0.06104503,0.02315587,-0.08101335,0.027562285,-0.018560346,-0.06094443,-0.028514087,3.0,-0.60208035,-3.0,3.0,3.0,-3.0,-3.0,-3.0,-3.0,-3.0,-0.4307837,-3.0,3.0,-0.4716543,-3.0,3.0,3.0,-3.0,-3.0,-3.0,-3.0,-3.0,-0.40639037,-3.0
2025-06-06 16:16:25.466,-0.001985075,0.0061351643,0.058356415,-0.19853285,0.20107992,-0.020531382,0.0,0.0,0.0,-0.015445493,0.12673905,-0.07945529,-0.005567263,0.10441085,0.5800184,-0.3211315,-0.100881405,-0.6233437,-0.29306445,-0.005013242,-0.15379387,-0.27350837,0.08275881,0.042169075,0.05178156,0.026918823,0.010398217,-0.058925834,0.07112885,-0.07355795,-0.073223785,0.061461505,-0.032116946,-0.019434234,3.0,-0.4716543,-3.0,3.0,3.0,-3.0,-3.0,-3.0,-3.0,-3.0,-0.40639037,-3.0,3.0,-0.7773595,-3.0,3.0,3.0,-3.0,-3.0,-3.0,-3.0,-3.0,-0.03335731,-3.0
2025-06-06 16:16:25.486,-0.07340432,-0.059893023,0.03921227,-0.16251406,0.18485318,-0.0032126878,0.0,0.0,0.0,-0.016206687,0.11512979,-0.09705268,-0.0019131668,0.10201018,0.5815149,-0.31637776,-0.11581998,-0.6259779,-0.29729965,-0.01580991,-0.16029903,-0.2919443,0.013356117,0.043395136,-0.039489567,-0.0026713212,0.036333147,0.019986577,-0.06398531,-0.01566277,-0.05511123,-0.012504231,0.07020951,-0.0094976965,3.0,-0.7773595,-3.0,3.0,3.0,-3.0,-3.0,-3.0,-3.0,-3.0,-0.03335731,-3.0,3.0,-0.7399833,-3.0,3.0,3.0,-3.0,-3.0,-3.0,-3.0,-3.0,-0.36984342,-3.0
2025-06-06 16:16:25.510,0.03373842,-0.05915531,-0.0088000465,-0.21594375,0.16492507,-0.02324071,0.0,0.0,0.0,-0.016705932,0.12189135,-0.093698114,-0.0021026926,0.09322688,0.566269,-0.33221233,-0.12053154,-0.6285879,-0.29047766,-0.0094415285,-0.17045574,-0.2966907,-0.050977487,-0.06562274,-0.058925807,0.0029231943,-0.054513823,-0.0007455369,0.02598589,0.051535144,0.018646855,-0.05497923,-0.012071679,-0.0072805393,3.0,-0.7399833,-3.0,3.0,3.0,-3.0,-3.0,-3.0,-3.0,-3.0,-0.36984342,-3.0,3.0,-0.39930224,-3.0,3.0,3.0,-3.0,-3.0,-3.0,-3.0,-3.0,-0.6476149,-3.0
2025-06-06 16:16:25.526,-0.0019404154,-0.0017670265,0.019109666,-0.21393593,0.15204245,-0.018580448,0.0,0.0,0.0,-0.017109126,0.12256035,-0.10014484,-0.00029201558,0.09270959,0.5836514,-0.32954863,-0.1049186,-0.6231082,-0.31047758,-0.015041169,-0.16751547,-0.29782537,-0.032153867,0.054762155,0.016926887,0.040684704,-0.052997738,-0.063488856,-0.037585292,-0.036528498,0.0047247503,0.05424441,-0.015326931,0.071760096,3.0,-0.39930224,-3.0,3.0,3.0,-3.0,-3.0,-3.0,-3.0,-3.0,-0.6476149,-3.0,3.0,-0.5083878,-3.0,3.0,3.0,-3.0,-3.0,-3.0,-3.0,-3.0,-0.45602244,-3.0
2025-06-06 16:16:25.550,0.0709248,0.04587867,0.07606479,-0.17890869,0.14981785,-0.037031986,0.0,0.0,0.0,-0.017798606,0.12989075,-0.116177306,-0.008665457,0.09906086,0.57293123,-0.3165791,-0.114146076,-0.6391972,-0.2988188,-0.010416065,-0.17838211,-0.28852904,-0.014239115,-0.06611628,-0.061126962,0.067707196,0.054470472,0.068275586,0.0667929,-0.029398348,-0.005761217,0.014933635,-0.03180141,-0.03338811,3.0,-0.5083878,-3.0,3.0,3.0,-3.0,-3.0,-3.0,-3.0,-3.0,-0.45602244,-3.0,3.0,-0.86269623,-3.0,3.0,3.0,-3.0,-3.0,-3.0,-3.0,-3.0,0.014061522,-3.0
2025-06-06 16:16:25.568,-0.008590118,-0.028549232,-0.012429195,-0.21209285,0.16800162,-0.008186936,0.0,0.0,0.0,-0.018582763,0.14029266,-0.12079651,0.0026483643,0.097822934,0.56720454,-0.32891488,-0.11104546,-0.62469417,-0.30661294,-0.007550648,-0.17052497,-0.29887322,-0.050169595,0.022266453,0.053877085,-0.0015379195,0.0019810987,0.07402205,0.03637249,-0.057860892,-0.011767595,-0.05159166,-0.0664594,-0.008561526,3.0,-0.86269623,-3.0,3.0,3.0,-3.0,-3.0,-3.0,-3.0,-3.0,0.014061522,-3.0,3.0,-0.41319233,-3.0,3.0,3.0,-3.0,-3.0,-3.0,-3.0,-3.0,-0.7833826,-3.0
2025-06-06 16:16:25.588,0.06807212,0.05311431,0.054127164,-0.18957548,0.2222108,-0.020483311,0.0,0.0,0.0,-0.018877411,0.13035178,-0.13006647,0.0065653096,0.10936183,0.5812323,-0.32718146,-0.11335463,-0.6364135,-0.31587318,-0.016393479,-0.19044746,-0.2946776,-0.037986077,-0.065114744,0.0026718834,0.065618716,-0.020593267,0.0062729795,-0.04776831,-0.001948296,-0.02631031,-0.06365067,-0.03219089,-0.05577019,3.0,-0.41319233,-3.0,3.0,3.0,-3.0,-3.0,-3.0,-3.0,-3.0,-0.7833826,-3.0,3.0,-0.8125212,-3.0,3.0,3.0,-3.0,-3.0,-3.0,-3.0,-3.0,-0.03592508,-3.0
2025-06-06 16:16:25.609,-0.036260378,-0.05628483,0.041061066,-0.2359544,0.2109936,0.017724466,0.0,0.0,0.0,-0.019281799,0.12918963,-0.13000903,-0.0044119307,0.09902721,0.5799736,-0.31996334,-0.12456889,-0.6410864,-0.31680584,-0.00851127,-0.18285747,-0.29157105,0.00012292496,0.043588888,0.040882174,0.016321655,0.041059773,0.05516753,0.0033853396,-0.009596782,-0.042906493,0.045072418,-0.03280689,0.032710765,3.0,-0.8125212,-3.0,3.0,3.0,-3.0,-3.0,-3.0,-3.0,-3.0,-0.03592508,-3.0,3.0,-0.70304596,-3.0,3.0,3.0,-3.0,-3.0,-3.0,-3.0,-3.0,-0.44301504,-3.0
2025-06-06 16:16:25.629,-0.0154178245,0.0012197803,-0.0017165261,-0.19126341,0.19928846,0.016670262,0.0,0.0,0.0,-0.019418499,0.14736106,-0.13184525,0.00089550647,0.107159734,0.58046967,-0.31977746,-0.11816945,-0.6415422,-0.33067062,-0.019202372,-0.1808276,-0.2941753,-0.05174183,0.022291688,0.033828504,-0.040729076,-0.026346708,0.051194556,-0.06822266,0.021030804,0.042917695,-0.0022650335,-0.034357868,0.058911122,3.0,-0.70304596,-3.0,3.0,3.0,-3.0,-3.0,-3.0,-3.0,-3.0,-0.44301504,-3.0,3.0,-0.36564928,-3.0,3.0,3.0,-3.0,-3.0,-3.0,-3.0,-3.0,-0.7857203,-3.0
2025-06-06 16:16:25.649,0.0034310627,0.018168775,-0.009213895,-0.14982584,0.17994605,-0.0014468797,0.0,0.0,0.0,-0.019361442,0.13108271,-0.12787987,0.0062022144,0.09006183,0.566706,-0.31480718,-0.12287861,-0.62993115,-0.32317978,-0.010996093,-0.191128,-0.30205074,0.052776303,-6.9212285e-05,0.0008989987,-0.0388051,-0.042768415,-0.060329188,0.037673738,-0.06725655,-0.06597052,0.073257044,0.042657237,0.058309447,3.0,-0.36564928,-3.0,3.0,3.0,-3.0,-3.0,-3.0,-3.0,-3.0,-0.7857203,-3.0,3.0,-0.47930366,-3.0,3.0,3.0,-3.0,-3.0,-3.0,-3.0,-3.0,-0.4958102,-3.0
2025-06-06 16:16:25.669,-0.008547502,-0.023774719,0.020824187,-0.17467014,0.18756136,-0.013077646,0.0,0.0,0.0,-0.019614546,0.14424217,-0.13295895,-0.004550961,0.09211051,0.5733193,-0.33302268,-0.114829294,-0.63158184,-0.31915852,-0.016963363,-0.2041425,-0.29827094,0.07039855,-0.014703921,-0.05031655,-0.010321463,-0.031059211,-0.02364713,0.008058645,-0.06387809,-0.073195264,-0.002754508,-0.07139987,0.018101776,3.0,-0.47930366,-3.0,3.0,3.0,-3.0,-3.0,-3.0,-3.0,-3.0,-0.4958102,-3.0,3.0,-0.6080986,-3.0,3.0,3.0,-3.0,-3.0,-3.0,-3.0,-3.0,-0.34302014,-3.0
2025-06-06 16:16:25.693,0.008160528,0.006764194,-0.026626721,-0.18672773,0.21232046,-0.02765934,0.0,0.0,0.0,-0.019936748,0.13482156,-0.13016693,-0.00906568,0.09747226,0.58588266,-0.31961596,-0.11599617,-0.63853955,-0.3246442,-0.009184685,-0.19200267,-0.2991797,-0.050543174,-0.04838531,0.040572017,0.043789044,0.0058442676,0.0040825517,0.0010529403,0.023123218,0.01690792,0.065340534,0.037638437,-0.017907655,3.0,-0.6080986,-3.0,3.0,3.0,-3.0,-3.0,-3.0,-3.0,-3.0,-0.34302014,-3.0,3.0,-0.33790863,-3.0,3.0,3.0,-3.0,-3.0,-3.0,-3.0,-3.0,-0.82340425,-3.0
2025-06-06 16:16:25.712,0.094436266,0.017562758,-0.03128019,-0.23716043,0.18734334,-0.032517232,0.0,0.0,0.0,-0.020005897,0.14791279,-0.124495514,-0.005568926,0.107571565,0.56835717,-0.32960194,-0.1299014,-0.6331151,-0.319122,-0.01951188,-0.1998097,-0.2864106,0.02173352,-0.016519021,-0.058586437,-0.035945177,0.014933719,-0.0014472837,0.069374524,0.050411753,-0.0116291875,-0.016507283,0.0056079263,-0.05582262,3.0,-0.33790863,-3.0,3.0,3.0,-3.0,-3.0,-3.0,-3.0,-3.0,-0.82340425,-3.0,3.0,-0.33314532,-3.0,3.0,3.0,-3.0,-3.0,-3.0,-3.0,-3.0,-0.59380454,-3.0
2025-06-06 16:16:25.732,0.01719983,0.0028969783,0.04991127,-0.22230197,0.12883094,0.030368844,0.0,0.0,0.0,-0.020201664,0.15274392,-0.119687505,-0.0055459603,0.10879286,0.57962304,-0.31856054,-0.11274899,-0.63264924,-0.31832975,-0.0065567773,-0.19989413,-0.29078826,0.012986183,0.08284534,-0.050683003,0.07285972,0.07063755,0.064294055,-0.022732124,-0.021204052,0.001280056,-0.0067408783,-0.061410673,0.046670306,3.0,-0.33314532,-3.0,3.0,3.0,-3.0,-3.0,-3.0,-3.0,-3.0,-0.59380454,-3.0,3.0,-0.66339767,-3.0,3.0,3.0,-3.0,-3.0,-3.0,-3.0,-3.0,-0.26536602,-3.0
2025-06-06 16:16:25.752,-0.023222618,-0.02198331,-0.042812433,-0.16026063,0.1293728,0.019746672,0.0,0.0,0.0,-0.020449778,0.15022683,-0.12499219,-0.0028163805,0.10791148,0.5777029,-0.32054132,-0.12013195,-0.6314165,-0.31892955,-0.0123377545,-0.20234951,-0.28053662,0.044585824,0.046748903,-0.030486947,-0.0136575,0.04240226,0.05132568,-0.05181162,0.057728946,-0.03372441,0.06998605,-0.046062835,0.019640084,3.0,-0.66339767,-3.0,3.0,3.0,-3.0,-3.0,-3.0,-3.0,-3.0,-0.26536602,-3.0,3.0,-0.12944198,-3.0,3.0,3.0,-3.0,-3.0,-3.0,-3.0,-3.0,-1.010043,-3.0
2025-06-06 16:16:25.776,0.08720747,0.04245891,0.06085816,-0.22834115,0.16655421,0.030869523,0.0,0.0,0.0,-0.020309305,0.14866473,-0.12746711,-0.016207132,0.09663594,0.5848923,-0.32723102,-0.12502792,-0.6213261,-0.3188508,-0.0143928435,-0.21575926,-0.28054243,-0.03277606,0.064040855,-0.013719045,-0.013996259,-0.032553624,0.017944755,0.05841947,-0.0016605288,-0.031848542,-0.018588945,0.021946356,0.0888515,3.0,-0.12944198,-3.0,3.0,3.0,-3.0,-3.0,-3.0,-3.0,-3.0,-1.010043,-3.0,3.0,-0.8466016,-3.0,3.0,3.0,-3.0,-3.0,-3.0,-3.0,-3.0,-0.15133016,-3.0
2025-06-06 16:16:25.792,-0.021133352,0.02726992,-0.006055512,-0.20325868,0.16822334,-0.03127383,0.0,0.0,0.0,-0.020359207,0.14062993,-0.12520811,-0.014098604,0.09639996,0.56924176,-0.31622726,-0.12799688,-0.63557863,-0.31783423,-0.016635979,-0.20022367,-0.2848426,0.058760673,0.056089785,-0.01275374,-0.061686575,0.067109324,-0.0124217365,-0.029062327,-0.04965162,-0.0342475,0.049169786,-0.030483693,0.05990304,3.0,-0.8466016,-3.0,3.0,3.0,-3.0,-3.0,-3.0,-3.0,-3.0,-0.15133016,-3.0,3.0,-0.4522612,-3.0,3.0,3.0,-3.0,-3.0,-3.0,-3.0,-3.0,-0.75870603,-3.0
2025-06-06 16:16:25.812,0.039986767,-0.0322567,0.031456638,-0.21616152,0.12521555,-0.044062458,0.0,0.0,0.0,-0.020073382,0.14297849,-0.108940355,-0.019827241,0.10513775,0.56774044,-0.32751435,-0.12082689,-0.6310541,-0.3188996,-0.009339507,-0.20224513,-0.28180778,0.05076224,0.022218984,0.003359677,0.0051788334,-0.008899823,-0.06338616,0.0012353315,-0.051019285,-0.02894553,0.018407777,-0.062928624,0.0044525084,3.0,-0.4522612,-3.0,3.0,3.0,-3.0,-3.0,-3.0,-3.0,-3.0,-0.75870603,-3.0,3.0,-0.6004756,-3.0,3.0,3.0,-3.0,-3.0,-3.0,-3.0,-3.0,-0.22920673,-3.0
2025-06-06 16:16:25.833,-0.008329801,0.0015490442,-0.034649063,-0.17797919,0.18737678,-0.041901223,0.0,0.0,0.0,-0.019661259,0.1345233,-0.1088333,-0.004192229,0.10041129,0.5726504,-0.32653248,-0.13348152,-0.62598294,-0.31329346,-0.008267923,-0.2037937,-0.27098593,-0.030377464,0.011829607,-0.04918612,-0.01728742,-0.035992984,-0.02300117,0.0013925211,-0.00081606134,-0.052871585,-0.026566468,0.04854624,0.013894842,3.0,-0.6004756,-3.0,3.0,3.0,-3.0,-3.0,-3.0,-3.0,-3.0,-0.22920673,-3.0,3.0,-0.2603584,-3.0,3.0,3.0,-3.0,-3.0,-3.0,-3.0,-3.0,-0.92423075,-3.0
2025-06-06 16:16:25.853,0.02316003,0.040203184,0.009513949,-0.16206662,0.11403199,0.031258926,0.0,0.0,0.0,-0.019008236,0.122049674,-0.0998867,-0.017118106,0.09867585,0.56882447,-0.32393664,-0.11959098,-0.61517954,-0.32311973,-0.011610267,-0.20205523,-0.26388815,-0.058257345,0.04193916,0.021138035,0.0022729544,-0.02759142,-0.0015476663,0.0662158,-0.037830774,0.0022592803,-0.037583653,-0.071954206,0.082374796,3.0,-0.2603584,-3.0,3.0,3.0,-3.0,-3.0,-3.0,-3.0,-3.0,-0.92423075,-3.0,3.0,-0.33058253,-3.0,3.0,3.0,-3.0,-3.0,-3.0,-3.0,-3.0,-0.4830734,-3.0
2025-06-06 16:16:25.876,0.019324144,0.047561396,-0.029736128,-0.15512486,0.19045864,-0.0049394034,0.0,0.0,0.0,-0.018580731,0.13006757,-0.10973763,-0.01619237,0.10167173,0.5758999,-0.32939395,-0.11796186,-0.62232274,-0.31600952,-0.0044206423,-0.1993374,-0.25682178,-0.03563527,0.024776457,-0.015735548,0.0014381635,0.06401701,-0.0046275347,0.031247446,-0.030638358,0.07604401,-0.029911954,0.07367784,0.029765103,3.0,-0.33058253,-3.0,3.0,3.0,-3.0,-3.0,-3.0,-3.0,-3.0,-0.4830734,-3.0,3.0,-0.28230646,-3.0,3.0,3.0,-3.0,-3.0,-3.0,-3.0,-3.0,-0.81201047,-3.0
2025-06-06 16:16:25.894,0.060514316,0.055701956,-0.041716173,-0.18487431,0.13368042,0.02068421,0.0,0.0,0.0,-0.01824867,0.12250858,-0.09622165,-0.01731045,0.09826079,0.581874,-0.33297515,-0.116561085,-0.6232867,-0.3105678,-0.008937656,-0.20530066,-0.263922,0.012255776,0.01701972,-0.06299639,-0.07056202,-0.015899213,0.013625195,-0.06983461,0.025149599,0.07235651,0.07121662,-0.029881462,-0.012552943,3.0,-0.28230646,-3.0,3.0,3.0,-3.0,-3.0,-3.0,-3.0,-3.0,-0.81201047,-3.0,3.0,-0.112924516,-3.0,3.0,3.0,-3.0,-3.0,-3.0,-3.0,-3.0,-0.7195322,-3.0
2025-06-06 16:16:25.913,0.026625818,0.03785015,-0.031201612,-0.20041145,0.19264422,0.004908418,0.0,0.0,0.0,-0.018058557,0.13613778,-0.10165913,-0.023018993,0.10617837,0.57848394,-0.3201662,-0.11952642,-0.6237113,-0.31386316,-0.013691059,-0.20295273,-0.2518224,-0.059321508,-0.0063319164,0.025272535,-0.050807476,0.03301116,-0.037134115,0.047074247,-0.035433378,0.0071168635,0.057775922,-0.04096381,0.07821634,3.0,-0.112924516,-3.0,3.0,3.0,-3.0,-3.0,-3.0,-3.0,-3.0,-0.7195322,-3.0,3.0,-0.11714357,-3.0,3.0,3.0,-3.0,-3.0,-3.0,-3.0,-3.0,-0.79895717,-3.0
2025-06-06 16:16:25.933,0.028957285,0.066088915,0.033302084,-0.19162612,0.12649497,0.026911886,0.0,0.0,0.0,-0.018014885,0.123333886,-0.08213245,-0.040395286,0.104617335,0.57747793,-0.32273394,-0.114446506,-0.6124041,-0.3116924,-0.018493777,-0.20004319,-0.24243757,-0.047830768,0.04311638,0.0020480233,0.046872932,0.045600034,0.026327593,-0.06739204,0.045300692,0.038055956,-0.014936115,0.03780486,-0.0056218076,3.0,-0.11714357,-3.0,3.0,3.0,-3.0,-3.0,-3.0,-3.0,-3.0,-0.79895717,-3.0,3.0,-0.47595623,-3.0,3.0,3.0,-3.0,-3.0,-3.0,-3.0,-3.0,-0.3396446,-3.0
2025-06-06 16:16:25.999,0.004607636,0.010813682,0.03482966,-0.17221245,0.17650534,-0.04715554,0.0,0.0,0.0,-0.018077342,0.13428557,-0.08296191,-0.03203145,0.103993356,0.57347965,-0.32418436,-0.13132046,-0.618814,-0.30008465,-0.014956286,-0.19284572,-0.24349827,-0.0752176,0.023369133,-0.07133501,-0.020493258,-0.012017338,0.05774965,0.059792362,0.05394333,-0.06787436,-0.039635696,0.03937921,0.056060035,3.0,-0.47595623,-3.0,3.0,3.0,-3.0,-3.0,-3.0,-3.0,-3.0,-0.3396446,-3.0,3.0,-0.5020092,-3.0,3.0,3.0,-3.0,-3.0,-3.0,-3.0,-3.0,-0.6448423,-3.0
2025-06-06 16:16:26.016,-0.03880572,0.06074862,0.017061405,-0.21663405,0.18289039,0.027859548,0.0,0.0,0.0,-0.017801812,0.11474542,-0.06781979,-0.03234255,0.100177824,0.56846946,-0.3175381,-0.12695953,-0.6187047,-0.2989342,-0.008763374,-0.19334133,-0.24114326,-0.080270894,0.06916039,0.0030603432,0.032875642,-0.022165017,-0.017002672,-0.03173426,-0.029851364,-0.014951538,-0.0059498204,-0.02765517,0.03333019,3.0,-0.5020092,-3.0,3.0,3.0,-3.0,-3.0,-3.0,-3.0,-3.0,-0.6448423,-3.0,3.0,-0.30156046,-3.0,3.0,3.0,-3.0,-3.0,-3.0,-3.0,-3.0,-0.49831694,-3.0
2025-06-06 16:16:26.036,0.0038337077,0.031238627,-0.007260497,-0.17283338,0.19380008,-0.007769117,0.0,0.0,0.0,-0.017296234,0.12340873,-0.07004371,-0.03876802,0.09799583,0.5678157,-0.32615626,-0.12522493,-0.5986229,-0.29688403,-0.01588244,-0.18625848,-0.24642125,-0.062347602,0.03331868,-0.054451734,-0.003101805,-0.010679679,0.05943389,0.058314666,-0.042813186,0.07528071,0.029739488,-0.037894335,-0.010748956,3.0,-0.30156046,-3.0,3.0,3.0,-3.0,-3.0,-3.0,-3.0,-3.0,-0.49831694,-3.0,3.0,-0.1333524,-3.0,3.0,3.0,-3.0,-3.0,-3.0,-3.0,-3.0,-0.79859203,-3.0
2025-06-06 16:16:26.061,0.00060831313,0.036241174,-0.04031809,-0.16838291,0.13156053,-0.014668927,0.0,0.0,0.0,-0.0166607,0.116897374,-0.06044271,-0.03998921,0.091301106,0.56538355,-0.3346896,-0.12360485,-0.6056737,-0.3020584,-0.010814704,-0.18482748,-0.23040015,0.038713407,-0.058109436,0.047172576,0.062388334,-0.060284864,-0.06106266,0.03038895,0.024962865,0.07287577,-0.027287211,-0.06368933,0.08349435,3.0,-0.1333524,-3.0,3.0,3.0,-3.0,-3.0,-3.0,-3.0,-3.0,-0.79859203,-3.0,3.0,0.16133344,-3.0,3.0,3.0,-3.0,-3.0,-3.0,-3.0,-3.0,-0.87264484,-3.0
2025-06-06 16:16:26.077,0.0033656228,0.050572105,-0.028254138,-0.16175702,0.15386282,0.00981283,0.0,0.0,0.0,-0.016181033,0.11022409,-0.059048813,-0.04304856,0.10497763,0.5812909,-0.32417646,-0.12861073,-0.6085968,-0.30151415,-0.007126389,-0.1925113,-0.21919352,-0.03711111,0.068348914,-0.083036594,0.07219939,-0.04060282,0.031766925,0.025607618,-0.009353442,0.028346723,0.04309967,0.04781715,-0.033991568,3.0,0.16133344,-3.0,3.0,3.0,-3.0,-3.0,-3.0,-3.0,-3.0,-0.87264484,-3.0,3.0,0.018486083,-3.0,3.0,3.0,-3.0,-3.0,-3.0,-3.0,-3.0,-0.7159788,-3.0
2025-06-06 16:16:26.097,-0.020008095,-0.009705419,0.052954115,-0.15896529,0.08512725,-0.009870624,0.0,0.0,0.0,-0.016046148,0.12347606,-0.060607143,-0.03414109,0.10364243,0.57272774,-0.32823682,-0.12968731,-0.6078376,-0.30287722,-0.017622268,-0.1977386,-0.21930017,-0.06469134,-0.010364707,0.026942799,0.046029344,-0.01113733,0.06045758,-0.04519782,0.046630986,0.019088218,0.0675818,-0.04444497,-0.027436815,3.0,0.018486083,-3.0,3.0,3.0,-3.0,-3.0,-3.0,-3.0,-3.0,-0.7159788,-3.0,3.0,-0.29491958,-3.0,3.0,3.0,-3.0,-3.0,-3.0,-3.0,-3.0,-0.4180519,-3.0
2025-06-06 16:16:26.117,-0.00043290842,-0.01676912,-0.04633694,-0.14790194,0.12864308,0.011978025,0.0,0.0,0.0,-0.016049413,0.11743991,-0.0550725,-0.05172697,0.10894172,0.5655968,-0.32242954,-0.11421713,-0.5908671,-0.30194032,-0.019690817,-0.1867354,-0.21979196,-0.012644118,-0.048042573,0.030484354,-0.02787557,-0.045240097,-0.07363449,0.023556734,0.024564773,-0.027225737,0.06196955,0.02122329,0.06709803,3.0,-0.29491958,-3.0,3.0,3.0,-3.0,-3.0,-3.0,-3.0,-3.0,-0.4180519,-3.0,3.0,0.104213,-3.0,3.0,3.0,-3.0,-3.0,-3.0,-3.0,-3.0,-1.0048947,-3.0
2025-06-06 16:16:26.137,0.043003116,0.003763757,-0.030717626,-0.19521189,0.089835696,-0.03501786,0.0,0.0,0.0,-0.015774794,0.10961913,-0.05107367,-0.05162472,0.0972777,0.57313025,-0.32711902,-0.11575137,-0.5898653,-0.29459545,-0.0135091115,-0.18675423,-0.21667401,-0.02846747,-0.06157623,0.030476049,0.05491513,0.009686116,-0.022138605,-0.01184262,0.047198124,0.07101296,-0.031288754,-0.014172623,-0.006449047,3.0,0.104213,-3.0,3.0,3.0,-3.0,-3.0,-3.0,-3.0,-3.0,-1.0048947,-3.0,3.0,0.039117098,-3.0,3.0,3.0,-3.0,-3.0,-3.0,-3.0,-3.0,-0.64475197,-3.0
2025-06-06 16:16:26.161,0.052818984,-0.005285539,-0.041588455,-0.19249898,0.12139362,0.035893366,0.0,0.0,0.0,-0.015655419,0.110827394,-0.040186208,-0.04964826,0.100400686,0.5674069,-0.32747558,-0.12534231,-0.59361506,-0.29152304,-0.007339564,-0.18699841,-0.2021893,-0.051924303,-0.0030602776,0.05984547,0.048799295,-0.018617712,0.043639082,-0.028361518,0.017823795,0.0192124,0.06836584,-0.016847467,-0.006759754,3.0,0.039117098,-3.0,3.0,3.0,-3.0,-3.0,-3.0,-3.0,-3.0,-0.64475197,-3.0,3.0,0.22524023,-3.0,3.0,3.0,-3.0,-3.0,-3.0,-3.0,-3.0,-0.88798445,-3.0
2025-06-06 16:16:26.177,0.03381341,0.028314795,0.013668783,-0.18865897,0.08843116,-0.021976843,0.0,0.0,0.0,-0.015595401,0.118786775,-0.027931375,-0.059338767,0.11035202,0.57028127,-0.33230102,-0.12579733,-0.5927351,-0.29919344,-0.011168102,-0.1916228,-0.19365653,0.055762045,0.03939313,-0.06518562,-0.01496708,-0.056369774,0.035557654,0.01648838,-0.06750747,-0.01569723,0.0056197196,0.022877075,0.03462853,3.0,0.22524023,-3.0,3.0,3.0,-3.0,-3.0,-3.0,-3.0,-3.0,-0.88798445,-3.0,3.0,-0.1497061,-3.0,3.0,3.0,-3.0,-3.0,-3.0,-3.0,-3.0,-0.47355527,-3.0
2025-06-06 16:16:26.197,-0.045218144,-0.0006642198,-0.035741925,-0.16948825,0.0807618,-0.009970058,0.0,0.0,0.0,-0.015628774,0.10512828,-0.028372621,-0.059853617,0.10070871,0.5813621,-0.32277146,-0.12328836,-0.59178394,-0.29693958,-0.012665968,-0.18397479,-0.19850421,0.040215842,0.031110676,0.026827259,-0.07339767,0.032459885,-0.06526267,0.028709227,0.05020034,0.041000664,0.025856262,-0.03579589,-0.00058717845,3.0,-0.1497061,-3.0,3.0,3.0,-3.0,-3.0,-3.0,-3.0,-3.0,-0.47355527,-3.0,3.0,0.043872774,-3.0,3.0,3.0,-3.0,-3.0,-3.0,-3.0,-3.0,-0.7978181,-3.0
2025-06-06 16:16:26.217,0.004919908,0.04322832,0.029570127,-0.12658982,0.09080502,-0.03256349,0.0,0.0,0.0,-0.015443431,0.117033936,-0.02757484,-0.049742244,0.092823125,0.5830542,-0.3305322,-0.13158068,-0.594034,-0.29077178,-0.01777226,-0.18600217,-0.19821562,0.06540195,-0.03176939,0.01071057,-0.023577003,-0.02855582,0.053941414,-0.053696577,-0.017625859,0.06283454,-0.072022706,-0.025375314,0.0441941,3.0,0.043872774,-3.0,3.0,3.0,-3.0,-3.0,-3.0,-3.0,-3.0,-0.7978181,-3.0,3.0,-0.17549068,-3.0,3.0,3.0,-3.0,-3.0,-3.0,-3.0,-3.0,-0.476309,-3.0
2025-06-06 16:16:26.237,0.022221796,-0.005777461,0.004053308,-0.20505987,0.17124039,-0.032378085,0.0,0.0,0.0,-0.01517765,0.0992748,-0.026141029,-0.054024324,0.105678976,0.5795072,-0.3176704,-0.12522686,-0.58462524,-0.2982965,-0.014333544,-0.17658724,-0.2038333,-0.06280428,0.010588511,0.03519246,0.020376047,0.004856496,0.052020207,0.064898595,0.0387822,-0.05919065,-0.058091402,-0.05153792,0.07243734,3.0,-0.17549068,-3.0,3.0,3.0,-3.0,-3.0,-3.0,-3.0,-3.0,-0.476309,-3.0,3.0,-0.09875536,-3.0,3.0,3.0,-3.0,-3.0,-3.0,-3.0,-3.0,-0.768048,-3.0
2025-06-06 16:16:26.260,-0.036772598,-0.029951198,0.0037026107,-0.2180056,0.12742488,0.0043645087,0.0,0.0,0.0,-0.014723546,0.11170118,-0.031786397,-0.04415787,0.09509296,0.56759864,-0.32257023,-0.12242385,-0.5801812,-0.28735605,-0.004648044,-0.18747357,-0.19542742,0.025145292,0.044726968,0.041339885,-0.012857691,-0.052209165,0.067243844,0.06635453,0.050929748,-0.024419725,0.06939592,0.03204131,0.030221432,3.0,-0.09875536,-3.0,3.0,3.0,-3.0,-3.0,-3.0,-3.0,-3.0,-0.768048,-3.0,3.0,-0.037641943,-3.0,3.0,3.0,-3.0,-3.0,-3.0,-3.0,-3.0,-0.67158693,-3.0
2025-06-06 16:16:26.277,0.021416081,0.02290061,0.022555979,-0.15423326,0.099612415,-0.020401418,0.0,0.0,0.0,-0.014246598,0.10780494,-0.01625361,-0.048479583,0.1054743,0.57046795,-0.31651413,-0.12155637,-0.5810227,-0.2825831,-0.016337965,-0.18397385,-0.19270492,0.017301891,-0.06271859,0.063973024,0.032247826,0.038564876,-0.048519433,0.07532553,0.019923499,-0.040395245,0.02167242,0.032994345,-0.046386216,3.0,-0.037641943,-3.0,3.0,3.0,-3.0,-3.0,-3.0,-3.0,-3.0,-0.67158693,-3.0,3.0,-0.21425706,-3.0,3.0,3.0,-3.0,-3.0,-3.0,-3.0,-3.0,-0.41827887,-3.0
2025-06-06 16:16:26.297,-0.054286294,0.00025462103,-0.04358463,-0.1585379,0.1668424,0.029768948,0.0,0.0,0.0,-0.013829741,0.10401107,-0.03195054,-0.044317875,0.10297074,0.58314925,-0.32704657,-0.12914413,-0.58586466,-0.28303763,-0.02134557,-0.17467313,-0.18535398,-0.029790964,-0.055395592,0.06178521,-0.013157844,-0.050792657,0.07031918,-0.01679341,0.0016572162,-0.03457952,-4.8958147e-05,0.078518644,0.044021793,3.0,-0.21425706,-3.0,3.0,3.0,-3.0,-3.0,-3.0,-3.0,-3.0,-0.41827887,-3.0,3.0,0.20796096,-3.0,3.0,3.0,-3.0,-3.0,-3.0,-3.0,-3.0,-1.0352527,-3.0
2025-06-06 16:16:26.317,0.0044848984,0.05006438,-0.052715722,-0.21840589,0.12021935,0.008572938,0.0,0.0,0.0,-0.013235892,0.09723837,-0.032102186,-0.060814843,0.10780979,0.57186216,-0.33335546,-0.12667114,-0.5859707,-0.28687716,-0.0032279463,-0.17268819,-0.19749236,0.052498825,0.00202402,-0.069086224,-0.01685136,0.04390795,0.03996426,-0.00083112787,-0.011049889,-0.02612955,0.053829607,0.030682284,0.08633475,3.0,0.20796096,-3.0,3.0,3.0,-3.0,-3.0,-3.0,-3.0,-3.0,-1.0352527,-3.0,3.0,0.21680039,-3.0,3.0,3.0,-3.0,-3.0,-3.0,-3.0,-3.0,-0.7695953,-3.0
2025-06-06 16:16:26.337,-0.010461122,-0.0031303875,-0.02541597,-0.15454063,0.15949638,-0.0076806853,0.0,0.0,0.0,-0.0129861785,0.10775267,-0.02733763,-0.04550015,0.10200295,0.5795591,-0.32047883,-0.11028941,-0.5993141,-0.28954038,-0.008577731,-0.18259701,-0.18805699,0.023226451,0.07885602,0.008326549,-0.054833516,-0.01394619,0.07471775,0.054883488,0.02839204,-0.057222936,-0.005453131,-0.0021806078,-0.0652324,3.0,0.21680039,-3.0,3.0,3.0,-3.0,-3.0,-3.0,-3.0,-3.0,-0.7695953,-3.0,3.0,-0.005458952,-3.0,3.0,3.0,-3.0,-3.0,-3.0,-3.0,-3.0,-0.6382534,-3.0
2025-06-06 16:16:26.361,0.018504206,-0.03791267,0.005557476,-0.16062768,0.0743516,0.01850392,0.0,0.0,0.0,-0.013058163,0.09904272,-0.018811282,-0.057192728,0.10437292,0.5735937,-0.3253796,-0.12280098,-0.59083545,-0.28053334,-0.012957186,-0.18982998,-0.17931165,0.0015107247,0.061653793,0.040613323,-0.010906119,0.0062453714,-0.010266761,-0.022461277,0.031672895,-0.028444514,-0.032223288,-0.010610966,0.06084239,3.0,-0.005458952,-3.0,3.0,3.0,-3.0,-3.0,-3.0,-3.0,-3.0,-0.6382534,-3.0,3.0,-0.06496179,-3.0,3.0,3.0,-3.0,-3.0,-3.0,-3.0,-3.0,-0.63208693,-3.0
2025-06-06 16:16:26.378,0.004420653,-0.016173631,-0.0029704005,-0.16592377,0.14737232,0.0024231786,0.0,0.0,0.0,-0.013104547,0.101690866,-0.00959714,-0.06462723,0.09468668,0.57755333,-0.33102223,-0.11367432,-0.58226323,-0.28025112,-0.0109657915,-0.16941088,-0.18764067,-0.06175427,-0.074594066,-0.008897004,-0.04353655,-0.04974739,0.060851384,0.04656378,0.004246269,-0.057950553,-0.0055886684,-0.031916674,0.06994032,3.0,-0.06496179,-3.0,3.0,3.0,-3.0,-3.0,-3.0,-3.0,-3.0,-0.63208693,-3.0,3.0,0.0075945845,-3.0,3.0,3.0,-3.0,-3.0,-3.0,-3.0,-3.0,-0.69018096,-3.0
2025-06-06 16:16:26.398,-0.04052555,0.030375239,0.0040726066,-0.19177143,0.13849515,-0.014784308,0.0,0.0,0.0,-0.013033909,0.10509353,-0.024452876,-0.05840092,0.1042845,0.5677344,-0.3312193,-0.11578308,-0.5914437,-0.28315577,-0.0034440327,-0.18385439,-0.18663414,-0.0577399,0.008770903,-0.0661386,0.05316374,0.05273666,0.0015322817,-0.020098569,-0.041189715,0.06419979,-0.041475005,0.041306242,-0.032906685,3.0,0.0075945845,-3.0,3.0,3.0,-3.0,-3.0,-3.0,-3.0,-3.0,-0.69018096,-3.0,3.0,-0.14352643,-3.0,3.0,3.0,-3.0,-3.0,-3.0,-3.0,-3.0,-0.5068554,-3.0
2025-06-06 16:16:26.419,-0.052070126,-0.01722955,-0.039218087,-0.18807049,0.11188117,0.014192534,0.0,0.0,0.0,-0.012927326,0.10383223,-0.021083979,-0.05409701,0.09188951,0.57030576,-0.316236,-0.12831393,-0.5932943,-0.28852585,-0.01522217,-0.17672393,-0.1848334,0.002987736,0.04720261,-0.04879818,-0.038334448,0.07532204,0.060351416,-0.011942951,-0.013201,-0.00031477257,-0.044558067,0.08097061,0.017681357,3.0,-0.14352643,-3.0,3.0,3.0,-3.0,-3.0,-3.0,-3.0,-3.0,-0.5068554,-3.0,3.0,0.05158508,-3.0,3.0,3.0,-3.0,-3.0,-3.0,-3.0,-3.0,-0.83514756,-3.0
2025-06-06 16:16:26.438,0.017509604,0.021752682,-0.023143554,-0.1574447,0.16306217,-0.048894342,0.0,0.0,0.0,-0.012670025,0.09820485,-0.020792492,-0.060697872,0.09517985,0.5756582,-0.32454678,-0.12316748,-0.5796448,-0.2803877,-0.020069698,-0.18455417,-0.17890434,0.07013364,0.056554627,-0.06139804,-0.0029780203,0.044749696,-0.023055224,-0.011125021,0.065330304,0.0010760635,-0.02637745,-0.07722842,-0.05416253,3.0,0.05158508,-3.0,3.0,3.0,-3.0,-3.0,-3.0,-3.0,-3.0,-0.83514756,-3.0,3.0,0.08398056,-3.0,3.0,3.0,-3.0,-3.0,-3.0,-3.0,-3.0,-0.65426224,-3.0
2025-06-06 16:16:26.459,-0.047291715,0.037000902,-0.03345001,-0.16157404,0.12671928,0.0047078882,0.0,0.0,0.0,-0.012524385,0.0946083,-0.023221148,-0.05640745,0.09445453,0.5740648,-0.32908553,-0.11540565,-0.5775712,-0.28695086,-0.015198472,-0.18029588,-0.18472816,-0.07206735,0.02789294,-0.0510915,-0.062414717,-0.01457225,-0.0019848696,0.05430938,0.053299382,0.0062871687,0.016517365,0.062295854,0.06548356,3.0,0.08398056,-3.0,3.0,3.0,-3.0,-3.0,-3.0,-3.0,-3.0,-0.65426224,-3.0,3.0,0.12314242,-3.0,3.0,3.0,-3.0,-3.0,-3.0,-3.0,-3.0,-0.9081989,-3.0
2025-06-06 16:16:26.478,0.07132328,0.054896805,0.05500842,-0.15720746,0.12842086,-0.028245812,0.0,0.0,0.0,-0.012481216,0.09188872,-0.017927758,-0.05832491,0.101739615,0.5731834,-0.32983756,-0.12359698,-0.5831663,-0.28370932,-0.0022769892,-0.18705313,-0.19158477,0.07661027,0.059519723,-0.045608915,0.053378783,-0.044803564,-0.0037307497,0.062212855,-0.0060168477,0.0045317016,-0.02065631,0.049711313,-0.054485664,3.0,0.12314242,-3.0,3.0,3.0,-3.0,-3.0,-3.0,-3.0,-3.0,-0.9081989,-3.0,3.0,-0.4874868,-3.0,3.0,3.0,-3.0,-3.0,-3.0,-3.0,-3.0,-0.10022704,-3.0
2025-06-06 16:16:26.498,-0.10024231,0.0060260883,-0.0012563746,-0.1334134,0.10458599,0.027123028,0.0,0.0,0.0,-0.012647967,0.09830638,-0.030668618,-0.04947898,0.09291894,0.57331944,-0.31633005,-0.11070819,-0.5921221,-0.2874096,-0.011123247,-0.18194768,-0.19441892,0.059646793,-0.06709947,-0.044896662,-0.015664002,-0.039863717,-0.020857245,-0.072725214,-0.043607306,0.055195134,0.018460194,0.05304472,-0.019361475,3.0,-0.4874868,-3.0,3.0,3.0,-3.0,-3.0,-3.0,-3.0,-3.0,-0.10022704,-3.0,3.0,-0.23322052,-3.0,3.0,3.0,-3.0,-3.0,-3.0,-3.0,-3.0,-0.66337985,-3.0
2025-06-06 16:16:26.518,0.026229098,-0.011509625,-0.030616648,-0.13417996,0.10358796,-0.00308911,0.0,0.0,0.0,-0.01233719,0.09771209,-0.035725933,-0.04324489,0.092243195,0.57598364,-0.3267536,-0.1171909,-0.5871451,-0.28928965,-0.013715286,-0.16720083,-0.19556792,-0.034421623,0.009199619,-0.033687666,0.061247934,-0.04586895,-0.002405781,-0.039278485,0.0011108957,0.0021859994,-0.07108574,-0.046670124,0.054788083,3.0,-0.23322052,-3.0,3.0,3.0,-3.0,-3.0,-3.0,-3.0,-3.0,-0.66337985,-3.0,3.0,0.1405037,-3.0,3.0,3.0,-3.0,-3.0,-3.0,-3.0,-3.0,-0.8291014,-3.0
2025-06-06 16:16:26.538,0.039218377,0.045363367,0.02643025,-0.17046069,0.09749222,0.0043979352,0.0,0.0,0.0,-0.011833597,0.0869068,-0.02359929,-0.050200492,0.103960454,0.5792632,-0.3183631,-0.12606357,-0.59435123,-0.29944006,-0.012460384,-0.16503553,-0.19072491,-0.012794467,0.06356925,-0.06363319,-0.041108347,0.047224138,-0.03224724,0.059580866,0.056572832,0.010827417,-0.033671476,-0.009830612,-0.06516685,3.0,0.1405037,-3.0,3.0,3.0,-3.0,-3.0,-3.0,-3.0,-3.0,-0.8291014,-3.0,3.0,-0.39913803,-3.0,3.0,3.0,-3.0,-3.0,-3.0,-3.0,-3.0,-0.20596306,-3.0
2025-06-06 16:16:26.560,-0.086697206,0.016041914,0.018855842,-0.20072143,0.15522802,0.019012503,0.0,0.0,0.0,-0.011676075,0.08860004,-0.033922553,-0.035462543,0.10209749,0.573785,-0.31931666,-0.121202186,-0.59049386,-0.28173834,-0.0046581468,-0.17668928,-0.18859024,-0.03943595,-0.001339609,0.078504086,0.00977597,-0.026620295,0.033546288,0.05116158,0.0011687175,-0.018050948,0.070514314,-0.021657385,0.03143953,3.0,-0.39913803,-3.0,3.0,3.0,-3.0,-3.0,-3.0,-3.0,-3.0,-0.20596306,-3.0,3.0,-0.18539184,-3.0,3.0,3.0,-3.0,-3.0,-3.0,-3.0,-3.0,-0.70787257,-3.0
2025-06-06 16:16:26.578,0.01835191,-0.018057754,0.025194671,-0.11882047,0.094211675,-0.023977172,0.0,0.0,0.0,-0.011329117,0.08096384,-0.037866343,-0.03661697,0.092314124,0.5791943,-0.332051,-0.11541149,-0.58051634,-0.28383517,-0.011171584,-0.16509095,-0.20481384,-0.07609855,0.06223144,0.06599586,-0.045352116,0.015631597,-0.00052447047,0.02388436,-0.075085215,0.05286437,0.048044592,0.02690646,-0.043739285,3.0,-0.18539184,-3.0,3.0,3.0,-3.0,-3.0,-3.0,-3.0,-3.0,-0.70787257,-3.0,3.0,-0.32750458,-3.0,3.0,3.0,-3.0,-3.0,-3.0,-3.0,-3.0,-0.38039035,-3.0
2025-06-06 16:16:26.598,-0.055808537,-0.037514668,0.021257797,-0.1823086,0.15540487,0.04748526,0.0,0.0,0.0,-0.011023784,0.08953979,-0.038689807,-0.030547772,0.09910452,0.5778306,-0.3183817,-0.10973611,-0.6015878,-0.29681024,-0.012747753,-0.16552722,-0.19521928,-0.030346507,-0.07661643,-0.06444839,0.03409706,0.032585055,-0.02525019,0.049302828,0.027065156,0.059674837,-0.030920302,0.03175674,0.06110936,3.0,-0.32750458,-3.0,3.0,3.0,-3.0,-3.0,-3.0,-3.0,-3.0,-0.38039035,-3.0,3.0,-0.37382644,-3.0,3.0,3.0,-3.0,-3.0,-3.0,-3.0,-3.0,-0.5193395,-3.0
2025-06-06 16:16:26.618,-0.031876355,-0.067766406,0.0015297496,-0.15254596,0.14626554,-0.044070177,0.0,0.0,0.0,-0.010723076,0.07950134,-0.04262288,-0.04034272,0.10288526,0.5657236,-0.32978323,-0.10551246,-0.5916573,-0.29395008,-0.005866515,-0.16057563,-0.2051052,0.023734368,-0.02729345,0.06894392,0.023167005,0.036711883,-0.027399022,0.016216226,-0.033343438,0.0034783257,-0.06461274,-0.060033176,-0.017082214,3.0,-0.37382644,-3.0,3.0,3.0,-3.0,-3.0,-3.0,-3.0,-3.0,-0.5193395,-3.0,3.0,-0.25526178,-3.0,3.0,3.0,-3.0,-3.0,-3.0,-3.0,-3.0,-0.4644696,-3.0
2025-06-06 16:16:26.638,-0.026069388,-0.042958,-0.04830711,-0.17378418,0.111332916,0.004454871,0.0,0.0,0.0,-0.010426456,0.08270383,-0.055515718,-0.035000034,0.09989232,0.5717625,-0.32378972,-0.10979981,-0.59196216,-0.3035729,-0.007736554,-0.17402512,-0.20300037,0.06261106,0.030466462,0.003911014,-0.058589738,-0.029216088,0.052524917,0.07483237,-0.07369887,0.018700078,-0.047114715,0.058469396,-0.07970425,3.0,-0.25526178,-3.0,3.0,3.0,-3.0,-3.0,-3.0,-3.0,-3.0,-0.4644696,-3.0,3.0,-0.11762941,-3.0,3.0,3.0,-3.0,-3.0,-3.0,-3.0,-3.0,-0.6542141,-3.0
2025-06-06 16:16:26.660,-0.0019420853,0.0065389653,-0.013284763,-0.1845486,0.16212493,-0.049790278,0.0,0.0,0.0,-0.0101993205,0.09514696,-0.051795855,-0.034321308,0.09424148,0.58034605,-0.3223805,-0.09906181,-0.597956,-0.30027837,-0.010385881,-0.17461821,-0.21116363,-0.04677758,-0.011577147,0.034102544,0.053697016,-0.020705214,-0.0713798,0.07148741,-0.026247844,-0.031067943,-0.0105977645,-0.041130275,0.032669906,3.0,-0.11762941,-3.0,3.0,3.0,-3.0,-3.0,-3.0,-3.0,-3.0,-0.6542141,-3.0,3.0,-0.12603992,-3.0,3.0,3.0,-3.0,-3.0,-3.0,-3.0,-3.0,-0.64236945,-3.0
2025-06-06 16:16:26.681,-0.026843015,0.027394153,-0.02612964,-0.17548373,0.10127959,-0.033669446,0.0,0.0,0.0,-0.010221059,0.09220992,-0.049488965,-0.035488058,0.1103048,0.5699556,-0.31966203,-0.10442993,-0.5919041,-0.29257983,-0.008299312,-0.17470989,-0.20467164,0.05210997,-0.044945333,-0.040065035,0.024597913,0.009789467,0.055157475,-0.020949788,0.0047199046,0.06601265,0.031109473,-0.07607446,-0.054092005,3.0,-0.12603992,-3.0,3.0,3.0,-3.0,-3.0,-3.0,-3.0,-3.0,-0.64236945,-3.0,3.0,0.019558191,-3.0,3.0,3.0,-3.0,-3.0,-3.0,-3.0,-3.0,-0.67787236,-3.0
2025-06-06 16:16:26.702,0.06425638,0.053057738,0.036307793,-0.14157698,0.1713215,-0.0008448372,0.0,0.0,0.0,-0.010500901,0.08287011,-0.053965934,-0.04407093,0.103410535,0.57039434,-0.32383868,-0.11429955,-0.59079015,-0.30762652,-0.018200723,-0.17163028,-0.21067947,-0.065425724,-0.03830475,-0.07073518,-0.010878822,0.06130754,0.048719972,0.043430798,0.07174818,-0.03597023,-0.0053115394,0.038833916,0.057591755,3.0,0.019558191,-3.0,3.0,3.0,-3.0,-3.0,-3.0,-3.0,-3.0,-0.67787236,-3.0,3.0,-0.4599635,-3.0,3.0,3.0,-3.0,-3.0,-3.0,-3.0,-3.0,-0.43957967,-3.0
2025-06-06 16:16:26.723,0.028083589,0.0035559807,-0.029774353,-0.20146897,0.13018414,0.0030768062,0.0,0.0,0.0,-0.010988548,0.09877397,-0.05619547,-0.0355459,0.091331236,0.58032495,-0.32096353,-0.104657814,-0.60537136,-0.30822206,-0.003625717,-0.18717302,-0.20322339,0.055064667,-0.05105597,0.0678513,0.06228822,-0.025994744,0.033675104,0.007088526,-0.01121756,-0.070007846,-0.015548946,-0.06397269,-0.023065733,3.0,-0.4599635,-3.0,3.0,3.0,-3.0,-3.0,-3.0,-3.0,-3.0,-0.43957967,-3.0,3.0,-0.049582362,-3.0,3.0,3.0,-3.0,-3.0,-3.0,-3.0,-3.0,-0.6690282,-3.0
2025-06-06 16:16:26.743,0.02420702,-0.03370406,0.0100990925,-0.15997282,0.18059401,0.0033704722,0.0,0.0,0.0,-0.011357405,0.0910827,-0.06251813,-0.039241616,0.10584936,0.57792354,-0.33350536,-0.121306896,-0.5977346,-0.2970654,-0.004863641,-0.17065027,-0.21384867,0.050033905,-0.0011993139,-0.07451713,-0.061692465,0.056488585,0.017277088,-0.0046055317,-0.031106329,0.04265397,0.04183701,0.061173256,0.03126366,3.0,-0.049582362,-3.0,3.0,3.0,-3.0,-3.0,-3.0,-3.0,-3.0,-0.6690282,-3.0,3.0,-0.3991874,-3.0,3.0,3.0,-3.0,-3.0,-3.0,-3.0,-3.0,-0.4508018,-3.0
2025-06-06 16:16:26.762,0.02431804,-0.039691154,-0.02507986,-0.20206925,0.16602702,-0.038298234,0.0,0.0,0.0,-0.011718062,0.09528689,-0.062698364,-0.03387883,0.10479391,0.57090974,-0.31816736,-0.10414546,-0.59913963,-0.2989332,-0.015170613,-0.18000703,-0.21190512,-0.07342991,0.010507665,-0.06029734,0.064035505,-0.035622098,0.067752495,0.03790639,0.06690726,0.020478275,0.03203568,-0.04084625,0.014978843,3.0,-0.3991874,-3.0,3.0,3.0,-3.0,-3.0,-3.0,-3.0,-3.0,-0.4508018,-3.0,3.0,-0.004215301,-3.0,3.0,3.0,-3.0,-3.0,-3.0,-3.0,-3.0,-0.9801807,-3.0
2025-06-06 16:16:26.782,0.0078732185,-0.0013918312,0.026630199,-0.21168858,0.15315813,-0.044455376,0.0,0.0,0.0,-0.011967138,0.10145526,-0.060918916,-0.034382395,0.09436072,0.5711575,-0.33077663,-0.11596372,-0.608305,-0.3051529,-0.0026570233,-0.18399924,-0.20826823,-0.03953331,0.06276845,-0.020759284,0.052673068,-0.0013322001,-0.004876662,-0.048227765,0.026123242,-0.0533876,-0.046843708,0.00079146074,-0.029679235,3.0,-0.004215301,-3.0,3.0,3.0,-3.0,-3.0,-3.0,-3.0,-3.0,-0.9801807,-3.0,3.0,-0.42182913,-3.0,3.0,3.0,-3.0,-3.0,-3.0,-3.0,-3.0,-0.22908013,-3.0
2025-06-06 16:16:26.802,-0.010674002,-0.059054133,0.0012108299,-0.1412874,0.17797796,0.040684015,0.0,0.0,0.0,-0.012468126,0.10386721,-0.06771589,-0.03499367,0.09773761,0.58438915,-0.3340084,-0.12323788,-0.60054815,-0.30283293,-0.014139449,-0.18434249,-0.21685688,-0.05164975,0.0673607,-0.007758776,-0.07408328,-0.028211007,0.029538011,-0.0394704,0.0328851,0.016805496,0.014173091,0.031625453,0.02014948,3.0,-0.42182913,-3.0,3.0,3.0,-3.0,-3.0,-3.0,-3.0,-3.0,-0.22908013,-3.0,3.0,-0.27419472,-3.0,3.0,3.0,-3.0,-3.0,-3.0,-3.0,-3.0,-0.8090498,-3.0
2025-06-06 16:16:26.825,-0.025203353,0.025516868,0.012804027,-0.19109717,0.12199829,0.047857754,0.0,0.0,0.0,-0.012711259,0.09154392,-0.06008969,-0.041254938,0.09437396,0.57494634,-0.3156391,-0.10996044,-0.6098874,-0.29923403,-0.009798692,-0.19201863,-0.21013536,0.05247399,0.038706303,-0.05698364,-0.06660543,0.00062414486,0.017136184,0.07124623,0.04585942,-0.0673081,-0.027465193,0.0061646067,0.008738911,3.0,-0.27419472,-3.0,3.0,3.0,-3.0,-3.0,-3.0,-3.0,-3.0,-0.8090498,-3.0,3.0,-0.4466088,-3.0,3.0,3.0,-3.0,-3.0,-3.0,-3.0,-3.0,-0.25196785,-3.0
2025-06-06 16:16:26.899,0.0043036407,0.0006687576,-0.019519364,-0.22113606,0.14342497,0.018899105,0.0,0.0,0.0,-0.012916311,0.099694364,-0.07246084,-0.022226064,0.098516636,0.5709106,-0.31602117,-0.11496148,-0.6058774,-0.31547427,-0.009386809,-0.18927243,-0.22447738,0.05829627,0.050406802,0.070539154,-0.022483401,-0.014001492,-0.03157754,0.02131839,0.05432849,-0.066987954,-0.025132377,0.0078012883,-0.06671234,3.0,-0.4466088,-3.0,3.0,3.0,-3.0,-3.0,-3.0,-3.0,-3.0,-0.25196785,-3.0,3.0,-0.31021297,-3.0,3.0,3.0,-3.0,-3.0,-3.0,-3.0,-3.0,-0.59829277,-3.0
2025-06-06 16:16:26.997,0.009330155,0.00887701,0.030918421,-0.12337882,0.14334445,0.0022554672,0.0,0.0,0.0,-0.012874817,0.097207464,-0.06798553,-0.037652448,0.10842232,0.5815755,-0.31961265,-0.112217404,-0.593358,-0.31040123,-0.013310258,-0.18312557,-0.22687905,0.037632223,0.028917437,0.005734902,0.009230315,-0.040423244,-0.040271156,0.030754734,-0.04014025,-0.020127453,-0.054150544,-0.05683806,-0.059341144,3.0,-0.31021297,-3.0,3.0,3.0,-3.0,-3.0,-3.0,-3.0,-3.0,-0.59829277,-3.0,3.0,-0.47487515,-3.0,3.0,3.0,-3.0,-3.0,-3.0,-3.0,-3.0,-0.23078935,-3.0
2025-06-06 16:16:27.018,-0.02381376,-0.00658457,0.020389551,-0.12672605,0.096382625,0.026256567,0.0,0.0,0.0,-0.012755076,0.101930104,-0.07337922,-0.019615497,0.092708044,0.5751626,-0.31911892,-0.108974166,-0.59214896,-0.31791204,-0.008139643,-0.17372072,-0.21727832,0.020305512,-0.012185434,0.05463566,0.011954756,-0.03463052,-0.068016686,0.043045305,0.007983972,0.0029926829,0.051896963,0.018439353,0.021767002,3.0,-0.47487515,-3.0,3.0,3.0,-3.0,-3.0,-3.0,-3.0,-3.0,-0.23078935,-3.0,3.0,-0.406842,-3.0,3.0,3.0,-3.0,-3.0,-3.0,-3.0,-3.0,-0.5445811,-3.0
2025-06-06 16:16:27.038,-0.015867919,-0.0015098833,-0.019832244,-0.16187146,0.13461952,-0.035760444,0.0,0.0,0.0,-0.012459349,0.0988257,-0.077541165,-0.027183745,0.1058031,0.5845973,-0.3251696,-0.10761913,-0.59699804,-0.3117404,-0.011167223,-0.17032957,-0.2316619,-0.019215818,-0.076527365,0.043014113,-0.06828981,-0.056108538,0.04576575,0.032726504,0.021300027,-0.006954962,0.015701262,0.04500414,0.013591342,3.0,-0.406842,-3.0,3.0,3.0,-3.0,-3.0,-3.0,-3.0,-3.0,-0.5445811,-3.0,3.0,-0.19628495,-3.0,3.0,3.0,-3.0,-3.0,-3.0,-3.0,-3.0,-0.72880405,-3.0
2025-06-06 16:16:27.060,-0.010102352,0.030131124,0.051553696,-0.19221409,0.13912153,-0.021973198,0.0,0.0,0.0,-0.012190712,0.094279096,-0.06524034,-0.014849243,0.10681079,0.5799315,-0.3294793,-0.10087463,-0.60718983,-0.31674522,-0.017033588,-0.18533686,-0.2333249,0.06482086,0.058568325,0.059091475,0.033914387,0.039748438,0.016898645,-0.021562064,0.0115202395,0.028778784,-0.024950024,-0.03452079,0.012088264,3.0,-0.19628495,-3.0,3.0,3.0,-3.0,-3.0,-3.0,-3.0,-3.0,-0.72880405,-3.0,3.0,-0.57912904,-3.0,3.0,3.0,-3.0,-3.0,-3.0,-3.0,-3.0,-0.22568195,-3.0
2025-06-06 16:16:27.077,-0.047808997,-0.0030861306,-0.024916656,-0.12347189,0.19444893,0.012369726,0.0,0.0,0.0,-0.0122728525,0.09846001,-0.07592889,-0.024218263,0.10272609,0.57299095,-0.3290287,-0.11673984,-0.6061357,-0.31241027,-0.002061406,-0.17825857,-0.23656194,0.02266617,-0.031224359,-0.010598079,-0.055651885,0.0087743625,0.073484495,-0.063883185,0.064916134,0.06279838,-0.06487764,-0.04799594,-0.00892941,3.0,-0.57912904,-3.0,3.0,3.0,-3.0,-3.0,-3.0,-3.0,-3.0,-0.22568195,-3.0,3.0,-0.16138077,-3.0,3.0,3.0,-3.0,-3.0,-3.0,-3.0,-3.0,-0.86335105,-3.0
2025-06-06 16:16:27.098,0.06554755,-0.0077504166,0.03344007,-0.16269131,0.12766317,0.006068336,0.0,0.0,0.0,-0.012243867,0.099068046,-0.083520085,-0.019058878,0.095531754,0.5799918,-0.33372533,-0.11798727,-0.6134345,-0.298381,-0.00839894,-0.18675922,-0.2284863,0.07605361,-0.013637938,-0.01208658,-0.038041305,0.017367966,0.010375155,-0.054954875,0.013667793,0.032143325,0.015399363,0.010985981,-0.022287358,3.0,-0.16138077,-3.0,3.0,3.0,-3.0,-3.0,-3.0,-3.0,-3.0,-0.86335105,-3.0,3.0,-0.5673233,-3.0,3.0,3.0,-3.0,-3.0,-3.0,-3.0,-3.0,-0.16056149,-3.0
2025-06-06 16:16:27.118,0.0010920382,-0.06427919,0.010065785,-0.21630576,0.17198363,0.042586766,0.0,0.0,0.0,-0.0124806175,0.094585985,-0.0726133,-0.018235609,0.093800254,0.56846285,-0.32645848,-0.107881516,-0.6145369,-0.29987273,-0.017404523,-0.18646719,-0.2384788,0.04589648,0.011742623,0.0365715,-0.050796874,0.012588594,-0.0047317916,0.052138675,-0.05278023,0.0017586616,0.054225143,-0.033801403,-0.016159045,3.0,-0.5673233,-3.0,3.0,3.0,-3.0,-3.0,-3.0,-3.0,-3.0,-0.16056149,-3.0,3.0,-0.47768003,-3.0,3.0,3.0,-3.0,-3.0,-3.0,-3.0,-3.0,-0.5130469,-3.0
2025-06-06 16:16:27.138,0.00077610696,0.01964457,-0.031862047,-0.18801938,0.13594522,-0.030114803,0.0,0.0,0.0,-0.012569069,0.107984565,-0.08724179,-0.015562702,0.09584056,0.56991565,-0.32329074,-0.114220604,-0.6072516,-0.31249687,-0.0040912037,-0.17734164,-0.22900271,0.027092116,-0.038279977,0.06636179,-0.030677201,0.030419797,0.016839832,0.039259568,0.043575797,-0.040657643,0.05353795,0.0030291895,-0.036769137,3.0,-0.47768003,-3.0,3.0,3.0,-3.0,-3.0,-3.0,-3.0,-3.0,-0.5130469,-3.0,3.0,-0.1467961,-3.0,3.0,3.0,-3.0,-3.0,-3.0,-3.0,-3.0,-0.70821995,-3.0
2025-06-06 16:16:27.160,0.051123094,-0.007492486,0.016830679,-0.2059789,0.12921481,-0.029660381,0.0,0.0,0.0,-0.012545231,0.09946165,-0.075213075,-0.017804416,0.10810153,0.57214195,-0.32385707,-0.11209498,-0.62024975,-0.30112982,-0.0035224687,-0.168015,-0.23101336,-0.0013506057,0.05602296,0.018384272,0.07251948,-0.014202231,0.07248806,-0.0036115497,-0.009690887,-0.071993195,-0.059784837,-0.017912446,0.014984785,3.0,-0.1467961,-3.0,3.0,3.0,-3.0,-3.0,-3.0,-3.0,-3.0,-0.70821995,-3.0,3.0,-0.4010681,-3.0,3.0,3.0,-3.0,-3.0,-3.0,-3.0,-3.0,-0.38146418,-3.0
2025-06-06 16:16:27.178,0.011907071,0.030242607,0.03750346,-0.19650912,0.16836713,-0.027708154,0.0,0.0,0.0,-0.012795779,0.09378567,-0.07039325,-0.013462435,0.09185761,0.5712385,-0.31493714,-0.10540593,-0.6104388,-0.30927908,-0.017361868,-0.17914362,-0.22722386,0.06497234,0.017347472,0.012434756,-0.023433784,0.028987885,-0.022947585,0.06765079,-0.00029407302,0.008804034,0.052326288,-0.06196672,-0.058769487,3.0,-0.4010681,-3.0,3.0,3.0,-3.0,-3.0,-3.0,-3.0,-3.0,-0.38146418,-3.0,3.0,-0.603168,-3.0,3.0,3.0,-3.0,-3.0,-3.0,-3.0,-3.0,-0.2792551,-3.0
2025-06-06 16:16:27.198,0.020855602,-0.03911076,-0.0013958683,-0.12925611,0.110861,0.046271652,0.0,0.0,0.0,-0.013036793,0.10078114,-0.086463526,-0.016774215,0.10090522,0.5847882,-0.32626733,-0.116409056,-0.6042742,-0.30648327,-0.009873767,-0.17566644,-0.23448789,0.07125859,0.04744708,0.074134596,-0.07358877,0.04262504,0.05231069,-0.057055872,0.053638093,0.043549206,-0.064828366,0.035701476,-0.07351557,3.0,-0.603168,-3.0,3.0,3.0,-3.0,-3.0,-3.0,-3.0,-3.0,-0.2792551,-3.0,3.0,-0.44309384,-3.0,3.0,3.0,-3.0,-3.0,-3.0,-3.0,-3.0,-0.5173766,-3.0
2025-06-06 16:16:27.218,0.045683753,-0.0011415313,-0.03730059,-0.18578519,0.1631246,-0.032788564,0.0,0.0,0.0,-0.013005449,0.09324231,-0.07229197,-0.025603833,0.096761994,0.5723709,-0.32283074,-0.116275065,-0.60124415,-0.30353817,-0.013896077,-0.17580792,-0.23871584,-0.018974612,-0.06885091,-0.020468906,-0.06309349,-0.031236013,-0.037453603,-0.05799917,0.07142682,-0.015482445,0.012768966,-0.061045848,-0.0331824,3.0,-0.44309384,-3.0,3.0,3.0,-3.0,-3.0,-3.0,-3.0,-3.0,-0.5173766,-3.0,3.0,-0.11732304,-3.0,3.0,3.0,-3.0,-3.0,-3.0,-3.0,-3.0,-0.72110885,-3.0
2025-06-06 16:16:27.238,0.000644787,0.001981652,-0.010489953,-0.12793975,0.15672362,0.037575454,0.0,0.0,0.0,-0.012944759,0.11054623,-0.07490599,-0.02417037,0.10146431,0.5692888,-0.3273801,-0.11898806,-0.6017959,-0.31010517,-0.0029406215,-0.18420039,-0.23009485,-0.05721919,0.0012768041,-0.060964905,-0.04326385,0.05720942,0.050349843,0.06055622,0.029154755,0.05525438,-0.013185052,3.1170737e-05,0.028520932,3.0,-0.11732304,-3.0,3.0,3.0,-3.0,-3.0,-3.0,-3.0,-3.0,-0.72110885,-3.0,3.0,-0.16737515,-3.0,3.0,3.0,-3.0,-3.0,-3.0,-3.0,-3.0,-0.6795489,-3.0
2025-06-06 16:16:27.260,-0.0005485137,-0.031531047,-0.0050192545,-0.22140725,0.19288561,0.018135952,0.0,0.0,0.0,-0.013179487,0.11537796,-0.08718311,-0.019475313,0.1041653,0.5670442,-0.327078,-0.104069866,-0.61602724,-0.3120026,-0.017498506,-0.1801965,-0.23938562,0.06289461,-0.020788157,-0.025737343,0.025794806,0.013472377,-0.06798453,-0.039498065,-0.031454783,0.05075464,0.010993536,-0.0003646806,0.019871468,3.0,-0.16737515,-3.0,3.0,3.0,-3.0,-3.0,-3.0,-3.0,-3.0,-0.6795489,-3.0,3.0,-0.3374972,-3.0,3.0,3.0,-3.0,-3.0,-3.0,-3.0,-3.0,-0.4808697,-3.0
2025-06-06 16:16:27.279,-0.03358453,-0.044703197,-0.006765957,-0.17587043,0.13448086,0.010776387,0.0,0.0,0.0,-0.013664845,0.10114592,-0.085606,-0.017212885,0.09781288,0.5777374,-0.31641763,-0.120569065,-0.6126233,-0.31763285,-0.0067872875,-0.18082084,-0.22881675,-0.0027704432,0.022876285,-0.02474252,0.043579597,0.030997552,-0.02556213,0.027179945,0.009256345,0.010798455,-0.0014055438,-0.05971865,0.01153733,3.0,-0.3374972,-3.0,3.0,3.0,-3.0,-3.0,-3.0,-3.0,-3.0,-0.4808697,-3.0,3.0,-0.25674218,-3.0,3.0,3.0,-3.0,-3.0,-3.0,-3.0,-3.0,-0.5956771,-3.0
2025-06-06 16:16:27.299,-0.02002715,-0.02564466,0.039829545,-0.17623803,0.13271366,0.049314275,0.0,0.0,0.0,-0.014078161,0.118522614,-0.076599084,-0.031797342,0.097699896,0.5845998,-0.31882784,-0.11041803,-0.6128321,-0.31102207,-0.014229696,-0.18472372,-0.23622663,0.0038067726,-0.008133833,-0.027429007,0.033897556,-0.05621738,-0.030482385,-0.039812356,0.072865814,-0.057315834,0.02982471,-0.002794545,0.056879807,3.0,-0.25674218,-3.0,3.0,3.0,-3.0,-3.0,-3.0,-3.0,-3.0,-0.5956771,-3.0,3.0,-0.47842658,-3.0,3.0,3.0,-3.0,-3.0,-3.0,-3.0,-3.0,-0.35332936,-3.0
2025-06-06 16:16:27.319,-0.036029086,-0.005431165,0.005938051,-0.17219816,0.101050965,0.03441315,0.0,0.0,0.0,-0.014414307,0.11343093,-0.07934455,-0.027247766,0.09276028,0.5833228,-0.32563072,-0.124296166,-0.6069258,-0.3133092,-0.0031038213,-0.18238379,-0.23142977,0.009970905,0.0025999926,0.03876099,0.07029342,0.027877148,0.004813917,-0.057807412,-0.011508656,0.010161024,-0.035779756,0.054188546,-0.005904887,3.0,-0.47842658,-3.0,3.0,3.0,-3.0,-3.0,-3.0,-3.0,-3.0,-0.35332936,-3.0,3.0,-0.34392565,-3.0,3.0,3.0,-3.0,-3.0,-3.0,-3.0,-3.0,-0.51920766,-3.0
2025-06-06 16:16:27.342,-0.020183297,0.03821204,0.02415899,-0.18592213,0.13901277,0.012779967,0.0,0.0,0.0,-0.014502973,0.111184515,-0.08191846,-0.0323843,0.09476362,0.57853097,-0.32381266,-0.11079879,-0.59931,-0.3159043,-0.015794588,-0.17853306,-0.23277335,0.07270956,0.07250606,-0.041356638,-0.007962445,0.016511096,-0.008751527,-0.0044155307,0.048106067,-0.04270517,-0.06351107,0.00061376346,-0.06737415,3.0,-0.34392565,-3.0,3.0,3.0,-3.0,-3.0,-3.0,-3.0,-3.0,-0.51920766,-3.0,3.0,-0.5682864,-3.0,3.0,3.0,-3.0,-3.0,-3.0,-3.0,-3.0,-0.21649902,-3.0
2025-06-06 16:16:27.360,-0.049298745,0.021362903,0.0045697563,-0.21245399,0.1428096,-0.0029866707,0.0,0.0,0.0,-0.01444921,0.10984508,-0.06607448,-0.025423964,0.098758295,0.5761315,-0.31595024,-0.112689316,-0.60601413,-0.3023679,-0.013586523,-0.18655634,-0.2306137,0.058332123,0.06884174,-0.011564438,-0.05726848,-0.07069652,-0.037759546,0.07553324,0.0067451857,-0.01848403,-0.050754048,0.073782414,-0.050108798,3.0,-0.5682864,-3.0,3.0,3.0,-3.0,-3.0,-3.0,-3.0,-3.0,-0.21649902,-3.0,3.0,-0.5014888,-3.0,3.0,3.0,-3.0,-3.0,-3.0,-3.0,-3.0,-0.502361,-3.0
2025-06-06 16:16:27.379,-0.059046447,-0.01384929,0.009671848,-0.18509237,0.18755105,-0.03412481,0.0,0.0,0.0,-0.014120181,0.10542807,-0.067604534,-0.015256918,0.10148487,0.58315325,-0.31998184,-0.10466144,-0.614081,-0.29741502,-0.0066018226,-0.1814795,-0.24807236,-0.04735906,-0.051046208,0.04544944,0.044752054,0.05670405,0.033964932,-0.048137188,0.05113453,-0.010492205,0.05567158,-0.039878696,-0.067304626,3.0,-0.5014888,-3.0,3.0,3.0,-3.0,-3.0,-3.0,-3.0,-3.0,-0.502361,-3.0,3.0,-0.30332786,-3.0,3.0,3.0,-3.0,-3.0,-3.0,-3.0,-3.0,-0.53908557,-3.0
2025-06-06 16:16:27.399,-0.017325288,-0.015163198,0.019354032,-0.17706025,0.12992351,0.049097218,0.0,0.0,0.0,-0.013727215,0.095705286,-0.06987525,-0.02840143,0.09703816,0.5761207,-0.33246267,-0.11537917,-0.60909706,-0.30597898,-0.015988367,-0.16597788,-0.23015997,-0.062543325,0.07088001,-0.02414049,0.025392806,-0.0494709,-0.010641766,0.06270885,0.028244503,0.04908069,-0.06706209,0.055797335,-0.062076446,3.0,-0.30332786,-3.0,3.0,3.0,-3.0,-3.0,-3.0,-3.0,-3.0,-0.53908557,-3.0,3.0,-0.4882755,-3.0,3.0,3.0,-3.0,-3.0,-3.0,-3.0,-3.0,-0.32497972,-3.0
2025-06-06 16:16:27.419,0.016471334,-0.043317758,0.023365365,-0.16291073,0.11358641,-0.029807432,0.0,0.0,0.0,-0.013491253,0.103989325,-0.0823407,-0.027396787,0.090666205,0.57107913,-0.31993222,-0.10619906,-0.6063251,-0.30812284,-0.0027575174,-0.17373693,-0.23299903,0.055465825,-0.037815604,0.04074334,0.02101951,0.072205245,-0.066374294,-0.032372676,-0.0012418227,0.057273325,-0.028175294,0.06383861,-0.06930549,3.0,-0.4882755,-3.0,3.0,3.0,-3.0,-3.0,-3.0,-3.0,-3.0,-0.32497972,-3.0,3.0,-0.65498817,-3.0,3.0,3.0,-3.0,-3.0,-3.0,-3.0,-3.0,-0.24198286,-3.0
2025-06-06 16:16:27.443,0.011722527,0.030527556,-0.023097778,-0.19387381,0.16542248,-0.008379882,0.0,0.0,0.0,-0.013228005,0.10923652,-0.08011997,-0.022061825,0.09987255,0.5713607,-0.32975364,-0.1063402,-0.61134636,-0.30230048,-0.0151726045,-0.17658232,-0.25080162,-0.01981038,0.027501235,-0.057551384,0.045500513,0.06334589,-0.058235858,-0.053436045,-0.074459866,-0.031755436,-0.02166776,-0.0012311968,0.033368334,3.0,-0.65498817,-3.0,3.0,3.0,-3.0,-3.0,-3.0,-3.0,-3.0,-0.24198286,-3.0,3.0,-0.27933186,-3.0,3.0,3.0,-3.0,-3.0,-3.0,-3.0,-3.0,-0.7558753,-3.0
2025-06-06 16:16:27.459,0.0044883564,0.056459002,0.00988409,-0.14611796,0.20178647,-0.041512437,0.0,0.0,0.0,-0.012786491,0.09594391,-0.08052321,-0.015154015,0.10458168,0.5669511,-0.3226539,-0.11856728,-0.6208284,-0.29580408,-0.014168365,-0.16199571,-0.2388378,-0.047875952,-0.011820782,-0.07244432,0.04213443,0.0030526314,0.0382747,0.04516432,-0.03688673,0.057583086,-0.06314549,-0.021945357,0.00045920908,3.0,-0.27933186,-3.0,3.0,3.0,-3.0,-3.0,-3.0,-3.0,-3.0,-0.7558753,-3.0,3.0,-0.3409661,-3.0,3.0,3.0,-3.0,-3.0,-3.0,-3.0,-3.0,-0.49411744,-3.0
2025-06-06 16:16:27.479,-0.034049705,-0.004383094,0.030230425,-0.16555227,0.1440652,-0.019071814,0.0,0.0,0.0,-0.012659634,0.094276376,-0.08483975,-0.022675833,0.0941984,0.5811251,-0.31840578,-0.10528857,-0.60456306,-0.30179295,-0.013260237,-0.17769723,-0.23670238,-0.022270957,-0.07101121,-0.05488444,0.052245352,-0.07289552,-0.022989372,-0.018651778,0.068340786,-0.029365426,-0.00842357,0.016648784,-0.039335392,3.0,-0.3409661,-3.0,3.0,3.0,-3.0,-3.0,-3.0,-3.0,-3.0,-0.49411744,-3.0,3.0,-0.53766507,-3.0,3.0,3.0,-3.0,-3.0,-3.0,-3.0,-3.0,-0.30714315,-3.0
2025-06-06 16:16:27.499,0.02888367,-0.032516383,-0.043779586,-0.1679294,0.20023374,0.020675223,0.0,0.0,0.0,-0.012761684,0.10062056,-0.08145958,-0.028241137,0.10218578,0.5729774,-0.31573296,-0.11684928,-0.60463303,-0.3057288,-0.015116643,-0.16692755,-0.2473911,0.01474608,-0.05269938,0.07710631,0.01938637,0.05083344,0.008408924,-0.050018538,-0.04588574,-0.016648648,0.012653029,-0.04663611,-0.07523526,3.0,-0.53766507,-3.0,3.0,3.0,-3.0,-3.0,-3.0,-3.0,-3.0,-0.30714315,-3.0,3.0,-0.11158323,-3.0,3.0,3.0,-3.0,-3.0,-3.0,-3.0,-3.0,-0.7392654,-3.0
2025-06-06 16:16:27.519,0.016907467,0.053693235,-0.03238718,-0.188516,0.18785894,-0.03420794,0.0,0.0,0.0,-0.012728224,0.09604142,-0.08537561,-0.024490887,0.10650999,0.5746734,-0.32266453,-0.11495869,-0.6094786,-0.30850846,-0.003892871,-0.18184273,-0.22804895,0.027057566,0.018760404,0.065607555,0.028498197,-0.06329723,0.018278787,-0.045862645,0.036294594,0.001747463,-0.057217076,-0.040535655,-0.011049175,3.0,-0.11158323,-3.0,3.0,3.0,-3.0,-3.0,-3.0,-3.0,-3.0,-0.7392654,-3.0,3.0,-0.08405787,-3.0,3.0,3.0,-3.0,-3.0,-3.0,-3.0,-3.0,-0.6875991,-3.0
2025-06-06 16:16:27.543,0.01749311,0.039871253,0.019966504,-0.13128415,0.12778276,0.007973405,0.0,0.0,0.0,-0.012910679,0.113563284,-0.06845417,-0.016412573,0.09949495,0.580302,-0.32854185,-0.1129001,-0.6107322,-0.31243578,-0.00992248,-0.17823896,-0.22982433,0.018965032,-0.019448606,0.0029762313,0.007495079,0.046059668,0.065394826,-0.054853093,0.050714847,0.01649155,0.006786365,-0.0240456,-0.031202173,3.0,-0.08405787,-3.0,3.0,3.0,-3.0,-3.0,-3.0,-3.0,-3.0,-0.6875991,-3.0,3.0,-0.31636637,-3.0,3.0,3.0,-3.0,-3.0,-3.0,-3.0,-3.0,-0.4404518,-3.0
2025-06-06 16:16:27.559,0.03296004,-0.033621218,-0.0042100833,-0.19421457,0.17468302,0.019639656,0.0,0.0,0.0,-0.013383776,0.101874776,-0.071525484,-0.035837047,0.10350616,0.5766144,-0.31690365,-0.10495514,-0.6134534,-0.3076536,-0.01581123,-0.18802617,-0.22267985,0.07460682,0.011158484,0.01355263,0.062470976,0.028861307,-0.03818554,0.029154433,-0.013438994,0.045861136,-0.004784813,-0.07500136,0.05705692,3.0,-0.31636637,-3.0,3.0,3.0,-3.0,-3.0,-3.0,-3.0,-3.0,-0.4404518,-3.0,3.0,-0.25469893,-3.0,3.0,3.0,-3.0,-3.0,-3.0,-3.0,-3.0,-0.6542055,-3.0
2025-06-06 16:16:27.579,-0.025355598,-0.028043004,0.041217938,-0.15150796,0.17380488,-0.031174999,0.0,0.0,0.0,-0.013759774,0.109114915,-0.0728554,-0.024317382,0.09376793,0.58113366,-0.31814232,-0.106384285,-0.6131254,-0.3010582,-0.013285349,-0.1748294,-0.2391764,0.05920213,0.025522033,0.010090136,0.032370057,0.027678782,0.01762644,-0.069358714,0.074441776,-0.009407932,-0.05396731,-0.011353705,-0.023175443,3.0,-0.25469893,-3.0,3.0,3.0,-3.0,-3.0,-3.0,-3.0,-3.0,-0.6542055,-3.0,3.0,-0.5769389,-3.0,3.0,3.0,-3.0,-3.0,-3.0,-3.0,-3.0,-0.23893754,-3.0
2025-06-06 16:16:27.599,-0.00034424104,0.020609867,-0.017259512,-0.13679767,0.15651608,-0.024311155,0.0,0.0,0.0,-0.014079702,0.104464,-0.070576005,-0.033711147,0.10264826,0.5660948,-0.32627615,-0.11634455,-0.59761566,-0.30288178,-0.007845465,-0.19011231,-0.23833667,0.006345211,0.023979878,0.068776034,-0.026958626,0.034006204,0.07330604,-0.015203263,0.03708105,0.053561725,-0.035591424,0.07397849,-0.052080672,3.0,-0.5769389,-3.0,3.0,3.0,-3.0,-3.0,-3.0,-3.0,-3.0,-0.23893754,-3.0,3.0,-0.23932856,-3.0,3.0,3.0,-3.0,-3.0,-3.0,-3.0,-3.0,-0.8535206,-3.0
2025-06-06 16:16:27.620,-0.013285622,-0.016616182,0.017576993,-0.17021114,0.11769155,-0.023902202,0.0,0.0,0.0,-0.0140391905,0.11412163,-0.0808037,-0.024140347,0.10470289,0.57447803,-0.3345994,-0.10755477,-0.5992176,-0.3114588,-0.009376195,-0.18927023,-0.23269701,0.012436843,-0.03996407,-0.056272503,-0.064377144,0.004735335,-0.044236984,-0.027643844,-0.07587572,0.06754326,0.015364623,0.027159657,0.03897253,3.0,-0.23932856,-3.0,3.0,3.0,-3.0,-3.0,-3.0,-3.0,-3.0,-0.8535206,-3.0,3.0,-0.4428602,-3.0,3.0,3.0,-3.0,-3.0,-3.0,-3.0,-3.0,-0.3478915,-3.0
2025-06-06 16:16:27.643,0.016467819,0.023078311,0.016570551,-0.16018865,0.18756703,-0.02089484,0.0,0.0,0.0,-0.014071035,0.108151354,-0.06972152,-0.03539524,0.09908089,0.58251315,-0.31687242,-0.1146155,-0.59624565,-0.3036999,-0.0105527425,-0.18100801,-0.2222541,-0.04596562,-0.043853883,-0.067153536,0.00907373,-0.033854198,0.033105813,-0.006849415,0.027996512,0.0029668498,-0.028150842,0.015466154,0.0010288128,3.0,-0.4428602,-3.0,3.0,3.0,-3.0,-3.0,-3.0,-3.0,-3.0,-0.3478915,-3.0,3.0,-0.37773097,-3.0,3.0,3.0,-3.0,-3.0,-3.0,-3.0,-3.0,-0.60864705,-3.0
2025-06-06 16:16:27.660,0.010329938,-0.0484516,-0.055300243,-0.2083604,0.18676768,0.02645201,0.0,0.0,0.0,-0.013981924,0.10009497,-0.07572853,-0.029144786,0.10493779,0.57583356,-0.3169096,-0.112972245,-0.6056963,-0.30031335,-0.013792475,-0.18614443,-0.23582108,0.012346581,-0.040819712,-0.002710274,-0.0314493,-0.045823876,-0.01391721,0.03221845,0.02806249,-0.055444933,0.038982846,0.055522595,-0.06285863,3.0,-0.37773097,-3.0,3.0,3.0,-3.0,-3.0,-3.0,-3.0,-3.0,-0.60864705,-3.0,3.0,-0.08348483,-3.0,3.0,3.0,-3.0,-3.0,-3.0,-3.0,-3.0,-0.7086336,-3.0
2025-06-06 16:16:27.680,0.018419584,0.040077526,0.051604394,-0.2024001,0.17084284,0.0093102725,0.0,0.0,0.0,-0.013814009,0.09545144,-0.065635346,-0.035979796,0.10372066,0.5728698,-0.3242736,-0.12468432,-0.60054344,-0.30241713,-0.013314031,-0.18041973,-0.23128597,-0.03654722,0.04410639,-0.06555281,-0.03650708,0.06846456,0.03518024,-0.009938244,0.06279834,-0.0633661,0.05946591,-0.07209169,0.04517964,3.0,-0.08348483,-3.0,3.0,3.0,-3.0,-3.0,-3.0,-3.0,-3.0,-0.7086336,-3.0,3.0,-0.5304766,-3.0,3.0,3.0,-3.0,-3.0,-3.0,-3.0,-3.0,-0.28010935,-3.0
2025-06-06 16:16:27.701,-0.023824139,0.00020166449,-0.012882694,-0.20667952,0.15509367,-0.02552228,0.0,0.0,0.0,-0.013827826,0.10143652,-0.07828092,-0.018749245,0.095826276,0.58336943,-0.3223664,-0.11086331,-0.6126546,-0.31255206,-0.016917622,-0.1776343,-0.23199515,0.069217496,-0.019801486,0.044245083,0.025794087,0.06562618,-0.022250928,0.005339982,-0.058593653,-0.04480538,-0.029979497,-0.027412048,0.052558888,3.0,-0.5304766,-3.0,3.0,3.0,-3.0,-3.0,-3.0,-3.0,-3.0,-0.28010935,-3.0,3.0,-0.3185504,-3.0,3.0,3.0,-3.0,-3.0,-3.0,-3.0,-3.0,-0.64674085,-3.0
2025-06-06 16:16:27.720,0.0045820167,0.023860391,0.015392627,-0.13447046,0.16237718,0.04627017,0.0,0.0,0.0,-0.013641135,0.09563769,-0.072641075,-0.026920525,0.10569099,0.58088815,-0.32745808,-0.12030792,-0.5987656,-0.30548668,-0.01653003,-0.17474833,-0.22910133,0.059841923,0.070711635,-0.044879932,-0.015228106,-0.023837227,0.004552379,0.037205856,-0.06721104,0.027976256,-0.07167464,0.058057953,-0.047440838,3.0,-0.3185504,-3.0,3.0,3.0,-3.0,-3.0,-3.0,-3.0,-3.0,-0.64674085,-3.0,3.0,-0.4798376,-3.0,3.0,3.0,-3.0,-3.0,-3.0,-3.0,-3.0,-0.28460902,-3.0
2025-06-06 16:16:27.742,-0.056296565,0.011700854,-0.027047507,-0.18890487,0.1745284,-0.021943238,0.0,0.0,0.0,-0.01343598,0.09743718,-0.06547661,-0.01915796,0.09061749,0.577581,-0.33283624,-0.10537249,-0.5985087,-0.2977963,-0.009502738,-0.17097297,-0.23853086,0.044427462,0.0182922,0.024529656,-0.06944199,0.012171831,-0.065029785,-0.027458064,-0.010315163,0.048581164,-0.008315917,0.069306985,0.00652617,3.0,-0.4798376,-3.0,3.0,3.0,-3.0,-3.0,-3.0,-3.0,-3.0,-0.28460902,-3.0,3.0,-0.3137018,-3.0,3.0,3.0,-3.0,-3.0,-3.0,-3.0,-3.0,-0.71797246,-3.0
2025-06-06 16:16:27.763,-0.032295153,0.03077044,0.013715113,-0.21975361,0.097431175,-0.04443125,0.0,0.0,0.0,-0.013090718,0.10718401,-0.06751069,-0.01822969,0.10763325,0.58167636,-0.31784552,-0.119307496,-0.5976719,-0.29848617,-0.0042704376,-0.16899982,-0.22962579,0.06334683,-0.070339,-0.061149854,-0.06726084,0.011328486,0.020580217,0.024581678,0.028596137,-0.042958718,-0.044992715,-0.0048740697,0.031911884,3.0,-0.3137018,-3.0,3.0,3.0,-3.0,-3.0,-3.0,-3.0,-3.0,-0.71797246,-3.0,3.0,-0.42151204,-3.0,3.0,3.0,-3.0,-3.0,-3.0,-3.0,-3.0,-0.33270544,-3.0
2025-06-06 16:16:27.781,-0.04018447,0.027925875,-0.016362756,-0.21348944,0.18585214,-0.01725035,0.0,0.0,0.0,-0.012882638,0.09104812,-0.064141385,-0.02982077,0.10717851,0.58011353,-0.33195466,-0.12086712,-0.5996973,-0.29962844,-0.013936529,-0.18624093,-0.2309594,-0.06559899,-0.04931958,0.04507932,0.00907411,-0.05410433,0.047807712,-0.019250873,-0.01337962,-0.025168717,-0.019694898,0.04595267,0.03132486,3.0,-0.42151204,-3.0,3.0,3.0,-3.0,-3.0,-3.0,-3.0,-3.0,-0.33270544,-3.0,3.0,-0.15139294,-3.0,3.0,3.0,-3.0,-3.0,-3.0,-3.0,-3.0,-0.8374919,-3.0
2025-06-06 16:16:27.801,-0.007480945,0.047193404,-0.042132627,-0.2060541,0.14271405,-0.007076939,0.0,0.0,0.0,-0.012647497,0.094817795,-0.061584894,-0.024312744,0.09805383,0.5744637,-0.32405883,-0.11738087,-0.59913796,-0.30559212,-0.01226486,-0.17477718,-0.23146394,0.047026258,-0.018776987,-0.045686472,-0.04813813,0.052324787,-0.0034042716,-0.0623393,0.03511693,-0.053681772,-0.016176606,-0.080027156,-0.01656516,3.0,-0.15139294,-3.0,3.0,3.0,-3.0,-3.0,-3.0,-3.0,-3.0,-0.8374919,-3.0,3.0,-0.0514341,-3.0,3.0,3.0,-3.0,-3.0,-3.0,-3.0,-3.0,-0.55209416,-3.0
2025-06-06 16:16:27.821,-0.030402409,-0.0052068494,0.027017582,-0.18722486,0.09392089,0.04629968,0.0,0.0,0.0,-0.012685013,0.093442135,-0.060730536,-0.03133603,0.09283434,0.57770896,-0.32822555,-0.11381174,-0.6162677,-0.30468696,-0.017789686,-0.17334785,-0.23321168,-0.02006503,0.0030609355,-0.07124096,0.0706793,0.0018847771,0.052460056,0.06688539,-0.02992242,-0.017761635,-0.03864739,0.0140959425,0.06607697,3.0,-0.0514341,-3.0,3.0,3.0,-3.0,-3.0,-3.0,-3.0,-3.0,-0.55209416,-3.0,3.0,-0.44144812,-3.0,3.0,3.0,-3.0,-3.0,-3.0,-3.0,-3.0,-0.36513203,-3.0
2025-06-06 16:16:27.843,-0.043763857,-0.024921494,-0.024703277,-0.18349871,0.11455097,0.037486084,0.0,0.0,0.0,-0.012913553,0.110325344,-0.060374085,-0.021432491,0.09705952,0.580266,-0.32169932,-0.11502909,-0.6062571,-0.30838722,-0.0059116706,-0.18142083,-0.23509972,-0.017594595,-0.013886367,-0.02431483,0.037175138,-0.05712403,0.010167525,0.03797418,0.02368839,0.05510338,0.06960603,-0.06098898,-0.023655154,3.0,-0.44144812,-3.0,3.0,3.0,-3.0,-3.0,-3.0,-3.0,-3.0,-0.36513203,-3.0,3.0,-0.016195059,-3.0,3.0,3.0,-3.0,-3.0,-3.0,-3.0,-3.0,-0.83697695,-3.0
2025-06-06 16:16:27.861,0.038495637,-0.00028557912,0.046429813,-0.1328459,0.13747704,0.04347038,0.0,0.0,0.0,-0.012960701,0.09459022,-0.072741926,-0.02478117,0.10396018,0.56791115,-0.33098683,-0.1167637,-0.6051143,-0.30819193,-0.011507277,-0.18006055,-0.22336008,0.025946887,0.034076355,-0.045073185,-0.004793041,0.053269874,0.023860158,-0.042876422,-0.009934375,0.054050405,-0.071014106,0.033530865,0.006401723,3.0,-0.016195059,-3.0,3.0,3.0,-3.0,-3.0,-3.0,-3.0,-3.0,-0.83697695,-3.0,3.0,-0.6287985,-3.0,3.0,3.0,-3.0,-3.0,-3.0,-3.0,-3.0,-0.114794895,-3.0
2025-06-06 16:16:27.882,-0.06282266,-0.04991303,-0.03963593,-0.14400814,0.16895725,0.0052823084,0.0,0.0,0.0,-0.013187569,0.092081666,-0.070039585,-0.025145303,0.10827481,0.574402,-0.31904444,-0.11400201,-0.6064669,-0.30699015,-0.0057353205,-0.17081138,-0.22568876,-0.021139883,-0.007240039,-0.05914523,0.071786456,0.049268812,-0.012141911,0.023165097,-0.033632435,0.064736344,-0.009464063,-0.03132509,0.025587598,3.0,-0.6287985,-3.0,3.0,3.0,-3.0,-3.0,-3.0,-3.0,-3.0,-0.114794895,-3.0,3.0,-0.08350521,-3.0,3.0,3.0,-3.0,-3.0,-3.0,-3.0,-3.0,-1.0003686,-3.0
2025-06-06 16:16:27.902,0.050686233,-0.011278645,0.04453569,-0.17259184,0.14021645,-0.02599426,0.0,0.0,0.0,-0.013085693,0.104510956,-0.06704305,-0.030227542,0.094201304,0.5676192,-0.3284663,-0.11665492,-0.6030207,-0.31185883,-0.0039591813,-0.17522386,-0.22258064,-0.024308508,-0.026162758,0.052811813,-0.0055802735,0.01696628,-0.031369306,-0.019058969,0.021371078,-0.01544233,-0.043741085,0.049460113,-0.03601122,3.0,-0.08350521,-3.0,3.0,3.0,-3.0,-3.0,-3.0,-3.0,-3.0,-1.0003686,-3.0,3.0,-0.6476079,-3.0,3.0,3.0,-3.0,-3.0,-3.0,-3.0,-3.0,-0.042158056,-3.0
2025-06-06 16:16:27.926,-0.061039202,-0.037148617,-0.036631864,-0.2038825,0.15157874,-0.0086666355,0.0,0.0,0.0,-0.0131827975,0.10802341,-0.058847986,-0.037606407,0.10347457,0.5729399,-0.33071956,-0.10820923,-0.60713845,-0.30079716,-0.020098148,-0.18171464,-0.22198537,0.03823136,0.07240877,-0.047263633,0.0008210282,0.03197438,0.070267916,-0.02781658,0.045982227,0.05916122,-0.06410262,0.03357538,0.015680704,3.0,-0.6476079,-3.0,3.0,3.0,-3.0,-3.0,-3.0,-3.0,-3.0,-0.042158056,-3.0,3.0,-0.12293643,-3.0,3.0,3.0,-3.0,-3.0,-3.0,-3.0,-3.0,-1.0816526,-3.0
2025-06-06 16:16:27.942,0.04920534,0.029864915,0.021284288,-0.15833184,0.14129205,0.028831452,0.0,0.0,0.0,-0.012969034,0.105423726,-0.06359864,-0.026951699,0.091491014,0.56639165,-0.3168475,-0.11322972,-0.6002408,-0.30846074,-0.0054626046,-0.1864635,-0.22916083,0.019162623,-0.05521237,-0.009066861,0.06534565,-0.07479973,0.048007935,-0.06973773,-0.0009049814,-0.05256148,-0.06636391,-0.013013827,-0.058703247,3.0,-0.12293643,-3.0,3.0,3.0,-3.0,-3.0,-3.0,-3.0,-3.0,-1.0816526,-3.0,3.0,-0.34853658,-3.0,3.0,3.0,-3.0,-3.0,-3.0,-3.0,-3.0,-0.15964906,-3.0
2025-06-06 16:16:27.963,-0.07283291,-0.050695427,0.026313234,-0.17966855,0.18911411,-0.041200154,0.0,0.0,0.0,-0.013014068,0.10774632,-0.060658924,-0.024245033,0.10255852,0.58143693,-0.3160177,-0.12384361,-0.6021487,-0.30921918,-0.004425777,-0.1819463,-0.21350478,0.051175207,0.05134869,0.06624607,-0.05281111,-0.02910124,-0.014596378,0.02110882,-0.019759161,-0.06633919,0.03432874,-0.040544078,0.044001438,3.0,-0.34853658,-3.0,3.0,3.0,-3.0,-3.0,-3.0,-3.0,-3.0,-0.15964906,-3.0,3.0,-0.40856647,-3.0,3.0,3.0,-3.0,-3.0,-3.0,-3.0,-3.0,-0.6091034,-3.0
2025-06-06 16:16:27.984,-0.051232226,0.029672528,0.032844912,-0.20830306,0.13195859,0.049766738,0.0,0.0,0.0,-0.012933391,0.09762785,-0.059085846,-0.019973371,0.09541266,0.5833596,-0.31814915,-0.119758114,-0.605559,-0.3035995,-0.013685687,-0.18161769,-0.21566615,0.04663696,0.023542287,0.0632037,0.0012394805,0.04880605,0.020895077,0.048141483,-0.0048214295,-0.014551391,-0.02253486,-0.012745205,-0.013251288,3.0,-0.40856647,-3.0,3.0,3.0,-3.0,-3.0,-3.0,-3.0,-3.0,-0.6091034,-3.0,3.0,-0.45773312,-3.0,3.0,3.0,-3.0,-3.0,-3.0,-3.0,-3.0,-0.23923199,-3.0
2025-06-06 16:16:28.003,-0.071743235,-0.04755806,-0.061166815,-0.17754638,0.18496124,0.0074168085,0.0,0.0,0.0,-0.012755804,0.105446056,-0.07289783,-0.026767984,0.092249274,0.57488996,-0.31604427,-0.10792012,-0.5963794,-0.29928955,-0.020685475,-0.17691231,-0.23443754,0.0054829954,0.058109336,-0.035763267,0.0052397936,-0.07090147,-0.01751226,-0.017550683,-0.07154307,-0.022181137,0.023845462,0.05776386,-0.029953195,3.0,-0.45773312,-3.0,3.0,3.0,-3.0,-3.0,-3.0,-3.0,-3.0,-0.23923199,-3.0,3.0,-0.019693673,-3.0,3.0,3.0,-3.0,-3.0,-3.0,-3.0,-3.0,-0.9722617,-3.0
2025-06-06 16:16:28.026,0.033947594,0.02470833,-0.03609939,-0.2091117,0.093634605,0.034257036,0.0,0.0,0.0,-0.012402653,0.09099505,-0.070837565,-0.018266488,0.09691811,0.5830828,-0.32672235,-0.11853792,-0.60877067,-0.30562857,-0.0010436575,-0.18494189,-0.22749251,0.06873983,-0.033426374,0.030704254,-0.0020399014,0.002196057,-0.03665341,-0.05248661,-0.05380406,0.07250838,-0.020670412,0.051380116,-0.014143824,3.0,-0.019693673,-3.0,3.0,3.0,-3.0,-3.0,-3.0,-3.0,-3.0,-0.9722617,-3.0,3.0,-0.17314327,-3.0,3.0,3.0,-3.0,-3.0,-3.0,-3.0,-3.0,-0.4236254,-3.0
2025-06-06 16:16:28.046,0.033666458,-0.0064948327,-0.02295708,-0.13588516,0.17347208,0.03221433,0.0,0.0,0.0,-0.012447141,0.1008467,-0.061219964,-0.026942272,0.10246939,0.57842714,-0.33004043,-0.10535006,-0.6002062,-0.29540402,-0.004422984,-0.18483515,-0.21308726,-0.018169777,-0.01953777,-0.032137305,0.06311459,0.06307547,-0.05020394,-0.073228925,-0.028729443,-0.020104198,0.06300457,-0.032495253,0.020548856,3.0,-0.17314327,-3.0,3.0,3.0,-3.0,-3.0,-3.0,-3.0,-3.0,-0.4236254,-3.0,3.0,-0.08564907,-3.0,3.0,3.0,-3.0,-3.0,-3.0,-3.0,-3.0,-0.7437412,-3.0
2025-06-06 16:16:28.065,0.010164156,0.016539924,0.06456195,-0.17242777,0.13356963,0.03714754,0.0,0.0,0.0,-0.012631236,0.09829084,-0.06749017,-0.040244285,0.107238375,0.5703148,-0.32518345,-0.10374794,-0.59490335,-0.3021248,-0.013764069,-0.18201196,-0.21852712,0.05207192,-0.017406752,0.0591066,-0.033097968,0.0053724726,-0.03630002,0.051311262,0.061503693,-0.0688411,-0.069770716,-0.045185514,0.012797037,3.0,-0.08564907,-3.0,3.0,3.0,-3.0,-3.0,-3.0,-3.0,-3.0,-0.7437412,-3.0,3.0,-0.7445084,-3.0,3.0,3.0,-3.0,-3.0,-3.0,-3.0,-3.0,0.04805548,-3.0
2025-06-06 16:16:28.085,-0.100559376,-0.069168955,-0.0027143075,-0.20222688,0.13780305,-0.019503467,0.0,0.0,0.0,-0.012935768,0.10204682,-0.059287872,-0.025379652,0.097865224,0.57503307,-0.3330215,-0.12039657,-0.59623784,-0.31483454,-0.016481021,-0.18107244,-0.22958915,0.0649459,0.0095851645,0.08783454,-0.07009331,0.04922279,0.013644129,0.05211211,0.044630792,-0.06254561,-0.0037702876,0.031332616,0.027454112,3.0,-0.7445084,-3.0,3.0,3.0,-3.0,-3.0,-3.0,-3.0,-3.0,0.04805548,-3.0,3.0,-0.3461548,-3.0,3.0,3.0,-3.0,-3.0,-3.0,-3.0,-3.0,-0.8145134,-3.0
2025-06-06 16:16:28.105,0.0093327835,0.025650663,-0.02743981,-0.17105678,0.13191096,-0.035565626,0.0,0.0,0.0,-0.012722088,0.09033026,-0.07084638,-0.02595346,0.10099038,0.57666737,-0.32153764,-0.11796363,-0.6057634,-0.3131486,-0.012216099,-0.1710086,-0.23226148,-0.030748073,-0.025114436,0.017812021,-0.001540067,-0.03403356,0.068064675,-0.02121709,-0.02067656,0.06896924,0.033996455,-0.027447212,-0.0566063,3.0,-0.3461548,-3.0,3.0,3.0,-3.0,-3.0,-3.0,-3.0,-3.0,-0.8145134,-3.0,3.0,-0.046629786,-3.0,3.0,3.0,-3.0,-3.0,-3.0,-3.0,-3.0,-0.67013925,-3.0
2025-06-06 16:16:28.126,0.03924177,-0.037118543,0.01147104,-0.14650983,0.09441514,-0.049108077,0.0,0.0,0.0,-0.01252302,0.09425006,-0.06402605,-0.035786748,0.10941316,0.58036524,-0.31848183,-0.11058045,-0.5957902,-0.2995748,-0.015460111,-0.18398273,-0.22682522,-0.048228703,0.025070235,-0.06201684,-0.06910783,-0.016272038,-0.04722356,-0.050711725,0.052284636,0.07232587,0.0318331,0.038420346,0.058200613,3.0,-0.046629786,-3.0,3.0,3.0,-3.0,-3.0,-3.0,-3.0,-3.0,-0.67013925,-3.0,3.0,-0.36443704,-3.0,3.0,3.0,-3.0,-3.0,-3.0,-3.0,-3.0,-0.6354608,-3.0
2025-06-06 16:16:28.148,0.011515551,-0.04082691,-0.014965297,-0.18310922,0.18421187,-0.04305466,0.0,0.0,0.0,-0.012638163,0.09486069,-0.06529599,-0.039593972,0.09682013,0.5793598,-0.31710735,-0.112462886,-0.6122375,-0.3051808,-0.017364837,-0.18293676,-0.22853346,0.07695479,0.048762813,0.03183079,0.012210363,-0.008330012,-0.032492504,-0.04135599,-0.03519612,-0.07176486,0.024944276,0.039252855,0.07835484,3.0,-0.36443704,-3.0,3.0,3.0,-3.0,-3.0,-3.0,-3.0,-3.0,-0.6354608,-3.0,3.0,-0.22938994,-3.0,3.0,3.0,-3.0,-3.0,-3.0,-3.0,-3.0,-0.6892678,-3.0
2025-06-06 16:16:28.165,-0.026604485,-0.029483082,0.03845782,-0.13158956,0.120773785,-0.015742974,0.0,0.0,0.0,-0.012858094,0.096206374,-0.06753998,-0.041184578,0.10946108,0.5755722,-0.32950345,-0.12299964,-0.59756315,-0.3110928,-0.008514705,-0.19095008,-0.21331125,0.05944488,-0.04893319,-0.03239596,0.0233337,-0.038165748,0.03241991,-0.012728445,-0.009964189,-0.031067878,0.03156425,0.057405297,0.06721014,3.0,-0.22938994,-3.0,3.0,3.0,-3.0,-3.0,-3.0,-3.0,-3.0,-0.6892678,-3.0,3.0,-0.40393233,-3.0,3.0,3.0,-3.0,-3.0,-3.0,-3.0,-3.0,-0.41410655,-3.0
2025-06-06 16:16:28.185,-0.043323845,-0.050923802,-0.011941511,-0.13528802,0.092364945,0.005177407,0.0,0.0,0.0,-0.013135731,0.108514294,-0.065196246,-0.024209717,0.09377831,0.5843425,-0.32197762,-0.10743215,-0.6136691,-0.30187643,-0.014206076,-0.18262716,-0.21628386,0.021911403,-0.022648409,-0.049361184,-0.0061675073,0.0360746,0.019680401,-0.034430485,0.021678874,-0.02786123,-0.049847003,-0.05548927,0.06911237,3.0,-0.40393233,-3.0,3.0,3.0,-3.0,-3.0,-3.0,-3.0,-3.0,-0.41410655,-3.0,3.0,-0.17462593,-3.0,3.0,3.0,-3.0,-3.0,-3.0,-3.0,-3.0,-0.70610136,-3.0
2025-06-06 16:16:28.209,-0.018191708,0.00954395,-0.024706695,-0.17464526,0.18021649,0.02941794,0.0,0.0,0.0,-0.013226611,0.093233325,-0.070342965,-0.03360133,0.10384317,0.56998724,-0.3155258,-0.11156876,-0.613097,-0.29996958,-0.0110409055,-0.17760469,-0.21161309,-0.06337517,-0.07279633,-0.045508,0.037109096,0.030040959,0.05434791,0.007329851,-0.04034054,0.0687131,-0.018837336,0.020683521,0.06328382,3.0,-0.17462593,-3.0,3.0,3.0,-3.0,-3.0,-3.0,-3.0,-3.0,-0.70610136,-3.0,3.0,-0.08518624,-3.0,3.0,3.0,-3.0,-3.0,-3.0,-3.0,-3.0,-0.72884387,-3.0
2025-06-06 16:16:28.226,-0.008777121,0.049544964,0.018690713,-0.140695,0.16293554,-0.04042144,0.0,0.0,0.0,-0.013326173,0.094154835,-0.058201183,-0.028295163,0.09973582,0.5769938,-0.32922354,-0.107142754,-0.6115828,-0.30066663,-0.017030992,-0.19676791,-0.20896567,-0.008475907,0.021839239,-0.053902876,0.011691472,-0.00393323,0.038323734,-0.03307048,0.008707257,-0.02920298,-0.03941965,0.055622257,-0.0099714575,3.0,-0.08518624,-3.0,3.0,3.0,-3.0,-3.0,-3.0,-3.0,-3.0,-0.72884387,-3.0,3.0,-0.38860178,-3.0,3.0,3.0,-3.0,-3.0,-3.0,-3.0,-3.0,-0.4409594,-3.0
2025-06-06 16:16:28.246,0.032116435,0.037198883,0.05002125,-0.16188881,0.092654236,-0.044138003,0.0,0.0,0.0,-0.013589149,0.10177637,-0.07113724,-0.03523581,0.095231935,0.57008284,-0.32503575,-0.10732809,-0.59817034,-0.29571417,-0.01915683,-0.19309574,-0.21973568,0.029474504,0.027615102,0.03587445,-0.00939037,-0.009091899,0.023085877,-0.013102085,0.032645002,-0.010421244,-0.0041097677,-0.054062936,-0.026035942,3.0,-0.38860178,-3.0,3.0,3.0,-3.0,-3.0,-3.0,-3.0,-3.0,-0.4409594,-3.0,3.0,-0.5368886,-3.0,3.0,3.0,-3.0,-3.0,-3.0,-3.0,-3.0,-0.32695645,-3.0
2025-06-06 16:16:28.266,-0.044947837,-0.049289063,0.01104602,-0.18198569,0.15427636,0.048839916,0.0,0.0,0.0,-0.01369454,0.10159209,-0.07304307,-0.025115134,0.10606685,0.5675939,-0.32955465,-0.11131523,-0.59976107,-0.31244442,-0.02039424,-0.18249503,-0.22984263,0.028569028,0.06913866,0.06666377,0.019999903,0.06741836,0.020121917,0.029200671,0.06401342,-0.0049072523,-0.043983296,-0.04352425,-0.06724225,3.0,-0.5368886,-3.0,3.0,3.0,-3.0,-3.0,-3.0,-3.0,-3.0,-0.32695645,-3.0,3.0,-0.3589411,-3.0,3.0,3.0,-3.0,-3.0,-3.0,-3.0,-3.0,-0.5074679,-3.0
2025-06-06 16:16:28.286,-0.032501742,0.0054118205,0.007820275,-0.15986226,0.122366786,-0.04860569,0.0,0.0,0.0,-0.013439122,0.09986924,-0.0663149,-0.03704276,0.09545004,0.5738117,-0.32969883,-0.12307961,-0.6010614,-0.29855984,-0.01996521,-0.18001989,-0.23076193,-0.0618145,0.0028012604,-0.02546831,-0.049153846,-0.049094472,-0.07347601,-0.07057018,-0.027614895,0.033372987,-0.019267675,0.07037245,0.04416943,3.0,-0.3589411,-3.0,3.0,3.0,-3.0,-3.0,-3.0,-3.0,-3.0,-0.5074679,-3.0,3.0,-0.345923,-3.0,3.0,3.0,-3.0,-3.0,-3.0,-3.0,-3.0,-0.60608596,-3.0
2025-06-06 16:16:28.309,-0.043675672,0.02343874,0.029279776,-0.12646458,0.15964308,0.014934899,0.0,0.0,0.0,-0.013073437,0.096518174,-0.0745858,-0.035367545,0.09562626,0.5715033,-0.31526604,-0.12127176,-0.60365707,-0.30373186,-0.009153304,-0.17908394,-0.21745777,0.041577138,-0.048613362,0.031657763,0.04855234,0.019590963,0.013937137,0.010568486,-0.0617818,-0.0052179643,0.023067126,0.06204049,0.025733797,3.0,-0.345923,-3.0,3.0,3.0,-3.0,-3.0,-3.0,-3.0,-3.0,-0.60608596,-3.0,3.0,-0.42589408,-3.0,3.0,3.0,-3.0,-3.0,-3.0,-3.0,-3.0,-0.35227245,-3.0
2025-06-06 16:16:28.326,0.010745993,-0.0020472847,0.010553467,-0.1406676,0.11784889,-0.027450675,0.0,0.0,0.0,-0.012832832,0.107422054,-0.059067044,-0.025376402,0.09452153,0.57189316,-0.31742567,-0.116108745,-0.60288936,-0.30972898,-0.008970306,-0.1775388,-0.2258784,-0.042465124,-0.0399433,-0.036822572,0.030342657,0.010511777,-0.04449422,-0.0005579457,-0.04796785,-0.052633714,-0.056171335,-0.03237058,0.042607367,3.0,-0.42589408,-3.0,3.0,3.0,-3.0,-3.0,-3.0,-3.0,-3.0,-0.35227245,-3.0,3.0,-0.32562435,-3.0,3.0,3.0,-3.0,-3.0,-3.0,-3.0,-3.0,-0.5623986,-3.0
2025-06-06 16:16:28.346,0.035631437,-0.047152534,0.015071631,-0.14425941,0.09611497,-0.019915938,0.0,0.0,0.0,-0.012534327,0.09749611,-0.074172184,-0.014556279,0.10089531,0.58353734,-0.31777942,-0.115779586,-0.6071911,-0.31439263,-0.0016222898,-0.17611346,-0.22280052,-0.040905826,-0.07318828,-0.041745007,0.0598959,0.03794313,0.022942537,0.04634217,0.058822054,-0.021661654,-0.048584763,0.05586652,-0.052087393,3.0,-0.32562435,-3.0,3.0,3.0,-3.0,-3.0,-3.0,-3.0,-3.0,-0.5623986,-3.0,3.0,-0.46000803,-3.0,3.0,3.0,-3.0,-3.0,-3.0,-3.0,-3.0,-0.37409276,-3.0
2025-06-06 16:16:28.366,0.0072916993,0.02588705,0.036850113,-0.19643383,0.17252377,-0.043966845,0.0,0.0,0.0,-0.0123074595,0.08797056,-0.06522089,-0.017193273,0.09333816,0.5662888,-0.31863412,-0.11444579,-0.6127073,-0.30043152,-0.012356005,-0.16428617,-0.23001589,0.06690876,-0.037371457,-0.050175093,0.03366153,-0.00038369265,-0.04876124,0.027331062,0.020895083,-0.025409643,0.034765474,0.04109979,-0.047605444,3.0,-0.46000803,-3.0,3.0,3.0,-3.0,-3.0,-3.0,-3.0,-3.0,-0.37409276,-3.0,3.0,-0.6453623,-3.0,3.0,3.0,-3.0,-3.0,-3.0,-3.0,-3.0,-0.24975626,-3.0
2025-06-06 16:16:28.386,-0.0034791655,-0.05992369,0.014565451,-0.16835034,0.100313194,0.0031580173,0.0,0.0,0.0,-0.012080901,0.09905282,-0.071011275,-0.028497186,0.10017386,0.58187646,-0.32308376,-0.108172946,-0.601043,-0.2998011,-0.009129008,-0.17300418,-0.24031803,-0.045027014,-0.010746798,0.080423765,0.038393483,-0.0022183007,0.06111526,-0.02354714,0.039376833,-0.048972752,-0.04160084,0.0008876905,-0.082787864,3.0,-0.6453623,-3.0,3.0,3.0,-3.0,-3.0,-3.0,-3.0,-3.0,-0.24975626,-3.0,3.0,-0.4074812,-3.0,3.0,3.0,-3.0,-3.0,-3.0,-3.0,-3.0,-0.485336,-3.0
2025-06-06 16:16:28.409,0.0082839625,-0.05528514,0.032956235,-0.14528303,0.17737438,0.034443986,0.0,0.0,0.0,-0.0116722295,0.09420889,-0.08510597,-0.007670959,0.1031283,0.5816219,-0.3333974,-0.09796097,-0.597852,-0.30797082,-0.017730162,-0.15853137,-0.23175023,0.0095850285,0.055342983,0.024183653,0.045972798,-0.01019328,-0.010845104,-0.041289892,0.037188128,-0.007890244,-0.033581074,0.022940954,-0.059748642,3.0,-0.4074812,-3.0,3.0,3.0,-3.0,-3.0,-3.0,-3.0,-3.0,-0.485336,-3.0,3.0,-0.57628644,-3.0,3.0,3.0,-3.0,-3.0,-3.0,-3.0,-3.0,-0.27164215,-3.0
2025-06-06 16:16:28.426,-0.03814512,0.000111423775,-0.017186398,-0.16353555,0.2004567,-0.02471574,0.0,0.0,0.0,-0.011333883,0.08347678,-0.072278656,-0.021651056,0.09866065,0.5654566,-0.33342233,-0.09996315,-0.6160279,-0.30086985,-0.01147978,-0.16288362,-0.23622608,-0.048334848,0.057067852,-0.047413934,0.06739608,-0.0065027066,0.03037528,-0.032961022,0.062192228,0.0025705567,0.045257613,0.022311253,-0.06673969,3.0,-0.57628644,-3.0,3.0,3.0,-3.0,-3.0,-3.0,-3.0,-3.0,-0.27164215,-3.0,3.0,-0.24219602,-3.0,3.0,3.0,-3.0,-3.0,-3.0,-3.0,-3.0,-0.79716295,-3.0
2025-06-06 16:16:28.446,0.08447697,0.054611232,0.040306658,-0.17406423,0.17810959,-0.026231963,0.0,0.0,0.0,-0.011003128,0.08613586,-0.069862224,-0.023351328,0.10063077,0.5802038,-0.32791924,-0.099398956,-0.60316473,-0.30977902,-0.0034541436,-0.16130266,-0.23895295,0.020029541,-0.047987193,0.04203459,-0.04470788,-0.018137481,-0.009922804,-0.023293456,-0.053860914,-0.016260393,-0.04241272,-0.03321542,0.069046654,3.0,-0.24219602,-3.0,3.0,3.0,-3.0,-3.0,-3.0,-3.0,-3.0,-0.79716295,-3.0,3.0,-0.64722085,-3.0,3.0,3.0,-3.0,-3.0,-3.0,-3.0,-3.0,-0.14141361,-3.0
2025-06-06 16:16:28.467,-0.024239186,-0.05378388,-0.0018725883,-0.19950996,0.18273556,0.03822691,0.0,0.0,0.0,-0.011066136,0.09206158,-0.07509573,-0.0056421473,0.100430585,0.57693446,-0.3272539,-0.11452975,-0.617786,-0.2989551,-0.006122801,-0.1649905,-0.23175845,0.055740952,-0.0030620054,-0.06115374,0.010907826,0.018876333,0.06216078,0.0049438453,-0.071617484,-0.06369529,0.064113274,0.044452425,-0.0026865352,3.0,-0.64722085,-3.0,3.0,3.0,-3.0,-3.0,-3.0,-3.0,-3.0,-0.14141361,-3.0,3.0,-0.41344014,-3.0,3.0,3.0,-3.0,-3.0,-3.0,-3.0,-3.0,-0.5997309,-3.0
2025-06-06 16:16:28.486,-0.0014994043,0.045936804,0.03152132,-0.17174175,0.12232821,-0.02367137,0.0,0.0,0.0,-0.011047855,0.0982262,-0.0882526,-0.009762784,0.10837362,0.57242316,-0.33316943,-0.10153131,-0.6080035,-0.31102428,-0.013006398,-0.1762821,-0.23951377,-0.04749329,-0.020610223,0.06623605,-0.018636208,0.06446136,-0.008657285,-0.0066399476,0.019034302,-0.062104892,-0.060608152,-0.03451419,0.0028206892,3.0,-0.41344014,-3.0,3.0,3.0,-3.0,-3.0,-3.0,-3.0,-3.0,-0.5997309,-3.0,3.0,-0.54945034,-3.0,3.0,3.0,-3.0,-3.0,-3.0,-3.0,-3.0,-0.28351134,-3.0
2025-06-06 16:16:28.509,-0.04081279,0.039244775,0.026209401,-0.14872476,0.14966303,0.037078235,0.0,0.0,0.0,-0.011081961,0.09731148,-0.08843307,-0.006175318,0.100300945,0.566556,-0.33399454,-0.104353316,-0.60801584,-0.3022518,-0.001892062,-0.16685776,-0.22773486,-0.017323261,-0.055942237,-0.043310195,-0.014118356,-0.032757495,-0.060056157,0.051884536,-0.04923895,0.048851047,0.023408817,0.013592318,0.00016262644,3.0,-0.54945034,-3.0,3.0,3.0,-3.0,-3.0,-3.0,-3.0,-3.0,-0.28351134,-3.0,3.0,-0.54872465,-3.0,3.0,3.0,-3.0,-3.0,-3.0,-3.0,-3.0,-0.36566037,-3.0
2025-06-06 16:16:28.527,-0.060601622,-0.0011216361,-0.025297394,-0.1804621,0.11136359,-0.01566234,0.0,0.0,0.0,-0.011081521,0.093276694,-0.08014169,-0.010221485,0.1017671,0.5840077,-0.3207924,-0.100834236,-0.60603935,-0.31285223,-0.014321561,-0.17898303,-0.23613474,0.038664047,0.059075814,-0.018705776,0.018270425,-0.006778043,0.05553711,0.06332674,0.04400566,-0.07039739,0.07458948,0.06958499,0.0356941,3.0,-0.54872465,-3.0,3.0,3.0,-3.0,-3.0,-3.0,-3.0,-3.0,-0.36566037,-3.0,3.0,-0.19218409,-3.0,3.0,3.0,-3.0,-3.0,-3.0,-3.0,-3.0,-0.8840149,-3.0
2025-06-06 16:16:28.547,0.01927418,0.00073918264,-0.006975763,-0.14083043,0.18331942,-0.03258401,0.0,0.0,0.0,-0.010993202,0.09780527,-0.08997299,-0.022479396,0.10408251,0.5762482,-0.32629958,-0.10648912,-0.61848426,-0.3037733,-0.0042327456,-0.17116539,-0.23904708,0.001564094,0.042999912,0.004797885,0.055036888,-0.053126637,0.028903075,-0.03330792,0.035000294,0.061051596,-0.039205357,0.047326714,0.008479107,3.0,-0.19218409,-3.0,3.0,3.0,-3.0,-3.0,-3.0,-3.0,-3.0,-0.8840149,-3.0,3.0,-0.2664243,-3.0,3.0,3.0,-3.0,-3.0,-3.0,-3.0,-3.0,-0.6046168,-3.0
2025-06-06 16:16:28.567,0.04754532,0.061869144,0.061300945,-0.2008276,0.18506747,0.015620544,0.0,0.0,0.0,-0.011334899,0.09384637,-0.07694396,-0.017635256,0.10268679,0.5647937,-0.32841408,-0.10783709,-0.6219734,-0.3188693,0.00075979717,-0.19157648,-0.22172417,-0.016485991,-0.030890508,-0.068723164,-0.017479587,0.010459985,-0.073472075,-0.047987703,0.051192,-0.06776839,0.054680657,0.037754934,-0.02403668,3.0,-0.2664243,-3.0,3.0,3.0,-3.0,-3.0,-3.0,-3.0,-3.0,-0.6046168,-3.0,3.0,-0.82677597,-3.0,3.0,3.0,-3.0,-3.0,-3.0,-3.0,-3.0,-0.014352728,-3.0
