openverse-orca/OrcaGym/log/simulation_log_20250604_184005.csv
timestamp,imu_angle_roll,imu_angle_pitch,imu_angle_yaw,imu_angular_velocity_roll,imu_angular_velocity_pitch,imu_angular_velocity_yaw,imu_acc_x,imu_acc_y,imu_acc_z,fl_joint1_pos,fl_joint1_vel,fl_joint1_torque,fl_joint2_pos,fl_joint2_vel,fl_joint2_torque,fl_joint3_pos,fl_joint3_vel,fl_joint3_torque,fr_joint1_pos,fr_joint1_vel,fr_joint1_torque,fr_joint2_pos,fr_joint2_vel,fr_joint2_torque,fr_joint3_pos,fr_joint3_vel,fr_joint3_torque,hl_joint1_pos,hl_joint1_vel,hl_joint1_torque,hl_joint2_pos,hl_joint2_vel,hl_joint2_torque,hl_joint3_pos,hl_joint3_vel,hl_joint3_torque,hr_joint1_pos,hr_joint1_vel,hr_joint1_torque,hr_joint2_pos,hr_joint2_vel,hr_joint2_torque,hr_joint3_pos,hr_joint3_vel,hr_joint3_torque,fl_force_x,fl_force_y,fl_force_z,fr_force_x,fr_force_y,fr_force_z,hl_force_x,hl_force_y,hl_force_z,hr_force_x,hr_force_y,hr_force_z,fl_hip_action,fl_thigh_action,fl_calf_action,fr_hip_action,fr_thigh_action,fr_calf_action,hl_hip_action,hl_thigh_action,hl_calf_action,hr_hip_action,hr_thigh_action,hr_calf_action
2025-06-04 18:40:05.841,0.032911457,-0.03781839,0.027588367,-0.017088069,-0.0043101893,-0.005832113,-2.932352,0.91489553,0.0,0.0,0.0053625754,0.0053182472,-0.0035245784,0.0023493744,0.007058303,-0.009336856,-0.0066819414,1.2890449e-06,0.0040822946,-0.009395658,-0.0010935882,0.0001785686,0.027440203,-0.053359836,-0.04271046,-0.019007707,-0.04403404,-0.0005077403,-0.071443014,0.018624976,-0.06706433,-0.06947582,-0.06963673,-0.010961318,0.0,0.0,0.0,0.0,0.0,0.0,0.0,0.0,0.0,0.0,0.0,0.0,0.9326121,0.9634174,0.7484961,0.3883046,0.91737336,0.8016281,-0.72135,-0.9341902,-0.12222163,0.47626606,0.8566804,-0.14876659
2025-06-04 18:40:05.849,-0.036973372,0.07069184,-0.010542075,-0.029305434,0.0042546145,-0.040201157,0.0,0.0,0.0,0.0,0.01213416,0.053321533,0.03401455,0.011518505,0.05287988,0.03280773,-0.0072522764,-0.061835844,0.006721293,-0.0024759378,0.053777747,-0.01211777,0.027980203,0.20344687,0.040952824,0.045685068,0.24488898,0.13189057,0.0013165583,-0.22483645,0.018011287,0.009272694,0.18857417,0.045870695,0.9326121,0.9634174,0.7484961,0.3883046,0.91737336,0.8016281,-0.72135,-0.9341902,-0.12222163,0.47626606,0.8566804,-0.14876659,0.333354,0.33784387,0.74021053,0.48600516,0.54717404,-0.7310457,0.6303041,-0.8144237,-0.9814352,-0.5957507,-0.39800388,0.13116294
2025-06-04 18:40:05.865,-0.054307744,-0.0866531,0.007871903,-0.0033432355,-0.038660698,0.04991998,0.0,0.0,0.0,0.00050419016,0.014978334,0.08839654,0.04729366,0.014428136,0.09394272,-0.0014811568,-0.0020434137,-0.11764822,-0.05016887,0.0071331207,0.041920252,-0.006570244,0.014334226,0.065938406,0.087759025,0.05949839,0.15911563,-0.11224337,0.09690799,-0.19309318,-0.043736722,-0.027963141,-0.023372594,-0.022317892,0.333354,0.33784387,0.74021053,0.48600516,0.54717404,-0.7310457,0.6303041,-0.8144237,-0.9814352,-0.5957507,-0.39800388,0.13116294,-0.2348609,0.17707717,-0.02614801,0.8256665,0.43953618,-0.9497756,0.86459684,-0.7301501,-0.9308166,-0.6358715,-0.5745616,0.08120635
2025-06-04 18:40:05.886,0.04389831,0.04629099,-0.037475437,0.02047941,0.029786827,-0.024742298,0.0,0.0,0.0,0.0006800629,0.008712981,0.09552529,0.048203114,0.026031075,0.12478513,-0.04050255,0.0065292125,-0.165628,-0.06818553,-0.005070655,-0.004894896,0.016164608,-0.010460797,-0.03303357,0.015301938,-0.016036397,-0.008283063,0.0011184411,-0.0057825455,-0.12654644,-0.047326397,0.016538974,-0.07431445,-0.022865947,-0.2348609,0.17707717,-0.02614801,0.8256665,0.43953618,-0.9497756,0.86459684,-0.7301501,-0.9308166,-0.6358715,-0.5745616,0.08120635,0.12967364,0.55529195,-0.86050576,0.85302126,-0.10037154,-0.66512156,0.80579185,-0.51404876,-0.6561412,-0.6188488,-0.6125898,-0.7570553
2025-06-04 18:40:05.907,0.07828985,0.042533133,0.09174478,0.026294202,-0.03966633,-0.03799964,0.0,0.0,0.0,0.00068253215,0.024237836,0.11396656,0.039718695,0.029438157,0.11566244,-0.029830292,0.022141764,-0.17963676,-0.045187056,-0.013679044,-0.037953053,0.02997084,0.0059716543,-0.05212687,-0.08617092,-0.0032874679,-0.10426479,0.08800453,-0.04244887,-0.10109043,0.027243659,-0.0798929,-0.037371576,-0.0071580266,0.12967364,0.55529195,-0.86050576,0.85302126,-0.10037154,-0.66512156,0.80579185,-0.51404876,-0.6561412,-0.6188488,-0.6125898,-0.7570553,-0.02333782,0.539376,-0.9409454,0.17114873,-0.3866202,0.9136661,0.42329523,-0.9406427,0.36396658,-0.4767803,-0.47169715,-0.92794675
2025-06-04 18:40:05.927,0.0451096,0.04448797,0.0405157,0.04496533,0.0416622,-0.04792587,0.0,0.0,0.0,-0.0006470716,0.012592564,0.10937576,0.025371809,0.039225638,0.083526164,0.035541102,0.006462695,-0.22054574,-0.016454145,-0.015790937,-0.06007978,0.057596963,-0.010498864,-0.038155008,0.042438075,0.025820402,-0.08570894,0.05631006,0.0054596197,-0.06678065,0.10250117,-0.036926087,0.01619254,0.07166725,-0.02333782,0.539376,-0.9409454,0.17114873,-0.3866202,0.9136661,0.42329523,-0.9406427,0.36396658,-0.4767803,-0.47169715,-0.92794675,0.2178881,-0.064412475,-0.9830876,-0.70360625,-0.5072307,0.99375945,-0.7613144,-0.9279801,0.9698237,-0.26646596,-0.40806058,-0.9843751
2025-06-04 18:40:05.949,-0.10267216,-0.104727834,-0.1129491,0.018121546,-0.021988973,-0.041157857,0.0,0.0,0.0,-0.0015575506,0.007650312,0.09855562,0.046717096,0.017287496,0.02755216,0.08008507,0.0044365786,-0.25268775,0.028337559,-0.0150893405,-0.071969226,0.07038817,-0.08611952,-0.027471047,0.011141567,-0.111993425,-0.060299154,0.16078065,-0.052128136,-0.1490279,0.13339745,0.038709342,-0.10217143,-0.00488759,0.2178881,-0.064412475,-0.9830876,-0.70360625,-0.5072307,0.99375945,-0.7613144,-0.9279801,0.9698237,-0.26646596,-0.40806058,-0.9843751,0.8343396,0.56683695,-0.8303474,-0.74108756,0.022098945,0.99102736,-0.9456378,-0.8132774,0.9579372,-0.47889388,-0.8009181,-0.99016976
2025-06-04 18:40:05.967,0.0348416,-0.16213453,-0.011392515,-0.01490525,-0.03312373,0.04475366,0.0,0.0,0.0,-0.00090681744,0.011414349,0.09497559,0.0198531,0.0012746847,0.009254892,0.099308476,0.0020021843,-0.28442043,0.07045399,-0.021109875,-0.09389201,0.07271004,0.044636033,0.03573877,-0.11577614,-0.10561854,0.042348485,0.13108814,0.03149256,-0.10381323,0.09293822,-0.01994387,-0.070904486,-0.0026132404,0.8343396,0.56683695,-0.8303474,-0.74108756,0.022098945,0.99102736,-0.9456378,-0.8132774,0.9579372,-0.47889388,-0.8009181,-0.99016976,0.29713005,0.36348838,-0.6793329,-0.76054794,0.28072354,0.96928036,-0.95218676,-0.8901495,0.82773364,-0.017234128,-0.7274252,-0.9778583
2025-06-04 18:40:05.987,-0.01977521,-0.11393044,0.013011313,-0.012190825,0.010656924,0.01845136,0.0,0.0,0.0,-0.00071594125,0.016973823,0.085058905,0.0031249723,-0.0044462327,0.030916773,0.13720368,-0.02531313,-0.3101372,0.09847038,-0.0110333245,-0.1153392,0.07493741,0.021543568,0.0136768175,-0.019116733,-0.048185233,0.0498845,0.029653613,0.03386037,-0.07701625,0.08339735,0.054069,-0.096427284,0.056709785,0.29713005,0.36348838,-0.6793329,-0.76054794,0.28072354,0.96928036,-0.95218676,-0.8901495,0.82773364,-0.017234128,-0.7274252,-0.9778583,-0.07168624,0.2656343,-0.53278685,-0.81538296,0.3814639,0.8647676,-0.96230227,-0.87985027,0.7715337,0.45682842,-0.7046847,-0.9672042
2025-06-04 18:40:06.007,-0.07975877,-0.112517215,0.010467683,-0.0016911428,0.0029914358,-0.03436518,0.0,0.0,0.0,-0.001223474,0.017647458,0.08201696,-0.002338328,-0.018784568,0.048395522,0.14534314,-0.030447997,-0.31590253,0.10418162,-0.02555733,-0.13095577,0.055155568,0.047746774,-0.039772194,-0.09986034,-0.008892543,0.0600583,-0.0022250563,-0.08043117,-0.023379583,0.07182376,0.0017312972,-0.10899531,-0.020185297,-0.07168624,0.2656343,-0.53278685,-0.81538296,0.3814639,0.8647676,-0.96230227,-0.87985027,0.7715337,0.45682842,-0.7046847,-0.9672042,-0.08005161,0.3231023,-0.1149387,-0.81905097,0.49431267,0.51761496,-0.9459208,-0.8899267,0.5182401,0.6899959,-0.75048906,-0.9346047
2025-06-04 18:40:06.027,-0.008994564,-0.028813727,0.0867573,0.04245926,-0.06523114,-0.021262752,0.0,0.0,0.0,-0.001657269,0.022906147,0.07581211,-0.0038189115,-0.039658934,0.09613802,0.13700552,-0.0371884,-0.3359986,0.119866215,-0.013196558,-0.15323535,0.058455132,0.035946935,-0.017953647,-0.05788846,-0.06352756,0.04924967,-0.07284282,0.030639218,-0.04948962,-0.043723293,-0.02916871,-0.10479397,0.012266859,-0.08005161,0.3231023,-0.1149387,-0.81905097,0.49431267,0.51761496,-0.9459208,-0.8899267,0.5182401,0.6899959,-0.75048906,-0.9346047,-0.43633425,-0.0025005299,0.15970002,-0.82732946,0.7310921,-0.5431907,-0.8673061,-0.9452908,-0.29454944,0.9208789,-0.8059882,-0.78183806
2025-06-04 18:40:06.049,-0.1533963,0.03870108,0.012093804,0.035415497,-0.060452215,0.028513685,0.0,0.0,0.0,-0.002245001,0.011724711,0.05641135,0.010457123,-0.049202044,0.13128681,0.107635945,-0.0485714,-0.3632976,0.0863276,-0.0058849086,-0.16123843,0.046762265,0.05168949,0.027502548,0.019458264,0.039648928,0.08593204,-0.092555724,0.018014459,-0.0013210442,-0.0454862,-0.031742215,-0.081867024,0.030862851,-0.43633425,-0.0025005299,0.15970002,-0.82732946,0.7310921,-0.5431907,-0.8673061,-0.9452908,-0.29454944,0.9208789,-0.8059882,-0.78183806,-0.71129537,-0.41185352,0.24128291,-0.11491506,0.8585769,-0.89924586,-0.36716717,-0.938045,-0.62283564,0.9495482,-0.9584565,-0.24413948
2025-06-04 18:40:06.067,-0.16992348,-0.06642088,-0.056387562,-0.022017092,-0.051639743,0.008364857,0.0,0.0,0.0,-0.002554861,0.008543155,0.01953016,0.024914045,-0.046417896,0.16849895,0.044771027,-0.04263401,-0.37368762,0.04570105,0.005960011,-0.20142555,0.05972956,-0.032906495,-0.13256481,0.13060382,0.044565998,0.04519878,-0.16501111,-0.02979182,-0.040864736,-0.056896005,-0.039453357,-0.08223807,0.06635805,-0.71129537,-0.41185352,0.24128291,-0.11491506,0.8585769,-0.89924586,-0.36716717,-0.938045,-0.62283564,0.9495482,-0.9584565,-0.24413948,-0.76867855,-0.27988845,0.0784555,0.5660008,0.74809146,-0.9642297,-0.03900944,-0.8324597,-0.67493093,0.9712787,-0.93008727,-0.12614721
2025-06-04 18:40:06.088,-0.06091627,-0.03961374,-0.04548996,-0.03088379,-0.0528532,0.00085443957,0.0,0.0,0.0,-0.0022054184,-0.009236689,-0.005009382,0.04090004,-0.030183673,0.20962153,0.0046085357,-0.045492835,-0.39100343,0.015046459,0.028549919,-0.23185009,0.06602747,-0.03955331,-0.1113646,0.07538125,0.09770784,0.039768737,-0.08365561,-0.04416735,-0.013098092,0.0013327718,0.09369304,-0.12964009,-0.010214666,-0.76867855,-0.27988845,0.0784555,0.5660008,0.74809146,-0.9642297,-0.03900944,-0.8324597,-0.67493093,0.9712787,-0.93008727,-0.12614721,-0.7240107,-0.13098726,-0.14835958,0.6647533,0.6505892,-0.9504404,0.34515598,-0.75969976,-0.6647197,0.96876615,-0.87288564,-0.09943941
2025-06-04 18:40:06.107,0.0416698,-0.011399839,0.021430394,0.003910315,-0.023794683,0.02224913,0.0,0.0,0.0,-0.001054466,-0.0016441426,-0.04198131,0.07103376,-0.025342247,0.21696834,-0.013036372,-0.026339212,-0.39725992,-0.006055205,0.03772831,-0.26463464,0.09042384,-0.044464286,-0.06459753,0.07238133,-0.03371438,-0.037751343,-0.054954104,-0.04654874,-0.022789551,-0.054306924,0.06894806,-0.06538908,-0.01078752,-0.7240107,-0.13098726,-0.14835958,0.6647533,0.6505892,-0.9504404,0.34515598,-0.75969976,-0.6647197,0.96876615,-0.87288564,-0.09943941,-0.65467644,0.08160523,-0.39725292,0.35006937,0.6537019,-0.8796859,0.626703,-0.86774963,-0.7226353,0.9544313,-0.8269921,-0.19869499
2025-06-04 18:40:06.128,-0.000506195,0.0059136283,0.002047696,-0.01637675,-0.0098892255,-0.04970215,0.0,0.0,0.0,-0.00022705515,-0.008017071,-0.03916417,0.065433964,-0.02107128,0.20838739,-0.020266358,-0.026758958,-0.406563,-0.0016275032,0.050833624,-0.2690338,0.08359699,-0.023551034,0.020145213,-0.0072415075,0.09339615,-0.03422689,0.052198716,-0.035593994,-0.04455783,-0.048439994,0.007566898,0.0016971993,-0.0030792665,-0.65467644,0.08160523,-0.39725292,0.35006937,0.6537019,-0.8796859,0.626703,-0.86774963,-0.7226353,0.9544313,-0.8269921,-0.19869499,-0.51453763,0.27167237,-0.6101315,0.22708857,0.48770025,-0.8074232,0.618062,-0.8832048,-0.73115623,0.9515066,-0.8130902,-0.32399505
2025-06-04 18:40:06.150,0.055086646,-0.077968776,-0.057069447,0.004568509,-0.083582975,-0.03617745,0.0,0.0,0.0,0.00019974029,-0.00325332,-0.02964741,0.035480868,0.0060973847,0.20802815,-0.037162185,-0.010012609,-0.42090484,-0.026359923,0.06292941,-0.28266522,0.047297623,-0.059214756,0.12831408,-0.090355694,-0.03956663,0.026670724,-0.07756641,0.019687451,0.017925272,-0.08782079,-0.024304021,-0.04300079,-0.06982705,-0.51453763,0.27167237,-0.6101315,0.22708857,0.48770025,-0.8074232,0.618062,-0.8832048,-0.73115623,0.9515066,-0.8130902,-0.32399505,-0.30522484,0.22476955,-0.69055057,0.5244675,0.35596257,-0.8053948,0.20900728,-0.83934504,-0.62832576,0.95746297,-0.9008569,-0.65120506
2025-06-04 18:40:06.168,0.03803551,-0.05182549,0.012596203,0.0040700436,-0.10086474,0.030489448,0.0,0.0,0.0,0.0003903807,-0.0071039917,-0.014504028,0.009759498,0.014091244,0.2128968,-0.05063195,0.0025864576,-0.41700947,-0.034352668,0.053578775,-0.30636087,0.04265897,-0.06041383,-0.023305532,-0.04234057,0.0072719473,0.057714052,-0.037576437,-0.03729977,0.019142132,0.00757059,-0.054155488,-0.01162999,-0.06214304,-0.30522484,0.22476955,-0.69055057,0.5244675,0.35596257,-0.8053948,0.20900728,-0.83934504,-0.62832576,0.95746297,-0.9008569,-0.65120506,-0.4482268,0.19504854,-0.4439279,0.15672995,0.5504155,-0.5874084,0.24577868,-0.92763835,-0.57129306,0.9538127,-0.8569062,-0.57843286
2025-06-04 18:40:06.188,0.0034949665,0.01394266,0.070352726,-0.025947044,-0.01835532,-0.040027212,0.0,0.0,0.0,-0.0003976837,-0.005662037,0.00015554402,0.00036016182,0.020313963,0.20986219,-0.05488752,-0.002818081,-0.41656038,-0.030491443,0.06157144,-0.31902736,0.0057779294,-0.004282521,0.008160313,0.03438033,-0.02152562,0.049221016,-0.045975015,-0.033133008,-0.010151007,-0.0037262866,-0.0017433976,-0.07196443,-0.030790383,-0.4482268,0.19504854,-0.4439279,0.15672995,0.5504155,-0.5874084,0.24577868,-0.92763835,-0.57129306,0.9538127,-0.8569062,-0.57843286,-0.6152536,0.067891635,-0.44630522,-0.30361474,0.61899745,-0.67455333,0.4047966,-0.95026046,-0.7096206,0.94754535,-0.8641839,-0.50131613
2025-06-04 18:40:06.209,-0.04635734,-0.05681697,0.009706173,0.025621189,-0.052200608,0.01011422,0.0,0.0,0.0,-0.0011173128,-0.0097566815,-0.0013851654,-0.022290323,0.0069732172,0.21554837,-0.052144397,-0.009557713,-0.42242765,-0.03270921,0.07423453,-0.3205679,-0.008719012,0.06170992,-0.06476426,-0.038118083,0.017597374,-0.034395423,0.010843181,-0.04279526,-0.063121766,0.036456328,0.069355614,-0.048409715,-0.04976821,-0.6152536,0.067891635,-0.44630522,-0.30361474,0.61899745,-0.67455333,0.4047966,-0.95026046,-0.7096206,0.94754535,-0.8641839,-0.50131613,-0.6050137,0.13119009,-0.58209133,-0.43848455,0.64020956,-0.7396809,0.49442402,-0.9497886,-0.7596487,0.95535713,-0.87825155,-0.38545093
2025-06-04 18:40:06.228,-0.021044543,-0.012321966,-0.093394496,-0.026154688,-0.055750813,0.010275072,0.0,0.0,0.0,-0.0008366662,-0.01925893,-0.0067507005,-0.029588187,0.012315421,0.2074892,-0.0671315,-0.009752005,-0.4299112,-0.03026325,0.0675473,-0.33619678,-0.029994534,0.022371251,-0.044349864,-0.02739642,-0.07349743,0.06745717,0.018333461,0.08155966,0.015946722,-0.048043188,0.066114075,-0.041979373,0.030953856,-0.6050137,0.13119009,-0.58209133,-0.43848455,0.64020956,-0.7396809,0.49442402,-0.9497886,-0.7596487,0.95535713,-0.87825155,-0.38545093,-0.44211304,0.033087507,-0.64701223,0.20055474,0.5524781,-0.8779297,0.029216522,-0.8868094,-0.67791235,0.9615591,-0.93570703,-0.65985173
2025-06-04 18:40:06.250,0.016100533,-0.06573974,0.025534788,-0.02699826,-0.041800242,0.005038985,0.0,0.0,0.0,0.00031979557,-0.019739384,-0.012643494,-0.03594936,0.009986033,0.20447469,-0.077792704,-0.004380666,-0.43026984,-0.048316456,0.08709203,-0.3472396,-0.041249055,-0.07079093,0.070517056,0.043320205,-0.044876516,0.027001567,0.029775675,0.07437949,0.013223608,-0.042977177,0.018764636,0.029060513,-0.024240883,-0.44211304,0.033087507,-0.64701223,0.20055474,0.5524781,-0.8779297,0.029216522,-0.8868094,-0.67791235,0.9615591,-0.93570703,-0.65985173,-0.6497634,0.032559842,-0.32746208,0.09798145,0.7054568,-0.79550076,0.31905276,-0.94365525,-0.6161513,0.9698253,-0.88522846,-0.38952687
2025-06-04 18:40:06.268,-0.048729107,-0.037498537,-0.05693589,0.048101224,-0.11129061,0.028481917,0.0,0.0,0.0,0.00097027974,-0.011648174,-0.015576339,-0.044353172,0.006605016,0.21942621,-0.083443895,0.006836707,-0.43044,-0.048688103,0.08742031,-0.3636257,-0.042563975,-0.063350275,0.026716432,-0.059405055,0.036935575,-0.033152197,0.039922923,0.032459877,-0.066956185,0.04475106,-0.049532548,-0.0032381434,0.044264514,-0.6497634,0.032559842,-0.32746208,0.09798145,0.7054568,-0.79550076,0.31905276,-0.94365525,-0.6161513,0.9698253,-0.88522846,-0.38952687,-0.46135306,0.085847825,-0.573521,0.351709,0.5524156,-0.92073846,0.41577843,-0.8642173,-0.70849776,0.97317797,-0.8949638,-0.37416884
2025-06-04 18:40:06.290,0.04276155,-0.07927134,0.004485632,-0.014163383,-0.120781064,0.03756965,0.0,0.0,0.0,0.0013447726,-0.01642909,-0.0038874222,-0.053257916,0.0062037483,0.22381736,-0.09127424,0.008412525,-0.4428922,-0.055338584,0.090461425,-0.3654349,-0.042438854,0.020223424,0.019396638,0.05487021,0.029266424,-0.029340908,0.035411768,-0.00066422665,-0.018273028,-0.027631292,-0.033400036,0.0101796575,-0.013764894,-0.46135306,0.085847825,-0.573521,0.351709,0.5524156,-0.92073846,0.41577843,-0.8642173,-0.70849776,0.97317797,-0.8949638,-0.37416884,-0.54083264,0.23126778,-0.5341879,0.122700155,0.5594965,-0.79000527,0.5422379,-0.9109365,-0.701792,0.9636326,-0.8341126,-0.39335242
2025-06-04 18:40:06.309,0.0140172215,0.0052263145,0.036433805,0.05984918,-0.0809503,-0.04097192,0.0,0.0,0.0,0.001286024,-0.019484436,-0.008672477,-0.06619667,0.01777107,0.22820996,-0.08928517,0.018777743,-0.44148514,-0.056175772,0.0839705,-0.37828425,-0.038952623,0.057561934,0.04329158,-0.025257247,-0.014600592,0.010500527,-0.06391907,-0.044270836,0.06544159,0.014241187,0.010977164,0.022023061,0.03902103,-0.54083264,0.23126778,-0.5341879,0.122700155,0.5594965,-0.79000527,0.5422379,-0.9109365,-0.701792,0.9636326,-0.8341126,-0.39335242,-0.6122469,0.20723103,-0.5453417,-0.21284829,0.53958845,-0.68961513,0.56423295,-0.94172204,-0.7686128,0.9509229,-0.8382025,-0.47621238
2025-06-04 18:40:06.332,0.04418281,-0.010511752,0.0019347599,0.030565755,-0.10643639,-0.006000285,0.0,0.0,0.0,0.0012681006,-0.03022095,0.011604564,-0.06460324,0.0074075023,0.2136642,-0.08517633,0.013041311,-0.43410048,-0.0605241,0.08179621,-0.37706682,-0.03692615,-0.07912941,-0.044947453,0.0020078134,-0.01497375,0.07602335,-0.0010488126,-0.008265632,0.07746734,-0.073216245,-0.064157456,-0.012523254,-0.01399589,-0.6122469,0.20723103,-0.5453417,-0.21284829,0.53958845,-0.68961513,0.56423295,-0.94172204,-0.7686128,0.9509229,-0.8382025,-0.47621238,-0.5221686,0.1462322,-0.59514666,-0.28353283,0.5512398,-0.7624203,0.3736878,-0.94230443,-0.7768479,0.95949215,-0.9033884,-0.5639897
2025-06-04 18:40:06.350,-0.020858742,-0.05819191,-0.058014747,0.04917262,-0.0296525,-0.01234843,0.0,0.0,0.0,0.0017248979,-0.03763959,0.005530623,-0.082094446,0.0040398855,0.21705472,-0.08138578,0.009533936,-0.4349178,-0.061027464,0.08635537,-0.37121078,-0.049294956,-0.0015098487,-0.041346446,-0.08985731,-0.015973303,0.003242981,0.00834479,-0.039968472,-0.004839501,-0.048546843,-0.06881747,-0.021008825,0.005829482,-0.5221686,0.1462322,-0.59514666,-0.28353283,0.5512398,-0.7624203,0.3736878,-0.94230443,-0.7768479,0.95949215,-0.9033884,-0.5639897,-0.46609864,0.11296533,-0.5944608,0.11633475,0.53513706,-0.8639164,0.13518466,-0.9146882,-0.68597305,0.9726934,-0.91848415,-0.5520977
2025-06-04 18:40:06.369,0.017396193,-0.05814964,-0.014128192,0.031661395,-0.066962466,-0.037048906,0.0,0.0,0.0,0.002319184,-0.035606425,0.0046280036,-0.09036582,0.009416894,0.2168067,-0.07903608,0.008251162,-0.43818232,-0.06292211,0.09434735,-0.38617066,-0.056375865,-0.017817728,0.03864211,0.046438027,0.065741986,0.02368354,0.027426671,0.028359883,0.045269284,0.021561943,-0.045091826,-0.034214288,0.034032665,-0.46609864,0.11296533,-0.5944608,0.11633475,0.53513706,-0.8639164,0.13518466,-0.9146882,-0.68597305,0.9726934,-0.91848415,-0.5520977,-0.60146606,0.066388704,-0.3632682,0.18991593,0.6071159,-0.82051456,0.26164016,-0.91973436,-0.6347572,0.9676007,-0.890077,-0.44201037
2025-06-04 18:40:06.392,0.013871306,-0.015725587,-0.026615677,0.0118115805,-0.10028415,0.021222396,0.0,0.0,0.0,0.0023553525,-0.02514858,0.017470023,-0.08391279,0.0016463841,0.2239679,-0.08401737,0.01276445,-0.44278815,-0.05944887,0.09849177,-0.3876556,-0.044797,-0.018955486,-0.034905728,-0.018698161,0.024588289,-0.044096936,-0.07774872,-0.016717622,-0.0563347,-0.05426034,0.0052922713,0.015604727,0.06659841,-0.60146606,0.066388704,-0.3632682,0.18991593,0.6071159,-0.82051456,0.26164016,-0.91973436,-0.6347572,0.9676007,-0.890077,-0.44201037,-0.56870484,0.067829035,-0.4561188,0.16629636,0.6144552,-0.88188183,0.4187476,-0.90531385,-0.71814287,0.96986485,-0.89190185,-0.39172295
2025-06-04 18:40:06.410,0.006463047,0.031932134,-0.032450818,-0.0062361252,-0.030094035,0.008416768,0.0,0.0,0.0,0.0020918332,-0.03128688,0.013597718,-0.0781201,0.009659452,0.22210996,-0.09866499,0.0065653604,-0.44312525,-0.063564375,0.10016334,-0.39284113,-0.04524352,0.018488709,0.047406863,0.008302898,-0.020177392,-0.028453501,-0.04552196,-0.018206924,0.040893424,-0.071539514,-0.016628282,-0.016319811,0.033298638,-0.56870484,0.067829035,-0.4561188,0.16629636,0.6144552,-0.88188183,0.4187476,-0.90531385,-0.71814287,0.96986485,-0.89190185,-0.39172295,-0.46640936,0.13414116,-0.5926826,0.36651647,0.51519376,-0.9017154,0.32170144,-0.8685557,-0.688872,0.9729657,-0.8924228,-0.49756336
2025-06-04 18:40:06.433,0.04651511,-0.02428784,0.06729541,0.08183038,-0.10780569,-0.02359335,0.0,0.0,0.0,0.0018907625,-0.025244411,0.011234961,-0.08906863,0.0056346827,0.23122482,-0.095308445,0.015450401,-0.44518018,-0.057176694,0.10185046,-0.3980525,-0.05029204,-0.062262684,0.07408033,0.06471219,0.04111643,0.010787584,-0.02351708,0.007004132,-0.030769086,0.029013898,-0.010525857,0.028200373,0.026622921,-0.46640936,0.13414116,-0.5926826,0.36651647,0.51519376,-0.9017154,0.32170144,-0.8685557,-0.688872,0.9729657,-0.8924228,-0.49756336,-0.706159,0.18864545,-0.411658,-0.16694571,0.591024,-0.6751721,0.6487924,-0.95278734,-0.7571749,0.956809,-0.79273194,-0.3337135
2025-06-04 18:40:06.449,0.03957921,-0.011973928,-0.07118097,0.08470202,-0.11689008,-0.013702739,0.0,0.0,0.0,0.001470172,-0.0401883,0.012920072,-0.0849895,0.009254064,0.21459793,-0.09304598,0.004462806,-0.44506297,-0.063120924,0.09879395,-0.38059008,-0.039883267,-0.06738919,-0.0025975425,0.072859876,0.008339293,0.010552054,-0.054291893,-0.047234327,0.034340255,-0.045641243,0.0686062,-0.021126233,0.032660834,-0.706159,0.18864545,-0.411658,-0.16694571,0.591024,-0.6751721,0.6487924,-0.95278734,-0.7571749,0.956809,-0.79273194,-0.3337135,-0.40950942,0.13119477,-0.6457055,0.08712665,0.4019692,-0.87497747,0.3368358,-0.8856168,-0.76957154,0.9594978,-0.9111998,-0.57456195
2025-06-04 18:40:06.470,0.05796652,-0.0073887766,0.01390942,0.016998554,-0.1209711,0.024421193,0.0,0.0,0.0,0.0017131532,-0.03660881,0.025314765,-0.08244613,0.009873533,0.22020414,-0.07810108,0.016638318,-0.42994228,-0.050814725,0.09825147,-0.39478168,-0.046472143,0.027397266,0.039072823,0.0054675615,-0.06421479,-0.040131334,0.01375532,0.063676074,-0.04127147,0.033939805,0.044255786,0.031142259,-0.053824607,-0.40950942,0.13119477,-0.6457055,0.08712665,0.4019692,-0.87497747,0.3368358,-0.8856168,-0.76957154,0.9594978,-0.9111998,-0.57456195,-0.5638173,0.20398839,-0.5169552,-0.15271108,0.6157715,-0.7329672,0.4682572,-0.9474437,-0.71251595,0.9659892,-0.85457766,-0.41699982
2025-06-04 18:40:06.489,0.027031729,0.03918483,-0.055538792,0.01902902,-0.035008,-0.0023648194,0.0,0.0,0.0,0.0017161793,-0.0407587,0.029824654,-0.09303786,0.020511847,0.22776322,-0.08588234,0.02315772,-0.43148994,-0.05500943,0.096867554,-0.3929699,-0.054026216,-0.044818748,0.07495923,-0.026713835,0.05318171,0.024831684,0.06074827,-0.035661418,0.060428016,0.07173636,0.009364272,0.0668054,-0.040317733,-0.5638173,0.20398839,-0.5169552,-0.15271108,0.6157715,-0.7329672,0.4682572,-0.9474437,-0.71251595,0.9659892,-0.85457766,-0.41699982,-0.3735564,0.18069862,-0.65712804,0.12036744,0.438505,-0.8649727,0.39287797,-0.8904535,-0.7305114,0.96789944,-0.8823416,-0.48118523
2025-06-04 18:40:06.509,0.013733696,-0.036757395,0.036138248,0.05814773,-0.086927034,-0.032089315,0.0,0.0,0.0,0.0018509923,-0.040805288,0.017339151,-0.10116276,0.006041001,0.21078594,-0.08272784,0.013162985,-0.4387103,-0.05545634,0.10237569,-0.4012693,-0.056244902,0.026829422,-0.05518162,0.02751451,0.049679473,-0.02556254,-0.02583262,-0.017507344,0.01785453,-0.040238995,0.013731196,0.017397044,-0.06340156,-0.3735564,0.18069862,-0.65712804,0.12036744,0.438505,-0.8649727,0.39287797,-0.8904535,-0.7305114,0.96789944,-0.8823416,-0.48118523,-0.61381876,0.213629,-0.49892166,-0.28152356,0.5736439,-0.64439964,0.52289736,-0.9495385,-0.72224694,0.95999527,-0.8240585,-0.3877097
2025-06-04 18:40:06.533,-0.019302985,0.056976285,0.00018639945,0.080746934,-0.050556906,0.02904206,0.0,0.0,0.0,0.0017261249,-0.039460436,0.021790985,-0.09598146,0.022256417,0.21424279,-0.0958957,0.00610491,-0.44446424,-0.06734494,0.08959201,-0.39509556,-0.05046123,-0.03549624,0.01079869,0.038187135,0.033146758,0.05150877,0.01140844,-0.011506099,-0.003488066,0.043074284,-0.06446536,-0.009301034,0.023641601,-0.61381876,0.213629,-0.49892166,-0.28152356,0.5736439,-0.64439964,0.52289736,-0.9495385,-0.72224694,0.95999527,-0.8240585,-0.3877097,-0.52758974,0.19811521,-0.5961919,-0.35772514,0.49993306,-0.693727,0.46354195,-0.94083387,-0.7813345,0.9474675,-0.8771472,-0.53091747
2025-06-04 18:40:06.549,-0.039597336,-0.008656083,-0.011131546,0.044390645,-0.07269471,-0.016099349,0.0,0.0,0.0,0.0020047312,-0.034112412,0.02767917,-0.11038738,0.011123803,0.218838,-0.08429795,0.0069798697,-0.44901836,-0.050380666,0.0899361,-0.39383364,-0.061582997,-0.042390008,-0.009901354,-0.019093221,0.040674977,-0.0010822233,-0.013765255,-0.02291399,0.06285157,-0.039093763,0.0152669195,-0.014677437,-0.0057834643,-0.52758974,0.19811521,-0.5961919,-0.35772514,0.49993306,-0.693727,0.46354195,-0.94083387,-0.7813345,0.9474675,-0.8771472,-0.53091747,-0.5007263,0.1440296,-0.5754508,-0.28255084,0.5435114,-0.7574929,0.29230103,-0.94218975,-0.7480911,0.9612601,-0.90449965,-0.54449487
2025-06-04 18:40:06.570,-0.03246527,-0.040842887,-0.0049246047,0.078946546,-0.121653736,-0.03477193,0.0,0.0,0.0,0.0025602928,-0.05202927,0.017019387,-0.1061589,0.00279718,0.21877594,-0.07382349,0.013939405,-0.4474887,-0.069504514,0.09046036,-0.38186693,-0.058737963,-0.074384935,0.045881707,-0.05702671,0.012358406,-0.011064126,-0.042655323,0.032198075,-0.047454294,-0.045492403,0.068441994,-0.0121791465,-0.05139335,-0.5007263,0.1440296,-0.5754508,-0.28255084,0.5435114,-0.7574929,0.29230103,-0.94218975,-0.7480911,0.9612601,-0.90449965,-0.54449487,-0.6005045,0.102297045,-0.48477733,-0.2714146,0.6604699,-0.80163866,0.3942627,-0.9518769,-0.75752133,0.96622705,-0.9025081,-0.43031305
2025-06-04 18:40:06.589,0.03261686,0.020069797,0.015292291,0.02893006,-0.08837066,-0.04900312,0.0,0.0,0.0,0.0029672491,-0.05370377,0.014419107,-0.10929183,0.0073094536,0.21631438,-0.08639911,0.01602455,-0.4503677,-0.051080275,0.09588277,-0.38639477,-0.045582224,-0.06912628,0.06443644,0.008508518,-0.019199336,-0.0043278006,-0.026743574,-0.04254455,0.046385877,-0.025094233,-0.019636108,-0.01400573,-0.020189144,-0.6005045,0.102297045,-0.48477733,-0.2714146,0.6604699,-0.80163866,0.3942627,-0.9518769,-0.75752133,0.96622705,-0.9025081,-0.43031305,-0.61836493,0.12978342,-0.5268443,-0.22834556,0.6230365,-0.8411526,0.49662217,-0.9453475,-0.7915414,0.96565795,-0.8886883,-0.40391356
2025-06-04 18:40:06.609,0.0077056116,0.04547842,0.020035133,-0.012372796,-0.09648507,-0.022896195,0.0,0.0,0.0,0.0033658633,-0.0490896,0.015456712,-0.09931409,-0.000103854225,0.21832909,-0.08702865,0.008694446,-0.45026547,-0.066050276,0.098762356,-0.39225176,-0.05548188,0.01875744,0.06146689,-0.057679743,-0.037876267,0.052454855,0.07126662,-0.06584873,0.050628666,0.03349737,0.04241508,-0.044257157,0.031590126,-0.61836493,0.12978342,-0.5268443,-0.22834556,0.6230365,-0.8411526,0.49662217,-0.9453475,-0.7915414,0.96565795,-0.8886883,-0.40391356,-0.5931653,0.1713589,-0.59795,-0.31051484,0.6209967,-0.796597,0.52260655,-0.945161,-0.79209083,0.96332467,-0.8735067,-0.4504253
2025-06-04 18:40:06.633,0.031936616,0.026800439,0.007530067,0.03492709,-0.098729074,0.027180608,0.0,0.0,0.0,0.003789649,-0.04413308,0.023793288,-0.11012979,0.0055855624,0.22228044,-0.07950484,0.014327423,-0.43954104,-0.05947912,0.10975107,-0.40118003,-0.045667075,-0.02102662,-0.041476466,0.016114224,-0.039656784,0.0062270644,0.04141834,-0.00066583435,0.059276585,0.02980498,0.032359727,-0.065694794,-0.045146033,-0.5931653,0.1713589,-0.59795,-0.31051484,0.6209967,-0.796597,0.52260655,-0.945161,-0.79209083,0.96332467,-0.8735067,-0.4504253,-0.58260244,0.14368983,-0.62477803,-0.43352008,0.62269133,-0.74867105,0.48098853,-0.949769,-0.7957797,0.9579104,-0.887362,-0.5220719
2025-06-04 18:40:06.650,-0.055166107,-0.023602268,0.0149999065,0.034258906,-0.09670968,-0.041772705,0.0,0.0,0.0,0.004306687,-0.057391282,0.03206187,-0.10919653,-0.0023129033,0.22651564,-0.08676546,0.027257018,-0.45360172,-0.053868845,0.111237,-0.39168257,-0.06080686,0.030370453,-0.055465605,0.046236783,-0.074740484,-0.048463795,-0.037722703,-0.05166778,-0.023953458,0.029292522,0.02511152,-0.048605863,-0.0071474845,-0.58260244,0.14368983,-0.62477803,-0.43352008,0.62269133,-0.74867105,0.48098853,-0.949769,-0.7957797,0.9579104,-0.887362,-0.5220719,-0.6943194,0.15373237,-0.57665294,-0.587052,0.63208693,-0.6679324,0.5230032,-0.966093,-0.8159344,0.9504586,-0.8760808,-0.4948098
2025-06-04 18:40:06.670,-0.02638086,0.03208698,-0.057927668,0.067892924,-0.041537095,-0.035074968,0.0,0.0,0.0,0.0049479506,-0.063554235,0.015902363,-0.1108975,-0.0022169428,0.23877826,-0.08850544,0.025419677,-0.44938427,-0.061173074,0.09259414,-0.39228046,-0.05827124,0.044322904,-0.028860945,-0.025358003,-0.008735427,-0.07041433,0.0616056,-0.006139547,-0.011529664,0.06328495,0.0640473,-0.049372446,0.0060142414,-0.6943194,0.15373237,-0.57665294,-0.587052,0.63208693,-0.6679324,0.5230032,-0.966093,-0.8159344,0.9504586,-0.8760808,-0.4948098,-0.5096849,0.1368041,-0.67670214,-0.3255241,0.54936975,-0.8362667,0.34889618,-0.9342178,-0.7796096,0.9627196,-0.9057645,-0.5436704
2025-06-04 18:40:06.691,0.022553187,0.0017635565,0.029095573,0.06732285,-0.0668941,-0.014236223,0.0,0.0,0.0,0.0057970923,-0.05279274,0.032550972,-0.12142661,-0.014089248,0.23747176,-0.08116616,0.023777569,-0.44846392,-0.06693169,0.09877402,-0.39101458,-0.05964878,0.019948723,0.017812567,-0.057689082,0.0037776192,0.04810477,-0.06843015,0.030049752,0.0066988445,-0.07096783,-0.018786425,-0.04419321,-0.041872635,-0.5096849,0.1368041,-0.67670214,-0.3255241,0.54936975,-0.8362667,0.34889618,-0.9342178,-0.7796096,0.9627196,-0.9057645,-0.5436704,-0.6943835,0.1172024,-0.52701914,-0.44576988,0.6833775,-0.71861356,0.4107683,-0.9612012,-0.76655704,0.9591248,-0.8909712,-0.49743637
2025-06-04 18:40:06.711,-0.039432924,-0.0032351357,-0.0039164005,0.03834837,-0.085131906,0.037619296,0.0,0.0,0.0,0.006227082,-0.061536957,0.03446079,-0.11988667,-0.023110101,0.22510266,-0.08723879,0.020729665,-0.45097515,-0.072069705,0.10151915,-0.40170306,-0.06525318,-0.030014858,0.013390047,0.043573614,0.049752656,-0.042297572,0.0013922715,0.057157364,-0.046209645,-0.017897848,0.007874233,0.023861576,-0.04547983,-0.6943835,0.1172024,-0.52701914,-0.44576988,0.6833775,-0.71861356,0.4107683,-0.9612012,-0.76655704,0.9591248,-0.8909712,-0.49743637,-0.63074887,0.13032721,-0.57115793,-0.5005156,0.65336776,-0.77681375,0.5484086,-0.9568756,-0.8199427,0.95998657,-0.89138794,-0.4076075
2025-06-04 18:40:06.733,0.033706754,-0.011822245,-0.052349973,0.03745646,-0.047900885,-0.01508856,0.0,0.0,0.0,0.0065935464,-0.06398414,0.028513446,-0.11436554,-0.024611894,0.24416141,-0.086476825,0.021221688,-0.43957737,-0.067336,0.109086156,-0.39002207,-0.06420414,0.023390522,0.054531865,-0.010265046,0.033258185,0.027005479,-0.019122569,0.067034975,0.064053275,0.013789166,0.03556216,0.071388274,-0.07003216,-0.63074887,0.13032721,-0.57115793,-0.5005156,0.65336776,-0.77681375,0.5484086,-0.9568756,-0.8199427,0.95998657,-0.89138794,-0.4076075,-0.5433711,0.1490879,-0.6625365,-0.24071279,0.5945587,-0.8566172,0.44592252,-0.9327425,-0.78513867,0.9653069,-0.89760494,-0.48863646
2025-06-04 18:40:06.750,-0.005927984,0.015448644,-0.051986087,0.051019695,-0.10095254,0.019237954,0.0,0.0,0.0,0.0070430827,-0.06370724,0.023746433,-0.11168354,-0.015382385,0.24497892,-0.07968972,0.025949746,-0.45682588,-0.0577007,0.100689605,-0.39786276,-0.06563897,-0.022058198,-0.041966453,0.05981975,0.039185576,-0.03039825,0.06085847,0.065014146,0.014915794,0.0030553923,-0.053576343,-0.030957188,-0.017152304,-0.5433711,0.1490879,-0.6625365,-0.24071279,0.5945587,-0.8566172,0.44592252,-0.9327425,-0.78513867,0.9653069,-0.89760494,-0.48863646,-0.5068832,0.15537323,-0.61486304,-0.1424828,0.56897247,-0.82250226,0.34950724,-0.9256427,-0.7549604,0.96541053,-0.9014334,-0.5517808
2025-06-04 18:40:06.771,0.032046862,-0.05471051,-0.0120486375,-0.010435996,-0.080152586,0.037191942,0.0,0.0,0.0,0.0072197034,-0.062301107,0.018175777,-0.12950732,-0.02429341,0.23242596,-0.07907481,0.01499185,-0.4475845,-0.07155571,0.09911159,-0.40552363,-0.060966007,0.0142121585,-0.03863458,-0.061699353,0.01901068,-0.0735989,0.04264864,-0.016317602,-0.003942978,-0.0128286965,-0.03303994,-0.04757684,-0.04823901,-0.5068832,0.15537323,-0.61486304,-0.1424828,0.56897247,-0.82250226,0.34950724,-0.9256427,-0.7549604,0.96541053,-0.9014334,-0.5517808,-0.5346187,0.13718973,-0.5797902,-0.19754145,0.6263139,-0.8206849,0.3976642,-0.93617433,-0.74494004,0.97068447,-0.89405334,-0.4586988
2025-06-04 18:40:06.791,-0.032976087,-0.0016290563,0.034927208,0.07056857,-0.069883205,-0.0011342776,0.0,0.0,0.0,0.006991689,-0.052603528,0.03335739,-0.1236433,-0.009487583,0.23911647,-0.0862721,0.01662685,-0.4496282,-0.07342953,0.09583261,-0.39239335,-0.058954135,0.02853132,-0.012085269,0.02460155,-0.0057293125,-0.059912577,0.037676856,-0.007473163,-0.01768232,0.015068788,0.017708767,-0.045767415,-0.00079652393,-0.5346187,0.13718973,-0.5797902,-0.19754145,0.6263139,-0.8206849,0.3976642,-0.93617433,-0.74494004,0.97068447,-0.89405334,-0.4586988,-0.6517373,0.15926287,-0.5552679,-0.450439,0.6509584,-0.7228099,0.57648003,-0.9557791,-0.79934615,0.95611775,-0.85984886,-0.42688036
2025-06-04 18:40:06.811,-0.031802375,0.011891343,-0.01652148,0.021896496,-0.07261575,-0.028829437,0.0,0.0,0.0,0.006698666,-0.059311848,0.035002794,-0.119151644,-0.012800257,0.23348852,-0.082406856,0.030069944,-0.44004634,-0.071977384,0.098715946,-0.39836916,-0.055672802,-0.0066245897,0.0683024,-0.060608275,0.018847326,-0.03274374,0.06450267,0.007617021,-0.03869043,-0.04925903,-0.0013948088,0.049275346,0.06943822,-0.6517373,0.15926287,-0.5552679,-0.450439,0.6509584,-0.7228099,0.57648003,-0.9557791,-0.79934615,0.95611775,-0.85984886,-0.42688036,-0.5586152,0.19211307,-0.62124527,-0.34693587,0.58594084,-0.8208293,0.49686876,-0.94617677,-0.8162247,0.9630965,-0.8893512,-0.4657262
2025-06-04 18:40:06.833,-0.04140549,-0.017365625,-0.038828436,0.067684345,-0.062001325,-0.03010362,0.0,0.0,0.0,0.006876489,-0.060782366,0.021661524,-0.11591225,-0.01846797,0.23733392,-0.07103654,0.025303781,-0.44060463,-0.0632227,0.109090865,-0.39715883,-0.054428052,-0.023748377,0.07037351,0.016618783,-0.01826371,0.04393271,0.020790488,0.012101913,0.01984147,0.020022301,-0.07257212,0.0017827479,-0.0068673254,-0.5586152,0.19211307,-0.62124527,-0.34693587,0.58594084,-0.8208293,0.49686876,-0.94617677,-0.8162247,0.9630965,-0.8893512,-0.4657262,-0.53726286,0.17538589,-0.6009595,-0.18135372,0.5730102,-0.8119823,0.35906515,-0.93793076,-0.773839,0.96292233,-0.90142024,-0.5503826
2025-06-04 18:40:06.851,0.016685419,-0.049551897,0.008303482,0.04724167,-0.06422123,-0.0075570997,0.0,0.0,0.0,0.007088051,-0.06595609,0.03076434,-0.11797491,-0.014836956,0.23198368,-0.08209547,0.0150534,-0.4374933,-0.07083161,0.10993379,-0.40959263,-0.065048635,-0.012788727,0.011732541,-0.015145625,-0.068221636,0.071310915,0.06870952,-0.06839788,0.030099917,0.062013008,0.018766865,0.031111699,-0.060730617,-0.53726286,0.17538589,-0.6009595,-0.18135372,0.5730102,-0.8119823,0.35906515,-0.93793076,-0.773839,0.96292233,-0.90142024,-0.5503826,-0.60561275,0.12949897,-0.5431384,-0.35791802,0.6640617,-0.7668701,0.49023834,-0.95587015,-0.77628124,0.96436644,-0.8789809,-0.4324187
2025-06-04 18:40:06.871,-0.01034634,-0.030989334,-0.00453351,0.055920128,-0.08216505,-0.042756997,0.0,0.0,0.0,0.0069776447,-0.06382628,0.035918064,-0.12765945,-0.019538164,0.24579024,-0.08496973,0.02771913,-0.44101402,-0.06325356,0.0930057,-0.40255305,-0.070970535,0.034917828,-0.033460386,-0.026127078,0.01609036,-0.021148028,0.0117970295,-0.07492652,0.030770661,0.05152641,0.06688006,-0.071367994,0.005174949,-0.60561275,0.12949897,-0.5431384,-0.35791802,0.6640617,-0.7668701,0.49023834,-0.95587015,-0.77628124,0.96436644,-0.8789809,-0.4324187,-0.6208396,0.13479628,-0.5961803,-0.41134956,0.6339365,-0.80060804,0.52577674,-0.9473244,-0.81001407,0.9582573,-0.8854135,-0.48381072
2025-06-04 18:40:06.891,-0.006284124,0.017330024,-0.016526302,0.029213311,-0.05239193,-0.03304134,0.0,0.0,0.0,0.0070104375,-0.05961154,0.036799308,-0.11690413,-0.017236603,0.24559446,-0.09045884,0.028785894,-0.45255035,-0.071020044,0.095252566,-0.40400755,-0.062643275,-0.021386992,-0.050664548,-0.022848027,0.013868521,0.05273419,-0.04082266,-0.041495312,-0.06892711,0.05341047,-0.0070256344,0.028031848,-0.07362256,-0.6208396,0.13479628,-0.5961803,-0.41134956,0.6339365,-0.80060804,0.52577674,-0.9473244,-0.81001407,0.9582573,-0.8854135,-0.48381072,-0.6233071,0.20182212,-0.616574,-0.46022677,0.622028,-0.7532197,0.54520506,-0.9556043,-0.8195131,0.9602296,-0.8780012,-0.46811357
2025-06-04 18:40:06.911,-0.0049848016,-0.027501928,0.0031420172,0.05388221,-0.117270164,0.022871524,0.0,0.0,0.0,0.007271061,-0.06961934,0.022139069,-0.12927753,-0.010722275,0.24905476,-0.07603551,0.03327628,-0.43766227,-0.07236413,0.11154601,-0.39879286,-0.060083043,-0.0044265175,-0.030307638,0.044303674,0.029666297,-0.06834294,0.005068087,0.07717873,0.012959367,0.043074764,0.027168289,0.03214503,-0.028474344,-0.6233071,0.20182212,-0.616574,-0.46022677,0.622028,-0.7532197,0.54520506,-0.9556043,-0.8195131,0.9602296,-0.8780012,-0.46811357,-0.68327194,0.16128616,-0.5986643,-0.62468237,0.64917374,-0.68192565,0.61536926,-0.9648115,-0.84322023,0.95206857,-0.8716955,-0.43560705
2025-06-04 18:40:06.933,0.004528088,0.02582809,0.012503087,0.013964807,-0.041768935,-0.0003429548,0.0,0.0,0.0,0.007617806,-0.05708505,0.040503833,-0.13028166,-0.014622979,0.25176296,-0.08783014,0.0360382,-0.45275983,-0.05584842,0.10393656,-0.40160275,-0.07115032,-0.060658287,0.07392268,-0.06075359,0.045417875,-0.030355467,0.07945674,-0.0514341,0.056076657,0.0391146,-0.044599723,0.009801394,-0.053173106,-0.68327194,0.16128616,-0.5986643,-0.62468237,0.64917374,-0.68192565,0.61536926,-0.9648115,-0.84322023,0.95206857,-0.8716955,-0.43560705,-0.5745239,0.2540907,-0.67896974,-0.580191,0.5907937,-0.74344575,0.6038082,-0.9591204,-0.8543885,0.959671,-0.87784433,-0.44768608
2025-06-04 18:40:06.951,0.065370955,-0.049867835,0.024296395,0.045281857,-0.08533952,0.03796129,0.0,0.0,0.0,0.008205816,-0.07231113,0.033734716,-0.12795857,-0.012152813,0.24886985,-0.069735765,0.037758566,-0.45200172,-0.07367781,0.10865268,-0.4015329,-0.06984945,0.06610674,0.04995835,-0.002125039,-0.054750342,-0.030224701,-0.06362383,-0.008984202,0.063506976,0.021607993,0.014360525,0.057464987,0.05290154,-0.5745239,0.2540907,-0.67896974,-0.580191,0.5907937,-0.74344575,0.6038082,-0.9591204,-0.8543885,0.959671,-0.87784433,-0.44768608,-0.7378085,0.16099507,-0.6000365,-0.66427314,0.6388261,-0.6073302,0.56735134,-0.9718971,-0.8412862,0.9456444,-0.8727016,-0.5054693
2025-06-04 18:40:06.972,-0.018944824,0.00090226583,-0.016860342,0.00964324,-0.09855263,-0.045594994,0.0,0.0,0.0,0.008725317,-0.06458937,0.029623734,-0.13902421,-0.022249544,0.24994259,-0.07733054,0.024507577,-0.4452549,-0.06302659,0.099693984,-0.4046291,-0.06632288,-0.073132604,-0.057333086,-0.02652439,0.05550672,0.052855685,-0.011648379,0.00039489564,-0.037077628,0.02216987,0.030436274,0.07764442,0.068387896,-0.7378085,0.16099507,-0.6000365,-0.66427314,0.6388261,-0.6073302,0.56735134,-0.9718971,-0.8412862,0.9456444,-0.8727016,-0.5054693,-0.71590614,0.114586,-0.56422365,-0.66245484,0.6697988,-0.70438874,0.5315425,-0.96996677,-0.8531954,0.94780296,-0.89765894,-0.50138557
2025-06-04 18:40:06.992,-0.0029435763,0.012505671,-0.026445737,0.018663865,-0.05059152,-0.01226697,0.0,0.0,0.0,0.009361625,-0.07371246,0.035673395,-0.13636383,-0.022762591,0.25559103,-0.06329669,0.02212429,-0.4368028,-0.061677653,0.09683988,-0.4059518,-0.05438419,0.030191388,-0.027979866,-0.010251847,0.018434089,0.06375751,0.0054744384,0.025094762,0.009895501,0.056093972,-0.07251391,-0.035938803,-0.048801772,-0.71590614,0.114586,-0.56422365,-0.66245484,0.6697988,-0.70438874,0.5315425,-0.96996677,-0.8531954,0.94780296,-0.89765894,-0.50138557,-0.6200725,0.11970206,-0.64290106,-0.5106949,0.6658821,-0.80150306,0.41363814,-0.9535762,-0.8139324,0.95634425,-0.91147774,-0.55187714
2025-06-04 18:40:07.016,-0.004663524,0.027577352,-0.024838915,0.0775763,-0.07933875,0.010127292,0.0,0.0,0.0,0.010027709,-0.08429866,0.02690805,-0.13865994,-0.026934886,0.2386058,-0.06716176,0.03407033,-0.44490972,-0.07101085,0.113387644,-0.39394188,-0.06882543,0.060935024,0.046790734,-0.060758196,-0.022261946,0.027510354,0.03153899,-0.053587217,-0.05984903,0.016649207,0.018833099,-0.04291176,0.042659163,-0.6200725,0.11970206,-0.64290106,-0.5106949,0.6658821,-0.80150306,0.41363814,-0.9535762,-0.8139324,0.95634425,-0.91147774,-0.55187714,-0.6599002,0.11325471,-0.5828638,-0.45732448,0.68104684,-0.7934811,0.4041962,-0.95692146,-0.7991915,0.9606301,-0.9043192,-0.5227011
2025-06-04 18:40:07.034,-0.0040973634,-0.01568668,-0.051127307,0.050704923,-0.02619655,0.004776626,0.0,0.0,0.0,0.010406799,-0.069970466,0.024733275,-0.12763967,-0.039173998,0.2404577,-0.0607971,0.021861576,-0.4570588,-0.06800306,0.09670142,-0.40959567,-0.054293998,0.030966774,-0.003245905,-0.070975706,0.06202989,0.024175374,-0.06325402,0.011937323,0.049209695,0.06393525,-0.07118116,-0.035089087,-0.0044493005,-0.6599002,0.11325471,-0.5828638,-0.45732448,0.68104684,-0.7934811,0.4041962,-0.95692146,-0.7991915,0.9606301,-0.9043192,-0.5227011,-0.58925486,0.085925244,-0.60534334,-0.17355745,0.61028147,-0.8491248,0.29392248,-0.93328834,-0.75602907,0.9649281,-0.91545993,-0.55896765
2025-06-04 18:40:07.053,-0.013519081,-0.008688845,0.067995,0.044294927,-0.078116424,-0.015852842,0.0,0.0,0.0,0.010535223,-0.07046657,0.035035044,-0.12835568,-0.034105938,0.25445676,-0.07919097,0.030564671,-0.44139025,-0.07526282,0.11089475,-0.40393984,-0.066512465,0.0052983034,-0.05937366,-0.07151358,-0.056550436,0.01658592,-0.050360996,0.026194014,0.07086144,-0.05714216,-0.055229213,0.018519143,-0.07291025,-0.58925486,0.085925244,-0.60534334,-0.17355745,0.61028147,-0.8491248,0.29392248,-0.93328834,-0.75602907,0.9649281,-0.91545993,-0.55896765,-0.74463964,0.089259215,-0.5494833,-0.56161255,0.7419008,-0.7198196,0.58539927,-0.9691692,-0.80423313,0.96181077,-0.8711079,-0.4054051
2025-06-04 18:40:07.072,-0.04518653,-0.03365891,-0.00990566,0.026007103,-0.06959325,0.018139143,0.0,0.0,0.0,0.010211996,-0.07201414,0.03760874,-0.122260705,-0.038861282,0.24815258,-0.068537384,0.034179494,-0.4555962,-0.057959065,0.097746894,-0.40285033,-0.07483908,-0.05102677,-0.03778044,-0.0144489445,0.0058891783,-0.007216245,-0.03900198,0.0042766384,-0.03481324,0.03714394,0.03149378,-0.063481726,0.0025791826,-0.74463964,0.089259215,-0.5494833,-0.56161255,0.7419008,-0.7198196,0.58539927,-0.9691692,-0.80423313,0.96181077,-0.8711079,-0.4054051,-0.68813074,0.129489,-0.6278136,-0.59609556,0.6860616,-0.76912516,0.5891609,-0.9617444,-0.8542571,0.953287,-0.9000063,-0.5139286
2025-06-04 18:40:07.092,0.03866337,-0.030110855,-0.0029208795,0.047566533,-0.07918622,-0.047377605,0.0,0.0,0.0,0.0102498755,-0.08310818,0.03715119,-0.13607295,-0.033576977,0.25785184,-0.07456061,0.031243388,-0.45603982,-0.062527746,0.10140521,-0.40784627,-0.056397755,-0.04965131,0.023626871,-0.017762665,-0.042070184,0.02791986,-0.04272288,-0.028320443,-0.07118266,0.03434181,-0.03711467,-0.015923547,0.054243103,-0.68813074,0.129489,-0.6278136,-0.59609556,0.6860616,-0.76912516,0.5891609,-0.9617444,-0.8542571,0.953287,-0.9000063,-0.5139286,-0.7207652,0.14215188,-0.57982576,-0.563259,0.67886925,-0.76117885,0.53873897,-0.96912277,-0.8535574,0.95612884,-0.8991414,-0.518504
2025-06-04 18:40:07.115,-0.002345943,0.034704413,-0.02893186,0.009796134,-0.08027951,-0.034987032,0.0,0.0,0.0,0.010593322,-0.07551168,0.030601218,-0.12852485,-0.039448265,0.26638272,-0.06309564,0.032979526,-0.45413566,-0.07191109,0.09506714,-0.39560792,-0.058024637,0.066863276,0.021587567,-0.008868525,-0.03189929,0.059866816,0.045999773,-0.008890993,0.03614626,0.07311671,-0.048773937,0.06619625,0.0021276455,-0.7207652,0.14215188,-0.57982576,-0.563259,0.67886925,-0.76117885,0.53873897,-0.96912277,-0.8535574,0.95612884,-0.8991414,-0.518504,-0.6274487,0.14907633,-0.6378523,-0.51320136,0.67154706,-0.7990996,0.49586517,-0.95781755,-0.83216417,0.9587097,-0.89917815,-0.52175987
2025-06-04 18:40:07.131,0.049374305,0.028893713,-0.035075556,0.011712327,-0.074411474,-0.0011148419,0.0,0.0,0.0,0.010918998,-0.08791383,0.04042109,-0.13246432,-0.042476457,0.26115695,-0.074481785,0.028279064,-0.44274467,-0.06186987,0.10947062,-0.39987573,-0.07803385,0.004252647,-0.04804172,-0.02906875,-0.05640723,-0.038063087,-0.03161388,0.07389439,0.037953656,0.0030106578,0.007287946,-0.021437485,-0.024995098,-0.6274487,0.14907633,-0.6378523,-0.51320136,0.67154706,-0.7990996,0.49586517,-0.95781755,-0.83216417,0.9587097,-0.89917815,-0.52175987,-0.61502737,0.0909458,-0.6308422,-0.42637107,0.6912562,-0.8336825,0.40902224,-0.9526388,-0.81058514,0.96432996,-0.9158628,-0.56679845
2025-06-04 18:40:07.151,-0.048261028,-0.0055008796,0.008649713,0.007930223,-0.08286895,-0.020699348,0.0,0.0,0.0,0.011077366,-0.086791806,0.022714583,-0.12721418,-0.028176455,0.2641812,-0.07381373,0.026261482,-0.4504444,-0.057687953,0.105963044,-0.40165856,-0.06965315,0.01740987,0.05301811,0.05096273,0.049695514,0.057868194,-0.035106998,0.018911812,-0.04324465,0.06754593,0.02936062,0.013251081,-0.04189969,-0.61502737,0.0909458,-0.6308422,-0.42637107,0.6912562,-0.8336825,0.40902224,-0.9526388,-0.81058514,0.96432996,-0.9158628,-0.56679845,-0.7410672,0.112311974,-0.53981286,-0.57054555,0.7122033,-0.73352545,0.5728023,-0.96647274,-0.82825136,0.9547987,-0.88297623,-0.4396924
2025-06-04 18:40:07.171,-0.037933588,0.033406995,0.0344522,0.013455031,-0.08964856,-0.01864269,0.0,0.0,0.0,0.011058047,-0.08705547,0.02986021,-0.12955825,-0.039647974,0.25790876,-0.07588498,0.033120587,-0.44679618,-0.07007017,0.113297835,-0.40421978,-0.08020295,-0.024382925,0.04238448,-0.06633207,0.04370359,0.028077954,0.026577884,-0.04825838,-0.059563983,-0.040995423,0.023300901,-0.064555086,0.072620794,-0.7410672,0.112311974,-0.53981286,-0.57054555,0.7122033,-0.73352545,0.5728023,-0.96647274,-0.82825136,0.9547987,-0.88297623,-0.4396924,-0.75241643,0.12829258,-0.59739864,-0.7028315,0.7269328,-0.73934335,0.6465956,-0.9710039,-0.876347,0.95574105,-0.88836706,-0.4464097
2025-06-04 18:40:07.192,-0.030857766,0.0148907555,0.009859862,0.021506367,-0.025714086,-0.035788134,0.0,0.0,0.0,0.01118246,-0.07378734,0.037116215,-0.1355666,-0.03500189,0.25400755,-0.07042961,0.025484474,-0.4578105,-0.06743911,0.09999519,-0.40304944,-0.082967,-0.06797719,-0.025347872,0.038991563,0.06407574,0.0303522,0.06641917,-0.018101504,0.058051188,-0.009010458,-0.008396149,0.035632636,0.011922447,-0.75241643,0.12829258,-0.59739864,-0.7028315,0.7269328,-0.73934335,0.6465956,-0.9710039,-0.876347,0.95574105,-0.88836706,-0.4464097,-0.6934538,0.14736827,-0.62224746,-0.6800508,0.6852733,-0.74976313,0.6184453,-0.96850103,-0.87184495,0.9563537,-0.8907041,-0.45823178
2025-06-04 18:40:07.213,0.020143453,-0.010044795,-0.04129813,0.050656203,-0.07853985,-0.039298918,0.0,0.0,0.0,0.011608549,-0.081009924,0.04074409,-0.11972172,-0.045785245,0.26101515,-0.08146399,0.043588467,-0.44974762,-0.0700094,0.11455183,-0.39554444,-0.07475713,-0.04509554,0.073806085,-0.046213713,0.035263564,-0.05329053,-0.06704062,0.0590098,0.04530485,0.035378106,-0.035771597,-0.04522672,-0.055580772,-0.6934538,0.14736827,-0.62224746,-0.6800508,0.6852733,-0.74976313,0.6184453,-0.96850103,-0.87184495,0.9563537,-0.8907041,-0.45823178,-0.5793334,0.18561365,-0.68657994,-0.3978819,0.5860198,-0.83671725,0.46805263,-0.9476573,-0.8320675,0.9637525,-0.908137,-0.55619526
2025-06-04 18:40:07.232,0.02992165,-0.003141816,-0.02361664,0.05768835,-0.07997766,0.012104145,0.0,0.0,0.0,0.012074386,-0.07599718,0.031423148,-0.13080277,-0.041125063,0.2548566,-0.075825065,0.046009712,-0.45360723,-0.06649597,0.106338985,-0.40473664,-0.07914643,0.01139982,0.021553652,0.04098744,0.018777244,-0.029892955,-0.0064381408,-0.04049936,-0.0013951972,-0.047695305,0.029942688,-0.021178095,0.03251816,-0.5793334,0.18561365,-0.68657994,-0.3978819,0.5860198,-0.83671725,0.46805263,-0.9476573,-0.8320675,0.9637525,-0.908137,-0.55619526,-0.63927364,0.12784205,-0.5692719,-0.42499033,0.6383536,-0.7843177,0.39876682,-0.9546026,-0.80421424,0.9628134,-0.9051304,-0.53803647
2025-06-04 18:40:07.252,0.02344048,0.006408733,0.020590127,0.022374207,-0.11509594,-0.033193827,0.0,0.0,0.0,0.012023644,-0.072777905,0.03533915,-0.14078607,-0.037019655,0.26443782,-0.07397222,0.042955384,-0.45871252,-0.069293834,0.113881126,-0.41334462,-0.08100919,0.019244835,0.040412925,0.047914993,-0.024438566,0.03221553,-0.041546885,0.0027307926,0.005413415,-0.02983416,-0.053959772,-0.018058602,0.039476186,-0.63927364,0.12784205,-0.5692719,-0.42499033,0.6383536,-0.7843177,0.39876682,-0.9546026,-0.80421424,0.9628134,-0.9051304,-0.53803647,-0.7390324,0.07725112,-0.52173316,-0.5619346,0.72103095,-0.775212,0.51765615,-0.9671856,-0.83608806,0.9569832,-0.9014,-0.4905344
2025-06-04 18:40:07.273,-0.058647744,-0.02867652,-0.034003764,0.043254685,-0.116673626,-0.0053091277,0.0,0.0,0.0,0.011675239,-0.080540806,0.032684326,-0.12195569,-0.035834745,0.27299327,-0.080435745,0.031486712,-0.4472634,-0.06750642,0.100526944,-0.41594166,-0.071353346,0.017864108,-0.052977603,-0.02745287,-0.06095425,-0.008611844,0.016961848,-0.06892938,0.06562949,-0.034030125,0.03244634,-0.05634117,-0.027766319,-0.7390324,0.07725112,-0.52173316,-0.5619346,0.72103095,-0.775212,0.51765615,-0.9671856,-0.83608806,0.9569832,-0.9014,-0.4905344,-0.5724435,0.0648446,-0.6667862,-0.41996855,0.6890271,-0.8782686,0.39603257,-0.94524205,-0.816688,0.9659728,-0.92481905,-0.5628205
2025-06-04 18:40:07.293,0.045359436,-0.059501573,-0.008754793,0.05241549,-0.055562954,0.027870294,0.0,0.0,0.0,0.011585229,-0.07218996,0.0301021,-0.12650685,-0.031204745,0.27024633,-0.070759214,0.041265696,-0.4507444,-0.07530323,0.11254655,-0.4140698,-0.06730865,-0.017390912,0.019760562,-0.061353378,-0.031663906,0.072483726,-0.00010699933,-0.03103484,-0.0013056699,-0.005477871,0.07025026,-0.036904644,-0.018914763,-0.5724435,0.0648446,-0.6667862,-0.41996855,0.6890271,-0.8782686,0.39603257,-0.94524205,-0.816688,0.9659728,-0.92481905,-0.5628205,-0.68927836,0.053693052,-0.5758721,-0.4447656,0.7566035,-0.8288441,0.44738397,-0.9605116,-0.80320656,0.9655748,-0.9146241,-0.5169375
2025-06-04 18:40:07.315,-0.022910368,-0.033234153,0.037396625,-0.011858333,-0.066171624,0.03893278,0.0,0.0,0.0,0.011514854,-0.07753407,0.025153713,-0.12854172,-0.03963349,0.25944257,-0.07493661,0.029797088,-0.45001572,-0.06749176,0.10684774,-0.41009286,-0.07405954,0.024244647,-0.060790937,-0.037829835,0.015316755,-0.01582704,-0.03680298,0.02199803,-0.025940986,-0.050018407,-0.018241256,-0.008754643,-0.06808908,-0.68927836,0.053693052,-0.5758721,-0.4447656,0.7566035,-0.8288441,0.44738397,-0.9605116,-0.80320656,0.9655748,-0.9146241,-0.5169375,-0.7459258,0.09591206,-0.6007786,-0.6515715,0.7622767,-0.7630644,0.6321131,-0.9690717,-0.84478235,0.9618646,-0.8889059,-0.40164196
2025-06-04 18:40:07.333,-0.057463888,-0.042821374,-0.047631294,0.061933782,-0.07395615,0.026927767,0.0,0.0,0.0,0.011495408,-0.07702387,0.020846138,-0.12259176,-0.04009179,0.27858225,-0.0712625,0.037932597,-0.45996732,-0.066459924,0.108767234,-0.409653,-0.08140291,-0.033703156,0.029030062,-0.01959197,0.044399753,0.0667928,-0.00090677745,-0.026360342,-0.02684213,0.073821805,0.021211581,0.031850412,-0.010451445,-0.7459258,0.09591206,-0.6007786,-0.6515715,0.7622767,-0.7630644,0.6321131,-0.9690717,-0.84478235,0.9618646,-0.8889059,-0.40164196,-0.65599054,0.16324672,-0.662619,-0.5589032,0.6804882,-0.7937407,0.57889587,-0.95803046,-0.85610265,0.9549552,-0.9026394,-0.52407074
2025-06-04 18:40:07.353,0.006973116,0.018069005,-0.005691346,0.022263983,-0.03145399,-0.046379898,0.0,0.0,0.0,0.011778558,-0.09113505,0.021748956,-0.12508729,-0.03552387,0.26907882,-0.08315493,0.03140267,-0.44739696,-0.0658603,0.11157548,-0.41266704,-0.07504243,-0.0106647825,-0.055241533,0.064274766,0.05494958,-0.024689863,-0.000133538,0.07854788,0.022932006,-0.061000727,0.044522934,-0.059677463,0.058342136,-0.65599054,0.16324672,-0.662619,-0.5589032,0.6804882,-0.7937407,0.57889587,-0.95803046,-0.85610265,0.9549552,-0.9026394,-0.52407074,-0.7094964,0.05702975,-0.5843661,-0.5879506,0.70930904,-0.7861109,0.47059876,-0.9629034,-0.83392,0.9582982,-0.9111159,-0.5494449
2025-06-04 18:40:07.372,-0.021869374,-0.03642369,0.026246026,0.025769021,-0.08088258,0.014111322,0.0,0.0,0.0,0.01203177,-0.08939463,0.030210748,-0.12171942,-0.04613026,0.28008187,-0.08590468,0.037188426,-0.44725698,-0.0556895,0.113457546,-0.4185999,-0.081044465,-0.0047863247,-0.043120574,0.04431451,-0.027430117,0.0473934,-0.07099701,0.0066057593,-0.012772994,0.027915763,-0.043286745,0.016378246,-0.06294212,-0.7094964,0.05702975,-0.5843661,-0.5879506,0.70930904,-0.7861109,0.47059876,-0.9629034,-0.83392,0.9582982,-0.9111159,-0.5494449,-0.7895384,0.08611308,-0.59793687,-0.726748,0.7541044,-0.72504544,0.6331291,-0.97506046,-0.8625168,0.95514077,-0.89089125,-0.4375137
2025-06-04 18:40:07.393,0.018687913,0.014933399,-0.023112219,-0.0076736896,-0.04110054,0.017917441,0.0,0.0,0.0,0.01221941,-0.087079756,0.036591485,-0.13197358,-0.035217695,0.28032357,-0.06979955,0.035589993,-0.4556578,-0.064310685,0.108600914,-0.4148969,-0.073049724,0.0045107245,-0.045606613,-0.05538555,0.045125928,0.07698693,0.038132213,0.012728574,-0.017734522,-0.036284372,-0.024128433,-0.059322987,0.04202622,-0.7895384,0.08611308,-0.59793687,-0.726748,0.7541044,-0.72504544,0.6331291,-0.97506046,-0.8625168,0.95514077,-0.89089125,-0.4375137,-0.68488276,0.09023737,-0.6645572,-0.62573326,0.7323262,-0.8137305,0.4954104,-0.96050143,-0.8475222,0.95727634,-0.91828203,-0.5721543
2025-06-04 18:40:07.415,-0.048141684,-0.048873853,-0.0020581882,0.019339131,-0.08398802,-0.025002133,0.0,0.0,0.0,0.012639048,-0.09571923,0.025641983,-0.12986454,-0.04571903,0.2805545,-0.0757919,0.030186985,-0.46480742,-0.06283376,0.1067339,-0.42013144,-0.0813867,0.002347549,-0.057512615,-0.07525013,0.022415653,-0.037682123,0.06754238,0.031170784,0.017855525,-0.00066381524,-0.010249041,0.04104734,-0.05861435,-0.68488276,0.09023737,-0.6645572,-0.62573326,0.7323262,-0.8137305,0.4954104,-0.96050143,-0.8475222,0.95727634,-0.91828203,-0.5721543,-0.6797602,0.1200222,-0.6281731,-0.64000213,0.74828565,-0.7932601,0.58111346,-0.9687221,-0.8463436,0.96589434,-0.9002697,-0.42168048
2025-06-04 18:40:07.434,-0.03395271,-0.046416856,-0.015787374,0.07205259,-0.03653733,-0.027839134,0.0,0.0,0.0,0.0130157275,-0.08088807,0.03165406,-0.12969479,-0.038644683,0.2814973,-0.068489306,0.041146804,-0.46111602,-0.07344484,0.10538342,-0.41984823,-0.0899151,0.033207875,0.024047077,0.05546673,-0.005872208,-0.030591024,0.008364604,-0.0028917557,0.058656476,-0.032720733,0.021457765,0.011146826,-0.027449166,-0.6797602,0.1200222,-0.6281731,-0.64000213,0.74828565,-0.7932601,0.58111346,-0.9687221,-0.8463436,0.96589434,-0.9002697,-0.42168048,-0.66019416,0.11925919,-0.6363839,-0.5558485,0.704413,-0.8165828,0.5372665,-0.9594325,-0.84465414,0.95851445,-0.9076607,-0.5160145
2025-06-04 18:40:07.454,0.011425197,-0.0073993714,0.010437851,0.00081521686,-0.04071559,-0.007033887,0.0,0.0,0.0,0.013276439,-0.083033316,0.020472078,-0.124813825,-0.03348793,0.2883431,-0.07989814,0.03220942,-0.46015963,-0.068073936,0.09708419,-0.41514924,-0.080456756,0.028381709,-0.03564255,0.05676442,-0.036800943,0.06920596,0.012809436,-0.017785108,-0.009779655,-0.013278861,0.0100443605,-0.06546777,-0.019395689,-0.66019416,0.11925919,-0.6363839,-0.5558485,0.704413,-0.8165828,0.5372665,-0.9594325,-0.84465414,0.95851445,-0.9076607,-0.5160145,-0.72696465,0.063561134,-0.61688066,-0.6398423,0.75109845,-0.7802593,0.50974053,-0.96632826,-0.83909416,0.957084,-0.90901953,-0.5464424
2025-06-04 18:40:07.476,0.01699643,0.007897254,0.03506819,0.02623368,-0.060227178,-0.009846624,0.0,0.0,0.0,0.013374655,-0.08159736,0.024009647,-0.12980388,-0.04642297,0.28944418,-0.082510054,0.039605197,-0.4542138,-0.07643586,0.09556306,-0.41941085,-0.091981575,0.06961266,0.0024251374,0.072758436,-0.023203475,0.07429797,0.028236346,0.067608595,-0.047147922,-0.027019497,-0.06850249,0.032965507,0.057415936,-0.72696465,0.063561134,-0.61688066,-0.6398423,0.75109845,-0.7802593,0.50974053,-0.96632826,-0.83909416,0.957084,-0.90901953,-0.5464424,-0.80507785,0.052250158,-0.59002894,-0.728034,0.7801209,-0.74980575,0.61094534,-0.9756298,-0.86263704,0.953594,-0.89663243,-0.47710314
2025-06-04 18:40:07.497,0.02807836,-0.039532393,-0.0270198,0.011548054,-0.03817584,0.016742554,0.0,0.0,0.0,0.0135246515,-0.09475712,0.034222484,-0.13620885,-0.04589344,0.28079617,-0.066437535,0.035424978,-0.4493831,-0.06302251,0.113768354,-0.4171143,-0.08161048,-0.02432542,-0.0141574135,-0.060581155,0.0054477416,0.004487776,-0.06488078,-0.0036892004,-0.06957261,0.071702324,-0.04919466,-0.055385042,0.07185938,-0.80507785,0.052250158,-0.59002894,-0.728034,0.7801209,-0.74980575,0.61094534,-0.9756298,-0.86263704,0.953594,-0.89663243,-0.47710314,-0.72943854,0.112230375,-0.6300172,-0.59463024,0.71591425,-0.81000435,0.5434064,-0.96561116,-0.8599028,0.9570347,-0.912721,-0.53916776
2025-06-04 18:40:07.515,-0.022817424,-0.038229294,0.01635282,0.053879615,-0.03932991,-0.04165509,0.0,0.0,0.0,0.013910666,-0.081756845,0.028215842,-0.13330896,-0.052795753,0.29330236,-0.07419756,0.048720382,-0.45251733,-0.07424729,0.11376094,-0.41873294,-0.0874167,0.049846742,-0.06437578,-0.019320814,0.06047308,0.024245597,0.03902323,-0.046866998,0.012820439,0.065108255,-0.024285395,-0.02081987,-0.008287937,-0.72943854,0.112230375,-0.6300172,-0.59463024,0.71591425,-0.81000435,0.5434064,-0.96561116,-0.8599028,0.9570347,-0.912721,-0.53916776,-0.7628163,0.1247492,-0.627752,-0.724841,0.735412,-0.7258187,0.64969957,-0.9720553,-0.8657556,0.95701146,-0.8805592,-0.4422828
2025-06-04 18:40:07.535,-0.019538745,-0.014582314,-0.0060993,0.08188697,-0.078503035,-0.04987928,0.0,0.0,0.0,0.014143338,-0.09863207,0.029355917,-0.13948919,-0.0546336,0.2947135,-0.06689812,0.03790776,-0.4592639,-0.07655538,0.097566456,-0.41298297,-0.092771664,-0.0495382,0.028363956,0.027072331,0.064187534,-0.004145831,-0.03165954,0.060546774,-0.054422867,-0.03493278,-0.0062320097,-0.02209968,-0.0071749515,-0.7628163,0.1247492,-0.627752,-0.724841,0.735412,-0.7258187,0.64969957,-0.9720553,-0.8657556,0.95701146,-0.8805592,-0.4422828,-0.74500823,0.12641625,-0.6184128,-0.69329417,0.7290522,-0.7666327,0.6197415,-0.97046846,-0.8814304,0.9539268,-0.90619934,-0.5060117
2025-06-04 18:40:07.555,0.0064667678,0.017159205,-0.036714893,0.023489753,-0.064617075,0.037792914,0.0,0.0,0.0,0.014404676,-0.085347004,0.033836108,-0.13091582,-0.053980954,0.2965443,-0.06262286,0.035265137,-0.45578566,-0.070162885,0.10875336,-0.4180412,-0.07822529,0.03340035,-0.05951547,-0.072287284,0.05052949,0.030604124,-0.028771581,-0.004065844,-0.019904017,-0.02068715,-0.04202862,-0.037610598,-0.062115967,-0.74500823,0.12641625,-0.6184128,-0.69329417,0.7290522,-0.7666327,0.6197415,-0.97046846,-0.8814304,0.9539268,-0.90619934,-0.5060117,-0.6362042,0.12349324,-0.69662,-0.60489774,0.71741253,-0.81644815,0.47081098,-0.95766634,-0.8422948,0.9618626,-0.9200337,-0.5793979
2025-06-04 18:40:07.578,-0.000633014,-0.030241001,-0.042140078,0.02674784,-0.09388425,0.030885484,0.0,0.0,0.0,0.014658666,-0.101158835,0.03605348,-0.14135563,-0.040037405,0.29931283,-0.06053503,0.03417193,-0.46018887,-0.07681982,0.11188478,-0.4142918,-0.08094013,0.045698013,0.05267278,0.0008274621,-0.0029040107,0.037655354,0.06047003,-0.0252546,-0.02303103,-0.03459413,0.03751824,-0.0075978707,-0.059534017,-0.6362042,0.12349324,-0.69662,-0.60489774,0.71741253,-0.81644815,0.47081098,-0.95766634,-0.8422948,0.9618626,-0.9200337,-0.5793979,-0.6234971,0.07092696,-0.6427831,-0.5105825,0.7359523,-0.83941317,0.3940046,-0.9559202,-0.8158349,0.96424514,-0.9240106,-0.5650282
2025-06-04 18:40:07.598,0.01945942,0.003439264,0.043318044,0.037284732,-0.11694012,-0.015545556,0.0,0.0,0.0,0.014690198,-0.08469616,0.033390857,-0.13063757,-0.056840762,0.29156315,-0.06752845,0.032851238,-0.4603016,-0.06237519,0.104175046,-0.416524,-0.08811558,-0.036090296,0.067276716,-0.013494002,-0.061947487,-0.07185114,0.032140583,-0.048355974,-0.02841396,-0.065673135,-0.05850548,-0.012252731,0.021696055,-0.6234971,0.07092696,-0.6427831,-0.5105825,0.7359523,-0.83941317,0.3940046,-0.9559202,-0.8158349,0.96424514,-0.9240106,-0.5650282,-0.739421,0.104564294,-0.5582285,-0.6181706,0.7668587,-0.79766065,0.5868343,-0.9730878,-0.86104786,0.9636336,-0.9043394,-0.44341952
2025-06-04 18:40:07.616,-0.043973565,0.050316423,0.05168652,0.04195269,-0.06957235,-0.0062010856,0.0,0.0,0.0,0.014478628,-0.08953582,0.02275474,-0.12740207,-0.041051943,0.2854026,-0.07361596,0.050336163,-0.45935458,-0.06985109,0.10208921,-0.41004676,-0.08230667,0.05246209,0.061241843,0.062185917,-0.04832496,0.023281517,-0.044542097,0.0036971061,0.042960152,-0.042795893,-0.028552242,-0.021278735,0.029183641,-0.739421,0.104564294,-0.5582285,-0.6181706,0.7668587,-0.79766065,0.5868343,-0.9730878,-0.86104786,0.9636336,-0.9043394,-0.44341952,-0.7929494,0.0907183,-0.6223966,-0.7438493,0.7616643,-0.7366066,0.65693045,-0.97436315,-0.8817068,0.9508262,-0.8917582,-0.5038826
2025-06-04 18:40:07.635,-0.03239899,0.0503913,-0.011799914,0.05085674,-0.09024816,0.0071451226,0.0,0.0,0.0,0.01435961,-0.098312765,0.026404256,-0.12963983,-0.03799907,0.29390386,-0.07315613,0.033028096,-0.45456094,-0.07238163,0.099298924,-0.40818918,-0.073838644,-0.06526406,0.039829273,0.07770976,0.042581677,0.007125746,0.060137574,-0.051819485,0.0026800588,0.03899134,-0.05618772,0.006653091,0.05732291,-0.7929494,0.0907183,-0.6223966,-0.7438493,0.7616643,-0.7366066,0.65693045,-0.97436315,-0.8817068,0.9508262,-0.8917582,-0.5038826,-0.6916056,0.15530534,-0.6466254,-0.6779555,0.67759866,-0.7671621,0.58422375,-0.9672159,-0.88089675,0.9521151,-0.90429515,-0.5438208
2025-06-04 18:40:07.658,0.058108278,-0.04046411,0.021080231,0.08451771,-0.102634184,-0.0251183,0.0,0.0,0.0,0.014614286,-0.09626764,0.02375198,-0.1304275,-0.04486718,0.2960227,-0.06967237,0.037151553,-0.44496536,-0.062295772,0.097429365,-0.4210037,-0.08247046,-0.015195792,0.051102776,0.038538713,-0.04013241,0.04600299,0.012413936,0.041047595,-0.05961082,-0.073282875,-0.050641134,-0.031021457,0.03935196,-0.6916056,0.15530534,-0.6466254,-0.6779555,0.67759866,-0.7671621,0.58422375,-0.9672159,-0.88089675,0.9521151,-0.90429515,-0.5438208,-0.7690882,0.06622005,-0.57230544,-0.67897594,0.76254004,-0.77700126,0.5316376,-0.9748572,-0.86641634,0.95716065,-0.9156581,-0.5176451
2025-06-04 18:40:07.676,0.009350801,0.0030979118,0.040892713,0.0690251,-0.109294266,0.026586616,0.0,0.0,0.0,0.01479862,-0.084583245,0.028886281,-0.1263808,-0.039845657,0.29698777,-0.06218535,0.050395932,-0.45663124,-0.07681382,0.106641665,-0.42747608,-0.09127762,0.030864447,-0.05368087,0.014841925,0.06826261,-0.037910413,0.040888064,-0.034875754,-0.07428516,-0.037104167,-0.051076397,0.0020330872,-0.07308041,-0.7690882,0.06622005,-0.57230544,-0.67897594,0.76254004,-0.77700126,0.5316376,-0.9748572,-0.86641634,0.95716065,-0.9156581,-0.5176451,-0.78409284,0.1286108,-0.63445705,-0.79707193,0.7719002,-0.7318419,0.7178579,-0.9765988,-0.89138967,0.9599801,-0.88221717,-0.35383713
2025-06-04 18:40:07.700,-0.015374146,-0.0048155175,-0.031104999,0.03237883,-0.118183345,-0.0391682,0.0,0.0,0.0,0.014910673,-0.10314376,0.036190156,-0.13358404,-0.052233562,0.28929958,-0.06195326,0.043565348,-0.45672682,-0.077198215,0.10053351,-0.41925243,-0.09037424,0.052083496,-0.05854427,0.030347362,0.03950368,-0.0040789773,-0.032537963,0.003613715,0.018375777,0.025565485,0.02250504,0.04552042,-0.06550475,-0.78409284,0.1286108,-0.63445705,-0.79707193,0.7719002,-0.7318419,0.7178579,-0.9765988,-0.89138967,0.9599801,-0.88221717,-0.35383713,-0.7131939,0.16350862,-0.68387794,-0.71591896,0.70095193,-0.7480476,0.64762735,-0.96596044,-0.87867093,0.947545,-0.893363,-0.5250696
2025-06-04 18:40:07.719,0.01566349,-0.0006108927,0.02122878,0.07189405,-0.020824403,0.04552217,0.0,0.0,0.0,0.015224306,-0.08509177,0.032334656,-0.12959823,-0.040908612,0.3071505,-0.07029853,0.041142225,-0.4459459,-0.07891596,0.113855675,-0.40806508,-0.08631975,0.02438929,0.06524063,0.011596664,0.055917043,-0.025396427,-0.018398648,0.06597345,-0.049597453,-0.014774469,-0.011222733,0.042099316,0.026187925,-0.7131939,0.16350862,-0.68387794,-0.71591896,0.70095193,-0.7480476,0.64762735,-0.96596044,-0.87867093,0.947545,-0.893363,-0.5250696,-0.7764609,0.13801074,-0.64214873,-0.76068145,0.73003626,-0.6772336,0.63686895,-0.97548115,-0.8757449,0.95213425,-0.88819414,-0.48337516
2025-06-04 18:40:07.739,0.050976347,-0.03650224,-0.0637816,0.0396881,-0.10281774,0.014388041,0.0,0.0,0.0,0.015497524,-0.097217605,0.029558152,-0.14145297,-0.049209595,0.30773148,-0.06709258,0.046948668,-0.44773158,-0.068300426,0.10175244,-0.4130509,-0.07496988,-0.07003134,-0.024981037,0.039468996,0.0066758986,0.024376845,0.07654699,-0.068248175,0.037972733,0.03302868,-0.024599817,0.0045783296,0.04271087,-0.7764609,0.13801074,-0.64214873,-0.76068145,0.73003626,-0.6772336,0.63686895,-0.97548115,-0.8757449,0.95213425,-0.88819414,-0.48337516,-0.6240264,0.093228534,-0.6707788,-0.5714297,0.67968434,-0.8372496,0.44710863,-0.9563393,-0.85869336,0.95556235,-0.9269408,-0.61583686
2025-06-04 18:40:07.758,0.04513496,-0.048363075,0.047111504,-0.0013578325,-0.08159177,-0.02422478,0.0,0.0,0.0,0.015736165,-0.09047745,0.042256884,-0.13130721,-0.05890618,0.28990158,-0.06833449,0.038120694,-0.45225212,-0.07080808,0.10734431,-0.41206932,-0.09093083,-0.03703613,-0.036306575,0.034514427,0.047795642,0.039132837,-0.075177565,0.0694354,-0.074519336,0.0045365808,-0.033588592,-0.01634473,0.035488535,-0.6240264,0.093228534,-0.6707788,-0.5714297,0.67968434,-0.8372496,0.44710863,-0.9563393,-0.85869336,0.95556235,-0.9269408,-0.61583686,-0.8420174,0.036044933,-0.5436029,-0.7272606,0.7653554,-0.7033906,0.6208552,-0.97893566,-0.85980296,0.95663416,-0.8879708,-0.44272113
2025-06-04 18:40:07.782,-0.03364165,0.024199313,0.005578237,0.010185863,-0.07426277,-0.028435687,0.0,0.0,0.0,0.015628306,-0.09790573,0.036675703,-0.1338172,-0.061751697,0.29468516,-0.061090156,0.03786386,-0.4599127,-0.06512682,0.10394555,-0.4222277,-0.08960014,0.04611836,-0.07273353,0.050539326,0.06310124,0.054721333,-0.05838306,-0.019296985,-0.015583443,-0.029442992,-0.0720282,0.05479726,0.029853996,-0.8420174,0.036044933,-0.5436029,-0.7272606,0.7653554,-0.7033906,0.6208552,-0.97893566,-0.85980296,0.95663416,-0.8879708,-0.44272113,-0.7990803,0.093999065,-0.6241104,-0.771646,0.7512911,-0.7374351,0.65896714,-0.9737036,-0.8851305,0.9485924,-0.8951057,-0.48060554
2025-06-04 18:40:07.801,-0.04875723,-0.021776358,0.015240153,0.06649804,-0.06358202,0.022650935,0.0,0.0,0.0,0.015676737,-0.09896379,0.029629694,-0.12628014,-0.055523206,0.3009511,-0.064247325,0.03538511,-0.4604418,-0.06734418,0.10312329,-0.42303088,-0.07415951,0.008487837,0.010450088,0.04841881,0.021498151,0.05225267,0.06798676,0.014227594,-0.04098435,-0.07497134,-0.07138681,0.006877452,0.016595116,-0.7990803,0.093999065,-0.6241104,-0.771646,0.7512911,-0.7374351,0.65896714,-0.9737036,-0.8851305,0.9485924,-0.8951057,-0.48060554,-0.7653294,0.105521426,-0.6493086,-0.77493376,0.76434785,-0.73694885,0.6179265,-0.9748023,-0.8818739,0.9527297,-0.90547895,-0.5038408
2025-06-04 18:40:07.819,-0.011514677,-0.03598072,-0.010332354,0.010101087,-0.042027593,-0.04461206,0.0,0.0,0.0,0.0159568,-0.10631281,0.021103906,-0.1382664,-0.055902578,0.29956916,-0.0641037,0.054609027,-0.4570729,-0.08274079,0.10432091,-0.40899947,-0.07410273,0.008097366,0.009160159,0.018015835,0.046835132,-0.051950898,0.0546125,-0.021555277,0.012695084,-0.021780951,0.0044527906,0.038402468,0.046331875,-0.7653294,0.105521426,-0.6493086,-0.77493376,0.76434785,-0.73694885,0.6179265,-0.9748023,-0.8818739,0.9527297,-0.90547895,-0.5038408,-0.73536086,0.11690999,-0.63105714,-0.71812415,0.74108267,-0.7867179,0.6209847,-0.97120726,-0.8809023,0.9572453,-0.90463316,-0.4808633
2025-06-04 18:40:07.840,-0.025480995,0.025520287,-0.047296155,0.07322092,-0.08210635,-0.040218856,0.0,0.0,0.0,0.016262686,-0.09036664,0.030047588,-0.13241652,-0.051809058,0.30452618,-0.06115561,0.04084974,-0.45015183,-0.06613408,0.11416151,-0.41534108,-0.08653764,0.025482312,-0.068210654,0.054171175,0.027975343,0.060829543,0.035992663,-0.013533209,0.03350213,0.07344903,0.057826247,-0.075179994,0.03781705,-0.73536086,0.11690999,-0.63105714,-0.71812415,0.74108267,-0.7867179,0.6209847,-0.97120726,-0.8809023,0.9572453,-0.90463316,-0.4808633,-0.6908848,0.058421545,-0.6548756,-0.63578665,0.7321759,-0.8135304,0.48065454,-0.96012473,-0.84967595,0.95179623,-0.91908437,-0.6137643
2025-06-04 18:40:07.859,-0.01813086,-0.02405623,0.034453657,0.0030088967,-0.10975584,0.040083878,0.0,0.0,0.0,0.016414352,-0.095699646,0.038406566,-0.13262022,-0.045924537,0.30313817,-0.06965847,0.041138973,-0.4658421,-0.07190107,0.11893218,-0.4125208,-0.086686924,-0.049474753,0.02132944,-0.04381148,-0.04016691,-0.059343882,0.0008583979,0.007518035,-0.049382765,-0.053202942,0.07158774,-0.058167998,0.017910805,-0.6908848,0.058421545,-0.6548756,-0.63578665,0.7321759,-0.8135304,0.48065454,-0.96012473,-0.84967595,0.95179623,-0.91908437,-0.6137643,-0.7738679,0.052133594,-0.61833924,-0.7396368,0.7951226,-0.7760191,0.6004853,-0.97668266,-0.8695364,0.96272564,-0.9119371,-0.4806109
2025-06-04 18:40:07.882,-0.038562547,-0.020241082,0.037321102,0.042367745,-0.066495396,0.0022317255,0.0,0.0,0.0,0.01634329,-0.09709866,0.02283974,-0.1282739,-0.05070398,0.29413396,-0.06520045,0.039722186,-0.45325318,-0.06655083,0.10032765,-0.42839155,-0.08801462,-0.026332058,-0.013904828,-0.019969117,-0.03350089,0.03189816,-0.0060350974,0.04150756,0.028520048,0.011492067,-0.062318984,0.053898882,-0.046819583,-0.7738679,0.052133594,-0.61833924,-0.7396368,0.7951226,-0.7760191,0.6004853,-0.97668266,-0.8695364,0.96272564,-0.9119371,-0.4806109,-0.78489405,0.1048338,-0.64390504,-0.77178216,0.78622895,-0.74297965,0.68303233,-0.9780176,-0.88717556,0.95654655,-0.8961781,-0.4508059
2025-06-04 18:40:07.899,0.008024294,-0.030639967,-0.016495803,0.057158034,-0.085800186,0.017031351,0.0,0.0,0.0,0.016340153,-0.09680965,0.0361479,-0.12958814,-0.048225097,0.31236,-0.061179873,0.052877404,-0.454858,-0.08534632,0.108601175,-0.4278334,-0.09156944,0.019325078,-0.03727348,-0.01736897,0.06309508,-0.02618881,-0.040355694,0.02933064,0.014145489,0.073737234,0.0007744554,-0.025926193,-0.041087955,-0.78489405,0.1048338,-0.64390504,-0.77178216,0.78622895,-0.74297965,0.68303233,-0.9780176,-0.88717556,0.95654655,-0.8961781,-0.4508059,-0.73053575,0.13330686,-0.6922488,-0.7285554,0.7293981,-0.75956625,0.6417762,-0.9683114,-0.877254,0.9521369,-0.9014696,-0.5426853
2025-06-04 18:40:07.919,-0.018909512,-0.0016222252,-0.005335233,0.025114294,-0.11115101,1.8427654e-05,0.0,0.0,0.0,0.016515646,-0.107985646,0.037917983,-0.1409422,-0.050919097,0.29967,-0.063595936,0.05006249,-0.461466,-0.070485726,0.10257085,-0.417643,-0.08201303,-0.048864122,0.04510525,0.0644314,-0.027690014,0.044745196,0.055972435,-0.054037195,0.05429793,0.05780991,-0.051760323,0.0065893224,-0.057727825,-0.73053575,0.13330686,-0.6922488,-0.7285554,0.7293981,-0.75956625,0.6417762,-0.9683114,-0.877254,0.9521369,-0.9014696,-0.5426853,-0.69474226,0.14692952,-0.6737093,-0.7250874,0.7089052,-0.7414818,0.5879544,-0.9710731,-0.8790916,0.9540372,-0.9051436,-0.5611622
2025-06-04 18:40:07.940,-6.19317e-05,0.025283186,-0.030853782,0.08890169,-0.07535165,0.028485129,0.0,0.0,0.0,0.016645469,-0.09242711,0.03910166,-0.14484431,-0.05362761,0.30717435,-0.05445028,0.055361286,-0.45988426,-0.08515817,0.10442075,-0.41019034,-0.083433524,-0.019793915,-0.053754605,-0.060774747,0.02392638,0.043573726,-0.018059418,0.04713647,-0.0738277,0.052891795,0.020579267,-0.0042070267,-0.06393149,-0.69474226,0.14692952,-0.6737093,-0.7250874,0.7089052,-0.7414818,0.5879544,-0.9710731,-0.8790916,0.9540372,-0.9051436,-0.5611622,-0.7153259,0.11650576,-0.67684567,-0.7301111,0.75875866,-0.755535,0.56584406,-0.9709478,-0.86605215,0.9571938,-0.91108114,-0.5551895
2025-06-04 18:40:07.960,-0.02045035,0.046654295,0.03637906,0.038236734,-0.03152447,0.031452116,0.0,0.0,0.0,0.016609276,-0.108002864,0.026328791,-0.14391088,-0.058211103,0.3008589,-0.06747665,0.045845352,-0.46099487,-0.076869294,0.10474479,-0.41658574,-0.07658438,0.01962077,-0.01716899,-0.05862089,0.0030608648,-0.03265103,-0.0024215851,-0.04375032,0.070848174,0.0022143081,0.06650298,0.012249268,-0.033913378,-0.7153259,0.11650576,-0.67684567,-0.7301111,0.75875866,-0.755535,0.56584406,-0.9709478,-0.86605215,0.9571938,-0.91108114,-0.5551895,-0.7838354,0.07498202,-0.68374956,-0.8152345,0.7770079,-0.7110449,0.65033543,-0.97666186,-0.8757414,0.9577338,-0.8923242,-0.49784425
2025-06-04 18:40:07.982,-0.031134563,0.00013830583,-0.036674913,0.06908486,-0.10262903,0.0028751548,0.0,0.0,0.0,0.016561693,-0.10124581,0.029850854,-0.14783634,-0.06153967,0.307079,-0.05368149,0.05119261,-0.4587522,-0.08575807,0.10049784,-0.42294794,-0.08592104,0.059154905,-0.014662652,-0.0067452267,-0.0601002,0.07470686,-0.03706761,-0.027773641,-0.04570451,-0.02687508,0.07447406,-0.050634563,-0.018869426,-0.7838354,0.07498202,-0.68374956,-0.8152345,0.7770079,-0.7110449,0.65033543,-0.97666186,-0.8757414,0.9577338,-0.8923242,-0.49784425,-0.7468704,0.047233872,-0.68931043,-0.7396755,0.7817867,-0.79130036,0.4919353,-0.9692699,-0.85878575,0.95016253,-0.9274312,-0.6412832
2025-06-04 18:40:08.000,-0.03368047,0.036932204,-0.043702725,0.031845197,-0.09076224,0.0341463,0.0,0.0,0.0,0.016766643,-0.111501805,0.022366181,-0.15066971,-0.060165886,0.3047308,-0.07058121,0.03902154,-0.46555817,-0.085756786,0.10379503,-0.41974553,-0.078413524,-0.038190357,-0.037261732,-0.052499246,0.061476167,-0.054939836,-0.030271182,0.04452648,-0.010411777,0.012812872,-0.02913662,-0.049119275,-0.0040872893,-0.7468704,0.047233872,-0.68931043,-0.7396755,0.7817867,-0.79130036,0.4919353,-0.9692699,-0.85878575,0.95016253,-0.9274312,-0.6412832,-0.6673255,0.06303211,-0.65797466,-0.59980166,0.7408673,-0.83902615,0.42608783,-0.9614495,-0.8406798,0.96375215,-0.93002754,-0.59234077
2025-06-04 18:40:08.021,0.03942532,-0.056979347,0.0124681145,0.030567644,-0.046060726,-0.021182174,0.0,0.0,0.0,0.016972179,-0.09300835,0.028404629,-0.13651863,-0.060402762,0.3037047,-0.06985144,0.037206236,-0.46481735,-0.07243938,0.11003368,-0.42034382,-0.07719187,0.051145498,0.016565952,-0.022319792,0.016446374,0.0647585,-0.027043201,0.025855267,-0.068608746,0.05360939,0.04907395,0.05217588,0.018905286,-0.6673255,0.06303211,-0.65797466,-0.59980166,0.7408673,-0.83902615,0.42608783,-0.9614495,-0.8406798,0.96375215,-0.93002754,-0.59234077,-0.8076861,0.045827113,-0.5656015,-0.6790028,0.7930178,-0.7636839,0.6146951,-0.97569263,-0.85121167,0.9578685,-0.89701164,-0.43368196
2025-06-04 18:40:08.041,0.011037001,-0.0044835354,0.020050367,0.07637219,-0.06951155,0.007008446,0.0,0.0,0.0,0.01680951,-0.09270773,0.018430648,-0.14119752,-0.04943542,0.3069556,-0.06801447,0.049070813,-0.46931833,-0.071626805,0.10037529,-0.4311001,-0.08863863,0.020000137,-0.0046437704,-0.0074386164,-0.025313828,-0.027130539,0.02741983,-0.05109309,0.034539994,0.03764525,0.03711498,0.06128429,0.07052816,-0.8076861,0.045827113,-0.5656015,-0.6790028,0.7930178,-0.7636839,0.6146951,-0.97569263,-0.85121167,0.9578685,-0.89701164,-0.43368196,-0.7793897,0.09705454,-0.63809466,-0.75054824,0.7724866,-0.77433974,0.7103503,-0.9748634,-0.89398515,0.95488423,-0.8909949,-0.44164124
2025-06-04 18:40:08.061,0.049752865,0.02177122,-0.03828488,0.038951155,-0.11134556,0.0365926,0.0,0.0,0.0,0.016683117,-0.11029202,0.029409135,-0.13236448,-0.058734257,0.30284187,-0.073091336,0.05550038,-0.45777005,-0.07064016,0.10121912,-0.42948762,-0.09628151,0.014034811,-0.031224614,-0.008336155,0.041602932,0.034151312,-0.07116038,0.03459048,0.06371871,0.038893048,-0.06932512,-0.045137405,-0.07093062,-0.7793897,0.09705454,-0.63809466,-0.75054824,0.7724866,-0.77433974,0.7103503,-0.9748634,-0.89398515,0.95488423,-0.8909949,-0.44164124,-0.6672001,0.13869151,-0.7174995,-0.6305799,0.7000968,-0.8167879,0.5485835,-0.95790225,-0.86392975,0.95709884,-0.9167073,-0.6139984
2025-06-04 18:40:08.118,-0.02779223,0.016086983,0.04469851,0.03185094,-0.0353675,0.031131046,0.0,0.0,0.0,0.01678896,-0.10034935,0.028737513,-0.14795463,-0.056006763,0.30546626,-0.06779302,0.0377057,-0.45083067,-0.07091503,0.10516327,-0.41590804,-0.0857632,-0.05714721,-0.03267371,0.019779535,0.06661818,0.0014523314,0.0011570231,0.00502078,0.07110915,-0.051662274,0.07427721,-0.024962047,0.057447255,-0.6672001,0.13869151,-0.7174995,-0.6305799,0.7000968,-0.8167879,0.5485835,-0.95790225,-0.86392975,0.95709884,-0.9167073,-0.6139984,-0.8127687,-0.0062257745,-0.6248723,-0.7864715,0.7694571,-0.7091303,0.577564,-0.97635996,-0.86062306,0.9581989,-0.90016896,-0.5278106
2025-06-04 18:40:08.138,-0.012724806,0.0014325341,0.009792482,0.03394284,-0.030927906,-0.040405795,0.0,0.0,0.0,0.016705597,-0.10532772,0.03225742,-0.13030829,-0.062189452,0.31753245,-0.060848434,0.03918509,-0.46874344,-0.08610487,0.115109,-0.41695705,-0.08421716,-0.00031652188,-0.032995973,0.016903782,-0.05088713,-0.018957702,0.062143054,-0.0073999437,0.05800722,0.052234147,-0.021377826,0.074832186,0.009808591,-0.8127687,-0.0062257745,-0.6248723,-0.7864715,0.7694571,-0.7091303,0.577564,-0.97635996,-0.86062306,0.9581989,-0.90016896,-0.5278106,-0.7732135,0.09779268,-0.6669146,-0.79388666,0.7880904,-0.76441824,0.6803554,-0.97770214,-0.89033437,0.9566437,-0.9002553,-0.4642217
2025-06-04 18:40:08.158,-0.009362372,-0.021717982,-0.005598602,0.087809294,-0.110835746,0.042407423,0.0,0.0,0.0,0.016765717,-0.09519334,0.026262842,-0.1430338,-0.06473029,0.31413904,-0.0674789,0.03888547,-0.46693793,-0.07235091,0.11176353,-0.42057246,-0.09476768,-0.039028514,0.065600164,-0.05569917,-0.042337045,-0.044834826,0.0010423257,0.041900735,0.069254234,0.0051517207,-0.06871997,0.051844478,-0.056255583,-0.7732135,0.09779268,-0.6669146,-0.79388666,0.7880904,-0.76441824,0.6803554,-0.97770214,-0.89033437,0.9566437,-0.9002553,-0.4642217,-0.68534374,0.1693135,-0.7014582,-0.7061815,0.7482289,-0.78968596,0.63218814,-0.97136265,-0.8876477,0.95938295,-0.9114921,-0.53180563
2025-06-04 18:40:08.178,-0.022344308,-0.021443103,0.01331805,0.03808141,-0.08971525,-0.01714931,0.0,0.0,0.0,0.016988676,-0.10919156,0.032421798,-0.1420174,-0.06096293,0.305088,-0.07062109,0.045925222,-0.47147518,-0.089718655,0.11138023,-0.41895705,-0.078756146,0.051481776,0.0017753094,0.02916936,-0.031157225,0.054974873,-0.04229379,-0.030636422,-0.060672507,-0.022736654,0.06028219,0.036145415,0.047527544,-0.68534374,0.1693135,-0.7014582,-0.7061815,0.7482289,-0.78968596,0.63218814,-0.97136265,-0.8876477,0.95938295,-0.9114921,-0.53180563,-0.8247365,0.05521345,-0.63848436,-0.79522204,0.7693145,-0.6860059,0.62492025,-0.97859895,-0.87745637,0.95061713,-0.8940132,-0.5384058
2025-06-04 18:40:08.199,0.03575072,0.05602903,-0.00057447073,0.045311797,-0.023013905,-0.02830342,0.0,0.0,0.0,0.017042352,-0.09237349,0.03225289,-0.1454844,-0.054984856,0.30912492,-0.06252671,0.039523903,-0.4654907,-0.087364584,0.114796855,-0.42350695,-0.096650094,0.007421651,0.053536892,-0.07019101,0.02712844,-0.0116740065,-0.007454279,-0.00032987937,-0.015180569,0.04506931,-0.01769269,0.069351286,-0.009094275,-0.8247365,0.05521345,-0.63848436,-0.79522204,0.7693145,-0.6860059,0.62492025,-0.97859895,-0.87745637,0.95061713,-0.8940132,-0.5384058,-0.737878,0.15565675,-0.66858345,-0.73925924,0.75186247,-0.77273643,0.64859736,-0.9743624,-0.8868121,0.9590571,-0.9016355,-0.47775683
2025-06-04 18:40:08.218,-0.018150598,-0.03792797,0.02080882,0.06728913,-0.029667515,0.0027991252,0.0,0.0,0.0,0.017190462,-0.107416354,0.024315918,-0.13234246,-0.0636248,0.32263687,-0.064609356,0.046648785,-0.46635595,-0.0869112,0.1037939,-0.421971,-0.08186845,-0.045633893,0.011461482,0.052327532,-0.019496376,0.034935236,0.05150908,0.0090504205,-0.039184436,0.032344468,-0.00013334368,0.017714608,0.007641458,-0.737878,0.15565675,-0.66858345,-0.73925924,0.75186247,-0.77273643,0.64859736,-0.9743624,-0.8868121,0.9590571,-0.9016355,-0.47775683,-0.80702627,0.08523382,-0.65597665,-0.8105637,0.78114355,-0.70270276,0.6924505,-0.97894543,-0.8964921,0.9533015,-0.89203656,-0.49069914
2025-06-04 18:40:08.238,0.0457204,0.017980855,0.016421592,0.03146964,-0.07365037,-0.021364292,0.0,0.0,0.0,0.017275805,-0.09807619,0.03256022,-0.14607316,-0.0656344,0.30522004,-0.058584552,0.04469251,-0.47085613,-0.07601896,0.10854945,-0.41938624,-0.08300939,-0.0027913516,-0.022354312,0.03930387,0.05853897,0.0058439933,-0.043664027,-0.03574277,0.06745231,0.03552369,0.0739447,-0.013227529,-0.010854053,-0.80702627,0.08523382,-0.65597665,-0.8105637,0.78114355,-0.70270276,0.6924505,-0.97894543,-0.8964921,0.9533015,-0.89203656,-0.49069914,-0.8194165,0.051478334,-0.684854,-0.82625794,0.76087385,-0.71394426,0.6844129,-0.9763163,-0.8911053,0.9505102,-0.8935833,-0.53094083
2025-06-04 18:40:08.258,0.03916053,-0.032948673,0.02413741,0.07944007,-0.086771846,-0.023499161,0.0,0.0,0.0,0.017483508,-0.11017763,0.027033484,-0.14147203,-0.067089446,0.318885,-0.06333084,0.048595052,-0.45963678,-0.0772468,0.10928634,-0.4158382,-0.09020131,0.02724102,-0.04021504,-0.046364915,-0.013610202,-0.047136676,-0.050592,-0.043805096,0.054825272,0.024032382,0.058961097,-0.030016959,0.073367745,-0.8194165,0.051478334,-0.684854,-0.82625794,0.76087385,-0.71394426,0.6844129,-0.9763163,-0.8911053,0.9505102,-0.8935833,-0.53094083,-0.841725,0.03692073,-0.68014145,-0.8316115,0.7746514,-0.72071147,0.66733813,-0.9794597,-0.88853914,0.9528276,-0.8977089,-0.5317768
2025-06-04 18:40:08.282,0.0017982285,-0.009314179,-0.022101026,0.07190635,-0.101336084,-0.035456542,0.0,0.0,0.0,0.017832398,-0.09818665,0.02997523,-0.14452359,-0.053406935,0.30864444,-0.05483997,0.048319444,-0.46325317,-0.09404379,0.111708224,-0.42942354,-0.08832246,-0.018767916,-0.010129892,0.028047653,-0.0010406423,-0.0380069,0.0603552,-0.07253409,0.00539528,-0.06072097,-0.015852442,0.010492147,-0.06074489,-0.841725,0.03692073,-0.68014145,-0.8316115,0.7746514,-0.72071147,0.66733813,-0.9794597,-0.88853914,0.9528276,-0.8977089,-0.5317768,-0.6848781,0.13180259,-0.6934326,-0.72018135,0.7368539,-0.816008,0.57387614,-0.96929497,-0.8812368,0.96139765,-0.91999924,-0.5334991
2025-06-04 18:40:08.299,-0.021555742,-0.06233098,0.0024938271,0.06937316,-0.027806265,0.0055884733,0.0,0.0,0.0,0.018207826,-0.1001857,0.032968946,-0.1470583,-0.0662099,0.31976917,-0.053320494,0.043446407,-0.45993218,-0.086627126,0.11321122,-0.42103603,-0.0941937,0.060456254,0.0658587,0.03202214,-0.07138,0.012522939,0.059341263,-0.07042515,-0.034711625,0.0019794258,-0.028072504,-0.028669545,-0.04953782,-0.6848781,0.13180259,-0.6934326,-0.72018135,0.7368539,-0.816008,0.57387614,-0.96929497,-0.8812368,0.96139765,-0.91999924,-0.5334991,-0.72592306,0.12237233,-0.6602061,-0.7229675,0.7727865,-0.7726992,0.5719784,-0.97262925,-0.8692057,0.95809674,-0.9104091,-0.53270626
2025-06-04 18:40:08.319,0.013615609,-0.028157046,-0.03677862,0.061459985,-0.053890936,0.025265504,0.0,0.0,0.0,0.018195884,-0.10355369,0.035935376,-0.14669661,-0.05676276,0.30680507,-0.063882835,0.040511757,-0.46495804,-0.075841784,0.11751681,-0.42396766,-0.08158069,0.026061578,0.029827008,-0.026204627,-0.0019022828,-0.013374093,-0.039071564,-0.027924487,0.034353282,0.029905641,0.018313922,-0.036564607,0.045431033,-0.72592306,0.12237233,-0.6602061,-0.7229675,0.7727865,-0.7726992,0.5719784,-0.97262925,-0.8692057,0.95809674,-0.9104091,-0.53270626,-0.68574786,0.063599244,-0.6504463,-0.5821438,0.7283866,-0.8259618,0.449515,-0.96199286,-0.8443232,0.9576261,-0.9248326,-0.6081446
2025-06-04 18:40:08.339,-0.049290337,0.036747456,0.006266431,0.0030971712,-0.037978623,-0.039308157,0.0,0.0,0.0,0.01798581,-0.11089189,0.02693385,-0.15208362,-0.05730849,0.31165522,-0.057065185,0.05474981,-0.4538573,-0.085979044,0.1144393,-0.4219872,-0.078109734,0.036709264,0.06689447,-0.056717623,0.052803826,-0.027939286,0.0019265653,-0.05532602,-0.020948043,-0.069587216,-0.03404852,0.06302622,-0.06293697,-0.68574786,0.063599244,-0.6504463,-0.5821438,0.7283866,-0.8259618,0.449515,-0.96199286,-0.8443232,0.9576261,-0.9248326,-0.6081446,-0.70740545,0.1411411,-0.6135019,-0.6571212,0.767652,-0.80802566,0.5868807,-0.96941626,-0.8626764,0.96634364,-0.9057071,-0.43608463
2025-06-04 18:40:08.359,0.050123576,0.0033706874,0.027179996,0.0028642577,-0.09775591,0.01154854,0.0,0.0,0.0,0.017575888,-0.10491597,0.034781262,-0.13530496,-0.06181753,0.30619305,-0.055932023,0.05185491,-0.45658514,-0.09407755,0.10768188,-0.42293614,-0.08857584,-0.00063081423,0.020722259,0.008590999,0.050782952,0.069653906,0.0041411878,-0.06614796,-0.06795781,0.075747535,-0.013306577,-0.023577817,-0.038961045,-0.70740545,0.1411411,-0.6135019,-0.6571212,0.767652,-0.80802566,0.5868807,-0.96941626,-0.8626764,0.96634364,-0.9057071,-0.43608463,-0.8040587,0.11823555,-0.6449292,-0.78703797,0.76312965,-0.7052203,0.722539,-0.9754188,-0.89534795,0.9527591,-0.8766612,-0.45239955
2025-06-04 18:40:08.383,-0.018556533,0.04280037,0.013602799,0.04232101,-0.026311075,0.041747212,0.0,0.0,0.0,0.017164186,-0.108278476,0.028249817,-0.14682369,-0.060395215,0.31145,-0.05572408,0.04314158,-0.46245712,-0.08254191,0.11752154,-0.41572335,-0.08180627,-0.056006256,-0.026218219,-0.04949403,0.03467974,-0.071522325,0.018747427,0.0629467,-0.06647027,0.001526892,-0.03363586,-0.07071634,-0.028722646,-0.8040587,0.11823555,-0.6449292,-0.78703797,0.76312965,-0.7052203,0.722539,-0.9754188,-0.89534795,0.9527591,-0.8766612,-0.45239955,-0.76360655,0.14779076,-0.71445584,-0.821037,0.76790965,-0.7179405,0.69471484,-0.975159,-0.89865005,0.9568134,-0.8968807,-0.51274836
2025-06-04 18:40:08.399,0.035047367,-0.0013417834,0.01776817,0.0019717787,-0.025701411,-0.046294674,0.0,0.0,0.0,0.017173713,-0.10762221,0.03668541,-0.15244381,-0.051328644,0.32325742,-0.06746798,0.03863637,-0.46707836,-0.07942794,0.11620743,-0.4253461,-0.08149338,-0.03067126,0.05776207,-0.013826103,-0.07433467,-0.065600045,-0.018706381,0.036095306,-0.050103754,-0.07065708,-0.013510331,0.041073374,0.02822463,-0.76360655,0.14779076,-0.71445584,-0.821037,0.76790965,-0.7179405,0.69471484,-0.975159,-0.89865005,0.9568134,-0.8968807,-0.51274836,-0.77366066,0.11453363,-0.64997053,-0.7673272,0.7770817,-0.75121033,0.62588596,-0.97898114,-0.8944599,0.9568343,-0.91070515,-0.5332918
2025-06-04 18:40:08.419,-0.018503798,0.047529962,-0.04412579,0.028143538,-0.03187275,0.0125226,0.0,0.0,0.0,0.017423598,-0.099079095,0.038229454,-0.13402148,-0.05873024,0.3161119,-0.050693076,0.039725874,-0.46409118,-0.09612331,0.104215115,-0.41290575,-0.084191725,-0.021047136,0.008694403,-0.009713836,-0.06893176,0.0242712,-0.028739242,0.01686576,-0.018874548,-0.06934433,-0.015588224,0.0010426709,-0.056489654,-0.77366066,0.11453363,-0.64997053,-0.7673272,0.7770817,-0.75121033,0.62588596,-0.97898114,-0.8944599,0.9568343,-0.91070515,-0.5332918,-0.6317905,0.08475329,-0.7014531,-0.60737765,0.7600939,-0.85057735,0.42479187,-0.96237046,-0.8564914,0.9632933,-0.93634295,-0.63718784
2025-06-04 18:40:08.439,0.021964265,0.032243155,-0.00060335203,0.06067171,-0.1023837,-0.00226751,0.0,0.0,0.0,0.017609023,-0.09364832,0.02504019,-0.14982225,-0.05116582,0.3260357,-0.06299327,0.040617105,-0.45582125,-0.091457516,0.11000601,-0.423354,-0.07945781,0.04890315,0.03054011,-0.04585012,0.01738632,-0.046565585,-0.058418725,0.012815538,-0.002218489,0.0051042284,-0.011385383,-0.012494705,0.059075966,-0.6317905,0.08475329,-0.7014531,-0.60737765,0.7600939,-0.85057735,0.42479187,-0.96237046,-0.8564914,0.9632933,-0.93634295,-0.63718784,-0.74791235,0.04800648,-0.5866099,-0.6092153,0.7753109,-0.8100512,0.47892112,-0.96928155,-0.8419289,0.959198,-0.9184407,-0.5622226
2025-06-04 18:40:08.459,0.006210378,0.031937063,0.06793606,0.082540244,-0.025052793,0.0018494126,0.0,0.0,0.0,0.017430644,-0.10949107,0.035695944,-0.13368882,-0.06463417,0.32819924,-0.068658076,0.043894235,-0.45299593,-0.092714354,0.10812266,-0.42900616,-0.0767486,0.017648276,0.018140387,0.029019542,0.04901266,-0.045865275,-0.05167105,-0.008975398,-0.0019233001,0.06055803,0.045154225,-0.025743812,0.020237448,-0.74791235,0.04800648,-0.5866099,-0.6092153,0.7753109,-0.8100512,0.47892112,-0.96928155,-0.8419289,0.959198,-0.9184407,-0.5622226,-0.8524777,0.026235549,-0.63202167,-0.8117996,0.7881352,-0.7127551,0.73256767,-0.97916144,-0.8888532,0.9557872,-0.8734554,-0.41551507
2025-06-04 18:40:08.482,-0.022523236,-0.03257052,0.00083172787,-0.0035354095,-0.05023883,-0.034718093,0.0,0.0,0.0,0.017106107,-0.09512391,0.022809448,-0.13207422,-0.05757877,0.3170979,-0.06276822,0.045979466,-0.46307167,-0.07696502,0.11783929,-0.42268318,-0.088902436,0.027222568,-0.07565817,-0.058303393,0.009187613,-0.02622719,-0.02170198,-0.062312324,-0.032345522,-0.051462084,-0.039679676,-0.033249944,0.05768353,-0.8524777,0.026235549,-0.63202167,-0.8117996,0.7881352,-0.7127551,0.73256767,-0.97916144,-0.8888532,0.9557872,-0.8734554,-0.41551507,-0.78344035,0.12347073,-0.6828638,-0.7821966,0.76753086,-0.7627231,0.6511056,-0.9737632,-0.8904019,0.95339143,-0.90625185,-0.534828
2025-06-04 18:40:08.499,0.014726636,0.006505921,-0.022622006,-0.001393668,-0.06187127,-0.027193233,0.0,0.0,0.0,0.017240023,-0.0981664,0.02185704,-0.14093612,-0.065538675,0.31764624,-0.054342937,0.05243455,-0.4557028,-0.09127964,0.10328168,-0.41410625,-0.07555955,0.07175056,0.05367884,-0.008075767,0.03204311,0.0049828556,-0.06315465,-0.049754605,-0.035597093,-0.030791441,0.023950398,-0.052586097,0.07108895,-0.78344035,0.12347073,-0.6828638,-0.7821966,0.76753086,-0.7627231,0.6511056,-0.9737632,-0.8904019,0.95339143,-0.90625185,-0.534828,-0.7512122,0.074139915,-0.6488684,-0.6916064,0.7468292,-0.79381853,0.4928188,-0.96825504,-0.8638516,0.95286775,-0.92223173,-0.616426
2025-06-04 18:40:08.519,-0.043658942,-0.024073303,-0.032845397,0.028878765,-0.031777814,0.0032477381,0.0,0.0,0.0,0.017509826,-0.09749572,0.024135448,-0.14780623,-0.060947366,0.3225705,-0.062221847,0.048094217,-0.46894962,-0.075022675,0.11713705,-0.42392126,-0.09035736,0.000653404,0.015412345,-0.06040976,-0.0036276896,-0.0065958854,-0.061355464,0.067260735,0.0059236744,-0.04844899,-0.05385612,0.03306781,0.043738727,-0.7512122,0.074139915,-0.6488684,-0.6916064,0.7468292,-0.79381853,0.4928188,-0.96825504,-0.8638516,0.95286775,-0.92223173,-0.616426,-0.7115908,0.043276012,-0.6125116,-0.5898845,0.78312814,-0.84619915,0.43843675,-0.9676292,-0.84545815,0.9646272,-0.9328717,-0.56650364
2025-06-04 18:40:08.539,0.019570626,0.024964284,0.010449495,0.042875845,-0.024996353,-0.007974139,0.0,0.0,0.0,0.017509472,-0.09564095,0.029041598,-0.14056134,-0.06288898,0.31989464,-0.07087246,0.05397429,-0.4724238,-0.082999855,0.10314391,-0.42651832,-0.094469845,0.015530266,0.034445334,0.026537776,0.06963543,0.045249395,-0.0714915,0.0060722297,0.02726111,-0.03282781,0.06936351,-0.075365834,0.012822158,-0.7115908,0.043276012,-0.6125116,-0.5898845,0.78312814,-0.84619915,0.43843675,-0.9676292,-0.84545815,0.9646272,-0.9328717,-0.56650364,-0.7778549,-0.0042699324,-0.59454083,-0.65040237,0.80080223,-0.833835,0.54687345,-0.9680859,-0.8517333,0.9604599,-0.92082614,-0.54148924
2025-06-04 18:40:08.559,-0.049778275,0.047657788,-0.0024738945,-0.009856913,-0.03936744,0.021339314,0.0,0.0,0.0,0.017220834,-0.11099869,0.031379767,-0.14425726,-0.062428277,0.3202809,-0.069430575,0.03512166,-0.4666213,-0.08828727,0.10147488,-0.4157763,-0.079516076,0.06511862,-0.020036723,-0.031752784,-0.018846165,-0.0016241724,-0.042924363,0.06315325,0.04080797,0.04773236,0.010694307,-0.038808286,0.065837145,-0.7778549,-0.0042699324,-0.59454083,-0.65040237,0.80080223,-0.833835,0.54687345,-0.9680859,-0.8517333,0.9604599,-0.92082614,-0.54148924,-0.7439976,0.04435561,-0.66432023,-0.678992,0.79227906,-0.823099,0.56617355,-0.9674628,-0.85612935,0.95780337,-0.91587424,-0.5777049
2025-06-04 18:40:08.583,0.0008105618,0.043352645,0.0035066858,0.07500796,-0.07132622,0.025699308,0.0,0.0,0.0,0.017000943,-0.10028368,0.028151732,-0.14193612,-0.05809781,0.3159596,-0.07173974,0.045290973,-0.4653906,-0.09177065,0.11032055,-0.41569915,-0.089108765,0.00814149,-0.011235117,-0.0568705,0.06558419,-0.0409195,-0.044085577,0.0035059648,0.055382818,0.047510974,0.044108424,0.021407593,0.02614077,-0.7439976,0.04435561,-0.66432023,-0.678992,0.79227906,-0.823099,0.56617355,-0.9674628,-0.85612935,0.95780337,-0.91587424,-0.5777049,-0.757748,0.09017401,-0.6622319,-0.7297553,0.7607841,-0.77578324,0.6375867,-0.9718359,-0.87269807,0.95908445,-0.9007276,-0.5107442
2025-06-04 18:40:08.600,-0.04565221,0.03788601,-0.032015786,0.033865277,-0.09305642,0.038105004,0.0,0.0,0.0,0.016935866,-0.098378964,0.033196107,-0.13045298,-0.061091475,0.3191586,-0.07182535,0.046796385,-0.46401432,-0.09202828,0.10591312,-0.43110684,-0.098918386,-0.053781565,-0.009149642,0.01899961,-0.012157645,-0.06564923,0.05054448,0.057325944,-0.052368738,-0.046757378,0.07596967,0.011168085,-0.0071762768,-0.757748,0.09017401,-0.6622319,-0.7297553,0.7607841,-0.77578324,0.6375867,-0.9718359,-0.87269807,0.95908445,-0.9007276,-0.5107442,-0.6583433,0.10908174,-0.6903238,-0.69401383,0.7658018,-0.82566905,0.5738424,-0.96693665,-0.87811583,0.9628882,-0.9228457,-0.5579243
2025-06-04 18:40:08.620,-0.0016471122,-0.05627053,0.03275156,0.0015217174,-0.11850103,0.044953972,0.0,0.0,0.0,0.01696094,-0.099805325,0.020822173,-0.13787153,-0.05967678,0.32757244,-0.071574114,0.043561727,-0.45874822,-0.091488615,0.11696223,-0.4214294,-0.08639225,0.055699613,-0.013935424,-0.016510801,0.010616285,0.07422934,-0.045506574,0.019299038,-0.060251065,-0.03892404,-0.023273388,-0.01836263,-0.044084378,-0.6583433,0.10908174,-0.6903238,-0.69401383,0.7658018,-0.82566905,0.5738424,-0.96693665,-0.87811583,0.9628882,-0.9228457,-0.5579243,-0.83310735,0.03605492,-0.66729844,-0.8137731,0.81033313,-0.7222699,0.63576794,-0.9777234,-0.86981225,0.9566649,-0.8994736,-0.517846
2025-06-04 18:40:08.640,-0.01870383,-0.015914772,-0.013391824,-0.0015974888,-0.066318735,-0.048714682,0.0,0.0,0.0,0.016895132,-0.09374479,0.027928976,-0.13106713,-0.046468858,0.3239755,-0.06403258,0.046425965,-0.4642835,-0.09169187,0.11261614,-0.4158407,-0.08431296,-0.070781425,-0.009903112,0.009430747,0.008344317,0.07764311,0.07489448,-0.047512807,-0.02345969,0.069570206,0.024703715,0.033483557,0.050005905,-0.83310735,0.03605492,-0.66729844,-0.8137731,0.81033313,-0.7222699,0.63576794,-0.9777234,-0.86981225,0.9566649,-0.8994736,-0.517846,-0.7731472,0.079516165,-0.65393084,-0.76830053,0.77753377,-0.7706781,0.6437783,-0.9756206,-0.88974816,0.9530332,-0.9085265,-0.5311515
2025-06-04 18:40:08.660,-0.021281645,-0.008558464,0.021747265,0.026798097,-0.025307503,-0.0188143,0.0,0.0,0.0,0.017065385,-0.104692444,0.01316936,-0.12970331,-0.057081494,0.32014102,-0.07583371,0.055163637,-0.47005126,-0.08938624,0.100130014,-0.4255141,-0.100488625,0.069881536,0.06094984,0.050702255,0.036408216,0.052964088,0.024553906,0.0047551193,0.053986438,-0.061697524,0.042610884,-0.053960014,-0.06527069,-0.7731472,0.079516165,-0.65393084,-0.76830053,0.77753377,-0.7706781,0.6437783,-0.9756206,-0.88974816,0.9530332,-0.9085265,-0.5311515,-0.76624566,0.059201684,-0.6872686,-0.78143525,0.79611695,-0.7939918,0.6195729,-0.9719025,-0.87343645,0.9591809,-0.91270876,-0.5427819
2025-06-04 18:40:08.682,0.019835636,0.0010878633,0.035582352,-0.004980548,-0.06212453,-0.012079707,0.0,0.0,0.0,0.017279036,-0.110689476,0.013963282,-0.13179564,-0.04859285,0.32569036,-0.06258069,0.046114188,-0.46375617,-0.07708687,0.1059006,-0.42616835,-0.091138236,0.061265573,-0.034451522,-0.001963367,-0.04316903,0.06843997,0.021411791,0.048857644,0.018904364,0.06853929,0.05913934,-0.010200181,0.031111248,-0.76624566,0.059201684,-0.6872686,-0.78143525,0.79611695,-0.7939918,0.6195729,-0.9719025,-0.87343645,0.9591809,-0.91270876,-0.5427819,-0.8516015,-0.012701946,-0.6808051,-0.83571565,0.8204627,-0.73843026,0.66772294,-0.9796957,-0.87603134,0.95553887,-0.8957838,-0.52370596
2025-06-04 18:40:08.700,-0.03592442,0.051413238,-0.023302022,0.080778494,-0.05480768,-7.1120005e-05,0.0,0.0,0.0,0.017464543,-0.1075251,0.024578962,-0.1392052,-0.059323683,0.32033798,-0.06008023,0.042856943,-0.46846783,-0.08569685,0.10588591,-0.426823,-0.08822375,0.069958165,-0.04309678,-0.063209824,-0.033052575,-0.05283728,0.02354593,0.07685455,0.06612416,-0.036715135,-0.069071054,0.013484391,0.005260108,-0.8516015,-0.012701946,-0.6808051,-0.83571565,0.8204627,-0.73843026,0.66772294,-0.9796957,-0.87603134,0.95553887,-0.8957838,-0.52370596,-0.69022924,0.10410692,-0.7236309,-0.7072474,0.7738318,-0.8287899,0.5398597,-0.96741825,-0.8644567,0.9603826,-0.9238551,-0.59635884
2025-06-04 18:40:08.720,-0.038041346,-0.04857955,-0.011391455,0.052676927,-0.06373978,-0.021548115,0.0,0.0,0.0,0.017840896,-0.10281181,0.029253932,-0.13990648,-0.05776604,0.3292331,-0.07487899,0.050131276,-0.47753245,-0.09403366,0.11985181,-0.42213476,-0.08835158,0.0032196501,0.00048640394,0.021874007,0.047050472,-0.052585777,-0.039069787,0.06981026,-0.013510212,-0.011784718,-0.001376825,-0.01633627,-0.04430662,-0.69022924,0.10410692,-0.7236309,-0.7072474,0.7738318,-0.8287899,0.5398597,-0.96741825,-0.8644567,0.9603826,-0.9238551,-0.59635884,-0.7451314,0.082286805,-0.64239895,-0.7037353,0.77009827,-0.7833068,0.5765635,-0.97155553,-0.86325014,0.9596428,-0.9137878,-0.5332034
2025-06-04 18:40:08.740,-0.005163328,-0.018540764,0.025087219,0.065049455,-0.066572756,-0.017753674,0.0,0.0,0.0,0.017946163,-0.09666138,0.02890622,-0.14611131,-0.065720625,0.31916985,-0.072899595,0.04807285,-0.46643567,-0.08453143,0.1022786,-0.4220784,-0.097582325,-0.07184442,0.005643014,0.019251922,0.042648777,0.06875357,-0.046581276,0.052502524,0.0016858501,-0.02532077,-0.007100232,0.0049674553,-0.07004223,-0.7451314,0.082286805,-0.64239895,-0.7037353,0.77009827,-0.7833068,0.5765635,-0.97155553,-0.86325014,0.9596428,-0.9137878,-0.5332034,-0.800359,0.052952647,-0.6396506,-0.77396137,0.797042,-0.7646089,0.6632607,-0.9767739,-0.88560504,0.95857584,-0.9064499,-0.49256378
2025-06-04 18:40:08.760,-0.029283054,0.007987893,0.02924951,0.00672713,-0.0721403,-0.011694753,0.0,0.0,0.0,0.017815908,-0.09953446,0.0120418705,-0.13982937,-0.050953403,0.3180448,-0.06597567,0.040539306,-0.47662202,-0.094983496,0.11336219,-0.41630885,-0.09797872,-0.009652172,0.072937906,0.059002094,0.071098424,-0.021374488,0.007022477,0.062853165,0.017864687,0.041084867,-0.010452695,-0.019602986,0.068882935,-0.800359,0.052952647,-0.6396506,-0.77396137,0.797042,-0.7646089,0.6632607,-0.9767739,-0.88560504,0.95857584,-0.9064499,-0.49256378,-0.81076264,0.08446762,-0.6512933,-0.79623276,0.77147603,-0.738124,0.70058703,-0.9765911,-0.896715,0.9526322,-0.894466,-0.49916852
