openverse-orca/OrcaGym/log/simulation_log_20250721_095014.csv
timestamp,sim_time,physics_step,control_step,imu_angle_roll,imu_angle_pitch,imu_angle_yaw,imu_angular_velocity_roll,imu_angular_velocity_pitch,imu_angular_velocity_yaw,imu_acc_x,imu_acc_y,imu_acc_z,fl_joint1_pos,fl_joint1_vel,fl_joint1_torque,fl_joint2_pos,fl_joint2_vel,fl_joint2_torque,fl_joint3_pos,fl_joint3_vel,fl_joint3_torque,fr_joint1_pos,fr_joint1_vel,fr_joint1_torque,fr_joint2_pos,fr_joint2_vel,fr_joint2_torque,fr_joint3_pos,fr_joint3_vel,fr_joint3_torque,hl_joint1_pos,hl_joint1_vel,hl_joint1_torque,hl_joint2_pos,hl_joint2_vel,hl_joint2_torque,hl_joint3_pos,hl_joint3_vel,hl_joint3_torque,hr_joint1_pos,hr_joint1_vel,hr_joint1_torque,hr_joint2_pos,hr_joint2_vel,hr_joint2_torque,hr_joint3_pos,hr_joint3_vel,hr_joint3_torque,fl_force_x,fl_force_y,fl_force_z,fr_force_x,fr_force_y,fr_force_z,hl_force_x,hl_force_y,hl_force_z,hr_force_x,hr_force_y,hr_force_z,fl_hip_action,fl_thigh_action,fl_calf_action,fr_hip_action,fr_thigh_action,fr_calf_action,hl_hip_action,hl_thigh_action,hl_calf_action,hr_hip_action,hr_thigh_action,hr_calf_action
2025-07-21 09:50:14.337,0.0,0,0,-0.01235278,0.036855783,-0.028871173,0.02840419,0.031669933,-0.010118213,0.8161262,0.20420855,0.0,0.0,0.0033904882,0.0030139592,-0.0013574507,0.006725353,0.0014737134,-0.001393696,0.0065200245,-0.0030444153,0.008375529,-0.005035302,-0.009706209,0.0056115123,0.033671916,-0.020615866,-0.010573113,-0.0628719,0.051683515,0.050646465,-0.0049680714,-0.05144967,-0.038534928,0.038724974,-0.043812964,-0.029732335,0.0,0.0,0.0,0.0,0.0,0.0,0.0,0.0,0.0,0.0,0.0,0.0,2.0,2.0,-2.0,-2.0,-2.0,-1.508212,-2.0,2.0,-2.0,2.0,2.0,2.0
2025-07-21 09:50:14.352,0.02,20,1,-0.098924756,-0.3174123,-0.08199052,0.041253757,0.041909844,-0.005956955,0.0,0.0,0.0,0.0,0.04783109,0.04946032,-0.049196012,-0.045532607,-0.014382431,-0.03395333,-0.045374155,0.05305837,-0.054312102,0.038108278,0.04183589,0.04849383,0.20207392,0.2608593,-0.058936186,-0.12432042,-0.13307649,-0.045243703,-0.11847257,0.3225631,-0.091415055,0.12729637,0.16908874,0.11830704,2.0,2.0,-2.0,-2.0,-2.0,-1.508212,-2.0,2.0,-2.0,2.0,2.0,2.0,-2.0,-2.0,-2.0,-2.0,-2.0,-2.0,2.0,2.0,-2.0,2.0,2.0,2.0
2025-07-21 09:50:14.372,0.04,40,2,-0.364684,-0.59292954,0.13568321,-0.013895394,0.08832516,-0.024910279,0.0,0.0,0.0,0.00055840315,0.03283265,0.0780137,-0.0927689,-0.09715873,-0.10376228,-0.08589317,-0.012357581,0.17430024,-0.09906727,0.09925581,0.09930252,0.07811554,-0.15205592,-0.14314,-0.091815434,-0.17084348,-0.26069993,-0.14616582,0.24059193,0.2808737,-0.16225591,0.09944457,0.10419634,0.084866636,-2.0,-2.0,-2.0,-2.0,-2.0,-2.0,2.0,2.0,-2.0,2.0,2.0,2.0,-2.0,-2.0,-2.0,-2.0,-2.0,-2.0,2.0,-2.0,2.0,-2.0,2.0,2.0
2025-07-21 09:50:14.391,0.06,60,3,0.08376421,0.18264467,0.22644645,0.020680735,0.06656639,-0.008372279,0.0,0.0,0.0,-0.0011422926,-0.011093576,0.036339935,-0.12739968,-0.13868713,-0.22565669,-0.12802505,0.04943965,0.2155314,-0.04402576,0.04751746,0.18358769,0.11374591,-0.13240395,-0.17128181,-0.040931016,-0.13222541,-0.29945695,-0.14639519,0.16229744,-0.13984494,0.2089155,-0.1971819,0.25149846,0.08556094,-2.0,-2.0,-2.0,-2.0,-2.0,-2.0,2.0,-2.0,2.0,-2.0,2.0,2.0,2.0,1.4298193,-2.0,-2.0,-2.0,2.0,2.0,0.97014683,2.0,-2.0,-2.0,2.0
2025-07-21 09:50:14.412,0.08,80,4,-0.13928226,-0.26928332,0.0763284,-0.06859884,0.04507029,-0.012201426,0.0,0.0,0.0,-0.005257508,0.005385063,0.041802984,-0.18120906,-0.162928,-0.33634007,-0.06552109,0.0865824,0.24145952,0.026721956,-0.019989062,0.2222386,0.15331794,0.16089779,0.12229341,-0.06446941,-0.03986727,-0.26792717,0.17086451,0.10178615,0.056392994,0.14475018,-0.11814077,-0.06292934,0.09964722,2.0,1.4298193,-2.0,-2.0,-2.0,2.0,2.0,0.97014683,2.0,-2.0,-2.0,2.0,2.0,-2.0,-2.0,-2.0,-2.0,-2.0,2.0,-2.0,2.0,-2.0,2.0,2.0
2025-07-21 09:50:14.432,0.1,100,5,-0.032479264,-0.07261521,0.18535505,-0.046118386,0.027549088,-0.04711395,0.0,0.0,0.0,-0.008453042,0.053063016,0.055952016,-0.19284043,-0.20953812,-0.43444377,-0.09364215,0.13980289,0.20415425,0.08274637,-0.06563259,0.2529926,0.16836311,0.061926547,-0.040570058,-0.080446646,-0.11848478,-0.19468719,-0.09373713,0.075805865,-0.20710272,0.15871269,-0.16374026,0.15645407,0.09958269,2.0,-2.0,-2.0,-2.0,-2.0,-2.0,2.0,-2.0,2.0,-2.0,2.0,2.0,2.0,-2.0,-2.0,-2.0,-2.0,2.0,2.0,2.0,2.0,-2.0,-2.0,2.0
2025-07-21 09:50:14.452,0.12000000000000001,120,6,0.035359137,0.02292169,0.121618316,-0.08667241,0.08066444,-0.040010042,0.0,0.0,0.0,-0.010700078,0.09762015,0.021280002,-0.22806744,-0.23428626,-0.49961978,-0.04128742,0.17166522,0.19450705,0.114227735,-0.118842706,0.28151888,0.1997766,0.11095693,-0.13934766,-0.022150485,-0.08629603,-0.2321056,0.18262099,0.12377776,0.04476372,0.07964934,-0.08023085,-0.11805691,0.0041155796,2.0,-2.0,-2.0,-2.0,-2.0,2.0,2.0,2.0,2.0,-2.0,-2.0,2.0,2.0,2.0,-2.0,-2.0,-2.0,2.0,2.0,2.0,2.0,-2.0,2.0,2.0
2025-07-21 09:50:14.472,0.14,140,7,0.37963885,0.09296617,-0.06925954,-0.027122436,0.08670327,0.015964178,0.0,0.0,0.0,-0.012967375,0.14109932,0.017605148,-0.23678663,-0.24950808,-0.57066697,0.031884138,0.19977629,0.2576744,0.14139454,-0.1542416,0.29765233,0.21106884,0.09289695,0.05363957,-0.05631432,-0.037510857,-0.17177433,0.084451765,0.12819672,0.17476918,0.016340783,-0.07468792,0.19362573,0.076709725,2.0,2.0,-2.0,-2.0,-2.0,2.0,2.0,2.0,2.0,-2.0,2.0,2.0,2.0,2.0,-2.0,-2.0,-2.0,2.0,2.0,-2.0,2.0,2.0,2.0,2.0
2025-07-21 09:50:14.492,0.16,160,8,0.25578982,0.2241283,0.10846906,-0.012060386,-0.005364726,0.03516619,0.0,0.0,0.0,-0.013388645,0.1842513,0.06605611,-0.26107705,-0.2719964,-0.6129307,0.06773324,0.22497185,0.2832738,0.15505908,-0.09945756,0.39269045,0.23280172,0.024488432,0.1650936,-0.09211642,-0.0013497735,-0.15608078,0.05957495,0.11442981,-0.015334422,0.089933865,0.14943188,0.2333969,0.051555894,2.0,2.0,-2.0,-2.0,-2.0,2.0,2.0,-2.0,2.0,2.0,2.0,2.0,2.0,2.0,-2.0,-2.0,-2.0,2.0,2.0,-2.0,2.0,2.0,2.0,2.0
2025-07-21 09:50:14.512,0.18,180,9,0.16981412,0.482627,0.1002202,-0.044118714,0.029292492,-0.04074681,0.0,0.0,0.0,-0.014179369,0.19815007,0.15113954,-0.2831188,-0.27681023,-0.6524988,0.1084674,0.24195766,0.27717292,0.19038624,-0.02193171,0.47493836,0.24924178,0.045628477,0.293256,-0.044024356,-0.068875946,-0.16281256,0.037803408,0.076030515,-0.10360891,0.093925804,0.15883833,0.21482687,0.07759905,2.0,2.0,-2.0,-2.0,-2.0,2.0,2.0,-2.0,2.0,2.0,2.0,2.0,2.0,-2.0,-2.0,-2.0,-2.0,2.0,2.0,2.0,2.0,2.0,-2.0,2.0
2025-07-21 09:50:14.532,0.19999999999999998,200,10,-0.17865768,0.20719765,0.15059286,0.032045074,-0.03395828,-0.036190663,0.0,0.0,0.0,-0.015957847,0.2378,0.1926749,-0.2888177,-0.2990109,-0.68425167,0.14146088,0.27614233,0.29726285,0.21228042,0.03624468,0.49608803,0.2573317,0.06839787,-0.035635557,-0.06810156,0.017255463,-0.035951495,0.0540222,0.071914874,0.15994991,0.055717766,0.12847647,0.01714135,0.05612877,2.0,-2.0,-2.0,-2.0,-2.0,2.0,2.0,2.0,2.0,2.0,-2.0,2.0,2.0,-2.0,-2.0,-2.0,-2.0,2.0,2.0,-2.0,2.0,-2.0,-2.0,0.46490717
2025-07-21 09:50:14.556,0.21999999999999997,220,11,-0.13990751,0.27850595,0.052690238,0.024499614,-0.056585822,-0.020187413,0.0,0.0,0.0,-0.018286115,0.26518184,0.1576315,-0.28746894,-0.31911358,-0.71745783,0.14993154,0.27414623,0.2833854,0.22079621,0.00912657,0.49117732,0.22787179,0.10132587,-0.07778639,0.019832892,-0.055792324,-0.14741956,0.08236022,0.008264101,-0.19913203,0.055595174,-0.18808137,-0.053669088,0.0068383683,2.0,-2.0,-2.0,-2.0,-2.0,2.0,2.0,-2.0,2.0,-2.0,-2.0,0.46490717,2.0,2.0,-2.0,-2.0,2.0,2.0,2.0,2.0,2.0,0.24426576,2.0,2.0
2025-07-21 09:50:14.572,0.23999999999999996,240,12,0.12846482,-0.24777535,0.1505505,-0.017880047,-0.00036005423,0.016157461,0.0,0.0,0.0,-0.019657124,0.2805975,0.18475874,-0.29847738,-0.3172015,-0.7323638,0.17909388,0.29583603,0.30272484,0.24038678,0.009345531,0.52968013,0.24485658,0.085716784,0.17190464,-0.0589264,0.0069255745,-0.006640493,0.0051074214,-0.014862158,0.23985036,0.06798547,0.07788193,0.20255986,0.06440906,2.0,2.0,-2.0,-2.0,2.0,2.0,2.0,2.0,2.0,0.24426576,2.0,2.0,2.0,-2.0,-2.0,-2.0,-2.0,2.0,2.0,-2.0,2.0,-2.0,-2.0,-2.0
2025-07-21 09:50:14.592,0.25999999999999995,260,13,-0.11229112,0.012138681,0.1410288,0.052108925,-0.0567078,0.048041794,0.0,0.0,0.0,-0.022420993,0.29389346,0.17559534,-0.29511452,-0.3302869,-0.74970746,0.18349676,0.31628308,0.32388577,0.24379146,-0.04663771,0.5660574,0.17360009,0.032176983,-0.024168203,0.037065927,-0.092296444,-0.08260107,0.06473703,0.10604707,-0.042104278,0.055120658,-0.18289334,-0.07251021,-0.18298037,2.0,-2.0,-2.0,-2.0,-2.0,2.0,2.0,-2.0,2.0,-2.0,-2.0,-2.0,2.0,-2.0,-2.0,-2.0,2.0,2.0,2.0,2.0,2.0,-2.0,2.0,-2.0
2025-07-21 09:50:14.613,0.27999999999999997,280,14,0.36616957,-0.25114244,0.21804935,-0.016037267,0.021324294,0.039724734,0.0,0.0,0.0,-0.024549028,0.3103378,0.13460772,-0.30722958,-0.34305695,-0.74668276,0.19049984,0.3191721,0.3571184,0.26203993,-0.08618722,0.590704,0.08381124,0.054954886,-0.1544305,0.01074735,0.047123197,0.105695195,-0.037466023,0.03986829,0.2508913,-0.04329904,-0.051589873,0.14967974,-0.12397333,2.0,-2.0,-2.0,-2.0,2.0,2.0,2.0,2.0,2.0,-2.0,2.0,-2.0,2.0,-2.0,-2.0,-2.0,2.0,2.0,-2.0,-2.0,2.0,-2.0,2.0,-2.0
2025-07-21 09:50:14.632,0.3,300,15,0.37892792,0.017171782,0.14491992,-0.048285894,-0.09294124,-0.016991686,0.0,0.0,0.0,-0.027605318,0.321776,0.048193786,-0.31333953,-0.37074843,-0.721257,0.20164543,0.29703313,0.40627,0.27247244,-0.13441148,0.6327158,0.02557721,0.015904056,-0.2459308,-0.038852584,-0.05040254,0.05475109,0.05602731,0.04945289,-0.013518945,0.036093593,-0.10586973,0.12678544,-0.20610246,2.0,-2.0,-2.0,-2.0,2.0,2.0,-2.0,-2.0,2.0,-2.0,2.0,-2.0,2.0,-2.0,-2.0,-2.0,2.0,2.0,-2.0,-2.0,2.0,-2.0,2.0,-2.0
2025-07-21 09:50:14.653,0.32,320,16,0.274461,0.09960234,0.09013213,-0.0262972,-0.05789787,0.03995155,0.0,0.0,0.0,-0.031950213,0.31528726,-0.077628374,-0.30989158,-0.3863259,-0.71558565,0.21591887,0.29003963,0.3882036,0.29036516,-0.16179042,0.67559636,-0.03269739,0.007840752,-0.3767083,-0.062490277,0.00806798,-0.013733011,0.045520835,-0.019082675,-0.022870773,0.052686967,-0.073284395,0.032024406,-0.12495278,2.0,-2.0,-2.0,-2.0,2.0,2.0,-2.0,-2.0,2.0,-2.0,2.0,-2.0,2.0,-2.0,-2.0,-2.0,2.0,2.0,-2.0,-2.0,2.0,-2.0,2.0,-2.0
2025-07-21 09:50:14.677,0.34,340,17,0.17558219,0.11478964,-0.05452776,0.02982464,-0.09418971,0.0008173358,0.0,0.0,0.0,-0.03369928,0.32797787,-0.20738898,-0.3184804,-0.40493163,-0.6968157,0.22087897,0.29335165,0.3769612,0.30011928,-0.20738478,0.70203775,-0.092989236,-0.019566795,-0.36147156,0.007736953,0.025741987,0.061049,0.07463988,-0.061431736,-0.062367372,-0.030042656,-0.015946124,0.043304835,-0.08753791,2.0,-2.0,-2.0,-2.0,2.0,2.0,-2.0,-2.0,2.0,-2.0,2.0,-2.0,2.0,-2.0,2.0,-2.0,2.0,-2.0,-2.0,-2.0,2.0,-2.0,2.0,-2.0
2025-07-21 09:50:14.692,0.36000000000000004,360,18,0.30393484,0.34008566,-0.07621648,-0.020054944,-0.14938761,-0.027524833,0.0,0.0,0.0,-0.034447048,0.33786193,-0.31804234,-0.21908325,-0.40581986,-0.67337453,0.14226967,0.25849375,0.36766094,0.29995587,-0.22674511,0.7243808,-0.1233625,-0.04816302,-0.29065153,0.30680498,-0.06169195,0.04616652,-0.2567791,-0.11379319,-0.041559502,-0.021567976,0.008794789,0.064200245,-0.06378596,2.0,-2.0,2.0,-2.0,2.0,-2.0,-2.0,-2.0,2.0,-2.0,2.0,-2.0,2.0,-2.0,2.0,-2.0,2.0,-2.0,-2.0,-2.0,2.0,-2.0,-2.0,-2.0
2025-07-21 09:50:14.713,0.38000000000000006,380,19,0.123267084,0.38496703,-0.19284561,0.059383206,-0.16008529,0.008801862,0.0,0.0,0.0,-0.034313653,0.3361536,-0.41484958,-0.12862892,-0.40284547,-0.63887775,0.053704195,0.20773226,0.34872967,0.302204,-0.24142061,0.6773186,-0.147032,-0.040899616,-0.16560674,0.17411512,-0.07539558,0.08240234,-0.22495472,-0.135648,-0.0027816095,0.00943942,-0.058834676,-0.18979123,-0.038865983,2.0,-2.0,2.0,-2.0,2.0,-2.0,-2.0,-2.0,2.0,-2.0,-2.0,-2.0,2.0,-2.0,2.0,-2.0,2.0,-2.0,2.0,-2.0,2.0,-2.0,-2.0,2.0
2025-07-21 09:50:14.733,0.4000000000000001,400,20,-0.49865252,0.020938119,-0.026335828,0.0327599,-0.15254988,0.037368964,0.0,0.0,0.0,-0.033511903,0.33702663,-0.4913991,-0.058917638,-0.4079695,-0.6020556,-0.020079808,0.2214631,0.3013413,0.31791908,-0.25766096,0.59157944,-0.10293758,0.015797768,-0.10858682,0.17655395,0.005026564,0.11225723,-0.11800309,0.029282823,-0.11127265,0.05276525,0.033637807,-0.28206167,0.19078314,2.0,-2.0,2.0,-2.0,2.0,-2.0,2.0,-2.0,2.0,-2.0,-2.0,2.0,2.0,-2.0,2.0,-2.0,2.0,-2.0,-2.0,2.0,-2.0,-2.0,2.0,2.0
2025-07-21 09:50:14.753,0.4200000000000001,420,21,-0.13554032,-0.05156971,-0.006067546,0.06321789,-0.08251903,0.036567383,0.0,0.0,0.0,-0.03321814,0.3265138,-0.55596054,0.01904739,-0.39238995,-0.5539018,-0.071464546,0.20018058,0.32843956,0.21404067,-0.27424812,0.542708,-0.035293065,-0.06811615,-0.16024286,0.1651579,0.029473199,0.13734688,-0.15634218,-0.1629533,0.26694956,-0.18745884,-0.10640963,0.10366664,0.11711759,2.0,-2.0,2.0,-2.0,2.0,-2.0,-2.0,2.0,-2.0,-2.0,2.0,2.0,2.0,-2.0,2.0,-2.0,2.0,-2.0,-2.0,2.0,-2.0,-2.0,-2.0,2.0
2025-07-21 09:50:14.773,0.4400000000000001,440,22,-0.2658866,-0.27962258,0.07112531,0.024876123,-0.06938379,0.03913338,0.0,0.0,0.0,-0.033450697,0.3435394,-0.5992481,0.063988626,-0.40282643,-0.5095512,-0.124485135,0.112484716,0.41738173,0.12050333,-0.29924554,0.53395814,0.0205021,-0.06685333,-0.117245935,0.14276397,0.05997499,0.12989713,-0.09946463,-0.1978554,0.2661373,-0.175318,-0.04822612,-0.1534758,0.11168614,2.0,-2.0,2.0,-2.0,2.0,-2.0,-2.0,2.0,-2.0,-2.0,-2.0,2.0,2.0,-2.0,2.0,-2.0,2.0,-2.0,-2.0,2.0,-2.0,-2.0,-2.0,2.0
2025-07-21 09:50:14.796,0.46000000000000013,460,23,-0.27818334,-0.15158579,-0.01489876,0.03514683,-0.0998335,-0.025775412,0.0,0.0,0.0,-0.033690594,0.3475798,-0.6441961,0.10736031,-0.39454678,-0.45096916,-0.16363026,0.04006426,0.49792513,0.046562288,-0.29187918,0.44841585,0.08002558,-0.057214733,-0.1661377,0.051369857,-0.04932095,0.20133768,-0.024999926,-0.19706145,0.122520514,-0.20577112,0.015285832,-0.13352004,0.16798136,2.0,-2.0,2.0,-2.0,2.0,-2.0,-2.0,2.0,-2.0,-2.0,-2.0,2.0,2.0,-2.0,2.0,-2.0,2.0,-2.0,-2.0,2.0,-2.0,-2.0,0.61077774,2.0
2025-07-21 09:50:14.813,0.48000000000000015,480,24,-0.07493737,-0.11980618,0.030528547,0.044718992,-0.07087589,-0.042488102,0.0,0.0,0.0,-0.03382035,0.34288654,-0.6827519,0.14383869,-0.3969468,-0.37436685,-0.19810832,-0.020162687,0.55354214,-0.010887485,-0.3109139,0.40277314,0.12837006,0.015236289,-0.015334225,0.027836932,0.024209257,0.120747454,-0.036296617,-0.15834285,0.18573093,-0.0941032,0.034911364,-0.033172946,0.16016205,2.0,-2.0,2.0,-2.0,2.0,-2.0,-2.0,2.0,-2.0,-2.0,0.61077774,2.0,2.0,2.0,2.0,-2.0,2.0,-2.0,-2.0,2.0,-2.0,-2.0,2.0,2.0
2025-07-21 09:50:14.833,0.5000000000000001,500,25,0.17906764,-0.13528313,-0.059117027,-0.015914258,-0.094436444,-0.04295579,0.0,0.0,0.0,-0.033284582,0.34996402,-0.6787651,0.16663511,-0.39657634,-0.3045652,-0.23260763,-0.06771838,0.6127769,-0.06056381,-0.31536654,0.44313625,0.14585061,0.009186842,0.119797066,0.051932067,-0.00037689667,0.13939133,-0.0007526114,-0.13460512,0.10145859,-0.05134569,-0.09198959,0.22606839,0.12005628,2.0,2.0,2.0,-2.0,2.0,-2.0,-2.0,2.0,-2.0,-2.0,2.0,2.0,-2.0,2.0,2.0,-2.0,-2.0,-2.0,2.0,2.0,-2.0,-2.0,-2.0,2.0
2025-07-21 09:50:14.853,0.5200000000000001,520,26,0.102171816,-0.047260772,-0.050796326,0.013407404,-0.07690113,0.045848798,0.0,0.0,0.0,-0.03268684,0.33801746,-0.6550952,0.17455444,-0.3784481,-0.31133625,-0.23872493,-0.030688057,0.6680625,-0.09651919,-0.33751634,0.45850986,0.17575932,-0.03289809,0.035442594,0.014545161,0.023713363,-0.1286887,0.041697815,0.17205112,0.15038247,-0.098995045,0.014512456,0.045832187,0.09902278,-2.0,2.0,2.0,-2.0,-2.0,-2.0,2.0,2.0,-2.0,-2.0,-2.0,2.0,-2.0,2.0,-2.0,-2.0,-2.0,-1.128821,2.0,-2.0,-2.0,-2.0,-2.0,2.0
2025-07-21 09:50:14.873,0.5400000000000001,540,27,0.019607583,0.20795265,-0.04056443,-0.01801838,-0.06737611,0.014512446,0.0,0.0,0.0,-0.031794395,0.30583036,-0.6006359,0.09970439,-0.3827192,-0.39795685,-0.2258092,0.026324023,0.63544005,-0.1301666,-0.3522965,0.4530729,0.21149689,-0.16620359,0.084153146,-0.17204165,0.040830113,-0.15562785,0.008528371,0.19053186,-0.21677907,-0.010056696,-0.023070056,-0.031139895,0.04062809,-2.0,2.0,-2.0,-2.0,-2.0,-1.128821,2.0,-2.0,-2.0,-2.0,-2.0,2.0,-2.0,2.0,-2.0,-2.0,-2.0,2.0,2.0,-2.0,2.0,-2.0,-2.0,2.0
2025-07-21 09:50:14.898,0.5600000000000002,560,28,-0.032660287,0.12523814,-0.047038864,0.08160103,-0.081325896,-0.009668069,0.0,0.0,0.0,-0.031136364,0.24331374,-0.5551097,0.028112741,-0.37832266,-0.48177707,-0.15424266,0.087721914,0.5056357,-0.06808454,-0.36686185,0.4284019,0.23937711,-0.14877996,0.12643488,-0.22164041,-0.035716232,-0.13944256,0.26631495,0.18938202,-0.35236883,0.13269733,-0.07330185,-0.12695651,0.042140134,-2.0,2.0,-2.0,-2.0,-2.0,2.0,2.0,-2.0,2.0,-2.0,-2.0,2.0,2.0,2.0,-2.0,-2.0,-2.0,2.0,2.0,2.0,2.0,-2.0,2.0,2.0
2025-07-21 09:50:14.913,0.5800000000000002,580,29,0.15212348,-0.31752437,-0.07108727,0.03348089,-0.089278705,0.025300996,0.0,0.0,0.0,-0.031222207,0.26753232,-0.48264837,-0.036366273,-0.36808655,-0.54454696,-0.06455899,0.12625134,0.4503451,-0.003919169,-0.35822082,0.46468693,0.23464674,0.008027281,0.18690458,-0.08520532,-0.016967155,-0.07947743,0.13994513,0.123236604,0.10233459,0.12275878,0.022197502,0.16225061,-0.00551917,2.0,2.0,-2.0,-2.0,-2.0,2.0,2.0,2.0,2.0,-2.0,2.0,2.0,2.0,2.0,-2.0,-2.0,-2.0,2.0,2.0,-2.0,2.0,2.0,-2.0,2.0
2025-07-21 09:50:14.936,0.6000000000000002,600,30,-0.2734124,-0.20386781,-0.08989458,0.062032428,-0.028187783,-0.006546315,0.0,0.0,0.0,-0.029093836,0.2903508,-0.39164647,-0.08802317,-0.38373065,-0.6004252,0.0011061003,0.16465634,0.4277004,0.050726566,-0.28437224,0.4754565,0.26470873,-0.0061031138,0.24689919,-0.111138895,-0.012465482,-0.06332499,0.09740547,0.08221312,-0.010613682,0.10554822,0.31473967,-0.11706811,0.05006547,2.0,2.0,-2.0,-2.0,-2.0,2.0,2.0,-2.0,2.0,2.0,-2.0,2.0,2.0,2.0,-2.0,-2.0,-2.0,2.0,2.0,-2.0,2.0,2.0,2.0,2.0
2025-07-21 09:50:14.953,0.6200000000000002,620,31,-0.17242774,-0.06945519,0.077095926,0.017849788,-0.044925388,-0.00926907,0.0,0.0,0.0,-0.026602952,0.30632788,-0.3289773,-0.13821185,-0.36641133,-0.6433056,0.04860061,0.2054417,0.3862175,0.10104577,-0.19498527,0.5067864,0.27408123,0.026098296,0.108658716,-0.09446544,-0.06054772,-0.078597456,0.052479297,0.014587095,-0.0807398,0.09307869,0.28324407,0.207988,-0.016683113,2.0,2.0,-2.0,-2.0,-2.0,2.0,2.0,-2.0,2.0,2.0,2.0,2.0,2.0,2.0,-2.0,-2.0,-2.0,2.0,2.0,-2.0,2.0,2.0,2.0,2.0
2025-07-21 09:50:14.974,0.6400000000000002,640,32,0.01298542,0.10006332,0.080209754,0.039988115,-0.037160054,-0.019444218,0.0,0.0,0.0,-0.027282782,0.30935606,-0.24846835,-0.18781734,-0.3783131,-0.67809516,0.08268913,0.23579028,0.34615982,0.13273251,-0.101793095,0.57452947,0.27759603,0.016629169,0.15154828,-0.058366276,-0.075384416,-0.09256618,0.036980223,0.06948711,-0.11248849,0.10129027,0.23576084,0.15807673,0.013916499,2.0,2.0,-2.0,-2.0,-2.0,2.0,2.0,-2.0,2.0,2.0,2.0,2.0,2.0,2.0,-2.0,-2.0,-2.0,2.0,2.0,2.0,2.0,2.0,2.0,2.0
2025-07-21 09:50:14.994,0.6600000000000003,660,33,0.16346645,-0.122271396,-0.121521585,-0.015202219,-0.09041571,-0.0111295,0.0,0.0,0.0,-0.028933745,0.319224,-0.17823914,-0.21622387,-0.3840763,-0.70009243,0.12791176,0.252255,0.38505268,0.16773036,-0.022198774,0.62408227,0.27674785,-0.022221122,0.24318612,-0.043952975,-0.042381965,-0.07644958,0.099670544,-0.00085795415,0.168733,0.006162855,0.1677592,0.15046856,0.032919925,2.0,2.0,-2.0,-2.0,-2.0,2.0,2.0,2.0,2.0,2.0,2.0,2.0,2.0,2.0,-2.0,-2.0,-2.0,2.0,2.0,-2.0,2.0,2.0,2.0,2.0
2025-07-21 09:50:15.014,0.6800000000000003,680,34,0.043458402,-0.06582995,-0.04510943,0.012455291,-0.04917416,-0.009348215,0.0,0.0,0.0,-0.02792309,0.32369956,-0.026664555,-0.235465,-0.36984232,-0.7158229,0.14797273,0.25979692,0.40903202,0.19985168,0.046143334,0.65378845,0.2839041,0.064999886,0.37402883,-0.06668565,0.005311115,0.013865247,0.036064684,0.10974313,-0.05583207,0.021507015,0.17663589,0.0817236,0.025309013,2.0,2.0,-2.0,-2.0,-2.0,2.0,2.0,-2.0,2.0,2.0,2.0,2.0,2.0,-2.0,-2.0,-2.0,-2.0,2.0,2.0,-2.0,2.0,2.0,2.0,2.0
2025-07-21 09:50:15.038,0.7000000000000003,700,35,-0.11661212,0.07527186,0.024918633,0.006043933,-0.058913194,0.024933213,0.0,0.0,0.0,-0.026363542,0.32504687,0.031152006,-0.24923825,-0.37473863,-0.74439216,0.17722858,0.29095745,0.3963091,0.21965748,0.09760729,0.68587,0.29539248,0.05695136,0.051591642,-0.048236474,-0.030191971,-0.02751967,0.09674136,0.10235775,-0.028592005,0.07911512,0.16952746,0.12914267,0.015910037,2.0,-2.0,-2.0,-2.0,-2.0,2.0,2.0,-2.0,2.0,2.0,2.0,2.0,2.0,-1.4400861,-2.0,-2.0,2.0,2.0,2.0,-2.0,2.0,2.0,2.0,2.0
2025-07-21 09:50:15.054,0.7200000000000003,720,36,-0.054315884,0.05258155,0.14478879,0.035148103,-0.08464954,0.021051116,0.0,0.0,0.0,-0.026872264,0.33767495,0.0015999995,-0.2518331,-0.39791483,-0.745772,0.19680285,0.3167959,0.36452302,0.2384335,0.14294791,0.7221493,0.28628775,-0.01872998,-0.12641922,0.016135767,0.04641174,0.045495298,0.08604757,-0.009440641,-0.14304589,0.09896546,0.07973682,0.03459658,0.08269747,2.0,-1.4400861,-2.0,-2.0,2.0,2.0,2.0,-2.0,2.0,2.0,2.0,2.0,2.0,2.0,-2.0,-2.0,2.0,2.0,2.0,2.0,2.0,2.0,-2.0,2.0
2025-07-21 09:50:15.074,0.7400000000000003,740,37,0.0827292,-0.23833445,0.049895313,0.018255148,-0.06322413,0.023267657,0.0,0.0,0.0,-0.029671015,0.33925277,-0.013628944,-0.27047125,-0.38768193,-0.7412454,0.21205537,0.325763,0.3976971,0.24595521,0.17633834,0.68980086,0.30870086,0.0095902765,0.13901336,-0.007433352,0.043769293,0.096541405,0.076172076,0.058953036,0.23906998,0.08006544,0.03171721,-0.12218107,-0.041681275,2.0,2.0,-2.0,-2.0,2.0,2.0,2.0,2.0,2.0,2.0,-2.0,2.0,2.0,-2.0,-2.0,-2.0,-2.0,2.0,2.0,-2.0,2.0,-2.0,2.0,-2.0
2025-07-21 09:50:15.094,0.7600000000000003,760,38,-0.04492848,-0.02992737,0.0014259486,0.03815461,-0.08218371,0.03364817,0.0,0.0,0.0,-0.03175828,0.34577414,-0.023940563,-0.26790348,-0.39317438,-0.7616433,0.22260493,0.33565775,0.40252048,0.2648118,0.12811606,0.7020446,0.20529126,-0.034766268,-0.15619162,0.056914404,0.006209468,-0.055649962,0.09920085,0.026725419,-0.04129615,0.0284836,-0.13693099,0.102763325,-0.23986201,2.0,-2.0,-2.0,-2.0,-2.0,2.0,2.0,-2.0,2.0,-2.0,2.0,-2.0,2.0,-2.0,-2.0,-2.0,2.0,2.0,2.0,-0.10678418,2.0,-2.0,2.0,-2.0
2025-07-21 09:50:15.114,0.7800000000000004,780,39,-0.16411269,-0.063501485,0.13833493,-0.019200025,-0.089500375,-0.0083436575,0.0,0.0,0.0,-0.031931303,0.35155687,-0.1281765,-0.27008232,-0.4055696,-0.7729179,0.23114999,0.34709033,0.38662338,0.28209656,0.04657753,0.7334482,0.1152865,0.06978277,-0.31154385,-0.06000058,0.029608818,-0.072075,0.022673309,-0.009323825,-0.104736835,0.04793614,-0.24415511,0.04793151,-0.18752196,2.0,-2.0,-2.0,-2.0,2.0,2.0,2.0,-0.10678418,2.0,-2.0,2.0,-2.0,2.0,2.0,-2.0,-2.0,2.0,2.0,2.0,2.0,2.0,-2.0,2.0,-2.0
2025-07-21 09:50:15.134,0.8000000000000004,800,40,0.04970302,-0.25346702,0.057424292,0.0035185013,-0.004933959,-0.012006517,0.0,0.0,0.0,-0.03324995,0.35056406,-0.17364618,-0.2910652,-0.39592934,-0.7564598,0.2389533,0.3502753,0.41708452,0.28252932,-0.015802853,0.75297403,0.04041895,0.046038207,0.032598887,-0.046559677,0.058923222,-0.0128402915,0.030088041,0.02022919,0.14557251,-0.03801008,-0.11373923,0.10446965,-0.12337706,2.0,2.0,-2.0,-2.0,2.0,2.0,2.0,2.0,2.0,-2.0,2.0,-2.0,2.0,2.0,-2.0,-2.0,2.0,2.0,2.0,-2.0,2.0,-2.0,2.0,-2.0
2025-07-21 09:50:15.154,0.8200000000000004,820,41,0.24339263,-0.12334754,0.10868884,-0.008164631,-0.010118379,-0.023082457,0.0,0.0,0.0,-0.034375746,0.34863928,-0.12746893,-0.29758313,-0.40080324,-0.73224324,0.2300854,0.36148497,0.45823684,0.28530344,-0.07495266,0.7746499,-0.010374922,0.028655026,0.19007455,-0.021088852,-0.06274694,0.12017528,0.042839542,0.0203391,0.11392785,0.0694565,-0.09354148,0.09815673,-0.10113059,2.0,2.0,-2.0,-2.0,2.0,2.0,2.0,-2.0,2.0,-2.0,2.0,-2.0,2.0,-2.0,-2.0,-2.0,-2.0,2.0,2.0,-2.0,2.0,-2.0,2.0,-2.0
2025-07-21 09:50:15.174,0.8400000000000004,840,42,-0.0072707017,0.03457337,0.101184234,-0.059334178,-0.07902496,0.017583337,0.0,0.0,0.0,-0.03527245,0.34631956,-0.13731728,-0.29199412,-0.40197948,-0.7438299,0.24038194,0.37506136,0.4487924,0.2916969,-0.10800832,0.7711999,-0.0680969,-0.04569493,-0.15927948,0.013348694,-0.0041165454,-0.03692582,-0.043109335,0.024882277,-0.020294689,-0.046868548,-0.099283405,-0.009136125,-0.052704163,2.0,-2.0,-2.0,-2.0,-2.0,2.0,2.0,-2.0,2.0,-2.0,2.0,-2.0,2.0,-2.0,-2.0,-2.0,2.0,2.0,2.0,2.0,2.0,-2.0,2.0,-2.0
2025-07-21 09:50:15.194,0.8600000000000004,860,43,0.10982559,-0.12171809,0.012168268,-0.06079316,-0.01570361,0.00934535,0.0,0.0,0.0,-0.03664241,0.3377847,-0.22375193,-0.30285093,-0.40499538,-0.7508611,0.24953806,0.37444508,0.49261147,0.2869236,-0.15219033,0.7872185,-0.102045015,-0.07265995,-0.33469263,-0.015569762,0.003320076,0.08281243,0.0579402,-0.05802718,0.13845758,-0.022130294,-0.09605404,-0.01656233,-0.08408921,2.0,-2.0,-2.0,-2.0,2.0,2.0,2.0,2.0,2.0,-2.0,2.0,-2.0,2.0,-2.0,-2.0,-2.0,2.0,2.0,-2.0,-2.0,2.0,-2.0,2.0,-2.0
2025-07-21 09:50:15.214,0.8800000000000004,880,44,0.11544701,0.03325712,-0.04720649,-0.014543117,-0.072933584,0.046558514,0.0,0.0,0.0,-0.03724686,0.33353597,-0.34327286,-0.30282703,-0.401964,-0.7336078,0.24217515,0.36477253,0.53976536,0.29262125,-0.1961844,0.7974374,-0.14205913,0.009385183,-0.22883394,-0.05564772,0.020657912,0.004620306,0.02811657,0.028592233,-0.012018576,0.050439615,-0.052973118,0.06237734,-0.14393622,2.0,-2.0,-2.0,-2.0,2.0,2.0,-2.0,-2.0,2.0,-2.0,2.0,-2.0,2.0,-2.0,2.0,-2.0,2.0,2.0,-2.0,-2.0,2.0,-2.0,2.0,-2.0
2025-07-21 09:50:15.238,0.9000000000000005,900,45,0.019039433,0.11173918,-0.10231127,-0.067605436,-0.060296737,-0.042442612,0.0,0.0,0.0,-0.0375463,0.33249572,-0.42217785,-0.21904129,-0.40591225,-0.73082876,0.25124106,0.34938613,0.53950804,0.3063744,-0.2098143,0.8045684,-0.17784585,-0.060323764,-0.21657814,0.3202043,-0.017522676,0.010522279,-0.009037175,-0.0911891,0.014557816,0.029536905,-0.08357259,0.0010731005,-0.031390786,2.0,-2.0,2.0,-2.0,2.0,2.0,-2.0,-2.0,2.0,-2.0,2.0,-2.0,2.0,-2.0,2.0,-2.0,2.0,-2.0,-2.0,-2.0,2.0,-2.0,2.0,-2.0
2025-07-21 09:50:15.255,0.9200000000000005,920,46,-0.06758364,0.23384777,-0.10961766,-0.08480659,-0.09926563,-0.0010605983,0.0,0.0,0.0,-0.036832705,0.33717066,-0.496512,-0.12220618,-0.4154922,-0.69516295,0.15978378,0.2961659,0.550047,0.30950105,-0.23988223,0.8178131,-0.19134694,0.012132051,-0.2291256,0.17522934,0.050432164,0.13886003,-0.25112116,-0.18805073,-0.060626287,-0.021542965,-0.08453444,-0.023570865,0.014248437,2.0,-2.0,2.0,-2.0,2.0,-2.0,-2.0,-2.0,2.0,-2.0,2.0,-2.0,2.0,-2.0,2.0,-2.0,2.0,-2.0,-2.0,-2.0,2.0,-2.0,-2.0,0.87748194
2025-07-21 09:50:15.275,0.9400000000000005,940,47,-0.20858915,0.23251164,-0.17075907,-0.05880186,-0.046452697,-0.018717252,0.0,0.0,0.0,-0.035208534,0.34622326,-0.56707495,-0.04204511,-0.422087,-0.6594519,0.06864383,0.2447478,0.54682845,0.32002762,-0.26322174,0.75852156,-0.14469962,0.085442476,-0.14611308,0.12405578,-0.042014,0.042223126,-0.16263588,-0.22467437,0.03323154,0.028958473,-0.11967478,-0.20586446,0.16697127,2.0,-2.0,2.0,-2.0,2.0,-2.0,-2.0,-2.0,2.0,-2.0,-2.0,0.87748194,2.0,-2.0,2.0,-2.0,2.0,-2.0,0.39745206,2.0,-2.0,-2.0,-2.0,2.0
2025-07-21 09:50:15.295,0.9600000000000005,960,48,-0.22179158,0.03719897,-0.09612601,0.019162469,-0.083851196,-0.0076406854,0.0,0.0,0.0,-0.03262274,0.35223848,-0.61200947,0.014459583,-0.41399413,-0.644065,-0.006186441,0.20605287,0.57548755,0.23103197,-0.267988,0.64413095,-0.06786646,0.050566126,-0.06306172,0.061011486,0.0721613,0.07868656,-0.23220515,-0.018308386,0.18960886,-0.32107052,-0.042256262,-0.15118882,0.18841702,2.0,-2.0,2.0,-2.0,2.0,-2.0,0.39745206,2.0,-2.0,-2.0,-2.0,2.0,2.0,-2.0,2.0,-2.0,2.0,-2.0,-2.0,2.0,-2.0,-2.0,-2.0,2.0
2025-07-21 09:50:15.320,0.9800000000000005,980,49,-0.15022625,0.06696007,-0.072384365,0.048310146,-0.079394974,0.032028455,0.0,0.0,0.0,-0.030212324,0.3556954,-0.65303814,0.04915035,-0.40590775,-0.605497,-0.059075173,0.14861277,0.6372504,0.14254439,-0.29108438,0.56503665,-0.0028481758,0.05857016,-0.1180425,0.12219787,-0.03133146,0.08926177,-0.08674408,-0.26253787,0.103132784,-0.165384,-0.106183246,-0.22895929,0.15133548,2.0,-2.0,2.0,-2.0,2.0,-2.0,-2.0,2.0,-2.0,-2.0,-2.0,2.0,2.0,-2.0,2.0,-2.0,2.0,-2.0,-2.0,2.0,-2.0,-2.0,2.0,2.0
2025-07-21 09:50:15.335,1.0000000000000004,1000,50,0.055872068,-0.12712194,0.09087261,0.007972941,-0.097089514,0.032133248,0.0,0.0,0.0,-0.02834387,0.3577043,-0.687871,0.10588411,-0.4159568,-0.5561027,-0.11640225,0.054831535,0.6735616,0.06737696,-0.3058777,0.568872,0.05415947,0.024611784,-0.1316217,0.07603805,-0.058342345,0.13847773,-0.12561463,-0.113289945,0.09953121,-0.1948195,-0.046672523,0.1809277,0.09270352,2.0,-2.0,2.0,-2.0,2.0,-2.0,-2.0,2.0,-2.0,-2.0,2.0,2.0,2.0,-0.31600022,2.0,-2.0,2.0,-2.0,-2.0,2.0,-2.0,-2.0,-2.0,2.0
2025-07-21 09:50:15.355,1.0200000000000005,1020,51,0.05361866,-0.031898137,-0.12916195,-0.011145686,-0.014815819,0.04373193,0.0,0.0,0.0,-0.028825207,0.37008741,-0.69260406,0.13133948,-0.40219888,-0.47325507,-0.16113864,0.009562733,0.7171507,0.004196695,-0.31803337,0.56519645,0.1042194,0.024916919,-0.010761919,0.0395569,0.023281863,0.22099032,-0.05331108,-0.17166427,0.048049208,-0.05787677,-0.0021618987,-0.022371318,0.1709794,2.0,-0.31600022,2.0,-2.0,2.0,-2.0,-2.0,2.0,-2.0,-2.0,-2.0,2.0,2.0,-2.0,2.0,-2.0,2.0,-2.0,-2.0,2.0,-2.0,-2.0,-2.0,2.0
2025-07-21 09:50:15.375,1.0400000000000005,1040,52,-0.09180831,-0.087379314,0.00484766,0.03795697,-0.07713293,-0.026046718,0.0,0.0,0.0,-0.028198106,0.37383193,-0.69682187,0.15206455,-0.4001813,-0.4167012,-0.19314794,-0.050390966,0.74228406,-0.053571932,-0.3243988,0.5210952,0.13513902,-0.023621991,-0.076566026,0.015713722,0.018372023,0.14273252,-0.0850475,-0.14477727,0.12436051,-0.09369426,-0.055154204,-0.080952145,0.0491562,2.0,-2.0,2.0,-2.0,2.0,-2.0,-2.0,2.0,-2.0,-2.0,-2.0,2.0,2.0,2.0,2.0,-2.0,2.0,-2.0,-2.0,2.0,-2.0,-2.0,-2.0,2.0
2025-07-21 09:50:15.395,1.0600000000000005,1060,53,-0.06871912,-0.17692493,-0.087417826,0.020902505,-0.018951576,-0.018289898,0.0,0.0,0.0,-0.026750442,0.37376466,-0.7126014,0.16496575,-0.39831665,-0.3272752,-0.22181076,-0.112431556,0.75222456,-0.09553435,-0.3329713,0.48552334,0.16769709,-0.030849487,0.042129323,0.08699192,0.036981147,0.26177558,-0.121058136,-0.057979345,0.05098967,-0.097001344,-0.037557136,-0.13265966,0.08593221,2.0,2.0,2.0,-2.0,2.0,-2.0,-2.0,2.0,-2.0,-2.0,-2.0,2.0,2.0,2.0,2.0,-2.0,2.0,-2.0,-2.0,2.0,-2.0,-2.0,2.0,2.0
2025-07-21 09:50:15.415,1.0800000000000005,1080,54,0.10985085,-0.07973429,-0.0012103221,-0.013123018,-0.023146221,0.01867173,0.0,0.0,0.0,-0.024858989,0.3649802,-0.6817638,0.18212767,-0.38772896,-0.20054974,-0.24432905,-0.13370991,0.77229196,-0.120641835,-0.34840605,0.48756474,0.19503261,-0.0062366417,0.11045348,0.07561314,0.07899957,0.40524256,0.024752406,-0.026000908,0.11273359,-0.034216896,-0.037212145,0.08737284,0.06252416,2.0,2.0,2.0,-2.0,2.0,-2.0,-2.0,2.0,-2.0,-2.0,2.0,2.0,-2.0,2.0,2.0,-2.0,-2.0,-2.0,2.0,2.0,-2.0,-2.0,-2.0,2.0
2025-07-21 09:50:15.435,1.1000000000000005,1100,55,0.3330403,0.06283543,-0.07768349,-0.060452368,-0.059951425,0.017719753,0.0,0.0,0.0,-0.022996267,0.3612257,-0.65568066,0.2055839,-0.3946162,-0.16258281,-0.24722841,-0.09924841,0.8032737,-0.16510661,-0.3596223,0.49510813,0.21336344,-0.05383368,0.07601492,0.0026086804,0.020872308,-0.08429447,0.035024602,0.21710174,0.045679316,-0.10280097,0.0017371671,-0.024581062,0.008937369,-2.0,2.0,2.0,-2.0,-2.0,-2.0,2.0,2.0,-2.0,-2.0,-2.0,2.0,-2.0,2.0,-2.0,-2.0,-2.0,-2.0,2.0,2.0,-2.0,-2.0,-2.0,2.0
2025-07-21 09:50:15.455,1.1200000000000006,1120,56,0.123159505,0.11460812,-0.13417828,0.021256084,-0.06519069,0.028664231,0.0,0.0,0.0,-0.021943957,0.30064327,-0.6013731,0.11773533,-0.38162816,-0.21672095,-0.2600294,-0.017836647,0.79985523,-0.17393082,-0.3723881,0.48174736,0.24711995,-0.0910279,0.13957445,-0.29081306,-0.04266412,-0.19883904,-0.009412438,0.15582147,-0.017985018,-0.09515237,-0.09766899,-0.110620126,0.0026042797,-2.0,2.0,-2.0,-2.0,-2.0,-2.0,2.0,2.0,-2.0,-2.0,-2.0,2.0,-2.0,2.0,-2.0,-2.0,-2.0,-0.16827644,2.0,-2.0,-2.0,-2.0,2.0,2.0
2025-07-21 09:50:15.480,1.1400000000000006,1140,57,0.44362855,0.30604497,0.086582586,-0.014979335,-0.078403376,0.018388087,0.0,0.0,0.0,-0.02028622,0.23725148,-0.53719205,0.04537251,-0.36713088,-0.32901293,-0.22058862,0.035864163,0.7442347,-0.21422426,-0.3760173,0.49884647,0.2415968,-0.2071953,0.1447445,-0.16490485,0.07333127,-0.17900193,0.095726684,0.16885698,-0.16911504,-0.010317086,-0.030339178,0.16267483,0.038184404,-2.0,2.0,-2.0,-2.0,-2.0,-0.16827644,2.0,-2.0,-2.0,-2.0,2.0,2.0,-2.0,2.0,-2.0,-2.0,-2.0,2.0,2.0,-2.0,2.0,-2.0,-2.0,2.0
2025-07-21 09:50:15.495,1.1600000000000006,1160,58,0.1604352,0.2548794,0.06885226,0.017261304,-0.12125111,0.03438263,0.0,0.0,0.0,-0.020891158,0.1447357,-0.4794335,-0.031542554,-0.3814114,-0.41808143,-0.1396096,0.08721115,0.6254755,-0.13867025,-0.38863495,0.53862613,0.25719106,-0.2126526,0.106852494,-0.103229836,-0.035574127,-0.1779733,0.12458365,0.06254146,-0.37191024,0.18921891,0.037819095,0.0047571748,-0.002328126,-2.0,2.0,-2.0,-2.0,-2.0,2.0,2.0,-2.0,2.0,-2.0,-2.0,2.0,2.0,2.0,-2.0,-2.0,-2.0,2.0,2.0,0.08877246,2.0,-2.0,-2.0,2.0
2025-07-21 09:50:15.515,1.1800000000000006,1180,59,-0.29957813,-0.0897155,0.006015167,-0.0096892025,-0.12628229,0.018319784,0.0,0.0,0.0,-0.023898195,0.1559488,-0.41399935,-0.07935779,-0.3600283,-0.48640993,-0.068114646,0.12732509,0.51243097,-0.050251026,-0.37851748,0.5160269,0.28651625,0.08277388,0.116030976,-0.17973901,0.05189159,-0.13944294,0.18926105,0.08999016,-0.1514078,0.105135,-0.0438075,-0.1022718,-0.018202974,2.0,2.0,-2.0,-2.0,-2.0,2.0,2.0,0.08877246,2.0,-2.0,-2.0,2.0,2.0,2.0,-2.0,-2.0,-2.0,2.0,2.0,-2.0,2.0,-2.0,1.4655889,2.0
2025-07-21 09:50:15.535,1.2000000000000006,1200,60,-0.07557623,-0.06424775,-0.056869686,-0.038490504,-0.060350392,0.004489874,0.0,0.0,0.0,-0.023779526,0.19384354,-0.3579125,-0.12980747,-0.37064272,-0.55376136,0.0067627183,0.17589143,0.43103942,0.013316044,-0.37084466,0.52837276,0.29143503,0.14633052,0.16520089,-0.07507183,-0.022705758,-0.08126939,0.085418135,0.09649544,-0.15364097,0.09742925,0.030006774,0.11173324,-0.03242101,2.0,2.0,-2.0,-2.0,-2.0,2.0,2.0,-2.0,2.0,-2.0,1.4655889,2.0,2.0,2.0,-2.0,-2.0,-2.0,2.0,2.0,-2.0,2.0,2.0,-0.8786603,2.0
2025-07-21 09:50:15.555,1.2200000000000006,1220,61,-0.33193144,0.028478784,0.03898524,0.052739643,-0.077467546,-0.022169346,0.0,0.0,0.0,-0.02319315,0.2278675,-0.29216883,-0.17883208,-0.36717996,-0.6074815,0.053382054,0.21023148,0.37407908,0.064272314,-0.2957642,0.49784973,0.29384267,0.1361862,0.23589434,-0.047436286,0.018344894,-0.0974165,0.18006442,0.14570251,-0.14408371,0.20224157,0.32223243,-0.09064598,0.041785307,2.0,2.0,-2.0,-2.0,-2.0,2.0,2.0,-2.0,2.0,2.0,-0.8786603,2.0,2.0,2.0,-2.0,-2.0,-2.0,2.0,2.0,0.995959,2.0,2.0,2.0,2.0
2025-07-21 09:50:15.576,1.2400000000000007,1240,62,-0.06824238,-0.16054271,0.024645986,0.045023955,-0.0464538,0.00032594043,0.0,0.0,0.0,-0.022700109,0.2482182,-0.21616091,-0.20757118,-0.3576038,-0.6405704,0.08972074,0.2379891,0.34914148,0.09750867,-0.19871251,0.4962068,0.28615937,0.07064161,0.23736247,-0.1275771,0.050520357,-0.12233205,0.079410635,0.013109497,0.032462347,0.051508714,0.2832546,0.09076898,0.024209257,2.0,2.0,-2.0,-2.0,-2.0,2.0,2.0,0.995959,2.0,2.0,2.0,2.0,2.0,2.0,-2.0,-2.0,-2.0,2.0,2.0,-2.0,2.0,2.0,2.0,2.0
2025-07-21 09:50:15.596,1.2600000000000007,1260,63,-0.11122984,-0.035562884,0.031262618,0.02690467,-0.089041926,-0.014323636,0.0,0.0,0.0,-0.022591539,0.26547626,-0.12003691,-0.22848538,-0.36306074,-0.6761839,0.13438027,0.25495476,0.34921423,0.14675024,-0.10282178,0.56553644,0.29555264,-0.021072546,0.25571418,-0.011135014,-0.06690822,-0.06723055,0.12139826,-0.008135164,-0.08218895,0.030059615,0.19973926,0.16801475,0.083100826,2.0,2.0,-2.0,-2.0,-2.0,2.0,2.0,-2.0,2.0,2.0,2.0,2.0,2.0,2.0,-2.0,-2.0,-2.0,2.0,2.0,0.37408417,2.0,2.0,2.0,2.0
2025-07-21 09:50:15.616,1.2800000000000007,1280,64,-0.12010014,-0.033872828,-0.0460615,0.0057920744,-0.01131021,-0.048603017,0.0,0.0,0.0,-0.02339662,0.28442544,0.01285783,-0.25334284,-0.37548894,-0.70746887,0.15595557,0.27314508,0.30652428,0.17117588,-0.022957047,0.62121415,0.2885859,-0.023272969,0.41652617,0.01270872,-0.037647557,0.007264269,0.1335337,0.06505666,-0.015533699,0.006941281,0.21719828,0.07614972,0.07224239,2.0,2.0,-2.0,-2.0,-2.0,2.0,2.0,0.37408417,2.0,2.0,2.0,2.0,2.0,-2.0,-2.0,-2.0,-2.0,2.0,2.0,-1.278458,2.0,2.0,2.0,2.0
2025-07-21 09:50:15.639,1.3000000000000007,1300,65,-0.19847134,0.09355016,0.027553922,0.024025595,-0.044351805,0.0015545026,0.0,0.0,0.0,-0.02378315,0.29008755,0.057505857,-0.24726266,-0.3686083,-0.7380832,0.18490255,0.30168885,0.28063613,0.19297054,0.05026533,0.6442287,0.29207286,0.05372522,-0.041819107,-0.09024582,0.022219064,-0.08851859,0.07894781,0.080540925,-0.059902083,0.13605005,0.20976034,0.13129744,0.06881209,2.0,-2.0,-2.0,-2.0,-2.0,2.0,2.0,-1.278458,2.0,2.0,2.0,2.0,2.0,2.0,-2.0,-2.0,2.0,2.0,2.0,2.0,2.0,2.0,-2.0,2.0
2025-07-21 09:50:15.656,1.3200000000000007,1320,66,-0.067454234,-0.11473094,0.029781833,0.041366473,-0.047275275,0.020294644,0.0,0.0,0.0,-0.02472599,0.3091434,0.10184076,-0.2619803,-0.37421972,-0.73043114,0.19739908,0.30991745,0.29801956,0.2177276,0.07953076,0.62846285,0.30682403,-0.04626671,0.27051646,-0.049281288,-0.05248832,-0.022838082,-0.031012736,-0.007341332,0.081056945,0.051053047,0.09065103,-0.10686191,0.085503206,2.0,2.0,-2.0,-2.0,2.0,2.0,2.0,2.0,2.0,2.0,-2.0,2.0,2.0,-2.0,-2.0,-2.0,-2.0,2.0,2.0,-1.6504458,2.0,-2.0,1.5081433,-2.0
2025-07-21 09:50:15.676,1.3400000000000007,1340,67,-0.004565235,0.07234375,0.042854067,-0.00953242,-0.057212174,0.020894296,0.0,0.0,0.0,-0.025426773,0.3090034,0.109986424,-0.27927867,-0.39025775,-0.7511621,0.21691191,0.32722676,0.30397093,0.23217104,0.047958504,0.6206959,0.21946682,0.033174444,-0.08130668,-0.04312764,-0.07629022,-0.08285241,-0.033871524,0.098440275,-0.04874511,0.10195384,-0.17940865,-0.028767435,-0.19506969,2.0,-2.0,-2.0,-2.0,-2.0,2.0,2.0,-1.6504458,2.0,-2.0,1.5081433,-2.0,2.0,-2.0,-2.0,-2.0,2.0,2.0,2.0,2.0,2.0,-2.0,2.0,-2.0
2025-07-21 09:50:15.699,1.3600000000000008,1360,68,0.18892951,-0.24643236,0.05958335,-0.033516582,-0.012410898,-0.028746763,0.0,0.0,0.0,-0.025581943,0.32445303,0.031069856,-0.2758945,-0.39079338,-0.7441511,0.22051378,0.32198313,0.35102916,0.25435823,-0.006779342,0.667899,0.11045932,-0.0038940825,-0.2767763,-0.078390814,-0.010006666,0.080453254,0.08832184,0.008451317,0.22552706,0.046509378,-0.09323257,0.03393986,-0.25895822,2.0,-2.0,-2.0,-2.0,2.0,2.0,2.0,2.0,2.0,-2.0,2.0,-2.0,2.0,-2.0,-2.0,-2.0,2.0,2.0,-2.0,-2.0,2.0,-2.0,2.0,-2.0
2025-07-21 09:50:15.716,1.3800000000000008,1380,69,0.2739808,-0.020724017,0.048280515,0.010597735,-0.09594111,-0.025197577,0.0,0.0,0.0,-0.02626176,0.3119517,-0.10683884,-0.2799719,-0.38199168,-0.73037964,0.22782508,0.3234331,0.3913986,0.26249537,-0.06762998,0.68734854,0.035884257,-0.064501956,-0.30125764,0.03327468,-0.046110258,0.0046237246,-0.062503085,-0.00019892554,0.031935617,0.039758526,-0.19567798,0.07713425,-0.10941425,2.0,-2.0,-2.0,-2.0,2.0,2.0,-2.0,-2.0,2.0,-2.0,2.0,-2.0,2.0,-2.0,-2.0,-2.0,2.0,2.0,-2.0,-2.0,2.0,-2.0,2.0,-2.0
2025-07-21 09:50:15.736,1.4000000000000008,1400,70,0.18319526,0.066339605,0.09711368,0.023735533,-0.109230876,0.014119444,0.0,0.0,0.0,-0.02843574,0.3275131,-0.2457782,-0.29078752,-0.40968785,-0.7064509,0.23392597,0.32207507,0.40119532,0.2650646,-0.124787524,0.72777146,-0.007550329,0.07711954,-0.36429277,0.045162257,0.028562238,-0.0040797973,0.030774888,-0.011683037,-0.072454736,0.011445772,-0.17649825,0.09898778,-0.12357392,2.0,-2.0,-2.0,-2.0,2.0,2.0,-2.0,-2.0,2.0,-2.0,2.0,-2.0,2.0,-2.0,2.0,-2.0,2.0,-2.0,-2.0,-2.0,2.0,-2.0,-2.0,-2.0
2025-07-21 09:50:15.756,1.4200000000000008,1420,71,-0.115062095,0.3045291,-0.10717702,0.031020412,-0.07721159,0.039016347,0.0,0.0,0.0,-0.030068742,0.31947923,-0.35835797,-0.20912588,-0.40842918,-0.666875,0.14293686,0.29863033,0.38867962,0.29155415,-0.14936082,0.69570285,-0.07098398,-0.030337615,-0.3132693,0.19334078,-0.068536624,0.15797566,-0.16996232,-0.071948424,-0.019707857,-0.04251343,-0.10888956,-0.076326765,-0.071487814,2.0,-2.0,2.0,-2.0,2.0,-2.0,-2.0,-2.0,2.0,-2.0,-2.0,-2.0,2.0,-2.0,2.0,-2.0,2.0,-2.0,-2.0,-2.0,2.0,-2.0,-2.0,2.0
2025-07-21 09:50:15.776,1.4400000000000008,1440,72,-0.46981597,0.29783678,-0.1725922,0.0755486,-0.030125774,0.0037246866,0.0,0.0,0.0,-0.029895777,0.3376457,-0.4271861,-0.10833603,-0.41463214,-0.6390987,0.045669254,0.23536848,0.36409688,0.29637453,-0.1818537,0.6183926,-0.023183709,0.077717446,-0.20760502,0.2155898,0.041741677,0.009124079,-0.18531454,-0.19543158,-0.12719369,-0.05036269,-0.011723017,-0.25099516,0.092305444,2.0,-2.0,2.0,-2.0,2.0,-2.0,-2.0,-2.0,2.0,-2.0,-2.0,2.0,2.0,-2.0,2.0,-2.0,2.0,-2.0,2.0,2.0,-2.0,-2.0,2.0,2.0
2025-07-21 09:50:15.798,1.4600000000000009,1460,73,-0.06604518,-0.10060586,0.005167334,0.04642929,-0.028051706,-0.003559556,0.0,0.0,0.0,-0.028154882,0.3393655,-0.5012101,-0.044587288,-0.40561596,-0.6085003,-0.010779581,0.2545254,0.3946241,0.21120678,-0.21521041,0.60009664,0.04146691,0.085976265,-0.12164591,0.1315516,0.029055992,0.08866435,-0.10526487,0.031692382,0.20827322,-0.25115564,-0.102728605,0.17138237,0.06429047,2.0,-2.0,2.0,-2.0,2.0,-2.0,2.0,2.0,-2.0,-2.0,2.0,2.0,2.0,-2.0,2.0,-2.0,2.0,-2.0,-2.0,2.0,-2.0,-2.0,-2.0,2.0
2025-07-21 09:50:15.816,1.4800000000000009,1480,74,0.11506946,-0.01423395,0.046380177,0.068502694,-0.044108838,-0.011040377,0.0,0.0,0.0,-0.027292917,0.35180852,-0.5598392,0.02175784,-0.39524812,-0.555355,-0.071165904,0.19700897,0.4883927,0.11953493,-0.2465167,0.5882586,0.091130495,-0.032607038,-0.14531255,0.07096972,0.06459141,0.1884026,-0.1709693,-0.28535563,0.16968432,-0.14951618,-0.096153386,-0.1379709,0.12445331,2.0,-2.0,2.0,-2.0,2.0,-2.0,-2.0,2.0,-2.0,-2.0,-2.0,2.0,2.0,-2.0,2.0,-2.0,2.0,-2.0,-2.0,2.0,-2.0,-2.0,-2.0,2.0
2025-07-21 09:50:15.836,1.5000000000000009,1500,75,0.05098939,0.11063722,-0.037816074,0.05041204,-0.09606799,0.011084833,0.0,0.0,0.0,-0.027850734,0.34948534,-0.6104181,0.059529915,-0.40322435,-0.4875577,-0.1266017,0.11717668,0.5387294,0.0399741,-0.25487465,0.5091429,0.12195552,-0.030578319,-0.1356622,0.12232893,-0.048957836,0.068140686,-0.11111116,-0.15506937,0.19295283,-0.10204276,0.005944337,-0.18082021,0.17474052,2.0,-2.0,2.0,-2.0,2.0,-2.0,-2.0,2.0,-2.0,-2.0,-2.0,2.0,2.0,-2.0,2.0,-2.0,2.0,-2.0,-2.0,2.0,-2.0,-2.0,2.0,2.0
2025-07-21 09:50:15.860,1.520000000000001,1520,76,0.23465423,0.09322225,0.08829861,0.0457514,-0.054972935,-0.034656227,0.0,0.0,0.0,-0.02825767,0.35820094,-0.6564852,0.10842423,-0.39485276,-0.43945557,-0.15777111,0.057689007,0.61296135,-0.009725617,-0.28765655,0.5191601,0.15005428,0.032595243,-0.15303174,0.031431273,0.016854705,0.22090456,-0.15628412,-0.08610455,0.12878786,-0.1957656,0.017575061,0.07541355,0.009564276,2.0,-2.0,2.0,-2.0,2.0,-2.0,-2.0,2.0,-2.0,-2.0,2.0,2.0,2.0,2.0,2.0,-2.0,2.0,-2.0,-2.0,2.0,-2.0,-2.0,-2.0,2.0
2025-07-21 09:50:15.876,1.540000000000001,1540,77,0.07230482,-0.005256286,-0.08919169,0.009359417,-0.12946144,0.030046836,0.0,0.0,0.0,-0.029284978,0.3440918,-0.64592385,0.13923292,-0.39038393,-0.3693624,-0.1907355,-0.010500089,0.6538386,-0.062706195,-0.2872614,0.5405333,0.17651176,-0.022704335,0.068405226,0.09555997,-0.0155641595,0.11458066,-0.10726822,-0.18307608,0.12587163,-0.07222923,0.010993784,-0.08959578,0.109410755,2.0,2.0,2.0,-2.0,2.0,-2.0,-2.0,2.0,-2.0,-2.0,-2.0,2.0,2.0,2.0,2.0,-2.0,2.0,-2.0,-0.05899699,2.0,-2.0,-2.0,-2.0,2.0
2025-07-21 09:50:15.897,1.560000000000001,1560,78,0.03279535,-0.3269725,-0.151924,-0.04011613,-0.11429903,0.042812552,0.0,0.0,0.0,-0.02881258,0.35948566,-0.6275344,0.15571937,-0.4011144,-0.2957601,-0.22896506,-0.0076540643,0.67830664,-0.09727252,-0.30283737,0.52444047,0.20953949,-0.0049684877,0.08433105,0.12728307,0.015094629,0.252718,-0.007144113,0.07599122,0.08331705,-0.112906665,-0.08322889,-0.018215496,0.005084615,2.0,2.0,2.0,-2.0,2.0,-2.0,-0.05899699,2.0,-2.0,-2.0,-2.0,2.0,-2.0,2.0,2.0,-2.0,-2.0,-2.0,2.0,2.0,-2.0,-2.0,-2.0,2.0
2025-07-21 09:50:15.917,1.580000000000001,1580,79,0.13090025,-0.13812426,-0.18344596,-0.015659349,-0.105591476,-0.008538026,0.0,0.0,0.0,-0.025922468,0.36131206,-0.58572584,0.17837855,-0.38198885,-0.28205496,-0.23619552,0.034584157,0.71868265,-0.1320655,-0.32162303,0.52068746,0.24528626,-0.060257286,0.05751765,-0.025548639,-0.0023312448,-0.11017899,0.030660506,0.20811976,0.07806598,-0.121819116,-0.08519771,-0.040878467,0.07040766,-2.0,2.0,2.0,-2.0,-2.0,-2.0,2.0,2.0,-2.0,-2.0,-2.0,2.0,-2.0,2.0,-2.0,-2.0,-2.0,2.0,2.0,-2.0,-2.0,-2.0,-2.0,2.0
2025-07-21 09:50:15.937,1.600000000000001,1600,80,0.043033868,0.08493595,-0.15212692,0.018998174,-0.052993063,-0.04414404,0.0,0.0,0.0,-0.022781145,0.33142623,-0.52497584,0.09027132,-0.37759718,-0.38130662,-0.15367174,0.09585633,0.6635897,-0.17482176,-0.34648922,0.4935332,0.26459545,-0.058969498,0.21795847,-0.14257564,-0.06492422,-0.26313302,0.17141293,0.14803298,-0.29646173,-0.013680478,-0.023421455,-0.1368184,-0.016764948,-2.0,2.0,-2.0,-2.0,-2.0,2.0,2.0,-2.0,-2.0,-2.0,-2.0,2.0,-2.0,2.0,-2.0,-2.0,-2.0,2.0,2.0,-2.0,2.0,-1.3580916,2.0,2.0
2025-07-21 09:50:15.957,1.620000000000001,1620,81,0.15149206,-0.006914866,0.020286748,-0.03150564,-0.1316951,0.032875802,0.0,0.0,0.0,-0.020061482,0.27609807,-0.4728928,0.02212548,-0.3824466,-0.44779366,-0.083433956,0.13736202,0.5692105,-0.10735439,-0.33499354,0.5292873,0.2648329,-0.124562904,0.13093136,-0.24439572,-0.04081634,-0.15692471,0.18783346,0.1325298,-0.28866953,0.13835171,-0.027066883,0.090108484,0.08904683,-2.0,2.0,-2.0,-2.0,-2.0,2.0,2.0,-2.0,2.0,-1.3580916,2.0,2.0,2.0,2.0,-2.0,-2.0,-2.0,2.0,2.0,-2.0,2.0,-2.0,-2.0,2.0
2025-07-21 09:50:15.977,1.640000000000001,1640,82,-0.09084274,0.09448892,-0.078221865,0.023964873,-0.10416194,0.0043900115,0.0,0.0,0.0,-0.019161435,0.28946018,-0.38980058,-0.03654303,-0.38515374,-0.5181921,-0.021018166,0.16684507,0.46377355,-0.02738997,-0.32669267,0.531178,0.27612036,0.05272238,0.13213909,-0.08031433,0.06723926,-0.19598006,0.11967992,0.09344995,-0.24983563,0.14297478,-0.018141897,-0.17766467,0.043073542,2.0,2.0,-2.0,-2.0,-2.0,2.0,2.0,-2.0,2.0,-2.0,-2.0,2.0,2.0,2.0,-2.0,-2.0,-2.0,2.0,2.0,2.0,2.0,1.52269,2.0,2.0
2025-07-21 09:50:15.997,1.660000000000001,1660,83,0.024058037,-0.116183035,-0.07032259,-0.0015851039,-0.0808776,-0.034534294,0.0,0.0,0.0,-0.018591203,0.30616745,-0.29667607,-0.085828826,-0.38494384,-0.5791873,0.034241557,0.20312056,0.46691594,0.017900396,-0.26349658,0.54143447,0.2756694,-0.051351197,0.31562957,-0.07212264,0.05732183,-0.19593363,0.1595596,0.005259283,0.09552194,0.10470625,0.1858771,0.17543097,0.008142627,2.0,2.0,-2.0,-2.0,-2.0,2.0,2.0,2.0,2.0,1.52269,2.0,2.0,2.0,2.0,-2.0,-2.0,-2.0,2.0,2.0,-2.0,2.0,2.0,0.80551374,2.0
2025-07-21 09:50:16.017,1.680000000000001,1680,84,-0.28778353,0.0061205933,0.0669619,-0.057390943,-0.09277913,-0.010611504,1.5,0.0,0.0,-0.017413836,0.3158671,-0.18693613,-0.13805743,-0.368087,-0.6119536,0.092448644,0.22841825,0.4577885,0.072494306,-0.17019737,0.54432464,0.28332946,0.11750984,0.20430398,-0.13920899,0.02821885,-0.17817166,0.10147921,0.113179326,-0.17889376,0.118517,0.24041201,0.03360861,-0.006093837,2.0,2.0,-2.0,-2.0,-2.0,2.0,2.0,-2.0,2.0,2.0,0.80551374,2.0,2.0,2.0,-2.0,-2.0,2.0,2.0,2.0,-2.0,2.0,2.0,-2.0,2.0
2025-07-21 09:50:16.037,1.700000000000001,1700,85,-0.32254022,0.011600485,0.20050116,-0.019151246,-0.04349978,-0.03954442,1.5,0.0,0.0,-0.017027833,0.32940796,-0.114954,-0.17218599,-0.37674603,-0.6270923,0.11289914,0.25334838,0.39913124,0.13016486,-0.09499501,0.53492117,0.29774305,-0.044198185,0.17061962,-0.13780877,-0.05768807,-0.0105603505,0.13841265,0.08819484,-0.15562603,0.042198893,0.23995972,-0.098489076,0.020146538,2.0,2.0,-2.0,-2.0,2.0,2.0,2.0,-2.0,2.0,2.0,-2.0,2.0,2.0,2.0,-2.0,-2.0,2.0,2.0,2.0,-2.0,2.0,-2.0,-2.0,2.0
2025-07-21 09:50:16.057,1.720000000000001,1720,86,-0.15785022,-0.014000432,0.23071931,0.02185611,0.015663046,0.015274806,1.5,0.0,0.0,-0.01967985,0.3256326,-0.03749068,-0.20623259,-0.37706697,-0.6313718,0.14754832,0.26719704,0.33472547,0.16161777,-0.11638542,0.49310535,0.30831954,0.03327669,0.25172076,-0.11196569,0.03800844,0.047256753,0.0019982508,0.11287241,-0.23773248,0.014327091,-0.11847095,-0.20080891,-0.011532819,2.0,2.0,-2.0,-2.0,2.0,2.0,2.0,-2.0,2.0,-2.0,-2.0,2.0,2.0,2.0,-2.0,-2.0,2.0,2.0,2.0,2.0,2.0,-2.0,-2.0,2.0
2025-07-21 09:50:16.077,1.740000000000001,1740,87,-0.22506733,-0.20519666,0.07069883,0.011810691,-0.041024923,0.049119063,1.5,0.0,0.0,-0.023624726,0.34480786,0.10982098,-0.23252213,-0.38261086,-0.6189395,0.16191262,0.28780025,0.32832056,0.1736202,-0.15242255,0.4213973,0.3156066,0.05443053,0.3951107,0.0059271003,0.019808698,0.04116027,0.09415997,0.057927817,0.1551098,0.11237842,-0.023388168,-0.11728616,0.029577555,2.0,2.0,-2.0,-2.0,2.0,2.0,2.0,2.0,2.0,-2.0,-2.0,2.0,2.0,-2.0,-2.0,-2.0,2.0,2.0,0.9489853,-2.0,2.0,-2.0,0.24299705,-2.0
2025-07-21 09:50:16.097,1.7600000000000011,1760,88,-0.17677915,-0.08544715,0.23171213,-0.017712368,-0.023419669,0.015521696,1.5,0.0,0.0,-0.02585874,0.3460459,0.16431567,-0.24818407,-0.38015205,-0.58633554,0.17191428,0.28465614,0.32095537,0.20663588,-0.17451765,0.36860463,0.2170149,-0.0658004,-0.04210834,0.010895677,0.035743687,0.01742136,0.06311096,-0.07504216,-0.08860418,0.035652865,-0.06761989,-0.120747425,-0.27082628,2.0,-2.0,-2.0,-2.0,2.0,2.0,0.9489853,-2.0,2.0,-2.0,0.24299705,-2.0,2.0,-2.0,-2.0,-2.0,2.0,2.0,-2.0,2.0,2.0,-2.0,2.0,-2.0
2025-07-21 09:50:16.118,1.7800000000000011,1780,89,0.23125477,-0.05461036,0.10573537,0.027144043,0.03755326,0.025415452,1.5,0.0,0.0,-0.027953904,0.347519,0.13442814,-0.256927,-0.38856983,-0.5613729,0.18830715,0.2552504,0.3486717,0.22034445,-0.2095632,0.39271158,0.13015682,-0.037720516,-0.22600245,-0.034528505,0.05990078,0.16714765,0.036295205,-0.0027929705,0.22424406,-0.03543123,-0.118428364,0.13811474,-0.28152698,2.0,-2.0,-2.0,-2.0,2.0,2.0,-2.0,2.0,2.0,-2.0,2.0,-2.0,2.0,-2.0,-2.0,-2.0,2.0,2.0,-2.0,-2.0,2.0,-2.0,-2.0,-2.0
2025-07-21 09:50:16.137,1.8000000000000012,1800,90,0.09790584,0.033943404,0.074628614,0.023873884,-0.046176102,0.010826611,1.5,0.0,0.0,-0.03089666,0.34085798,0.024816476,-0.25613353,-0.40199324,-0.52518886,0.20474069,0.20609021,0.37920022,0.232148,-0.22710435,0.3753749,0.05126834,0.068990685,-0.28740966,-0.014809706,-0.08891911,0.022303462,0.077102594,-0.0140935695,0.04062955,0.07772055,-0.07794291,-0.12590663,-0.18542594,2.0,-2.0,-2.0,-2.0,2.0,2.0,-2.0,-2.0,2.0,-2.0,-2.0,-2.0,2.0,-2.0,2.0,-2.0,2.0,2.0,-2.0,-2.0,2.0,-2.0,-2.0,-2.0
2025-07-21 09:50:16.162,1.8200000000000012,1820,91,-0.20343122,0.085751,-0.013304097,0.015954822,0.034243934,-0.019497704,1.5,0.0,0.0,-0.033084743,0.34969455,-0.14040956,-0.18198931,-0.3978326,-0.492536,0.22277917,0.17373697,0.36788598,0.25757083,-0.24672095,0.29217362,0.0033098618,-0.023559825,-0.35118616,0.19555886,-0.055159565,0.037892964,-0.045805745,-0.067901194,-0.07406281,0.017915824,-0.09024987,-0.266733,-0.12589706,2.0,-2.0,2.0,-2.0,2.0,2.0,-2.0,-2.0,2.0,-2.0,-2.0,-2.0,2.0,-2.0,2.0,-2.0,2.0,-2.0,-2.0,2.0,2.0,-2.0,2.0,-2.0
2025-07-21 09:50:16.177,1.8400000000000012,1840,92,0.23870052,0.1513086,-0.11260186,0.041775815,-0.023718456,-0.02647988,1.5,0.0,0.0,-0.033732668,0.35032618,-0.24466659,-0.10203392,-0.40252942,-0.44724286,0.13162555,0.10393343,0.39796647,0.26685682,-0.27255586,0.28750414,-0.06972176,-0.031393867,-0.3226235,0.18677421,0.054648347,0.1906705,-0.28499454,-0.24039939,0.15222438,-0.04664668,-0.036108978,0.1832592,-0.06897796,2.0,-2.0,2.0,-2.0,2.0,-2.0,-2.0,2.0,2.0,-2.0,2.0,-2.0,2.0,-2.0,2.0,-2.0,2.0,-2.0,-2.0,-2.0,2.0,-2.0,-2.0,-2.0
2025-07-21 09:50:16.198,1.8600000000000012,1860,93,-0.006256516,0.17645933,-0.11039696,-0.030965075,-0.004411181,-0.0134976525,1.5,0.0,0.0,-0.032359526,0.3427913,-0.35398698,-0.02328538,-0.4070318,-0.35663143,0.05579408,0.032148007,0.4223083,0.28418598,-0.29162437,0.26867914,-0.10153169,0.011580883,-0.29357317,0.124996305,0.003887309,0.22965367,-0.24422859,-0.13872716,-0.013448847,0.018231597,-0.06140625,-0.20862652,-0.026266795,2.0,-2.0,2.0,-2.0,2.0,-2.0,-2.0,-2.0,2.0,-2.0,-2.0,-2.0,2.0,2.0,2.0,-2.0,2.0,-2.0,-2.0,-2.0,2.0,-2.0,-2.0,2.0
2025-07-21 09:50:16.218,1.8800000000000012,1880,94,-0.15302923,0.048324727,-0.2385408,0.01600352,-0.04662632,-0.0027817443,1.5,0.0,0.0,-0.030624496,0.33806786,-0.39372382,0.031640105,-0.39649794,-0.28847897,-0.02071345,-0.021885218,0.43863916,0.29217356,-0.30585644,0.1540632,-0.05064086,0.010374963,-0.0740225,0.08653705,0.0032852304,0.13471185,-0.10804254,-0.1691378,-0.035657004,-0.03278006,-0.085759275,-0.21018307,0.222951,2.0,2.0,2.0,-2.0,2.0,-2.0,-2.0,-2.0,2.0,-2.0,-2.0,2.0,2.0,2.0,2.0,-2.0,2.0,-2.0,2.0,2.0,-2.0,-2.0,2.0,2.0
2025-07-21 09:50:16.239,1.9000000000000012,1900,95,0.1645411,-0.39910668,-0.091630906,-0.027655171,-0.0020979138,0.008734693,1.5,0.0,0.0,-0.027553605,0.3453607,-0.37775397,0.068398595,-0.39058512,-0.19374017,-0.07702755,0.011151687,0.49845812,0.19889738,-0.30797598,0.14461987,0.008458408,0.078923136,0.045326877,0.16546412,-0.011549089,0.26247442,-0.056964602,0.13640389,0.18150191,-0.18535832,0.0011096107,0.04902927,0.16674925,2.0,2.0,2.0,-2.0,2.0,-2.0,2.0,2.0,-2.0,-2.0,2.0,2.0,-2.0,2.0,2.0,-2.0,-2.0,-2.0,2.0,-2.0,-2.0,-2.0,2.0,2.0
2025-07-21 09:50:16.258,1.9200000000000013,1920,96,0.37098163,-0.046874467,-0.009807736,-0.026222372,-0.038306806,0.006040608,1.5,0.0,0.0,-0.02453562,0.34829405,-0.33511436,0.101675995,-0.3781706,-0.1287593,-0.11863282,0.058659926,0.5003778,0.11205016,-0.33866557,0.20022449,0.055669643,-0.078401245,0.17012396,0.11006609,-0.032325104,-0.0812866,-0.098653585,0.1708016,-0.14913158,-0.13329512,-0.005570007,0.158658,0.15849462,-2.0,2.0,2.0,-2.0,-2.0,-2.0,2.0,-2.0,-2.0,-2.0,2.0,2.0,-2.0,2.0,-2.0,-2.0,-2.0,-2.0,2.0,-2.0,-2.0,-2.0,-2.0,2.0
2025-07-21 09:50:16.278,1.9400000000000013,1940,97,0.031898748,0.31876272,-0.0009842888,-0.022384431,-0.0029769563,0.048228096,1.5,0.0,0.0,-0.022914803,0.28263956,-0.26213256,0.026493078,-0.37233552,-0.19542155,-0.15439335,0.106194854,0.4815956,0.05248734,-0.34209952,0.22592224,0.10539615,-0.08146584,0.19858661,-0.11535283,-0.0274998,-0.25093684,-0.015237018,0.14880262,-0.12948921,-0.2300559,0.020304624,-0.02491133,0.063414805,-2.0,2.0,-2.0,-2.0,-2.0,-2.0,2.0,-2.0,-2.0,-2.0,-2.0,2.0,-2.0,2.0,-2.0,-2.0,-2.0,-2.0,2.0,-2.0,-2.0,2.0,-2.0,2.0
2025-07-21 09:50:16.302,1.9600000000000013,1960,98,-0.08002632,0.3379445,-0.02532913,0.033411633,-0.061441507,-0.0049550277,1.5,0.0,0.0,-0.023343368,0.23867697,-0.20602004,-0.032479852,-0.38433337,-0.3075364,-0.17078906,0.15929723,0.37761226,-0.016784012,-0.3430947,0.21932825,0.13384609,-0.18451773,0.18775623,-0.19413269,0.06341701,-0.264748,-0.021278864,0.11657891,-0.30384,-0.092706375,0.0863233,-0.075372346,0.108038194,-2.0,2.0,-2.0,-2.0,-2.0,-2.0,2.0,-2.0,-2.0,2.0,-2.0,2.0,-2.0,2.0,-2.0,-2.0,-2.0,2.0,2.0,-2.0,-2.0,2.0,2.0,2.0
2025-07-21 09:50:16.318,1.9800000000000013,1980,99,0.09979832,0.28446388,0.22015747,-0.012376169,-0.027317248,-0.0099689,1.5,0.0,0.0,-0.023666415,0.1845565,-0.13467142,-0.10487091,-0.37753737,-0.40681568,-0.103288576,0.17981288,0.2232088,-0.061104164,-0.3151183,0.24200231,0.157573,-0.0962653,0.18467751,-0.12048007,0.08341658,-0.18975012,0.26075494,0.06295184,-0.4430103,-0.17944598,0.0333131,0.19487655,-0.017032903,-2.0,2.0,-2.0,-2.0,-2.0,2.0,2.0,-2.0,-2.0,2.0,2.0,2.0,2.0,2.0,-2.0,-2.0,-2.0,2.0,2.0,2.0,2.0,2.0,-2.0,2.0
2025-07-21 09:50:16.338,2.0000000000000013,2000,100,-0.3113521,-0.17644988,0.023906738,0.0017158285,-0.057404842,-0.006173328,1.5,0.0,0.0,-0.026526017,0.20036271,-0.058999896,-0.14889382,-0.3662603,-0.47455636,-0.03265462,0.20758414,0.13982226,-0.01916558,-0.26028395,0.26903448,0.18535922,0.12817727,0.25877252,-0.09868037,0.08025785,-0.13471353,0.2157567,0.11772222,0.0019310758,0.17360452,0.09904194,0.015830992,0.07042266,2.0,2.0,-2.0,-2.0,-2.0,2.0,2.0,2.0,2.0,2.0,-2.0,2.0,2.0,2.0,-2.0,-2.0,2.0,2.0,2.0,-2.0,2.0,2.0,0.63813674,2.0
2025-07-21 09:50:16.358,2.0200000000000014,2020,101,-0.42444122,0.005474301,0.21709293,-0.0067972206,-0.003780755,-0.018611448,1.5,0.0,0.0,-0.02838515,0.23659177,0.020781793,-0.17610797,-0.36657587,-0.47926188,0.017982485,0.23571797,0.09636447,0.045012824,-0.18435122,0.26599416,0.21450976,0.14643037,0.20810619,-0.16376342,-0.05704943,0.14295109,0.08836911,0.027343784,-0.113756254,0.12881212,0.25215322,-0.05250143,-0.021778878,2.0,2.0,-2.0,-2.0,2.0,2.0,2.0,-2.0,2.0,2.0,0.63813674,2.0,2.0,2.0,-2.0,-2.0,-2.0,2.0,2.0,2.0,2.0,-2.0,2.0,2.0
2025-07-21 09:50:16.378,2.0400000000000014,2040,102,0.06598459,-0.1569882,-0.03631392,0.05232245,0.02813924,0.017482212,1.5,0.0,0.0,-0.0303643,0.2584379,0.13204975,-0.2150485,-0.36372676,-0.4841855,0.06767664,0.25482252,0.11707987,0.080315925,-0.19605587,0.3207608,0.23474443,-0.005165832,0.30303997,-0.035635334,-0.04668389,-0.09977838,0.1117806,0.048234154,0.1029109,0.11685237,-0.017405003,0.15829669,0.01178855,2.0,2.0,-2.0,-2.0,-2.0,2.0,2.0,2.0,2.0,-2.0,2.0,2.0,2.0,-2.0,-2.0,-2.0,2.0,2.0,2.0,-2.0,2.0,-2.0,-2.0,2.0
2025-07-21 09:50:16.403,2.0600000000000014,2060,103,-0.14885214,-0.04480444,0.11253321,0.053420298,-0.04923638,-0.009119484,1.5,0.0,0.0,-0.030905563,0.26231587,0.15931925,-0.22263359,-0.36262625,-0.461006,0.10585615,0.28388527,0.13264175,0.12115416,-0.20929037,0.34641218,0.24732585,-0.03466142,-0.050093953,0.021776654,-0.028600939,0.13404275,0.11168136,0.02968577,-0.05902453,0.0270417,-0.023970664,-0.048916418,0.028188925,2.0,-2.0,-2.0,-2.0,2.0,2.0,2.0,-2.0,2.0,-2.0,-2.0,2.0,2.0,-2.0,-2.0,-2.0,2.0,2.0,-2.0,2.0,2.0,-2.0,-2.0,-2.0
2025-07-21 09:50:16.418,2.0800000000000014,2080,104,0.14215125,0.012200708,0.11466822,0.044992458,0.024713265,-0.020182926,1.5,0.0,0.0,-0.03184711,0.27857488,0.084228195,-0.23323889,-0.3756175,-0.4306663,0.13345814,0.2751238,0.16420268,0.15584196,-0.22909197,0.27417368,0.17876995,0.030139113,-0.3225067,0.0034901125,-0.039380178,0.04753463,0.12872186,-0.086208545,0.20269765,0.0734403,-0.039366867,-0.1960381,-0.17585915,2.0,-2.0,-2.0,-2.0,2.0,2.0,-2.0,2.0,2.0,-2.0,-2.0,-2.0,2.0,-2.0,-2.0,-2.0,2.0,2.0,-2.0,-2.0,2.0,-2.0,-2.0,-2.0
2025-07-21 09:50:16.439,2.1000000000000014,2100,105,-0.19262071,0.07021756,0.057940897,0.037785504,-0.023189431,0.036511824,1.5,0.0,0.0,-0.03415819,0.29207835,-0.040899582,-0.25536528,-0.38103786,-0.39106748,0.15449539,0.2414701,0.18731424,0.17563753,-0.25440454,0.19321607,0.09885034,0.062759206,-0.39653638,-0.06102817,-0.01211176,0.087063506,0.086421356,-0.05547524,-0.0066153216,0.1066079,-0.019870887,-0.18838547,-0.16822644,2.0,-2.0,-2.0,-2.0,2.0,2.0,-2.0,-2.0,2.0,-2.0,-2.0,-2.0,2.0,-2.0,2.0,-2.0,2.0,-2.0,-2.0,2.0,2.0,-2.0,-2.0,-2.0
2025-07-21 09:50:16.458,2.1200000000000014,2120,106,-0.14788401,0.050428014,-0.18352288,0.07178707,0.012077558,0.04396842,1.5,0.0,0.0,-0.03594781,0.30485198,-0.17947602,-0.16611917,-0.39017907,-0.32978848,0.07010818,0.19468383,0.22840619,0.20318829,-0.27886882,0.13804784,0.032559596,-0.008117474,-0.33944082,0.2550977,-0.0464004,0.23166005,-0.24706328,-0.19478838,0.2378676,0.011460978,-0.04597013,-0.18981941,-0.10122503,2.0,-2.0,2.0,-2.0,2.0,-2.0,-2.0,2.0,2.0,-2.0,-2.0,-2.0,2.0,-2.0,2.0,-2.0,2.0,-2.0,-2.0,-2.0,2.0,-2.0,2.0,-2.0
2025-07-21 09:50:16.478,2.1400000000000015,2140,107,0.12888159,0.24909839,0.059918053,0.00031749255,-0.009916413,-0.025891528,1.5,0.0,0.0,-0.03416557,0.31637838,-0.30222154,-0.09224077,-0.3950778,-0.25053924,-0.0036405455,0.10452298,0.25716254,0.22797875,-0.2891055,0.103827044,-0.0383048,-0.024731122,-0.27210563,0.16739592,0.028799074,0.26994213,-0.15083675,-0.21946386,0.011788676,-0.012508398,0.030286478,0.08415547,-0.16832834,2.0,-2.0,2.0,-2.0,2.0,-2.0,-2.0,-2.0,2.0,-2.0,2.0,-2.0,2.0,2.0,2.0,-2.0,2.0,-2.0,-2.0,-2.0,2.0,-2.0,-2.0,2.0
2025-07-21 09:50:16.501,2.1600000000000015,2160,108,0.13921778,0.2644441,-0.07704164,0.08090738,-0.00083102577,0.028967103,1.5,0.0,0.0,-0.03330589,0.30968878,-0.31135523,-0.032093298,-0.3913624,-0.16533728,-0.05427143,0.04060069,0.24313393,0.2432717,-0.29205877,0.06354226,0.008143612,0.08700742,-0.01659701,0.107603244,-0.0023449257,0.21737938,-0.18826374,-0.11589734,0.025333775,0.11027968,-0.04034516,-0.24579869,0.082849815,2.0,2.0,2.0,-2.0,2.0,-2.0,-2.0,-2.0,2.0,-2.0,-2.0,2.0,2.0,2.0,2.0,-2.0,2.0,-2.0,2.0,2.0,-2.0,-2.0,2.0,2.0
2025-07-21 09:50:16.519,2.1800000000000015,2180,109,0.33385575,-0.38281354,-0.053597752,0.07382536,0.021470835,0.014558907,1.5,0.0,0.0,-0.032278348,0.33100593,-0.27499634,0.015257097,-0.39039284,-0.050816305,-0.10497595,0.054319367,0.32625392,0.16082048,-0.30366778,0.06373336,0.06136937,0.051067658,0.12997356,0.17075773,-0.001887547,0.40139008,-0.0432339,0.07093667,0.28224057,-0.25111705,-0.056631107,0.15457961,0.109193586,2.0,2.0,2.0,-2.0,2.0,-2.0,2.0,2.0,-2.0,-2.0,2.0,2.0,-2.0,2.0,2.0,-2.0,-2.0,-2.0,2.0,2.0,-2.0,-2.0,2.0,2.0
2025-07-21 09:50:16.539,2.2000000000000015,2200,110,0.5965912,-0.25536248,0.0019496545,-0.019968355,-0.033590533,0.037012305,1.5,0.0,0.0,-0.030843092,0.31698832,-0.20317729,0.052931726,-0.38640553,0.02825631,-0.1435656,0.11887683,0.40872258,0.07976888,-0.3288527,0.12421493,0.09722041,-0.08257131,0.2600474,0.11572418,0.03960191,0.016145453,-0.09588737,0.17379972,0.22672674,-0.261218,-0.016297134,0.18849993,0.12295364,-2.0,2.0,2.0,-2.0,-2.0,-2.0,2.0,2.0,-2.0,-2.0,2.0,2.0,-2.0,2.0,2.0,-2.0,-2.0,-2.0,2.0,-2.0,-2.0,-2.0,-2.0,2.0
2025-07-21 09:50:16.559,2.2200000000000015,2220,111,0.21673776,-0.17743872,-0.15246433,-0.017212333,-0.08242838,0.018029405,1.5,0.0,0.0,-0.029356712,0.29007465,-0.14167127,0.0959492,-0.36909282,-0.031217549,-0.17612486,0.1449686,0.4226579,0.007127617,-0.35587257,0.17797598,0.1363706,-0.13692558,0.15213463,0.07555457,0.01042815,-0.25608876,-0.13757563,0.054124016,-0.18054081,-0.19600113,-0.09117915,0.016532816,0.07459939,-2.0,2.0,2.0,-2.0,-2.0,-2.0,2.0,-2.0,-2.0,-2.0,-2.0,2.0,-2.0,2.0,-2.0,-2.0,-2.0,2.0,2.0,-2.0,-2.0,2.0,2.0,2.0
2025-07-21 09:50:16.579,2.2400000000000015,2240,112,0.17648435,-0.015664738,0.11774376,-0.0780495,-0.107061595,-0.013064655,1.5,0.0,0.0,-0.026839193,0.2395516,-0.042224474,0.03563386,-0.37313926,-0.17297548,-0.103760324,0.19173169,0.3187753,-0.046792038,-0.33589265,0.24798359,0.15212514,-0.13774525,0.29294214,-0.19804409,-0.029376267,-0.30061772,0.24039192,0.089673944,-0.16271347,-0.08137778,0.084299065,0.2554497,0.0004223715,-2.0,2.0,-2.0,-2.0,-2.0,2.0,2.0,-2.0,-2.0,2.0,2.0,2.0,1.7948627,2.0,-2.0,-2.0,-2.0,2.0,2.0,-2.0,-2.0,2.0,-2.0,2.0
2025-07-21 09:50:16.603,2.2600000000000016,2260,113,-0.46883,0.08084916,0.14572695,-0.037483674,-0.0970691,-0.013039951,1.5,0.0,0.0,-0.02678099,0.2393235,0.059304222,-0.030886427,-0.35740468,-0.2913196,-0.03809651,0.23081721,0.2444287,-0.09017832,-0.28569645,0.28108677,0.19049102,0.10425306,0.3062464,-0.106381536,0.029077113,-0.20310736,0.17139208,-0.0041380012,-0.20589967,-0.115913786,0.22319964,-0.0010403835,0.09581419,1.7948627,2.0,-2.0,-2.0,-2.0,2.0,2.0,-2.0,-2.0,2.0,-2.0,2.0,2.0,2.0,-2.0,-2.0,-2.0,2.0,2.0,-2.0,-2.0,-2.0,-2.0,2.0
2025-07-21 09:50:16.619,2.2800000000000016,2280,114,-0.5073201,0.25945458,-0.057136364,0.03399251,-0.0082816975,-0.042312134,1.5,0.0,0.0,-0.029344782,0.2515288,0.18984893,-0.0765713,-0.3674501,-0.38661945,0.024960214,0.24378972,0.13732997,-0.13012211,-0.28282377,0.2471744,0.21669185,0.013934605,0.3386789,-0.106176734,0.054624178,-0.2525007,0.16944304,0.11937652,-0.43420154,-0.0419783,0.0352693,-0.17110561,0.014397738,2.0,2.0,-2.0,-2.0,-2.0,2.0,2.0,-2.0,-2.0,-2.0,-2.0,2.0,2.0,2.0,-2.0,-2.0,2.0,2.0,2.0,2.0,2.0,-2.0,2.0,2.0
2025-07-21 09:50:16.639,2.3000000000000016,2300,115,-0.232691,0.0042805746,0.11197175,0.04590665,-0.04629774,0.021934252,1.5,0.0,0.0,-0.030034887,0.2677085,0.29973984,-0.13260451,-0.3689162,-0.4000918,0.07533666,0.25426593,0.057587165,-0.07197523,-0.29792595,0.2598442,0.22052442,0.02313811,0.29850516,-0.06435157,0.02291306,0.10194149,0.13505137,0.06412215,0.020285832,0.122139916,-0.06525717,0.13434497,0.017228698,2.0,2.0,-2.0,-2.0,2.0,2.0,2.0,2.0,2.0,-2.0,2.0,2.0,2.0,-2.0,-2.0,-2.0,-2.0,2.0,2.0,2.0,2.0,-2.0,-2.0,2.0
2025-07-21 09:50:16.659,2.3200000000000016,2320,116,-0.41763735,-0.10299357,-0.16204354,0.035062827,0.06612038,0.023574341,1.5,0.0,0.0,-0.030609662,0.2952507,0.34015438,-0.1576281,-0.36334065,-0.42632836,0.119071245,0.28522927,0.08323627,-0.00070784957,-0.31020895,0.26457572,0.2490486,0.01705075,-0.0024803937,-0.08966052,-0.035835948,-0.11130457,0.01097611,0.06970565,0.1507861,0.18934986,-0.050913498,-0.20805602,-0.016589288,2.0,-2.0,-2.0,-2.0,-2.0,2.0,2.0,2.0,2.0,-2.0,-2.0,2.0,2.0,-2.0,-2.0,-2.0,2.0,2.0,2.0,-1.8775839,2.0,-2.0,2.0,-2.0
2025-07-21 09:50:16.680,2.3400000000000016,2340,117,-0.20396738,0.022556193,0.3323282,0.013776818,0.09841001,0.022255084,1.5,0.0,0.0,-0.029857228,0.30685785,0.28674892,-0.17366128,-0.3809406,-0.42578343,0.13965054,0.3063466,0.10416152,0.051716525,-0.30607906,0.27592212,0.15724902,0.07862393,-0.17605762,-0.06918028,-0.012656731,0.051892716,0.066468425,0.09999664,-0.047735073,0.14073901,0.008651051,0.19442892,-0.25404936,2.0,-2.0,-2.0,-2.0,2.0,2.0,2.0,-1.8775839,2.0,-2.0,2.0,-2.0,2.0,-2.0,-2.0,-2.0,2.0,2.0,-2.0,2.0,2.0,-2.0,-2.0,-2.0
2025-07-21 09:50:16.699,2.3600000000000017,2360,118,-0.072922595,0.0040221093,0.20652887,0.04463698,0.045059532,0.011250194,1.5,0.0,0.0,-0.031536177,0.31592023,0.25946465,-0.19196232,-0.38245213,-0.37841117,0.15157244,0.29698306,0.1293198,0.08189379,-0.3282045,0.27195156,0.08937858,0.038001996,-0.16317911,-0.009505799,0.040339224,0.06676192,-0.008543881,-0.09019508,0.1539469,0.10308657,-0.080973774,-0.120793216,-0.122584246,2.0,-2.0,-2.0,-2.0,2.0,2.0,-2.0,2.0,2.0,-2.0,-2.0,-2.0,2.0,-2.0,-2.0,-2.0,2.0,2.0,-2.0,2.0,2.0,-2.0,-2.0,-2.0
2025-07-21 09:50:16.719,2.3800000000000017,2380,119,0.02570419,-0.20721975,0.25185916,-0.021220692,0.015464,0.025115047,1.5,0.0,0.0,-0.03620581,0.33412462,0.21382378,-0.21062854,-0.40079203,-0.33527106,0.17709813,0.2090847,0.24359652,0.113622434,-0.3315741,0.19722943,0.013590907,-0.028414283,-0.076211244,-0.06357816,-0.05592999,0.07771635,0.036404874,-0.251262,0.3435288,0.11674213,0.03554475,-0.28999734,-0.13978183,2.0,-2.0,-2.0,-2.0,2.0,2.0,-2.0,2.0,2.0,-2.0,-2.0,-2.0,2.0,-2.0,-2.0,-2.0,2.0,-2.0,-2.0,2.0,2.0,-2.0,2.0,-2.0
2025-07-21 09:50:16.739,2.4000000000000017,2400,120,0.28143162,-0.19073825,0.30714235,-0.042923752,0.06257435,-0.021031756,1.5,0.0,0.0,-0.040777788,0.33968502,0.1553897,-0.24188952,-0.40551805,-0.23614916,0.096980505,0.10850888,0.3325442,0.15417382,-0.32120278,0.15545158,-0.048620153,0.043044932,-0.17546831,-0.05753473,0.018901495,0.30977252,-0.26774117,-0.20059237,0.29515526,0.0019805748,-0.0023552012,0.0086972555,-0.12762149,2.0,-2.0,-2.0,-2.0,2.0,-2.0,-2.0,2.0,2.0,-2.0,2.0,-2.0,2.0,-0.75166154,-2.0,-2.0,2.0,-2.0,-2.0,-2.0,2.0,-2.0,-2.0,-1.1338573
2025-07-21 09:50:16.761,2.4200000000000017,2420,121,0.096557416,0.16988547,0.19401431,-0.045047455,0.052047744,0.02019095,1.5,0.0,0.0,-0.047234815,0.33791572,0.072734185,-0.24204393,-0.39047104,-0.09933686,0.018352455,0.05598834,0.38059148,0.18373135,-0.3389952,0.11436062,-0.06918026,0.031036763,-0.19265933,-0.09844443,0.038171746,0.34305254,-0.15201487,-0.17298712,-0.010911609,0.0511069,-0.059989173,-0.2914066,-0.11527813,2.0,-0.75166154,-2.0,-2.0,2.0,-2.0,-2.0,-2.0,2.0,-2.0,-2.0,-1.1338573,2.0,2.0,-2.0,-2.0,2.0,-2.0,-2.0,-2.0,2.0,-2.0,-2.0,2.0
2025-07-21 09:50:16.779,2.4400000000000017,2440,122,-0.028623981,0.24463709,0.09875288,0.049371883,0.047207188,0.0016043775,1.5,0.0,0.0,-0.052784745,0.3404816,0.07119522,-0.2601376,-0.40310508,0.015068007,-0.041518997,0.011511931,0.40054128,0.21455577,-0.33736292,-0.023253985,-0.0019158019,0.0011237192,0.065478206,0.022570763,-0.051341712,0.3247929,-0.21349125,-0.054077774,-0.066798374,0.1273427,0.05385086,-0.33051467,0.14157349,2.0,2.0,-2.0,-2.0,2.0,-2.0,-2.0,-2.0,2.0,-2.0,-2.0,2.0,2.0,2.0,-0.7435254,-2.0,-2.0,-2.0,-1.7931985,2.0,0.3464219,-2.0,2.0,2.0
2025-07-21 09:50:16.800,2.4600000000000017,2460,123,-0.12600692,-0.056889333,0.009883691,-0.008977848,0.019305304,-0.04810142,1.5,0.0,0.0,-0.055155884,0.3454835,0.151676,-0.23704469,-0.39462107,0.06620612,-0.08389303,-0.045800254,0.45101377,0.18182293,-0.33137432,-0.09593877,0.042763144,-0.0046685073,0.2798964,-0.013540272,-0.016912084,-0.063577,-0.10506328,-0.1401977,0.21787979,-0.032114334,0.05458674,-0.0016229897,0.12165066,2.0,2.0,-0.7435254,-2.0,-2.0,-2.0,-1.7931985,2.0,0.3464219,-2.0,2.0,2.0,1.9930744,2.0,-1.002591,-2.0,-2.0,-2.0,2.0,-2.0,-2.0,-2.0,2.0,2.0
2025-07-21 09:50:16.820,2.4800000000000018,2480,124,0.018812977,-0.15034923,0.0050348905,-0.007263307,0.06024339,0.015658684,1.5,0.0,0.0,-0.055324197,0.34368265,0.26150498,-0.24757224,-0.39065418,0.007813188,-0.11681585,-0.010171846,0.4627993,0.11523009,-0.34512466,-0.057644658,0.08816709,0.017365627,0.22294745,-0.056803994,0.065496266,-0.21784836,-0.12366723,0.15050238,-0.09836837,-0.15507369,0.017468417,0.15967584,0.025167514,1.9930744,2.0,-1.002591,-2.0,-2.0,-2.0,2.0,-2.0,-2.0,-2.0,2.0,2.0,-2.0,2.0,-2.0,-2.0,-2.0,-2.0,2.0,-2.0,-2.0,-2.0,-2.0,2.0
2025-07-21 09:50:16.840,2.5000000000000018,2500,125,-0.34427118,0.16502687,-0.08576784,0.0015510087,0.033962563,-0.047488574,1.5,0.0,0.0,-0.05619781,0.34374526,0.37297565,-0.2607312,-0.40095156,-0.10302098,-0.16619428,0.049891125,0.44812626,0.049870312,-0.35851294,-0.048008945,0.124061145,0.050598223,0.22889656,-0.07117601,-0.026312372,-0.19948305,-0.103216745,0.17057097,-0.111471236,-0.118272744,0.04840764,-0.07467558,0.083874114,-2.0,2.0,-2.0,-2.0,-2.0,-2.0,2.0,-2.0,-2.0,-2.0,-2.0,2.0,-2.0,2.0,-1.9645032,-2.0,-2.0,-2.0,2.0,-2.0,-2.0,-1.0066721,2.0,2.0
2025-07-21 09:50:16.860,2.520000000000002,2520,126,-0.22047664,0.17759277,0.096087,0.05050715,0.038195994,-0.016190013,1.5,0.0,0.0,-0.05618863,0.3278896,0.45321882,-0.28390053,-0.39972728,-0.2015627,-0.1902178,0.10116442,0.39102244,-0.012381053,-0.3380296,-0.016790802,0.16000196,0.008246354,0.13713726,0.009687627,0.067697614,-0.35905224,0.014968811,0.058188677,-0.21032126,-0.12230827,0.056056,0.106397554,0.018473137,-2.0,2.0,-1.9645032,-2.0,-2.0,-2.0,2.0,-2.0,-2.0,-1.0066721,2.0,2.0,-2.0,2.0,2.0,-2.0,-2.0,-0.18592705,2.0,-2.0,-2.0,-2.0,-2.0,2.0
2025-07-21 09:50:16.880,2.540000000000002,2540,127,-0.22602059,0.14166996,-0.24657977,0.07579732,0.060878687,0.008589994,1.5,0.0,0.0,-0.056584623,0.2938701,0.51439846,-0.23449148,-0.39692217,-0.2960626,-0.16774611,0.13957009,0.31863937,-0.060995393,-0.33414394,-0.003959877,0.18338406,-0.14402775,0.14262836,0.22064573,-0.044322867,-0.17304279,0.070370324,0.08473041,-0.12136653,-0.11064713,0.0455646,-0.006154272,-0.006150617,-2.0,2.0,2.0,-2.0,-2.0,-0.18592705,2.0,-2.0,-2.0,-2.0,-2.0,2.0,2.0,-2.0,-2.0,-2.0,-2.0,2.0,2.0,-2.0,-2.0,-2.0,2.0,2.0
2025-07-21 09:50:16.900,2.560000000000002,2560,128,-0.4235026,-0.10435173,-0.023616714,0.054586314,0.098389074,0.00051735726,1.5,0.0,0.0,-0.0549044,0.3004771,0.5061299,-0.2451019,-0.3941539,-0.3757999,-0.108200155,0.18267289,0.23080748,-0.10547229,-0.33920452,0.024106998,0.20255895,0.025616521,-0.03488954,0.023134843,0.049509436,-0.25661522,0.13869344,0.102662355,-0.21603669,-0.15459785,-0.06543541,0.074229784,0.118851535,2.0,-2.0,-2.0,-2.0,-2.0,2.0,2.0,-2.0,-2.0,-2.0,2.0,2.0,2.0,2.0,-2.0,-2.0,2.0,2.0,2.0,2.0,2.0,-2.0,2.0,2.0
2025-07-21 09:50:16.920,2.580000000000002,2580,129,-0.15376364,-0.3046878,-0.01533037,0.064182974,0.18250328,0.03530143,1.5,0.0,0.0,-0.053220555,0.31677315,0.5308788,-0.26393422,-0.40215695,-0.39821416,-0.042564023,0.20612384,0.21802899,-0.06266787,-0.34361684,0.12465111,0.23063095,0.0020126463,0.07765346,-0.062031675,0.089349195,0.044151433,0.098741576,0.019884082,0.13324584,0.13684325,0.04938897,0.3171541,0.03760447,2.0,2.0,-2.0,-2.0,2.0,2.0,2.0,2.0,2.0,-2.0,2.0,2.0,2.0,-2.0,-2.0,-2.0,-2.0,2.0,2.0,-2.0,2.0,-2.0,-2.0,2.0
2025-07-21 09:50:16.941,2.600000000000002,2600,130,-0.49874982,-0.069620565,0.04283274,-0.0017665492,0.22607492,-0.04608539,1.5,0.0,0.0,-0.05437434,0.31987488,0.52539194,-0.2649253,-0.38943225,-0.43226624,0.023777917,0.23296449,0.20399554,-0.0009760114,-0.33364883,0.16478947,0.24923877,-0.009487692,-0.14345707,-0.074811764,-0.038213607,-0.114250354,0.13966922,-0.022752156,-0.061922133,0.20368646,-0.07130485,-0.050720602,0.013526395,2.0,-2.0,-2.0,-2.0,-2.0,2.0,2.0,-2.0,2.0,-2.0,-2.0,2.0,2.0,-2.0,-2.0,-2.0,2.0,2.0,2.0,2.0,2.0,-2.0,2.0,2.0
2025-07-21 09:50:16.960,2.620000000000002,2620,131,-0.23950729,-0.27803576,0.21446213,0.018360302,0.2311785,-0.04667217,1.5,0.0,0.0,-0.056228522,0.32519183,0.51821697,-0.26804343,-0.38765272,-0.43650758,0.06672639,0.25850716,0.23047714,0.057906386,-0.33419132,0.22027586,0.24763024,-0.0073153847,-0.06316592,-0.021744257,-0.0151645485,0.067803144,0.14785132,0.07072138,0.21182625,0.10800787,-0.06294977,0.27065173,0.06996075,2.0,-2.0,-2.0,-2.0,2.0,2.0,2.0,2.0,2.0,-2.0,2.0,2.0,2.0,-2.0,-2.0,-2.0,2.0,2.0,-2.0,-2.0,2.0,-2.0,-2.0,-2.0
2025-07-21 09:50:16.980,2.640000000000002,2640,132,-0.35154247,-0.106339045,0.23524001,-0.055159077,0.21405901,0.016265856,1.5,0.0,0.0,-0.060354408,0.33422154,0.4854409,-0.28132293,-0.40456104,-0.40904266,0.09599755,0.20194761,0.23627456,0.108630285,-0.34704706,0.2530595,0.17163916,0.027677884,-0.009648166,-0.037657842,0.050065212,0.043596357,0.114260495,-0.23737389,-0.123704,0.17890522,0.030601624,-0.08834047,-0.20618434,2.0,-2.0,-2.0,-2.0,2.0,2.0,-2.0,-2.0,2.0,-2.0,-2.0,-2.0,2.0,-2.0,-2.0,-2.0,2.0,2.0,-2.0,2.0,2.0,-2.0,2.0,-2.0
2025-07-21 09:50:17.005,2.660000000000002,2660,133,0.025471216,-0.16389105,0.3090807,-0.039216332,0.20832902,0.04723162,1.5,0.0,0.0,-0.066623956,0.3451529,0.47512877,-0.27614158,-0.40954608,-0.35113317,0.12255259,0.1257784,0.26217794,0.12444444,-0.3383315,0.282291,0.082814306,0.0067695375,0.0020124433,0.05122131,0.0010726177,0.18468934,0.0661699,-0.13302755,0.14515482,0.0041896612,-0.007845051,0.17318769,-0.14365967,2.0,-2.0,-2.0,-2.0,2.0,2.0,-2.0,2.0,2.0,-2.0,2.0,-2.0,2.0,-2.0,-2.0,-2.0,2.0,1.3458046,-2.0,2.0,2.0,-2.0,-2.0,-2.0
2025-07-21 09:50:17.020,2.680000000000002,2680,134,0.04148037,-0.1269802,0.3536985,-0.04671573,0.23497379,-0.037172254,1.5,0.0,0.0,-0.0744346,0.34504962,0.4507286,-0.28091717,-0.41054714,-0.25652137,0.14783439,0.053164005,0.33991647,0.16450606,-0.34840193,0.29861194,0.017070461,0.044322852,-0.06746931,0.022692319,0.023659365,0.3005802,0.0002623498,-0.13619079,0.21322998,0.00044586873,0.051601168,-0.14434785,-0.12656303,2.0,-2.0,-2.0,-2.0,2.0,1.3458046,-2.0,2.0,2.0,-2.0,-2.0,-2.0,2.0,-2.0,-2.0,-2.0,2.0,-2.0,-2.0,2.0,2.0,-2.0,-2.0,-2.0
2025-07-21 09:50:17.040,2.700000000000002,2700,135,0.05439362,0.039454572,0.38407406,-0.05139427,0.1764404,-0.023741221,1.5,0.0,0.0,-0.08081602,0.34894285,0.42290676,-0.27961075,-0.40425152,-0.1086185,0.079653345,-0.028228572,0.43032417,0.19258942,-0.35389447,0.19793262,-0.027318126,0.07104571,-0.06178291,-0.030969234,-0.03679881,0.43622145,-0.13220637,-0.12457549,0.20762888,0.11648771,-0.028746393,-0.27918318,-0.0871235,2.0,-2.0,-2.0,-2.0,2.0,-2.0,-2.0,2.0,2.0,-2.0,-2.0,-2.0,2.0,2.0,-2.0,-2.0,2.0,-2.0,-2.0,2.0,2.0,-2.0,-2.0,2.0
2025-07-21 09:50:17.060,2.720000000000002,2720,136,0.04306565,0.040371697,0.37740773,-0.021644099,0.18655764,0.032375563,1.5,0.0,0.0,-0.08759184,0.35764042,0.46573573,-0.29061702,-0.38324156,0.04615964,-0.0038207446,-0.0847425,0.49475098,0.20756917,-0.353261,0.055693254,0.0034274296,-0.04060788,0.2136623,0.03621538,-0.020415109,0.44547147,-0.21742292,-0.18957798,0.1703667,0.061759267,0.029399078,-0.3679136,0.12853293,2.0,2.0,-2.0,-2.0,2.0,-2.0,-2.0,2.0,2.0,-2.0,-2.0,2.0,2.0,2.0,-2.0,-2.0,-2.0,-2.0,-2.0,2.0,2.0,-2.0,-2.0,2.0
2025-07-21 09:50:17.080,2.740000000000002,2740,137,0.11737269,0.040572345,0.29204205,0.025415983,0.16010953,-0.0076719504,1.5,0.0,0.0,-0.09414412,0.3643355,0.5165594,-0.3086336,-0.38193235,0.12661032,-0.056016926,-0.12059142,0.5652222,0.22758485,-0.34637603,-0.103092164,0.06940647,-0.06643561,0.21183911,-0.033782717,0.08040116,0.086737856,-0.10058077,-0.15961838,0.1522102,-0.0029414918,0.027271075,-0.40678012,0.18417549,2.0,2.0,-2.0,-2.0,-2.0,-2.0,-2.0,2.0,2.0,-2.0,-2.0,2.0,2.0,2.0,-2.0,-2.0,-2.0,-2.0,-2.0,-2.0,-2.0,-2.0,2.0,2.0
2025-07-21 09:50:17.100,2.760000000000002,2760,138,-0.19161375,-0.042753182,0.18819956,0.019573636,0.18050426,0.007000102,1.5,0.0,0.0,-0.09901592,0.3626332,0.5817586,-0.3042587,-0.3849895,0.12386808,-0.082996786,-0.15675788,0.55930704,0.15125394,-0.35188577,-0.1693215,0.10440434,-0.015777428,0.19299494,0.017328233,-0.06733054,-0.021913076,-0.1266961,-0.08115266,-0.030882597,-0.17706376,0.03373398,-0.009040802,0.019812252,2.0,2.0,-2.0,-2.0,-2.0,-2.0,-2.0,-2.0,-2.0,-2.0,2.0,2.0,2.0,2.0,2.0,-2.0,-2.0,-2.0,2.0,-2.0,-2.0,-2.0,2.0,2.0
2025-07-21 09:50:17.120,2.780000000000002,2780,139,0.14212587,-0.15695392,-0.04147136,0.000114297894,0.18421419,-0.00050205406,1.5,0.0,0.0,-0.10322742,0.37057886,0.6233039,-0.2462482,-0.39013875,0.11976595,-0.120317586,-0.1044296,0.48392382,0.07426881,-0.3499189,-0.1443885,0.14582624,-0.017309569,0.12487291,0.2641334,-0.05416899,-0.002680932,-0.0504536,0.14081359,-0.24944042,-0.17232595,0.009157115,0.2513163,0.08634917,2.0,2.0,2.0,-2.0,-2.0,-2.0,2.0,-2.0,-2.0,-2.0,2.0,2.0,2.0,2.0,2.0,-2.0,-2.0,-2.0,2.0,-2.0,-2.0,-2.0,0.07219017,2.0
2025-07-21 09:50:17.140,2.800000000000002,2800,140,0.019522384,0.060436282,-0.13057922,0.019570036,0.15614644,-0.034038544,1.5,0.0,0.0,-0.10571942,0.3805805,0.6589619,-0.150174,-0.39690992,0.11153784,-0.16499329,-0.027353123,0.37065366,0.015114862,-0.3380288,-0.10360265,0.16621216,0.08083346,0.09846132,0.24609655,0.009735149,-0.022433203,-0.109112754,0.15559953,-0.21825498,-0.2000751,-0.017592601,0.02191846,0.11456234,2.0,2.0,2.0,-2.0,-2.0,-2.0,2.0,-2.0,-2.0,-2.0,0.07219017,2.0,2.0,2.0,2.0,-2.0,-2.0,-2.0,2.0,-2.0,-2.0,-2.0,2.0,2.0
2025-07-21 09:50:17.161,2.820000000000002,2820,141,-0.20773031,0.22487445,-0.09655474,0.01516752,0.15424295,0.020171743,1.5,0.0,0.0,-0.103505194,0.39262182,0.69079506,-0.08159956,-0.3987844,0.09199156,-0.1835102,0.023402143,0.33321908,-0.029631171,-0.34134343,-0.039983097,0.19794042,-0.08093277,0.028565008,0.20557916,-0.048397325,-0.063451566,-0.05979501,0.089991175,-0.07387329,-0.17418176,-0.040129796,0.19553812,-0.0031758721,2.0,2.0,2.0,-2.0,-2.0,-2.0,2.0,-2.0,-2.0,-2.0,2.0,2.0,2.0,0.84276557,2.0,-2.0,-2.0,-2.0,2.0,-2.0,-2.0,-2.0,2.0,2.0
2025-07-21 09:50:17.181,2.840000000000002,2840,142,-0.2848137,0.39714068,-0.07814546,-0.023299446,0.18842332,0.008492473,1.5,0.0,0.0,-0.10072234,0.39458686,0.67853886,-0.010009466,-0.39864457,0.05822832,-0.20074663,0.08207342,0.30388275,-0.07591045,-0.32597244,0.06599206,0.21046188,0.019994127,-0.01771961,0.086506374,-0.018564178,-0.093551435,0.01363183,0.16276863,-0.12483761,-0.12040597,-0.020863453,0.30573654,0.030121434,2.0,0.84276557,2.0,-2.0,-2.0,-2.0,2.0,-2.0,-2.0,-2.0,2.0,2.0,2.0,2.0,2.0,-2.0,-2.0,-2.0,2.0,-2.0,-2.0,-2.0,-2.0,2.0
2025-07-21 09:50:17.202,2.860000000000002,2860,143,-0.6493307,0.43664744,-0.31122133,0.05716218,0.30406797,0.0153932385,1.5,0.0,0.0,-0.098458596,0.38929585,0.7023778,0.033127524,-0.40265474,0.027083203,-0.236348,0.11281774,0.25215998,-0.10732139,-0.33437505,0.11762741,0.23251987,0.043250505,0.030026697,0.1037149,-0.038623214,-0.2039001,-0.082127504,0.10883925,-0.1384354,-0.14889942,-0.057323903,-0.012017885,0.020259036,2.0,2.0,2.0,-2.0,-2.0,-2.0,2.0,-2.0,-2.0,-2.0,-2.0,2.0,2.0,-2.0,-0.8941606,-2.0,-2.0,2.0,2.0,-2.0,-2.0,-2.0,2.0,2.0
2025-07-21 09:50:17.221,2.880000000000002,2880,144,-0.647359,0.12742853,-0.12846412,0.07613803,0.29225788,0.037423264,1.5,0.0,0.0,-0.0939088,0.39121112,0.70432144,0.017305346,-0.41864747,-0.04132209,-0.1919776,0.16319932,0.18220972,-0.15148766,-0.32935295,0.14539379,0.25597557,0.025456648,0.020821935,-0.07512367,-0.049458474,-0.2801365,0.16427456,0.15745832,-0.21610416,-0.12715048,0.043609276,0.19509609,0.08896468,2.0,-2.0,-0.8941606,-2.0,-2.0,2.0,2.0,-2.0,-2.0,-2.0,2.0,2.0,2.0,-2.0,-2.0,-2.0,-2.0,2.0,2.0,2.0,2.0,-2.0,2.0,2.0
2025-07-21 09:50:17.241,2.900000000000002,2900,145,-0.63160855,-0.052369747,-0.13778271,0.008042493,0.36637932,0.044174463,1.5,0.0,0.0,-0.09302076,0.40410015,0.7037907,-0.023342645,-0.4103225,-0.13494112,-0.097599044,0.18469979,0.15437944,-0.09042472,-0.32552677,0.2613732,0.2503801,0.08044246,-0.061054,-0.1684452,0.065286316,-0.15000503,0.19706888,0.13963096,0.043646287,0.11934667,0.03678611,0.32790872,0.06445505,2.0,-2.0,-2.0,-2.0,-2.0,2.0,2.0,2.0,2.0,-2.0,2.0,2.0,2.0,-2.0,-2.0,-2.0,2.0,2.0,2.0,2.0,2.0,-2.0,-1.7634603,2.0
2025-07-21 09:50:17.261,2.920000000000002,2920,146,-0.6054508,-0.13750051,-0.12962115,0.008547781,0.4467499,-0.0042325538,1.5,0.0,0.0,-0.095778145,0.40536013,0.7079103,-0.0832458,-0.41938683,-0.17573115,-0.044787712,0.21061093,0.22518747,-0.015060516,-0.3366697,0.2961223,0.27691367,0.00075631443,0.08055218,-0.028473586,-0.048329815,0.08044398,0.1598556,0.07317939,0.1897018,0.13760276,0.028723879,-0.068167165,-0.01567574,2.0,-2.0,-2.0,-2.0,2.0,2.0,2.0,2.0,2.0,-2.0,-1.7634603,2.0,2.0,-2.0,-2.0,-2.0,0.6807141,2.0,2.0,2.0,2.0,-2.0,2.0,-2.0
2025-07-21 09:50:17.285,2.940000000000002,2940,147,-0.3531842,-0.24580476,0.13080995,0.008974478,0.46616483,0.0019277885,1.5,0.0,0.0,-0.09903975,0.406597,0.7161705,-0.106703974,-0.42402667,-0.11708175,0.016678346,0.2357418,0.33095804,0.041895002,-0.33012983,0.36147863,0.18318638,0.059435043,-0.010016163,-0.13871422,0.008985448,0.17773291,0.14515989,0.058992386,0.28777552,0.17047195,-0.04512583,0.26032645,-0.2505271,2.0,-2.0,-2.0,-2.0,0.6807141,2.0,2.0,2.0,2.0,-2.0,2.0,-2.0,2.0,-2.0,-2.0,-2.0,1.313335,-2.0,-2.0,-2.0,2.0,-2.0,-2.0,-2.0
2025-07-21 09:50:17.301,2.960000000000002,2960,148,-0.5646643,0.12123979,0.14623103,-0.04605591,0.51233315,0.034999203,1.5,0.0,0.0,-0.105531506,0.4109266,0.703458,-0.13444157,-0.40721852,-0.010639511,-0.03747339,0.17786144,0.35855708,0.08769119,-0.34544313,0.38322127,0.09501654,0.014944097,-0.07080413,-0.045099523,0.08273267,0.31585205,-0.12010053,-0.217033,-0.10108321,0.104331516,0.06671225,-0.10746812,-0.15184498,2.0,-2.0,-2.0,-2.0,1.313335,-2.0,-2.0,-2.0,2.0,-2.0,-2.0,-2.0,2.0,-2.0,-2.0,-2.0,2.0,-2.0,-2.0,2.0,2.0,-2.0,-2.0,2.0
2025-07-21 09:50:17.321,2.980000000000002,2980,149,-0.4584757,0.12304315,0.08305423,-0.01757148,0.48927486,0.010445124,1.5,0.0,0.0,-0.11128757,0.40423903,0.7073334,-0.16961777,-0.40477377,0.13026994,-0.08885041,0.087862425,0.3790775,0.1261195,-0.34501785,0.28782055,0.13206986,-0.03298754,0.005438312,0.009492436,0.048632786,0.35259652,-0.15565234,-0.2518501,0.18429118,0.15431195,-0.0376679,-0.36421254,0.023035215,2.0,-2.0,-2.0,-2.0,2.0,-2.0,-2.0,2.0,2.0,-2.0,-2.0,2.0,2.0,-2.0,-2.0,-2.0,-2.0,-2.0,-2.0,2.0,2.0,-2.0,2.0,2.0
2025-07-21 09:50:17.341,3.000000000000002,3000,150,-0.17220736,0.021846075,0.0082810465,-0.018886423,0.5846069,0.041925583,1.5,0.0,0.0,-0.115754984,0.39208522,0.68814266,-0.18570076,-0.3887778,0.17601615,-0.12241941,0.004416921,0.46560884,0.16456363,-0.3527331,0.23234147,0.14636737,-0.066354625,-0.06131813,-0.06557645,0.025200916,-0.09146714,-0.11308195,-0.10569518,0.16550587,0.14475,0.003289038,-0.05851376,0.009399379,2.0,-2.0,-2.0,-2.0,-2.0,-2.0,-2.0,2.0,2.0,-2.0,2.0,2.0,2.0,-2.0,-2.0,-2.0,0.9205136,-2.0,2.0,-2.0,-2.0,-2.0,2.0,2.0
2025-07-21 09:50:17.361,3.0200000000000022,3020,151,-0.011691206,-0.05341514,0.095528044,0.01210092,0.6016702,0.024279727,1.5,0.0,0.0,-0.11808535,0.40133578,0.7029718,-0.19898745,-0.38136855,0.19831014,-0.1566821,0.033718772,0.48126426,0.10301864,-0.3530013,0.2861208,0.18318431,0.01321856,-0.056575455,-0.09633513,-0.05286206,0.15151817,-0.05409983,0.1407887,-0.15268308,-0.25202537,-0.025470987,0.15988842,-0.013006923,2.0,-2.0,-2.0,-2.0,0.9205136,-2.0,2.0,-2.0,-2.0,-2.0,2.0,2.0,2.0,2.0,-2.0,-2.0,-2.0,-2.0,2.0,-2.0,-2.0,-2.0,-2.0,2.0
2025-07-21 09:50:17.381,3.0400000000000023,3040,152,-0.06373251,0.06905762,-0.046672855,-0.035969693,0.5701867,-0.025577184,1.5,0.0,0.0,-0.12026726,0.38613287,0.7124895,-0.2302015,-0.38722453,0.17007451,-0.17891991,0.08571376,0.39204776,0.03277262,-0.34151873,0.2973,0.20459196,-0.03871667,0.13418472,-0.025957543,-0.02487953,-0.14566468,-0.1185303,0.15190506,-0.25550997,-0.1263787,0.01839761,-0.1308965,0.10397656,2.0,2.0,-2.0,-2.0,-2.0,-2.0,2.0,-2.0,-2.0,-2.0,-2.0,2.0,2.0,2.0,-0.956108,-2.0,-2.0,-2.0,2.0,-2.0,-2.0,-2.0,2.0,2.0
2025-07-21 09:50:17.401,3.0600000000000023,3060,153,0.048604377,0.1412395,0.050046757,-0.001373382,0.52755195,0.031677045,1.5,0.0,0.0,-0.12063022,0.3908318,0.7385531,-0.21146464,-0.36689544,0.068988405,-0.19443299,0.13185972,0.2427222,-0.035472777,-0.34032497,0.33306426,0.2225416,-0.06482758,0.049580794,0.005703128,-0.05257259,-0.387219,-0.084964655,0.11032048,-0.37048703,-0.1243983,0.027708039,0.15320927,0.09128962,2.0,2.0,-0.956108,-2.0,-2.0,-2.0,2.0,-2.0,-2.0,-2.0,2.0,2.0,2.0,2.0,2.0,-2.0,-2.0,0.45286787,2.0,2.0,-0.55698806,-2.0,-2.0,2.0
2025-07-21 09:50:17.421,3.0800000000000023,3080,154,0.20565735,0.0020909994,-0.14713064,0.022320427,0.5220241,-0.027714126,1.5,0.0,0.0,-0.119117014,0.38018158,0.7702221,-0.123403676,-0.37964052,-0.09429617,-0.15795164,0.15856971,0.15699217,-0.053602003,-0.3582406,0.33749092,0.25056288,-0.06221437,0.04825945,0.19492784,0.07043469,-0.38982704,0.10122788,0.0134608345,-0.08662065,-0.10028188,-0.04535941,-0.062681116,0.00080079713,2.0,2.0,2.0,-2.0,-2.0,0.45286787,2.0,2.0,-0.55698806,-2.0,-2.0,2.0,2.0,-2.0,1.5680825,-2.0,0.41154906,2.0,2.0,-2.0,2.0,-2.0,-2.0,2.0
2025-07-21 09:50:17.442,3.1000000000000023,3100,155,0.027942175,-0.19155961,-0.114157274,-0.06552488,0.56374985,0.049608365,1.5,0.0,0.0,-0.11625132,0.37282658,0.7310749,-0.059316006,-0.37788087,-0.13891841,-0.0807224,0.20209655,0.09678597,0.011889014,-0.3433385,0.2530585,0.25092718,0.018640295,-0.14905334,0.20614621,-0.027459906,-0.048907064,0.23012857,0.073266596,-0.22603597,0.117470585,-0.033261362,-0.2485159,0.029494757,2.0,-2.0,1.5680825,-2.0,0.41154906,2.0,2.0,-2.0,2.0,-2.0,-2.0,2.0,2.0,-2.0,-2.0,-2.0,2.0,2.0,2.0,2.0,2.0,-2.0,2.0,2.0
2025-07-21 09:50:17.462,3.1200000000000023,3120,156,0.115860574,-0.49064314,0.038886383,-0.022581406,0.5149635,0.047005158,1.5,0.0,0.0,-0.11538854,0.37662,0.7144078,-0.07636887,-0.3847446,-0.09537286,-0.032916036,0.22855853,0.053944785,0.058499783,-0.3546605,0.21265076,0.2638078,-0.044174306,0.09659746,-0.137786,0.054189254,0.19212787,0.101452686,-0.010912205,0.06765761,0.18810625,0.060945116,0.13241082,0.005013533,2.0,-2.0,-2.0,-2.0,2.0,2.0,2.0,2.0,2.0,-2.0,2.0,2.0,2.0,-2.0,-2.0,-2.0,-2.0,2.0,2.0,2.0,2.0,-2.0,2.0,2.0
2025-07-21 09:50:17.482,3.1400000000000023,3140,157,0.08058246,-0.46711525,0.043707814,-0.056229956,0.48674545,0.045835733,1.5,0.0,0.0,-0.11996506,0.38516414,0.75005525,-0.114789024,-0.3850677,-0.06368512,0.02941131,0.24062403,0.11688865,0.10931242,-0.34094664,0.28244764,0.26273513,-0.03135617,0.04847714,-0.12754849,0.0050264215,0.034362607,0.08576629,0.096358806,0.21063419,0.05381541,-0.051757827,0.31247663,0.013641095,2.0,-2.0,-2.0,-2.0,-2.0,2.0,2.0,2.0,2.0,-2.0,2.0,2.0,2.0,-2.0,-2.0,-2.0,-2.0,-2.0,2.0,2.0,2.0,-2.0,-2.0,2.0
2025-07-21 09:50:17.506,3.1600000000000024,3160,158,-0.15745781,-0.18174687,-0.13850024,-0.07437038,0.47298622,-0.025284665,1.5,0.0,0.0,-0.12790586,0.38517612,0.79087955,-0.14368352,-0.38499883,-0.06863487,0.007650489,0.2626057,0.2504599,0.14103046,-0.33683687,0.29535925,0.28517434,-0.03869,0.054230314,-0.08806724,-0.025488239,-0.03650875,-0.18531977,0.067218736,0.26995987,0.117991544,-0.002745331,-0.12548515,0.018177953,2.0,-2.0,-2.0,-2.0,-2.0,-2.0,2.0,2.0,2.0,-2.0,-2.0,2.0,2.0,-2.0,-2.0,-2.0,-2.0,-2.0,2.0,-2.0,-2.0,-2.0,2.0,2.0
2025-07-21 09:50:17.522,3.1800000000000024,3180,159,0.096482135,-0.124823846,-0.20266145,-0.12661438,0.46278444,-0.01929284,1.5,0.0,0.0,-0.13189274,0.39772522,0.81394094,-0.15766813,-0.39024585,-0.07955493,-0.051830538,0.28104857,0.30300698,0.08418326,-0.34170577,0.30267376,0.2770474,0.025776358,0.026977787,-0.038653567,0.0338981,-0.117871195,-0.07122409,0.012278453,-0.08520317,-0.23640059,0.06800565,0.111979224,-0.0049295262,2.0,-2.0,-2.0,-2.0,-2.0,-2.0,2.0,-2.0,-2.0,-2.0,2.0,2.0,2.0,-2.0,2.0,-2.0,-2.0,-2.0,2.0,-2.0,-2.0,-2.0,2.0,2.0
2025-07-21 09:50:17.542,3.2000000000000024,3200,160,0.2919189,0.08103111,-0.21282488,-0.11633183,0.5326984,0.047211405,1.5,0.0,0.0,-0.13167962,0.4006551,0.8250905,-0.09605059,-0.39135632,-0.10821367,-0.08357579,0.28993762,0.24680378,0.012635179,-0.334673,0.38844115,0.28511953,0.026372401,0.0032794192,0.2601737,0.026579298,-0.06011307,-0.12290518,0.09018616,-0.2772697,-0.08841368,-0.02017867,0.27104205,0.011357853,2.0,-2.0,2.0,-2.0,-2.0,-2.0,2.0,-2.0,-2.0,-2.0,2.0,2.0,2.0,-2.0,-2.0,-2.0,-2.0,2.0,2.0,2.0,2.0,-2.0,-2.0,2.0
2025-07-21 09:50:17.562,3.2200000000000024,3220,161,-0.017119609,0.023582514,-0.41040388,-0.14163263,0.453811,-0.032613963,1.5,0.0,0.0,-0.1267205,0.38814867,0.8396958,-0.109810255,-0.39599866,-0.19137728,-0.045423973,0.29585373,0.1949684,0.039060973,-0.33547372,0.39740464,0.29753175,-0.0052690846,0.01596087,-0.06501681,-0.038410123,-0.18680535,0.09852776,0.0855699,0.031571206,0.053919505,0.03995215,-0.036801327,0.04723189,2.0,-2.0,-2.0,-2.0,-2.0,2.0,2.0,2.0,2.0,-2.0,-2.0,2.0,2.0,-2.0,-2.0,-2.0,2.0,2.0,2.0,2.0,2.0,-2.0,2.0,2.0
2025-07-21 09:50:17.582,3.2400000000000024,3240,162,0.15277544,-0.13078004,-0.117332086,-0.12855469,0.48937327,-0.025450815,1.5,0.0,0.0,-0.12122145,0.39842206,0.8679176,-0.13804422,-0.3994333,-0.21161993,0.006661649,0.30967355,0.27089924,0.08256231,-0.3405627,0.42254463,0.29662994,0.05908352,0.014772169,-0.028261006,-0.07730099,-0.003048003,0.19007067,0.03305453,0.2995218,0.066690385,-0.03788994,0.22556554,0.05093956,2.0,-2.0,-2.0,-2.0,2.0,2.0,2.0,2.0,2.0,-2.0,2.0,2.0,2.0,-2.0,-2.0,-2.0,-1.370091,2.0,-2.0,-2.0,2.0,-2.0,2.0,-2.0
2025-07-21 09:50:17.604,3.2600000000000025,3260,163,-0.11287307,0.009557108,-0.12260555,-0.12786265,0.46702784,0.03203123,1.5,0.0,0.0,-0.11877688,0.3767624,0.89081466,-0.15532045,-0.39881217,-0.22016752,0.056535278,0.25225523,0.28724578,0.13246988,-0.33574972,0.5050673,0.20679101,0.0017813403,0.09435475,-0.0038245344,-0.068854414,-0.16703199,0.18692417,-0.18989657,-0.056039304,0.07195062,-0.060069013,0.10680219,-0.25328988,2.0,-2.0,-2.0,-2.0,-1.370091,2.0,-2.0,-2.0,2.0,-2.0,2.0,-2.0,2.0,-2.0,-2.0,-2.0,2.0,2.0,-2.0,2.0,2.0,-2.0,2.0,-2.0
2025-07-21 09:50:17.622,3.2800000000000025,3280,164,0.03389958,-0.011583586,-0.09981672,-0.19752441,0.47264174,-0.021036025,1.5,0.0,0.0,-0.11763235,0.3667186,0.9006437,-0.18627772,-0.3963907,-0.21241355,0.10844634,0.14745206,0.3425125,0.15084712,-0.34468684,0.5549842,0.10889483,0.020055857,0.01700545,-0.00984791,0.035146087,0.11746445,0.07035213,-0.2466024,0.2706202,0.13366732,-0.0071282433,0.15843327,-0.2401284,2.0,-2.0,-2.0,-2.0,2.0,2.0,-2.0,2.0,2.0,-2.0,2.0,-2.0,2.0,-2.0,-2.0,-2.0,2.0,2.0,-2.0,-2.0,2.0,-2.0,-2.0,-2.0
2025-07-21 09:50:17.642,3.3000000000000025,3300,165,-0.1565298,0.24900354,0.032028455,-0.1693908,0.46462363,0.0060355864,1.5,0.0,0.0,-0.11584835,0.35742953,0.8946746,-0.19806547,-0.3905653,-0.118064746,0.12808391,0.07200413,0.33560047,0.18854877,-0.3516164,0.5547474,0.049185686,-0.04126782,-0.06657934,-0.048189756,0.014980753,0.3023329,0.0356527,-0.14993104,-0.1574152,-0.007270862,0.05538389,-0.10329777,-0.12596996,2.0,-2.0,-2.0,-2.0,2.0,2.0,-2.0,-2.0,2.0,-2.0,-2.0,-2.0,2.0,-2.0,-2.0,-2.0,2.0,2.0,-2.0,2.0,2.0,-2.0,-2.0,-2.0
2025-07-21 09:50:17.665,3.3200000000000025,3320,166,-0.12330466,0.18831633,-0.033754706,-0.16707256,0.49094918,0.02857182,1.5,0.0,0.0,-0.11405102,0.35780004,0.9001947,-0.22236052,-0.38728473,0.012196752,0.16431159,0.005260828,0.35542157,0.2100264,-0.33648297,0.4441454,-0.024944037,0.054789413,-0.053323884,0.024656733,-0.008835741,0.37001398,0.0071466337,-0.11051455,0.2022619,-0.02547686,0.011442171,-0.3119063,-0.1193219,2.0,-2.0,-2.0,-2.0,2.0,2.0,-2.0,2.0,2.0,-2.0,-2.0,-2.0,2.0,-2.0,-2.0,-2.0,2.0,2.0,-2.0,2.0,2.0,-2.0,-2.0,-2.0
2025-07-21 09:50:17.682,3.3400000000000025,3340,167,0.16220327,0.044958472,-0.056518044,-0.17912495,0.557065,0.03747024,1.5,0.0,0.0,-0.11210186,0.36333805,0.90500236,-0.23339182,-0.36215216,0.15308517,0.18981136,-0.06963697,0.4314267,0.21958487,-0.34767878,0.30047086,-0.05794179,-0.031714246,0.025433859,-0.09119536,0.018791294,0.37142518,0.021380316,-0.1745614,0.2436294,0.120100245,-0.0016385465,-0.4295758,-0.0842255,2.0,-2.0,-2.0,-2.0,2.0,2.0,-2.0,2.0,2.0,-2.0,-2.0,-2.0,2.0,-2.0,-2.0,-2.0,0.29572484,-2.0,-2.0,2.0,2.0,-2.0,2.0,2.0
2025-07-21 09:50:17.702,3.3600000000000025,3360,168,0.23098989,0.022117626,0.012994809,-0.16365737,0.5189255,0.021664066,1.5,0.0,0.0,-0.10959617,0.35725322,0.9083068,-0.241657,-0.35879967,0.23684508,0.11798619,-0.10637956,0.49472263,0.23450838,-0.35093433,0.21111614,-0.017087648,-0.014730703,0.098114885,-0.014772658,-0.014233142,0.0066619185,-0.14107881,-0.05616545,0.13655299,0.08975607,0.046498142,-0.10199946,0.21090166,2.0,-2.0,-2.0,-2.0,0.29572484,-2.0,-2.0,2.0,2.0,-2.0,2.0,2.0,2.0,-2.0,-2.0,-2.0,-0.28823045,-2.0,-2.0,-2.0,2.0,-2.0,2.0,2.0
2025-07-21 09:50:17.727,3.3800000000000026,3380,169,0.30830383,0.07070488,0.11608188,-0.14075579,0.4420563,0.024188248,1.5,0.0,0.0,-0.10778324,0.35208744,0.91307515,-0.25500318,-0.3686298,0.19414817,0.054432273,-0.144039,0.5156758,0.2525472,-0.3348845,0.23498835,0.03634475,0.043788135,0.08774202,0.041193265,0.06547352,-0.18252943,-0.17529403,-0.036456566,-0.056393813,0.07590851,-0.06516998,0.19191839,0.13775977,2.0,-2.0,-2.0,-2.0,-0.28823045,-2.0,-2.0,-2.0,2.0,-2.0,2.0,2.0,2.0,-2.0,-2.0,-2.0,2.0,-2.0,-2.0,-2.0,2.0,-2.0,-2.0,2.0
2025-07-21 09:50:17.743,3.4000000000000026,3400,170,0.40907866,0.11779254,0.19093959,-0.11042375,0.46562716,0.0075662252,1.5,0.0,0.0,-0.10560497,0.35689202,0.9165632,-0.26557848,-0.35298795,0.20061226,-0.004822274,-0.18164092,0.40679064,0.26182997,-0.34763098,0.25107265,0.08162415,0.01230077,0.055969454,-0.029401975,0.07149819,0.054264896,-0.074499734,-0.08639245,-0.2788374,-0.031557735,-0.012520664,-0.1580008,0.09232459,2.0,-2.0,-2.0,-2.0,2.0,-2.0,-2.0,-2.0,2.0,-2.0,-2.0,2.0,2.0,-2.0,-2.0,-2.0,2.0,-2.0,-2.0,2.0,2.0,-2.0,-2.0,2.0
2025-07-21 09:50:17.763,3.4200000000000026,3420,171,0.47792333,0.05318138,0.2416297,-0.113731734,0.3998224,0.0289417,1.5,0.0,0.0,-0.102761395,0.34473848,0.9305507,-0.25342977,-0.35560432,0.27211204,-0.059414223,-0.2149567,0.36338294,0.2680665,-0.35713622,0.16727385,0.12602518,0.03713703,-0.06789883,-0.0038310315,-0.013977271,0.31261513,-0.10830905,-0.006720464,-0.0321837,-0.010166123,-0.058899194,-0.32836694,0.05253642,2.0,-2.0,-2.0,-2.0,2.0,-2.0,-2.0,2.0,2.0,-2.0,-2.0,2.0,2.0,2.0,-2.0,-2.0,-2.0,-2.0,-2.0,2.0,2.0,-2.0,-2.0,2.0
2025-07-21 09:50:17.783,3.4400000000000026,3440,172,0.39191517,-0.069113,0.10136869,-0.0883323,0.40048417,-0.0010922949,1.5,0.0,0.0,-0.101058714,0.3437657,0.9251889,-0.27158257,-0.36662897,0.33038282,-0.100040056,-0.23673405,0.4197065,0.27331254,-0.3516798,0.036794364,0.1638416,-0.039331533,-0.035284918,-0.08054234,-0.010240111,0.08093279,-0.14003433,-0.103035636,0.23168711,-0.020942474,-0.05266069,-0.3948686,0.13463777,2.0,2.0,-2.0,-2.0,-2.0,-2.0,-2.0,2.0,2.0,-2.0,-2.0,2.0,2.0,2.0,-2.0,-2.0,-2.0,-2.0,2.0,-2.0,-2.0,-2.0,2.0,2.0
2025-07-21 09:50:17.803,3.4600000000000026,3460,173,0.21562503,-0.010513932,0.22463855,-0.0629121,0.3570305,0.0028222487,1.5,0.0,0.0,-0.100223966,0.3732263,0.922592,-0.28037402,-0.36702496,0.3437251,-0.12810627,-0.21272568,0.48130965,0.20264015,-0.3435241,-0.040344812,0.18354037,-0.040232994,0.049952794,-0.08763264,0.043107957,0.07815421,-0.019334845,0.19278982,0.07172815,-0.21326064,0.04498237,-0.047300942,-0.008796097,2.0,2.0,-2.0,-2.0,-2.0,-2.0,2.0,-2.0,-2.0,-2.0,2.0,2.0,2.0,2.0,-2.0,-2.0,-2.0,-2.0,2.0,-2.0,-2.0,-2.0,-2.0,2.0
2025-07-21 09:50:17.826,3.4800000000000026,3480,174,-0.06346623,0.0076708267,0.2979209,-0.028434481,0.33886695,-0.04760437,1.5,0.0,0.0,-0.101812445,0.37014097,0.91799575,-0.2769054,-0.37460703,0.34020126,-0.1548288,-0.12793332,0.50253856,0.12123301,-0.3421583,-0.12310678,0.20863622,-0.047300484,0.0002719103,0.047927,-0.066096395,-0.04225321,-0.09810819,0.23246244,-0.0329168,-0.22195753,-0.0071350234,-0.21530409,0.06312897,2.0,2.0,-2.0,-2.0,-2.0,-2.0,2.0,-2.0,-2.0,-2.0,-2.0,2.0,2.0,2.0,-2.0,-2.0,-2.0,-2.0,2.0,-2.0,-2.0,-2.0,-0.98385537,2.0
2025-07-21 09:50:17.843,3.5000000000000027,3500,175,-0.10780881,0.08608392,0.2835244,-0.05470488,0.31947237,0.022607893,1.5,0.0,0.0,-0.105538994,0.37820074,0.9119051,-0.2847768,-0.37595257,0.3095809,-0.18439442,-0.058335196,0.47300836,0.043913234,-0.3272456,-0.17549483,0.23425849,0.070877865,-0.007667471,-0.08040598,-0.07479398,-0.039100483,-0.027723478,0.23233728,-0.12559652,-0.14944588,0.06758799,-0.16224481,0.026020179,2.0,2.0,-2.0,-2.0,-2.0,-2.0,2.0,-2.0,-2.0,-2.0,-0.98385537,2.0,2.0,2.0,-2.0,-2.0,-2.0,-2.0,2.0,-2.0,-2.0,-2.0,0.81354606,2.0
2025-07-21 09:50:17.863,3.5200000000000027,3520,176,-0.093988165,0.04732661,0.26896748,-0.08728089,0.38378578,-0.008360133,1.5,0.0,0.0,-0.110494345,0.37925267,0.8909314,-0.30640396,-0.3784073,0.28466797,-0.20029025,0.0004363129,0.43392578,-0.013205487,-0.3290688,-0.17467579,0.24430202,-0.045442015,-0.003486014,-0.055117197,0.03598502,-0.038817484,-0.020063631,0.16717918,-0.09330163,-0.12004849,0.0014494002,0.15438952,0.10309984,2.0,2.0,-2.0,-2.0,-2.0,-2.0,2.0,-2.0,-2.0,-2.0,0.81354606,2.0,2.0,2.0,0.4548322,-2.0,-2.0,-2.0,2.0,-2.0,-2.0,-2.0,-2.0,2.0
2025-07-21 09:50:17.883,3.5400000000000027,3540,177,-0.1717269,0.16869122,0.13763449,-0.04000797,0.36471224,-0.043331336,1.5,0.0,0.0,-0.11497708,0.3806096,0.8913601,-0.25650263,-0.37789187,0.23663333,-0.21854743,0.055729445,0.38120875,-0.04856417,-0.33543888,-0.1739946,0.260684,0.009882797,-0.011406141,0.1651506,-0.0687051,-0.12065141,-0.005947464,0.07738655,-0.1872566,-0.08438134,-0.07726583,-0.21769132,0.021473465,2.0,2.0,0.4548322,-2.0,-2.0,-2.0,2.0,-2.0,-2.0,-2.0,-2.0,2.0,2.0,2.0,2.0,-2.0,-2.0,-2.0,2.0,-2.0,-2.0,-2.0,2.0,2.0
2025-07-21 09:50:17.903,3.5600000000000027,3560,178,-0.19313812,0.15004027,0.13631722,-0.001408019,0.42741716,0.0071199057,1.5,0.0,0.0,-0.11694549,0.37658146,0.8887607,-0.16597082,-0.3815621,0.19702771,-0.22844751,0.102139175,0.27997386,-0.10174314,-0.3445985,-0.18232003,0.26543924,-0.06482588,-0.06472052,0.19994326,0.04466898,-0.08191958,-0.01069031,0.040416352,-0.28538984,-0.14033766,0.030116212,0.04246989,0.0027479413,2.0,2.0,2.0,-2.0,-2.0,-2.0,2.0,-2.0,-2.0,-2.0,2.0,2.0,2.0,2.0,2.0,-2.0,-2.0,-2.0,2.0,-2.0,-2.0,-2.0,2.0,2.0
2025-07-21 09:50:17.923,3.5800000000000027,3580,179,-0.33090392,0.1481514,0.13312525,-0.00733323,0.4452051,-0.038079843,1.5,0.0,0.0,-0.11778424,0.3848253,0.879116,-0.078685135,-0.39528608,0.15202308,-0.24651694,0.14545517,0.20395938,-0.1351483,-0.33390427,-0.10355437,0.27286497,0.04460532,0.05006056,0.19964981,-0.073538214,-0.1545202,-0.004698935,0.17073566,-0.24595802,-0.002899274,0.07543601,0.29187715,-0.037840303,2.0,2.0,2.0,-2.0,-2.0,-2.0,2.0,-2.0,-2.0,-2.0,2.0,2.0,2.0,-1.1654513,2.0,-2.0,-2.0,-2.0,2.0,-2.0,-2.0,-2.0,-2.0,2.0
2025-07-21 09:50:17.943,3.6000000000000028,3600,180,-0.38879636,0.124745995,-0.008097001,0.00016868938,0.3821504,-0.044249013,1.5,0.0,0.0,-0.1207286,0.36950824,0.81639075,-0.0072837328,-0.3787328,0.10709503,-0.25462636,0.17861098,0.095946,-0.15376446,-0.3284465,-0.08189866,0.29021382,0.06798985,-0.18819742,0.18254368,0.023967598,-0.18435824,-0.019895937,0.09436938,-0.23543134,-0.10844017,0.05433848,-0.12888461,-0.003155548,2.0,-1.1654513,2.0,-2.0,-2.0,-2.0,2.0,-2.0,-2.0,-2.0,-2.0,2.0,2.0,2.0,0.9455296,-2.0,-2.0,-2.0,2.0,2.0,-2.0,-2.0,2.0,2.0
2025-07-21 09:50:17.963,3.6200000000000028,3620,181,-0.46236464,-0.14005837,-0.22984248,-0.027664993,0.40814638,0.018392062,1.5,0.0,0.0,-0.123548,0.3672372,0.79764307,0.013570273,-0.38017902,0.02636562,-0.26501235,0.21282375,0.079414584,-0.19156384,-0.33206728,-0.040918663,0.28270668,0.040358886,0.035026386,0.10863682,0.035921767,-0.12225329,-0.05539689,0.060678784,0.09384268,-0.039465502,0.010762854,0.19721788,-0.020499224,2.0,2.0,0.9455296,-2.0,-2.0,-2.0,2.0,2.0,-2.0,-2.0,2.0,2.0,2.0,-2.0,2.0,-2.0,-2.0,-2.0,2.0,-2.0,-2.0,-2.0,2.0,2.0
2025-07-21 09:50:17.983,3.640000000000003,3640,182,-0.42638898,-0.12458375,-0.18931311,-0.025837371,0.5072204,0.030963717,0.0,0.0,0.0,-0.12640417,0.36593804,0.7433778,0.07074764,-0.38782203,-0.055005994,-0.27773663,0.24292773,0.047300182,-0.21599087,-0.33813477,0.05264836,0.29188144,0.0580158,-0.18434365,0.18254557,-0.041266773,-0.15001453,0.011642547,-0.015749784,-0.23562981,-0.07147893,0.033601932,0.2910919,0.05697751,2.0,-2.0,2.0,-2.0,-2.0,-2.0,2.0,-2.0,-2.0,-2.0,2.0,2.0,2.0,-2.0,-2.0,-2.0,-2.0,-2.0,2.0,2.0,-2.0,-2.0,2.0,2.0
2025-07-21 09:50:18.004,3.660000000000003,3660,183,-0.19090149,-0.051491916,-0.09300767,-0.12420041,0.5360897,0.005678497,0.0,0.0,0.0,-0.12981279,0.37579823,0.73205847,0.034232076,-0.38442135,-0.14229582,-0.26945665,0.25576207,0.04039567,-0.22415218,-0.33015397,0.175379,0.29589918,0.08163536,-0.012730722,-0.16395487,0.075347506,-0.2565602,-0.07549063,0.038123798,0.102174625,-0.0068470193,-0.058741774,0.27309328,0.07371656,2.0,-2.0,-2.0,-2.0,-2.0,-2.0,2.0,2.0,-2.0,-2.0,2.0,2.0,-2.0,-2.0,2.0,-2.0,-2.0,-2.0,2.0,2.0,2.0,-2.0,-2.0,2.0
