openverse-orca/OrcaGym/log/simulation_log_20250721_162604.csv
timestamp,sim_time,physics_step,control_step,imu_angle_roll,imu_angle_pitch,imu_angle_yaw,imu_angular_velocity_roll,imu_angular_velocity_pitch,imu_angular_velocity_yaw,imu_acc_x,imu_acc_y,imu_acc_z,fl_joint1_pos,fl_joint1_vel,fl_joint1_torque,fl_joint2_pos,fl_joint2_vel,fl_joint2_torque,fl_joint3_pos,fl_joint3_vel,fl_joint3_torque,fr_joint1_pos,fr_joint1_vel,fr_joint1_torque,fr_joint2_pos,fr_joint2_vel,fr_joint2_torque,fr_joint3_pos,fr_joint3_vel,fr_joint3_torque,hl_joint1_pos,hl_joint1_vel,hl_joint1_torque,hl_joint2_pos,hl_joint2_vel,hl_joint2_torque,hl_joint3_pos,hl_joint3_vel,hl_joint3_torque,hr_joint1_pos,hr_joint1_vel,hr_joint1_torque,hr_joint2_pos,hr_joint2_vel,hr_joint2_torque,hr_joint3_pos,hr_joint3_vel,hr_joint3_torque,fl_force_x,fl_force_y,fl_force_z,fr_force_x,fr_force_y,fr_force_z,hl_force_x,hl_force_y,hl_force_z,hr_force_x,hr_force_y,hr_force_z,fl_hip_action,fl_thigh_action,fl_calf_action,fr_hip_action,fr_thigh_action,fr_calf_action,hl_hip_action,hl_thigh_action,hl_calf_action,hr_hip_action,hr_thigh_action,hr_calf_action
2025-07-21 16:26:04.159,0.0,0,0,0.07314843,-0.19000246,-0.16057746,-0.049173974,0.048943106,-0.010367042,0.048465382,-0.017132204,0.011514553,2.3985465,0.37706023,0.0,0.0,0.85329676,0.0,0.0,-0.0058671953,-0.0064964495,-0.008166374,-0.004628412,0.0027322492,0.005073029,-0.0004110444,0.007853237,-0.007456886,0.006974144,0.004818641,0.002035572,-0.056882106,-0.029784769,0.018762577,0.036521554,-0.047839526,-0.03713657,-0.03825511,-0.05607881,0.0014244748,-0.046183817,0.06753314,-0.0381769,0.0,0.0,0.0,0.0,0.0,0.0,0.0,0.0,0.0,0.0,0.0,0.0,1.0,1.0,-1.0,1.0,0.27351883,1.0,-1.0,-1.0,1.0,1.0,-0.5643083,1.0
2025-07-21 16:26:04.170,0.02,20,1,0.05276867,0.25345385,0.45745638,0.43259692,0.5788587,-0.0003503252,0.053496134,-0.05760704,0.019126236,0.0,0.0,0.0,0.0,0.5,0.0,0.0,0.06206726,0.050004467,-0.082468525,0.060274895,-0.01758995,0.05080488,0.0028248865,-0.028769005,0.079895854,0.062765785,-0.050730284,0.08331111,0.27952623,0.2799034,-0.12227558,0.114874475,0.02997267,0.10561468,0.03578206,-0.11152214,0.1461719,0.19128296,-0.07417621,0.19761322,1.0,1.0,-1.0,1.0,0.27351883,1.0,-1.0,-1.0,1.0,1.0,-0.5643083,1.0,1.0,-1.0,-1.0,1.0,1.0,1.0,-1.0,-1.0,1.0,-0.71938837,1.0,-1.0
2025-07-21 16:26:04.195,0.04,40,2,0.01118957,-0.07915927,0.48459843,0.00590829,-0.048083898,0.07297635,-0.00095124496,-0.06287771,-0.022271477,0.0,0.0,0.0,-0.00041129615,0.5,0.0,0.0,0.13329028,0.07765504,-0.13122079,0.09107383,0.0011918279,0.11186118,0.0122416075,-0.08290158,0.1436192,0.058744583,-0.016649202,0.011627878,0.104743116,-0.108064435,-0.09926935,0.06717711,0.08679339,0.18312015,-0.037133873,-0.037317704,0.09897846,-0.18128294,0.097004004,-0.1920644,1.0,-1.0,-1.0,1.0,1.0,1.0,-1.0,-1.0,1.0,-0.71938837,1.0,-1.0,1.0,0.44715324,-0.92342985,1.0,-1.0,1.0,-1.0,0.45353964,1.0,1.0,-0.5356154,-1.0
2025-07-21 16:26:04.212,0.06,60,3,0.31239632,0.16893041,0.6482084,0.34508428,0.37566265,-0.23650791,0.004103638,-0.06700992,-0.037970454,0.0,0.0,0.0,-0.00086139387,0.5,0.0,0.0,0.19673927,0.091149695,-0.19965228,0.13505223,-0.007342165,0.15488692,0.0048861355,-0.07593327,0.18815543,0.069850124,-0.03172352,-0.073025405,0.16082549,0.20502856,-0.05805259,0.16797182,-0.030586738,0.21492009,-0.101268485,0.09065114,0.06178458,0.20108017,-0.17359959,-0.15373711,1.0,0.44715324,-0.92342985,1.0,-1.0,1.0,-1.0,0.45353964,1.0,1.0,-0.5356154,-1.0,-0.30490378,-1.0,-1.0,0.7434738,-1.0,1.0,1.0,-1.0,1.0,-1.0,1.0,-1.0
2025-07-21 16:26:04.230,0.08,80,4,0.095331065,0.15376048,0.6073351,0.40685862,0.28543574,-0.018126601,0.07707088,-0.11452656,0.009541057,0.0,0.0,0.0,0.001467364,0.5,0.0,0.0,0.19136041,0.09695889,-0.24534725,0.17105864,-0.05875678,0.21769133,0.023638673,-0.11517545,0.22616686,0.07544628,-0.0348115,-0.14917015,-0.16285224,-0.113742605,-0.109667934,0.06583228,-0.033868562,0.048792675,0.14907268,-0.083229825,0.074631095,-0.05044459,0.077395715,-0.15006943,-0.30490378,-1.0,-1.0,0.7434738,-1.0,1.0,1.0,-1.0,1.0,-1.0,1.0,-1.0,1.0,-1.0,1.0,-0.9956824,1.0,1.0,-1.0,0.93389463,1.0,-0.07389937,1.0,1.0
2025-07-21 16:26:04.250,0.1,100,5,0.21401213,0.17640422,0.39200047,-0.02435926,-0.2580556,-0.035731353,0.014381379,-0.13317102,0.011559833,0.0,0.0,0.0,0.004378841,0.5,0.0,0.0,0.18280305,-0.018453712,-0.14781654,0.13306168,-0.047516335,0.2508674,0.015805317,-0.106329806,0.25827,0.059890132,0.03945237,-0.08040779,0.12988205,-0.35404712,0.25065485,-0.22490142,0.050503887,0.09463561,-0.15428557,0.049777117,0.043603342,-0.12068251,0.22569269,0.22570474,1.0,-1.0,1.0,-0.9956824,1.0,1.0,-1.0,0.93389463,1.0,-0.07389937,1.0,1.0,-1.0,1.0,1.0,0.76440495,-0.30711213,-1.0,1.0,-0.80697215,-0.78064466,0.5141727,-1.0,1.0
2025-07-21 16:26:04.270,0.12000000000000001,120,6,0.16313761,0.23229179,0.22545783,0.5268592,0.3097453,0.025947018,0.045019206,-0.18009005,-0.0020820599,0.0,0.0,0.0,0.0055435915,0.5,0.0,0.0,0.19273093,-0.07773636,-0.044936407,0.14102004,-0.04704863,0.16472,0.061671376,-0.08998295,0.17849098,0.08006015,0.082560405,0.027709294,-0.16186598,0.053765647,0.16932686,0.06236259,0.005098804,-0.35029227,0.12611838,0.0014171323,-0.24024983,0.15612157,-0.091245845,0.18117364,-1.0,1.0,1.0,0.76440495,-0.30711213,-1.0,1.0,-0.80697215,-0.78064466,0.5141727,-1.0,1.0,-1.0,-1.0,1.0,-1.0,1.0,-1.0,1.0,1.0,0.014345884,1.0,-1.0,1.0
2025-07-21 16:26:04.294,0.14,140,7,-0.016162354,0.19163042,0.19881578,0.07644414,-0.4418225,0.078782715,0.016044138,-0.16044131,0.018729618,0.0,0.0,0.0,0.0062480946,0.5,0.0,0.0,0.0991797,-0.11081066,0.0342357,0.10702,0.003387737,0.057856407,0.12214579,-0.07733417,0.15340382,0.15115996,-0.0005877355,0.103611976,-0.2518765,-0.13074796,0.21578516,-0.29402953,0.20595823,-0.23261365,0.09874627,0.12060196,-0.0631132,0.21741259,-0.21769455,0.11064873,-1.0,-1.0,1.0,-1.0,1.0,-1.0,1.0,1.0,0.014345884,1.0,-1.0,1.0,-1.0,1.0,1.0,-1.0,-0.05015456,-1.0,1.0,0.9510869,-1.0,1.0,-0.40405807,1.0
2025-07-21 16:26:04.311,0.16,160,8,0.3767089,0.26722577,0.16650738,-0.5758345,-0.7255439,-0.034249485,-0.041858643,-0.15291497,0.024691034,0.0,0.0,0.0,0.0054312525,0.5,0.0,0.0,0.019626766,-0.13821469,0.0927571,-0.0019042571,0.016188527,-0.02687273,0.18936099,0.039151408,0.05509405,0.20173398,-0.076684535,0.15765351,-0.14112335,-0.017571649,0.08681683,-0.1978313,0.037275672,-0.22961996,0.07563729,0.41682604,-0.2046049,0.08744064,-0.14126265,0.15884644,-1.0,1.0,1.0,-1.0,-0.05015456,-1.0,1.0,0.9510869,-1.0,1.0,-0.40405807,1.0,1.0,-1.0,1.0,-1.0,-1.0,-1.0,1.0,-1.0,-1.0,1.0,1.0,1.0
2025-07-21 16:26:04.331,0.18,180,9,0.1803556,-0.1298952,-0.2798705,-0.39484096,-0.44714716,-0.021110624,-0.08037584,-0.10474311,0.009011399,0.0,0.0,0.0,0.0044706804,0.5,0.0,0.0,0.0064244433,-0.1808993,0.15608571,-0.087825425,-0.045327406,-0.103231825,0.2456006,0.099149354,-0.034020215,0.26040637,-0.10412551,0.21054636,0.08227922,-0.15119736,0.10854595,-0.2665534,-0.29496202,-0.18528596,0.17876005,-0.011483322,-0.19912006,0.19482964,0.07869256,0.13229892,1.0,-1.0,1.0,-1.0,-1.0,-1.0,1.0,-1.0,-1.0,1.0,1.0,1.0,-1.0,1.0,1.0,1.0,1.0,1.0,1.0,-1.0,-1.0,1.0,-1.0,1.0
2025-07-21 16:26:04.351,0.19999999999999998,200,10,0.25360754,-0.105283715,0.12584305,-0.39164814,-0.17046686,0.11373959,-0.0023050446,-0.0021634924,-0.031339563,0.0,0.0,0.0,0.0046313913,0.5,0.0,0.0,-0.023956828,-0.20010735,0.21526547,-0.08580041,-0.08174461,-0.04897968,0.3077155,0.052803867,-0.10361838,0.29276204,-0.09588201,0.25835547,-0.03604743,-0.046947572,0.06797216,0.19810298,0.034231585,0.17107713,0.08021852,-0.1915179,-0.20556779,0.05248503,-0.059145797,0.1208481,-1.0,1.0,1.0,1.0,1.0,1.0,1.0,-1.0,-1.0,1.0,-1.0,1.0,-1.0,1.0,1.0,1.0,-1.0,1.0,0.36014083,0.13270023,1.0,1.0,-1.0,1.0
2025-07-21 16:26:04.371,0.21999999999999997,220,11,0.3190452,-0.047570117,0.23906973,-0.27936167,-0.18601197,-0.029161803,0.003243658,-0.028031012,-0.029907826,0.0,0.0,0.0,0.0038651591,0.5,0.0,0.0,-0.05611768,-0.17292276,0.23914278,0.020635856,-0.12936516,0.04941934,0.29698893,0.008090333,-0.053911015,0.31823552,-0.111720614,0.29588223,-0.15766896,0.111948736,0.0016713887,0.21227781,-0.25609827,0.166457,-0.12731625,0.08515477,0.3064524,0.0059473244,-0.109254636,0.032176655,-1.0,1.0,1.0,1.0,-1.0,1.0,0.36014083,0.13270023,1.0,1.0,-1.0,1.0,1.0,1.0,-1.0,1.0,0.26073846,1.0,-1.0,-1.0,1.0,-1.0,1.0,-1.0
2025-07-21 16:26:04.395,0.23999999999999996,240,12,0.31256604,-0.29210424,-0.017816618,-0.22664395,0.14939223,-0.14135951,-0.080316626,0.06902814,-0.0019262789,0.0,0.0,0.0,0.0034060145,0.5,0.0,0.0,-0.04803946,-0.11080847,0.14846398,0.078550085,-0.16230369,0.111585505,0.22400051,-0.029653694,0.03861565,0.288976,-0.06972725,0.19891964,0.26661065,0.35547268,-0.23480016,0.18513934,0.089889854,0.17677228,-0.28999478,-0.16230054,0.24694416,-0.14331663,0.19098738,-0.366577,1.0,1.0,-1.0,1.0,0.26073846,1.0,-1.0,-1.0,1.0,-1.0,1.0,-1.0,1.0,1.0,-1.0,-0.3185902,-1.0,1.0,-1.0,-1.0,1.0,-1.0,-0.22979684,-1.0
2025-07-21 16:26:04.411,0.25999999999999995,260,13,0.21812063,0.04419699,-0.23076846,-0.1664867,-0.4591334,-0.1183178,0.0069501447,-0.0029804704,-0.027690945,0.0,0.0,0.0,0.0051087625,0.5,0.0,0.0,0.054425996,0.036102336,0.029075414,0.087122634,-0.18022269,0.17320509,0.09390392,-0.13035779,0.12754327,0.21226157,-0.018237548,0.089292824,0.16229321,0.43121237,-0.24134997,-0.15472904,-0.15578613,0.12146197,-0.33028123,-0.41370252,0.21338224,-0.33173412,0.024859058,-0.24774966,1.0,1.0,-1.0,-0.3185902,-1.0,1.0,-1.0,-1.0,1.0,-1.0,-0.22979684,-1.0,1.0,-1.0,-1.0,1.0,1.0,1.0,-1.0,0.97223485,1.0,-1.0,1.0,-1.0
2025-07-21 16:26:04.431,0.27999999999999997,280,14,0.18169032,0.18349545,-0.1588909,-0.39630765,0.36006787,-0.19740006,-0.05750287,0.11621012,-0.038171124,0.0,0.0,0.0,0.008914174,0.5,0.0,0.0,0.13478588,0.1063946,-0.052822575,0.08913101,-0.16969356,0.2173635,-0.01734533,-0.17714255,0.1685897,0.08118875,0.043099474,-0.015839804,0.23602937,-0.015977722,-0.2519243,0.09516013,0.07487731,0.049938954,-0.22573544,0.0030593567,0.19791509,-0.31343067,0.29364994,-0.19141674,1.0,-1.0,-1.0,1.0,1.0,1.0,-1.0,0.97223485,1.0,-1.0,1.0,-1.0,-0.3330659,-1.0,0.29967165,0.6325178,1.0,1.0,-1.0,-1.0,1.0,-1.0,-1.0,-1.0
2025-07-21 16:26:04.451,0.3,300,15,0.1661763,-0.091043785,0.18991108,-0.38320044,0.13105366,-0.077140875,-0.009310909,0.079489194,-0.0068713576,0.0,0.0,0.0,0.013334743,0.5,0.0,0.0,0.13283989,0.047404245,-0.022258867,0.10377992,-0.11747707,0.24257141,-0.086666316,-0.19367322,0.22604941,-0.016046572,0.06809258,-0.08587865,-0.13780123,-0.23900354,0.094720446,0.08401865,0.16084377,0.080845006,-0.09925866,0.032265358,0.15863003,-0.16240332,-0.076157846,-0.1252094,-0.3330659,-1.0,0.29967165,0.6325178,1.0,1.0,-1.0,-1.0,1.0,-1.0,-1.0,-1.0,-1.0,0.5676191,0.048749685,-1.0,-1.0,1.0,-0.195138,-1.0,1.0,-1.0,-0.8461231,-0.36445454
2025-07-21 16:26:04.471,0.32,320,16,-0.19771166,0.19013071,-0.0042959824,-0.21416155,-0.39592883,0.09577638,0.033570424,0.065777704,-0.034273192,0.0,0.0,0.0,0.017494954,0.5,0.0,0.0,0.021325607,0.030133814,-0.018651959,0.096846856,-0.115276895,0.2873049,-0.08519292,-0.20016669,0.27013952,-0.102670416,-0.02457963,-0.11527979,-0.24461645,0.0537717,-0.02496945,-0.08014527,-0.024697822,0.1012659,0.032388195,-0.08066958,0.04556299,-0.20892088,-0.36371633,-0.09137015,-1.0,0.5676191,0.048749685,-1.0,-1.0,1.0,-0.195138,-1.0,1.0,-1.0,-0.8461231,-0.36445454,1.0,1.0,-1.0,1.0,0.40051922,1.0,-1.0,-1.0,1.0,-1.0,1.0,-1.0
2025-07-21 16:26:04.495,0.34,340,17,0.13276961,-0.1132549,0.29224506,-0.056096427,0.028012821,0.012747642,-0.021027237,0.1087866,0.03275971,0.0,0.0,0.0,0.017980836,0.5,0.0,0.0,0.007001701,0.10043642,-0.094585344,0.08586629,-0.08417363,0.3017049,-0.09627524,-0.23811373,0.29596427,-0.16863957,-0.075903,-0.16337866,0.116885684,0.25352684,-0.15073705,-0.037241034,0.0119215725,0.05097622,0.03423855,-0.05101606,0.004039161,-0.09398709,0.060597923,-0.17938535,1.0,1.0,-1.0,1.0,0.40051922,1.0,-1.0,-1.0,1.0,-1.0,1.0,-1.0,1.0,-1.0,-1.0,1.0,-1.0,1.0,-1.0,1.0,0.23112798,0.48713672,1.0,0.5348731
2025-07-21 16:26:04.511,0.36000000000000004,360,18,0.18549033,0.0068646045,0.15191649,0.12592503,0.36042124,-0.04466643,0.017738275,0.13726328,-0.0019434949,0.0,0.0,0.0,0.0168339,0.5,0.0,0.0,0.08725904,0.124054916,-0.14429879,0.1226847,-0.09936184,0.32167503,-0.090474896,-0.20398322,0.2673331,-0.1411509,-0.029223625,-0.12445045,0.18701062,-0.09463087,-0.079399586,0.089476764,-0.02896537,0.008345121,-0.0139884455,0.15015574,-0.15706506,0.20693962,0.13745756,0.107110366,1.0,-1.0,-1.0,1.0,-1.0,1.0,-1.0,1.0,0.23112798,0.48713672,1.0,0.5348731,0.24165647,-1.0,1.0,1.0,-0.5680997,1.0,0.20154718,-1.0,1.0,-1.0,-1.0,-0.36713412
2025-07-21 16:26:04.531,0.38000000000000006,380,19,-0.36104184,-0.27058214,0.7537442,0.43892273,0.41250506,-0.085890464,0.07152239,0.04430666,0.028218785,0.0,0.0,0.0,0.016896026,0.5,0.0,0.0,0.12530723,0.036953583,-0.075085126,0.17084296,-0.12533998,0.34683096,-0.09129093,-0.2196862,0.29677483,-0.1306582,-0.02482765,-0.12013507,0.063393936,-0.32276016,0.28298885,0.19035575,-0.026321076,0.0026107517,0.015042809,-0.07802329,0.08877845,-0.19693424,-0.13082212,-7.787627e-06,0.24165647,-1.0,1.0,1.0,-0.5680997,1.0,0.20154718,-1.0,1.0,-1.0,-1.0,-0.36713412,-1.0,0.027291056,-0.71651006,-1.0,1.0,0.7317123,-0.8656947,1.0,1.0,1.0,-0.14080967,1.0
2025-07-21 16:26:04.552,0.4000000000000001,400,20,-0.032471545,0.03156506,0.6030524,-0.09005371,-0.36519587,0.00014573876,-0.0053502913,0.08712723,0.02313947,0.0,0.0,0.0,0.018216195,0.5,0.0,0.0,0.024622612,-0.00048940524,-0.106271125,0.15380561,-0.1213945,0.34721956,-0.1033233,-0.23047699,0.30773818,-0.1253836,-0.052701958,-0.02651732,-0.2347995,0.08080079,-0.16193421,-0.10285209,0.044721987,-0.07375767,-0.14147805,-0.021786628,-0.021192435,0.16188604,-0.10759865,0.1879112,-1.0,0.027291056,-0.71651006,-1.0,1.0,0.7317123,-0.8656947,1.0,1.0,1.0,-0.14080967,1.0,-1.0,-1.0,1.0,-0.06911877,0.8636531,-0.569202,-1.0,0.132126,-1.0,1.0,1.0,1.0
2025-07-21 16:26:04.571,0.4200000000000001,420,21,0.22032571,-0.14268054,0.10601686,-0.07646148,-0.22353703,0.058534086,0.00951908,0.11692789,0.0014907343,0.0,0.0,0.0,0.018811805,0.5,0.0,0.0,-0.06511233,-0.062367614,-0.033568002,0.10755243,-0.038814295,0.25696555,-0.171261,-0.15827817,0.211629,-0.051829655,-0.019113699,0.05622948,-0.198276,-0.22815107,0.28381512,-0.12551384,0.2937781,-0.2989915,-0.15733805,0.23109834,-0.38190988,0.22980823,0.21363139,0.22625278,-1.0,-1.0,1.0,-0.06911877,0.8636531,-0.569202,-1.0,0.132126,-1.0,1.0,1.0,1.0,-1.0,0.80602443,1.0,-0.70588416,1.0,-1.0,1.0,1.0,-1.0,1.0,-1.0,1.0
2025-07-21 16:26:04.595,0.4400000000000001,440,22,0.05912866,-0.07427474,-0.4359429,-0.12305071,0.08051117,0.06706911,-0.020943375,0.07704054,-0.01092897,0.0,0.0,0.0,0.018134138,0.5,0.0,0.0,-0.13803123,-0.07098344,0.05697319,0.052378822,0.09410661,0.119456895,-0.15292333,-0.0645383,0.0836799,0.050411176,0.007993615,0.12779611,-0.19415078,0.028036112,0.14759101,-0.14997506,0.37016675,-0.30311742,0.17221051,0.34062117,-0.2903234,0.28687775,-0.022850523,0.23220249,-1.0,0.80602443,1.0,-0.70588416,1.0,-1.0,1.0,1.0,-1.0,1.0,-1.0,1.0,-1.0,-0.8821871,1.0,-1.0,-0.90264297,-1.0,1.0,-0.01845947,-1.0,1.0,-1.0,1.0
2025-07-21 16:26:04.612,0.46000000000000013,460,23,-0.18687798,0.002580907,-0.7882394,0.52329516,0.13955775,0.0049875597,0.004867393,0.033400305,-0.04873603,0.0,0.0,0.0,0.016401803,0.5,0.0,0.0,-0.19371411,-0.103041574,0.12695763,-0.033027377,0.15829436,0.03171878,-0.046880923,-0.020038486,0.00028245937,0.12482034,-0.060586907,0.19158545,-0.10602442,-0.21644492,0.12381837,-0.21540171,-0.010047022,-0.2246347,0.2127541,0.024518719,-0.23911244,0.11761212,-0.1864799,0.1054849,-1.0,-0.8821871,1.0,-1.0,-0.90264297,-1.0,1.0,-0.01845947,-1.0,1.0,-1.0,1.0,-1.0,1.0,1.0,0.056961,-1.0,-1.0,1.0,1.0,-1.0,1.0,-1.0,1.0
2025-07-21 16:26:04.632,0.48000000000000015,480,24,0.087930225,-0.21807976,-0.56639194,0.41499814,0.24972785,-0.03517465,-0.040347196,0.054038245,-0.034340713,0.0,0.0,0.0,0.014584698,0.5,0.0,0.0,-0.240136,-0.13270593,0.16608153,-0.055628598,0.10787011,-0.06734754,0.046742305,0.018728377,-0.08293795,0.17900687,-0.13771816,0.239602,0.018610783,-0.06163246,0.053707287,0.018206531,-0.18176351,-0.1887191,0.23952436,0.25926134,-0.13375545,0.03508751,-0.10830801,0.13912165,-1.0,1.0,1.0,0.056961,-1.0,-1.0,1.0,1.0,-1.0,1.0,-1.0,1.0,-1.0,1.0,1.0,0.5891925,-1.0,1.0,1.0,-1.0,-0.72694063,1.0,-1.0,1.0
2025-07-21 16:26:04.652,0.5000000000000001,500,25,0.06265953,-0.013166867,0.009775718,0.19640875,0.055651933,0.13875799,0.04365673,-0.013330061,-0.008019019,0.0,0.0,0.0,0.0145994425,0.5,0.0,0.0,-0.22952473,-0.15876456,0.20655692,-0.0015547946,-0.012275543,0.009230122,0.12318306,0.03670163,-0.12135546,0.21808186,-0.18836227,0.2750173,-0.06164706,-0.089592755,0.047235675,0.18978885,-0.4436381,0.3000529,0.12386355,-0.034368284,-0.08450606,0.16045353,-0.14160912,0.07079468,-1.0,1.0,1.0,0.5891925,-1.0,1.0,1.0,-1.0,-0.72694063,1.0,-1.0,1.0,-0.096248046,1.0,1.0,0.81412756,0.040386297,1.0,0.81135726,-1.0,0.9349088,1.0,-0.42430744,1.0
2025-07-21 16:26:04.673,0.5200000000000001,520,26,0.0006855983,-0.018173639,0.4083844,0.15614738,0.26762304,0.08294437,-0.017684486,-0.07847039,-0.0005660718,0.0,0.0,0.0,0.013486542,0.5,0.0,0.0,-0.21202525,-0.18427353,0.24163793,0.0781033,-0.086892195,0.089505084,0.17433836,-0.043397557,-0.062299542,0.25829083,-0.21881856,0.3054315,0.12215401,0.026116751,0.035291143,0.1462807,-0.0585354,0.11397495,0.1305439,-0.24039079,0.2611235,0.14031461,-0.11361005,0.13615054,-0.096248046,1.0,1.0,0.81412756,0.040386297,1.0,0.81135726,-1.0,0.9349088,1.0,-0.42430744,1.0,1.0,1.0,-1.0,1.0,1.0,1.0,-1.0,-1.0,1.0,-0.9147891,1.0,-1.0
2025-07-21 16:26:04.697,0.5400000000000001,540,27,0.38939247,-0.025206424,-0.07572033,-0.11975465,0.1475662,-0.1431363,0.0067981626,-0.05831116,0.0317255,0.0,0.0,0.0,0.011905383,0.5,0.0,0.0,-0.15437993,-0.13534717,0.14509222,0.14563803,-0.06399553,0.14477712,0.15482272,-0.18729508,0.046671484,0.2500758,-0.1629223,0.21290538,0.17684494,0.28223068,-0.31311554,0.15477699,0.18588075,0.054367546,-0.20125118,-0.4196566,0.19054571,-0.16520461,0.14407681,-0.26555514,1.0,1.0,-1.0,1.0,1.0,1.0,-1.0,-1.0,1.0,-0.9147891,1.0,-1.0,1.0,0.464193,-1.0,-1.0,-1.0,1.0,-1.0,0.27438274,1.0,-1.0,1.0,-1.0
2025-07-21 16:26:04.712,0.5600000000000002,560,28,0.36711264,-0.08193686,-0.3536711,-0.5882529,-0.20488493,-0.25532427,0.028633494,-0.038995758,0.020260548,0.0,0.0,0.0,0.012454176,0.5,0.0,0.0,-0.06052951,-0.014449834,0.026260275,0.1525959,-0.03757097,0.19012022,0.03904301,-0.23730455,0.11381392,0.13312571,-0.0582267,0.08008177,0.18953902,0.21955629,-0.25452986,-0.12841436,0.039535366,0.17990392,-0.28200683,-0.031358264,0.15839118,-0.26420894,0.35676992,-0.34111425,1.0,0.464193,-1.0,-1.0,-1.0,1.0,-1.0,0.27438274,1.0,-1.0,1.0,-1.0,1.0,-1.0,-1.0,1.0,-1.0,1.0,-1.0,-1.0,1.0,-1.0,0.9780804,-1.0
2025-07-21 16:26:04.732,0.5800000000000002,580,29,-0.086453445,-0.18625857,-0.07922549,-0.12517339,-0.19732542,-0.16790979,0.07827192,0.054707345,0.011871225,0.0,0.0,0.0,0.016561951,0.5,0.0,0.0,0.03969454,0.025384601,-0.056919113,0.13926348,-0.055537608,0.24553302,-0.042550873,-0.28011525,0.17986593,0.04203809,0.095481865,-0.001579873,0.2300144,-0.009954969,-0.14799783,0.024308188,-0.06907994,0.0806536,-0.12892795,-0.13295546,0.20047292,-0.28803217,0.3240153,-0.23613955,1.0,-1.0,-1.0,1.0,-1.0,1.0,-1.0,-1.0,1.0,-1.0,0.9780804,-1.0,1.0,-1.0,-1.0,-1.0,1.0,1.0,1.0,1.0,1.0,-1.0,-1.0,-1.0
2025-07-21 16:26:04.752,0.6000000000000002,600,30,0.15484965,0.15061024,0.022933455,-0.24030718,0.018906789,0.08548979,0.07445195,0.017968118,-0.048116185,0.0,0.0,0.0,0.02072161,0.5,0.0,0.0,0.11654593,-0.052638885,-0.12236472,0.10672092,-0.053652912,0.26901394,-0.045982413,-0.27090564,0.2103547,-0.06849388,0.16308406,-0.08993115,0.22939318,-0.2382548,-0.17130303,-0.19685705,0.122355826,0.11187496,0.09231265,0.097693756,0.09385833,-0.27647147,0.03595128,-0.1559357,1.0,-1.0,-1.0,-1.0,1.0,1.0,1.0,1.0,1.0,-1.0,-1.0,-1.0,-0.6440158,0.051158782,1.0,1.0,-1.0,1.0,-1.0,0.9128357,1.0,-1.0,-1.0,-0.5589812
2025-07-21 16:26:04.772,0.6200000000000002,620,31,0.0821967,0.014392236,0.30356634,-0.4099364,-0.25765362,-0.22541538,0.05070857,0.009209333,-0.033401527,0.0,0.0,0.0,0.022172216,0.5,0.0,0.0,0.09955201,-0.10147694,-0.05422681,0.07382627,-0.04843544,0.30310854,-0.05245498,-0.24477431,0.2319227,-0.13826846,0.11243961,-0.11092009,-0.17433794,0.040104628,0.19565827,0.048109367,-0.010819432,0.10027178,-0.02468643,0.071405165,0.11059244,-0.18439838,-0.22090654,-0.10092198,-0.6440158,0.051158782,1.0,1.0,-1.0,1.0,-1.0,0.9128357,1.0,-1.0,-1.0,-0.5589812,-1.0,-1.0,0.16729629,-1.0,0.9024619,1.0,1.0,0.38950792,1.0,1.0,-0.6089245,1.0
2025-07-21 16:26:04.796,0.6400000000000002,640,32,0.4461001,-0.23194228,0.43003845,-0.12763359,0.01902498,0.10368273,0.08158988,0.03964732,0.036487143,0.0,0.0,0.0,0.024987759,0.5,0.0,0.0,-0.0020158445,-0.12584572,-0.035982553,0.035216723,-0.025344865,0.32629994,-0.028316455,-0.21405387,0.2639424,-0.12015495,-0.010672414,-0.03594678,-0.20152844,-0.2217403,0.11642473,-0.081127316,0.16330758,0.110136636,0.12448552,0.16354497,0.12759408,0.17635408,-0.39238593,0.1716232,-1.0,-1.0,0.16729629,-1.0,0.9024619,1.0,1.0,0.38950792,1.0,1.0,-0.6089245,1.0,-1.0,1.0,1.0,-0.51692754,-1.0,-1.0,-0.4414342,1.0,-1.0,1.0,-0.7569639,1.0
2025-07-21 16:26:04.813,0.6600000000000003,660,33,0.4196898,-0.08538796,0.24035561,-0.018077226,-0.009409808,-0.20486541,0.061160423,0.11197785,-0.04646453,0.0,0.0,0.0,0.027081383,0.5,0.0,0.0,-0.08194245,-0.14154147,0.055892244,-0.01473063,0.003000161,0.22126852,-0.04141295,-0.10871108,0.17820466,-0.0111165065,-0.1652153,0.045262907,-0.16648912,0.061311144,0.23940217,-0.17891338,-0.021723595,-0.37341756,-0.050350282,0.31338328,-0.34763107,0.16838703,-0.34502125,0.14736503,-1.0,1.0,1.0,-0.51692754,-1.0,-1.0,-0.4414342,1.0,-1.0,1.0,-0.7569639,1.0,-1.0,-1.0,1.0,0.42676562,0.45591587,-1.0,1.0,0.003526181,-1.0,1.0,1.0,1.0
2025-07-21 16:26:04.833,0.6800000000000003,680,34,0.24538083,-0.05181567,-0.30225608,0.31623706,0.7052713,0.17870292,0.103269726,-0.0076322975,-0.0073188,0.0,0.0,0.0,0.028824547,0.5,0.0,0.0,-0.14363724,-0.18239291,0.12805736,0.02087686,0.049858067,0.10201204,0.011153719,-0.06347015,0.06063873,0.069959156,-0.24948816,0.1204321,-0.20449074,-0.17350759,0.23156989,0.11635507,0.21433753,-0.29383138,0.27339146,0.055698685,-0.18749435,0.14590418,-0.05068401,0.13563506,-1.0,-1.0,1.0,0.42676562,0.45591587,-1.0,1.0,0.003526181,-1.0,1.0,1.0,1.0,1.0,1.0,1.0,-1.0,-0.7522146,0.35838872,1.0,0.69235945,-1.0,1.0,-0.8964893,1.0
2025-07-21 16:26:04.853,0.7000000000000003,700,35,0.36454746,0.10097052,-0.44842538,0.5861969,0.926621,-0.07951972,0.04967915,-0.03537784,-0.018735975,0.0,0.0,0.0,0.02828563,0.5,0.0,0.0,-0.13007018,-0.1947513,0.179875,-0.011761513,0.042930473,0.116098754,0.100767784,-0.004169316,-0.038955133,0.15042529,-0.2971103,0.17479962,0.19622755,0.0019101924,0.09986299,-0.24554372,-0.09038537,0.061536502,0.1959553,0.30571702,-0.17551635,0.22072762,-0.19791666,0.09729792,1.0,1.0,1.0,-1.0,-0.7522146,0.35838872,1.0,0.69235945,-1.0,1.0,-0.8964893,1.0,-1.0,-1.0,1.0,0.4111709,-0.7135805,-0.719029,0.4830273,-0.9326056,-0.64157534,1.0,1.0,1.0
2025-07-21 16:26:04.878,0.7200000000000003,720,36,0.10044345,-0.1344188,-0.11656728,0.2525498,0.36785945,0.13063255,0.11085686,-0.086694576,-0.017793639,0.0,0.0,0.0,0.027752642,0.5,0.0,0.0,-0.0881103,-0.22547433,0.21872252,-0.010475641,-0.046096135,0.046238102,0.11489078,0.022635227,-0.077298045,0.20722286,-0.3221848,0.21436897,0.06545647,-0.112828724,0.15782857,0.1153624,-0.2689694,-0.24093431,0.12334508,-0.09322403,-0.14691637,0.11269178,0.058103573,0.08418167,-1.0,-1.0,1.0,0.4111709,-0.7135805,-0.719029,0.4830273,-0.9326056,-0.64157534,1.0,1.0,1.0,-1.0,1.0,1.0,0.6086858,1.0,1.0,1.0,-0.24858496,-1.0,1.0,-1.0,1.0
2025-07-21 16:26:04.893,0.7400000000000003,740,37,0.11366952,-0.025961462,0.37448284,0.08976393,0.27447176,0.22438015,0.10460419,-0.13533393,-0.013382595,0.0,0.0,0.0,0.027938109,0.5,0.0,0.0,-0.08495208,-0.24021314,0.243623,0.031265624,-0.10068569,0.09590858,0.186823,-0.0338521,-0.13540956,0.24523392,-0.33668226,0.25611472,-0.060744036,0.033823468,0.09526076,0.11488831,-0.010578871,0.15832259,0.19244863,-0.16504857,-0.16495886,0.033886213,-0.035328675,0.07242143,-1.0,1.0,1.0,0.6086858,1.0,1.0,1.0,-0.24858496,-1.0,1.0,-1.0,1.0,-1.0,1.0,1.0,-0.1835095,-0.33083335,0.22760564,1.0,0.37103972,-0.3017912,1.0,-0.74543136,-0.6675837
2025-07-21 16:26:04.913,0.7600000000000003,760,38,0.075985156,0.17468837,0.30526343,-0.12420253,-0.048993558,0.120495304,0.10262572,-0.10613579,-0.02380609,0.0,0.0,0.0,0.024359806,0.5,0.0,0.0,-0.10732602,-0.23589784,0.28445286,0.03558201,-0.118675925,0.09730836,0.23859482,-0.045740496,-0.14987527,0.28435186,-0.3516727,0.17770754,-0.09862489,0.01086198,0.12344902,-0.10189123,-0.086620815,-0.0019137042,0.09820049,0.13563596,-0.053533252,0.071409345,-0.04878598,-0.19762263,-1.0,1.0,1.0,-0.1835095,-0.33083335,0.22760564,1.0,0.37103972,-0.3017912,1.0,-0.74543136,-0.6675837,1.0,1.0,1.0,0.8608396,0.7038251,1.0,-0.037667442,-1.0,1.0,-1.0,1.0,1.0
2025-07-21 16:26:04.939,0.7800000000000004,780,39,0.48980346,0.0070845736,0.51462305,-0.25525883,0.024228254,-0.04728925,0.12033448,-0.09926781,-0.021233069,0.0,0.0,0.0,0.021361707,0.5,0.0,0.0,-0.11187638,-0.19446056,0.29628596,0.071598224,-0.12357396,0.16522257,0.21332821,-0.041677322,-0.059521947,0.2636365,-0.35319242,0.17795172,0.016577603,0.1146001,0.012843139,0.11793784,0.10925861,0.16313414,-0.068642914,-0.07038971,0.18789166,-0.10266251,-0.00985332,0.09973807,1.0,1.0,1.0,0.8608396,0.7038251,1.0,-0.037667442,-1.0,1.0,-1.0,1.0,1.0,0.032895908,-0.15756416,-1.0,1.0,-1.0,1.0,-1.0,-1.0,1.0,-1.0,1.0,-1.0
2025-07-21 16:26:04.953,0.8000000000000004,800,40,0.26433644,-0.020349376,0.16656137,-0.26352474,-0.3057,-0.16592567,0.13593517,-0.04708198,-0.0010093255,0.0,0.0,0.0,0.021457383,0.5,0.0,0.0,-0.10049008,-0.18294115,0.21082294,0.13481733,-0.15187901,0.2036865,0.11577553,-0.15096398,0.041949023,0.18840422,-0.28276867,0.09010605,0.07701444,-0.060051907,-0.2811904,0.18845466,-0.16688415,0.089539185,-0.26752424,-0.3570275,0.22177178,-0.33102635,0.24765003,-0.33132806,0.032895908,-0.15756416,-1.0,1.0,-1.0,1.0,-1.0,-1.0,1.0,-1.0,1.0,-1.0,1.0,1.0,-1.0,-1.0,0.38242564,1.0,-1.0,0.7766881,1.0,-1.0,0.25379303,-1.0
2025-07-21 16:26:04.978,0.8200000000000004,820,41,0.47206095,0.31271145,-0.45266265,-0.49517593,-0.71457356,-0.18407607,0.10821321,0.019365445,-0.008195847,0.0,0.0,0.0,0.024234409,0.5,0.0,0.0,-0.045430027,-0.13992783,0.0847198,0.13562097,-0.14596458,0.25365716,0.024901232,-0.18254131,0.100928895,0.056240696,-0.17533205,0.0020802878,0.19492769,0.25337863,-0.23386881,-0.11878361,0.16938744,0.16158809,-0.2632673,0.02790399,0.1451807,-0.357647,0.19597547,-0.2014524,1.0,1.0,-1.0,-1.0,0.38242564,1.0,-1.0,0.7766881,1.0,-1.0,0.25379303,-1.0,0.580256,-1.0,0.7234216,1.0,-1.0,1.0,-1.0,-1.0,1.0,-1.0,1.0,-1.0
2025-07-21 16:26:04.995,0.8400000000000004,840,42,0.3872084,0.0027047393,-0.25648326,-0.08058307,-0.7936602,-0.06341514,0.045391448,0.053372238,0.032316945,0.0,0.0,0.0,0.028266799,0.5,0.0,0.0,0.019645618,-0.1378701,0.117988594,0.12712163,-0.14361939,0.28694412,-0.07328144,-0.2258467,0.17412417,-0.030291284,-0.07361826,-0.08962167,0.16210938,-0.18773453,0.044261478,0.026353033,-0.06907496,0.08519827,-0.15753484,-0.063015215,0.09912167,-0.24481943,0.26786664,-0.21950555,0.580256,-1.0,0.7234216,1.0,-1.0,1.0,-1.0,-1.0,1.0,-1.0,1.0,-1.0,-1.0,-1.0,1.0,-0.45450324,-1.0,1.0,-1.0,0.5995132,1.0,-1.0,-1.0,0.5545286
2025-07-21 16:26:05.013,0.8600000000000004,860,43,0.10487977,0.06787942,-0.14693062,-0.13185996,-1.0237975,-0.010986646,0.00293324,0.13554657,-0.036197398,0.0,0.0,0.0,0.031079857,0.5,0.0,0.0,0.009941178,-0.23976776,0.16971487,0.07403037,-0.18984269,0.3157801,-0.1507353,-0.2204286,0.20568791,-0.12634349,-0.013301666,-0.039411653,-0.14139366,-0.3330707,0.19889961,-0.15664366,-0.12134426,0.10820287,-0.18818083,0.022461487,0.16844721,-0.113458395,-0.05618936,0.16617395,-1.0,-1.0,1.0,-0.45450324,-1.0,1.0,-1.0,0.5995132,1.0,-1.0,-1.0,0.5545286,-1.0,1.0,1.0,1.0,-1.0,1.0,0.41714862,-1.0,0.2020266,0.17526235,-1.0,1.0
2025-07-21 16:26:05.033,0.8800000000000004,880,44,-0.2252384,0.046242762,0.11734661,0.44447276,0.22936755,-0.2521383,0.05546082,0.0923097,0.04456171,0.0,0.0,0.0,0.032503564,0.5,0.0,0.0,-0.07430416,-0.3012929,0.21826836,0.07049638,-0.22767054,0.33903778,-0.123495,-0.25205687,0.18743564,-0.09487347,-0.106897,0.047826275,-0.23656802,0.069207825,0.17751949,0.01720347,-0.0809466,0.0072503397,0.18467352,-0.08188447,-0.00049167505,0.06846292,-0.27749476,0.17063324,-1.0,1.0,1.0,1.0,-1.0,1.0,0.41714862,-1.0,0.2020266,0.17526235,-1.0,1.0,0.81657994,1.0,-1.0,-1.0,1.0,1.0,-0.7169431,-1.0,1.0,1.0,1.0,1.0
2025-07-21 16:26:05.054,0.9000000000000005,900,45,0.27513224,-0.091043435,0.062721774,0.20567569,-0.18905386,0.02648621,-0.041424137,0.067828864,-0.041847967,0.0,0.0,0.0,0.034636263,0.5,0.0,0.0,-0.099835396,-0.23709889,0.14348839,0.069362625,-0.250085,0.36003622,-0.11640869,-0.31842008,0.22453482,-0.016766664,-0.13988467,0.11954278,0.07498247,0.19165692,-0.2946186,-0.15647393,0.042613376,-0.045132615,0.0029745905,-0.1739961,0.123911776,0.18536463,0.09429013,0.20552596,0.81657994,1.0,-1.0,-1.0,1.0,1.0,-0.7169431,-1.0,1.0,1.0,1.0,1.0,1.0,1.0,-1.0,0.6536011,-1.0,1.0,-0.31613335,-1.0,1.0,-0.2909814,1.0,-1.0
2025-07-21 16:26:05.079,0.9200000000000005,920,46,-0.21818942,0.18854138,0.03956528,0.34955144,0.17690523,-0.1611493,-0.056912404,0.08857914,0.048996866,0.0,0.0,0.0,0.03482189,0.5,0.0,0.0,-0.030197471,-0.10131968,0.025675163,0.059781626,-0.27642414,0.37570867,-0.11296162,-0.4049933,0.2772796,0.019484425,-0.046646137,0.039287195,0.3243985,0.43342456,-0.25390035,0.09113213,-0.09235037,-0.02307929,-0.016399452,-0.16194971,0.16818383,-0.014813455,0.32301897,-0.32051468,1.0,1.0,-1.0,0.6536011,-1.0,1.0,-0.31613335,-1.0,1.0,-0.2909814,1.0,-1.0,1.0,-1.0,-1.0,-0.24136159,1.0,1.0,1.0,1.0,1.0,-1.0,1.0,-1.0
2025-07-21 16:26:05.095,0.9400000000000005,940,47,-0.18629782,0.19335298,0.08033348,-0.10999348,0.26902744,0.16543159,0.0073905895,0.084924825,-0.02261125,0.0,0.0,0.0,0.035440434,0.5,0.0,0.0,0.05937631,-0.03834052,-0.05773327,0.044287246,-0.27250853,0.3706092,-0.07910852,-0.4253389,0.30443275,-0.053779032,0.08435406,-0.033164013,0.19205692,0.087258995,-0.19932163,-0.04688292,-0.008092269,0.030894961,0.151616,0.013574524,-0.019928666,-0.25945762,0.36961767,-0.1627108,1.0,-1.0,-1.0,-0.24136159,1.0,1.0,1.0,1.0,1.0,-1.0,1.0,-1.0,0.81436086,-0.4652431,1.0,0.18390027,1.0,1.0,-1.0,1.0,1.0,-1.0,-1.0,1.0
2025-07-21 16:26:05.114,0.9600000000000005,960,48,0.27005127,-0.06434182,-0.015971363,-0.33464122,0.12565108,0.022075681,-0.02856886,0.05648589,0.047493994,0.0,0.0,0.0,0.034982257,0.5,0.0,0.0,0.12070469,-0.0884745,0.011301099,0.04021684,-0.23988603,0.3839802,-0.04383178,-0.3972722,0.3174913,-0.12574331,0.15817948,0.011797147,0.13995175,-0.20485832,0.2869707,-0.019487677,0.10127405,-0.015914053,0.06761179,0.1381277,-0.017908622,-0.1216479,0.015989348,0.23435526,0.81436086,-0.4652431,1.0,0.18390027,1.0,1.0,-1.0,1.0,1.0,-1.0,-1.0,1.0,-1.0,0.40365517,1.0,0.8264839,-1.0,1.0,-0.7672549,-1.0,1.0,-0.09406136,-1.0,-1.0
2025-07-21 16:26:05.134,0.9800000000000005,980,49,-0.26224488,-0.021361122,0.6053242,-0.031117935,-0.18247673,-0.16258852,0.020584533,0.023951191,-0.048557,0.0,0.0,0.0,0.033407185,0.5,0.0,0.0,0.0996097,-0.10679732,0.08973817,0.036651712,-0.23448461,0.39824814,-0.060829967,-0.40050584,0.3490301,-0.12868679,0.11115476,-0.032558724,-0.18707056,0.0013839491,0.12859385,-0.003999393,-0.04024552,0.02317545,-0.03521421,-0.121446185,0.018729458,0.01268086,-0.15123121,-0.25688303,-1.0,0.40365517,1.0,0.8264839,-1.0,1.0,-0.7672549,-1.0,1.0,-0.09406136,-1.0,-1.0,-1.0,1.0,-1.0,-1.0,1.0,1.0,1.0,1.0,1.0,1.0,0.31359962,1.0
2025-07-21 16:26:05.178,1.0000000000000004,1000,50,0.16789703,0.08112821,0.27712473,-0.22208147,0.21228445,0.19214597,0.031636905,0.09382823,0.04618486,0.0,0.0,0.0,0.034356624,0.5,0.0,0.0,-0.0092300195,-0.021602158,0.022786494,0.006968877,-0.19850786,0.39617142,-0.032054346,-0.4017472,0.36124617,-0.054500584,0.09307961,0.022129279,-0.31919774,0.31198373,-0.30385,-0.17139442,0.22289856,0.0136899445,0.13522555,0.063451715,0.09954008,0.2660062,0.076764084,0.14904355,-1.0,1.0,-1.0,-1.0,1.0,1.0,1.0,1.0,1.0,1.0,0.31359962,1.0,-1.0,-1.0,0.074769735,1.0,-1.0,1.0,-1.0,-0.51393414,1.0,-0.943746,-1.0,-1.0
2025-07-21 16:26:05.195,1.0200000000000005,1020,51,-0.2551695,0.041817456,0.1512633,-0.025489854,-0.29776248,-0.0872551,0.03959995,0.13041723,-0.010411201,0.0,0.0,0.0,0.033199757,0.5,0.0,0.0,-0.09646076,0.0005538355,0.026904818,-0.021165673,-0.18686968,0.41647536,-0.038305014,-0.41501904,0.37063634,-0.041666705,0.06459571,-0.029932873,-0.15849149,-0.114676364,0.020451648,-0.08355017,-0.027526489,-0.0245552,-0.115319945,-0.12960462,-0.0036582795,-0.07502581,-0.12713611,-0.19364165,-1.0,-1.0,0.074769735,1.0,-1.0,1.0,-1.0,-0.51393414,1.0,-0.943746,-1.0,-1.0,0.47521588,1.0,-1.0,-0.8915197,1.0,1.0,-1.0,1.0,1.0,-1.0,-0.06195854,-0.94661176
2025-07-21 16:26:05.214,1.0400000000000005,1040,52,0.028799532,-0.040025506,-0.24853727,-0.37429014,-0.48384792,-0.047391236,-0.034095466,0.08545759,0.0014071829,0.0,0.0,0.0,0.032158457,0.5,0.0,0.0,-0.11759729,0.051838964,-0.059331495,-0.07511271,-0.16510242,0.42492515,-0.08694521,-0.4165855,0.3863456,-0.12086489,0.04894317,-0.1031562,0.06790308,0.13925588,-0.18749845,-0.18853933,0.1045591,-0.061269816,-0.17114256,0.09589126,-0.015104565,-0.20140608,-0.030508677,-0.09508724,0.47521588,1.0,-1.0,-0.8915197,1.0,1.0,-1.0,1.0,1.0,-1.0,-0.06195854,-0.94661176,1.0,-1.0,-1.0,1.0,-1.0,1.0,-1.0,-1.0,1.0,-1.0,1.0,-0.82380235
2025-07-21 16:26:05.234,1.0600000000000005,1060,53,-0.11210938,-0.05804526,0.05931107,-0.0038871188,-0.31664693,-0.047147997,-0.011079569,0.14125451,-0.032214615,0.0,0.0,0.0,0.033453297,0.5,0.0,0.0,-0.035428055,0.04657212,-0.13135266,-0.11393757,-0.14939106,0.4226858,-0.13578649,-0.42277464,0.3954163,-0.18832983,0.060572736,-0.1575855,0.2509994,-0.10427892,-0.10850379,-0.08554516,-0.028456261,0.068366066,-0.14025795,-0.07861946,0.040270448,-0.09352433,0.20933089,-0.102253854,1.0,-1.0,-1.0,1.0,-1.0,1.0,-1.0,-1.0,1.0,-1.0,1.0,-0.82380235,1.0,-1.0,-0.11217964,0.8749823,1.0,1.0,-1.0,1.0,1.0,0.7507206,-1.0,0.19860688
2025-07-21 16:26:05.254,1.0800000000000005,1080,54,-0.058713753,0.10187211,0.14092977,-0.0027424684,0.093695164,-0.15332521,0.00011617843,0.18212843,0.017844476,0.0,0.0,0.0,0.03524691,0.5,0.0,0.0,0.06868163,-0.04018759,-0.11972724,-0.10430923,-0.13837339,0.41887906,-0.16220672,-0.42867792,0.39807376,-0.17156859,0.053455286,-0.12180741,0.15270384,-0.36693785,0.088109486,0.091594584,0.035428252,-0.030716,-0.03836587,-0.03798662,0.026040692,0.15761948,-0.111902215,0.061197486,1.0,-1.0,-0.11217964,0.8749823,1.0,1.0,-1.0,1.0,1.0,0.7507206,-1.0,0.19860688,-1.0,0.9007862,1.0,-0.25853717,0.7836858,1.0,1.0,0.81809485,1.0,-0.85760987,-0.658472,0.2898043
2025-07-21 16:26:05.274,1.1000000000000005,1100,55,0.31857017,-0.024571203,0.24397299,-0.44178474,0.048148066,-0.060754888,0.008476089,0.14328253,-0.0024189649,0.0,0.0,0.0,0.038095083,0.5,0.0,0.0,0.051496565,-0.1025696,-0.026370166,-0.106974915,-0.08418426,0.41887924,-0.16003332,-0.39283106,0.3992382,-0.16502199,-0.03381632,-0.07768968,-0.26520285,-0.02274159,0.30277395,-0.042457953,0.22827794,-0.004489641,0.077230416,0.13082105,0.010541314,-0.11585326,-0.23172742,0.12932935,-1.0,0.9007862,1.0,-0.25853717,0.7836858,1.0,1.0,0.81809485,1.0,-0.85760987,-0.658472,0.2898043,-1.0,-1.0,1.0,0.010381162,-1.0,0.26644155,-0.4899836,1.0,-1.0,0.98854315,0.8367291,1.0
2025-07-21 16:26:05.296,1.1200000000000006,1120,56,0.13453783,0.031878363,-0.02837111,-0.28897947,0.24847227,-0.095314555,0.022600872,0.20141333,0.042871866,0.0,0.0,0.0,0.041627456,0.5,0.0,0.0,-0.041580208,-0.139795,0.053840894,-0.1080135,-0.047906592,0.37659702,-0.17777997,-0.28515077,0.27788576,-0.13729583,-0.07422227,0.014038196,-0.17692018,-0.19400105,0.1466135,0.049179826,0.09175122,-0.13316143,-0.017645208,0.35702345,-0.39603224,0.24015456,0.022344835,0.234931,-1.0,-1.0,1.0,0.010381162,-1.0,0.26644155,-0.4899836,1.0,-1.0,0.98854315,0.8367291,1.0,-0.5518832,-0.81626254,1.0,1.0,1.0,-1.0,1.0,1.0,-1.0,1.0,-1.0,1.0
2025-07-21 16:26:05.314,1.1400000000000006,1140,57,-0.015422777,0.10985944,-0.5375036,0.14737886,0.97106916,-0.20024551,0.12448567,0.088264056,-0.027405642,0.0,0.0,0.0,0.04445171,0.5,0.0,0.0,-0.07866841,-0.23356107,0.12863119,-0.0063591963,0.020432908,0.24407057,-0.10864469,-0.1417558,0.14927195,-0.01756677,-0.09715184,0.09157304,-0.084393196,-0.37430096,0.14526355,0.19214629,0.1854191,-0.33635324,0.21150568,0.30596736,-0.25809056,0.23715766,-0.08578999,0.16850479,-0.5518832,-0.81626254,1.0,1.0,1.0,-1.0,1.0,1.0,-1.0,1.0,-1.0,1.0,-1.0,1.0,1.0,-0.93513864,0.8411888,-1.0,1.0,-0.44796798,-0.26971877,1.0,-0.43799517,1.0
2025-07-21 16:26:05.334,1.1600000000000006,1160,58,0.0069195325,-0.06277037,-0.39766484,0.59798414,0.7615975,-0.062918544,0.08908946,0.058455303,0.036229543,0.0,0.0,0.0,0.04718409,0.5,0.0,0.0,-0.14693753,-0.30169356,0.18306182,0.011414374,0.14830424,0.12403681,0.002154914,-0.105915695,0.10457064,0.045912936,-0.14778987,0.16848044,-0.24294665,-0.03471513,0.1731921,-0.06251017,0.35046813,-0.22033094,0.20496866,-0.117025636,-0.08243506,0.13817117,-0.106161654,0.20706245,-1.0,1.0,1.0,-0.93513864,0.8411888,-1.0,1.0,-0.44796798,-0.26971877,1.0,-0.43799517,1.0,-1.0,1.0,1.0,-0.658843,0.23603204,-1.0,0.9664149,0.06936458,-1.0,1.0,-1.0,1.0
2025-07-21 16:26:05.354,1.1800000000000006,1180,59,0.03831539,0.20796047,-0.5188019,0.70915854,0.80303466,-0.2008758,0.11021145,-0.027794903,0.048201732,0.0,0.0,0.0,0.048218485,0.5,0.0,0.0,-0.19897576,-0.281935,0.2390662,-0.04734832,0.20135057,0.025707938,0.07795185,-0.09034787,-0.0022262593,0.13347518,-0.20682244,0.21280295,-0.15284346,0.0594992,0.10136992,-0.21695296,0.1007122,-0.26284268,0.1929146,0.14968522,-0.22516154,0.15396687,-0.20787221,0.081838876,-1.0,1.0,1.0,-0.658843,0.23603204,-1.0,0.9664149,0.06936458,-1.0,1.0,-1.0,1.0,-1.0,-0.795547,1.0,-0.0026143193,0.91780996,-1.0,0.5670471,-1.0,-0.27386904,1.0,1.0,1.0
2025-07-21 16:26:05.379,1.2000000000000006,1200,60,0.04828986,0.21820836,-0.18680061,0.32825965,0.17583004,0.24752545,0.104810484,-0.056257114,-0.019094476,0.0,0.0,0.0,0.05027298,0.5,0.0,0.0,-0.20429143,-0.29657522,0.25556105,-0.06608743,0.2670647,-0.0661711,0.11820089,-0.1301238,-0.013667812,0.17897247,-0.23285161,0.24287057,0.024595458,-0.020646306,0.007143613,-0.04281171,0.3282909,-0.146101,0.07133473,-0.22831047,-0.069593824,0.05500966,-0.050410032,0.08595331,-1.0,-0.795547,1.0,-0.0026143193,0.91780996,-1.0,0.5670471,-1.0,-0.27386904,1.0,1.0,1.0,-1.0,1.0,1.0,0.04576999,-1.0,-1.0,-0.81271356,1.0,0.6703867,1.0,-1.0,1.0
2025-07-21 16:26:05.394,1.2200000000000006,1220,61,-0.08500398,0.13375029,0.14317784,0.081539385,-0.039905317,0.13077067,0.023574004,-0.096388504,0.041889597,0.0,0.0,0.0,0.04914062,0.5,0.0,0.0,-0.2160891,-0.31240726,0.27091458,-0.046780363,0.30173704,-0.13843396,0.072289914,-0.1366037,0.0357141,0.20145553,-0.2583764,0.27536058,-0.06442979,-0.02534317,0.059450466,0.049813762,-0.044138193,-0.22598669,-0.2248825,0.06051732,0.17197599,-0.005803951,-0.062355854,0.08774685,-1.0,1.0,1.0,0.04576999,-1.0,-1.0,-0.81271356,1.0,0.6703867,1.0,-1.0,1.0,-1.0,1.0,1.0,-1.0,-1.0,-1.0,1.0,1.0,-1.0,1.0,-1.0,1.0
2025-07-21 16:26:05.414,1.2400000000000007,1240,62,-0.16421378,0.20126997,0.20055698,0.010141157,0.19623391,0.3563915,0.030490268,-0.08562026,-0.0077373814,0.0,0.0,0.0,0.04521378,0.5,0.0,0.0,-0.22125402,-0.33427468,0.29336822,-0.09766951,0.22043467,-0.18165761,0.050761692,-0.052844945,-0.025787396,0.2045446,-0.27641964,0.32034418,-0.043696757,-0.0005838244,0.0019455228,-0.15244552,-0.24039012,-0.19578986,0.17179066,0.25794807,-0.25660908,0.055815954,-0.022694439,0.059704397,-1.0,1.0,1.0,-1.0,-1.0,-1.0,1.0,1.0,-1.0,1.0,-1.0,1.0,1.0,1.0,1.0,-1.0,-0.9341475,-1.0,1.0,0.4238322,-1.0,-1.0,-0.6806625,1.0
2025-07-21 16:26:05.434,1.2600000000000007,1260,63,0.051953513,0.28238446,0.23018058,-0.07332545,0.3627716,-0.05810004,0.08424581,-0.15726729,0.019214857,0.0,0.0,0.0,0.03997668,0.5,0.0,0.0,-0.20746209,-0.32721978,0.30303925,-0.1709028,0.08134826,-0.23066585,0.13988881,0.04601452,-0.11392574,0.20566499,-0.28173962,0.33372438,0.042378537,-0.034766506,0.0749806,-0.22652371,-0.4921796,-0.053510975,0.17522043,0.24959932,-0.13280368,-0.007846185,-0.03210721,0.009193348,1.0,1.0,1.0,-1.0,-0.9341475,-1.0,1.0,0.4238322,-1.0,-1.0,-0.6806625,1.0,-1.0,-1.0,1.0,0.29354626,-0.714811,1.0,1.0,-0.46763024,1.0,1.0,1.0,1.0
2025-07-21 16:26:05.454,1.2800000000000007,1280,64,-0.23519138,0.20767404,0.77629614,-0.109671555,0.2832476,0.33461076,0.11286282,-0.0924951,-0.046781715,0.0,0.0,0.0,0.03758219,0.5,0.0,0.0,-0.20836346,-0.36029735,0.32762593,-0.15657078,-0.08088849,-0.15118787,0.2023401,0.056883268,-0.039228156,0.20803395,-0.28625643,0.3590881,-0.054464016,-0.13821532,0.060769487,0.1443716,-0.39220098,0.3130625,0.1295723,-0.17773975,0.28287405,0.09249498,0.03977919,0.025697464,-1.0,-1.0,1.0,0.29354626,-0.714811,1.0,1.0,-0.46763024,1.0,1.0,1.0,1.0,1.0,1.0,-1.0,1.0,1.0,1.0,-1.0,-1.0,1.0,-1.0,1.0,1.0
2025-07-21 16:26:05.474,1.3000000000000007,1300,65,0.13136595,0.115064465,0.391955,-0.12793921,0.082025856,0.12281783,0.14831325,-0.16790949,-0.028496347,0.0,0.0,0.0,0.035016198,0.5,0.0,0.0,-0.18595561,-0.3251923,0.2260161,-0.049726192,-0.16505942,-0.05061945,0.1851716,-0.028831663,0.04226551,0.19993787,-0.23142214,0.36031336,0.08816476,0.19984804,-0.27133507,0.25901887,0.06219443,0.3118756,-0.2661385,-0.3433768,0.23278819,-0.12069148,0.155683,-0.034398947,1.0,1.0,-1.0,1.0,1.0,1.0,-1.0,-1.0,1.0,-1.0,1.0,1.0,-0.1710266,1.0,-0.34785604,1.0,-1.0,1.0,-1.0,-1.0,1.0,-0.38562667,0.6777211,-1.0
2025-07-21 16:26:05.498,1.3200000000000007,1320,66,0.0943631,0.19229557,0.22959186,-0.27363202,-0.31947207,0.024497148,0.17366703,-0.1656156,0.027761484,0.0,0.0,0.0,0.031207664,0.5,0.0,0.0,-0.16983703,-0.25798643,0.15380979,0.036404826,-0.20782837,0.039557893,0.06088774,-0.1386495,0.13330139,0.139358,-0.11605597,0.24544036,-0.037637863,0.19250196,-0.09085936,0.26259872,-0.276818,0.13058428,-0.21007556,-0.23343962,0.1211673,-0.21008053,0.35018042,-0.40871835,-0.1710266,1.0,-0.34785604,1.0,-1.0,1.0,-1.0,-1.0,1.0,-0.38562667,0.6777211,-1.0,1.0,1.0,-1.0,-1.0,1.0,1.0,-1.0,1.0,1.0,-1.0,0.5162593,-1.0
2025-07-21 16:26:05.515,1.3400000000000007,1340,67,0.13990298,0.12155384,-0.22566669,-0.52236784,-0.92934895,-0.042289242,0.102672204,-0.0015027054,0.013978398,0.0,0.0,0.0,0.030107116,0.5,0.0,0.0,-0.13132139,-0.11936288,0.057598982,0.027437085,-0.23669378,0.110173315,-0.017682208,-0.19342132,0.16764203,0.02407486,0.034161285,0.13375884,0.13886622,0.43454763,-0.18888362,-0.14183712,0.037912503,0.19064176,-0.28223935,-0.03410351,0.037230957,-0.33303028,0.31711254,-0.2981213,1.0,1.0,-1.0,-1.0,1.0,1.0,-1.0,1.0,1.0,-1.0,0.5162593,-1.0,1.0,-1.0,-1.0,1.0,1.0,1.0,-1.0,-1.0,1.0,-1.0,-1.0,-1.0
2025-07-21 16:26:05.535,1.3600000000000008,1360,68,0.19991127,0.13921608,-0.41935182,0.07793005,-0.92803675,0.016291294,0.077277556,0.010786243,0.0051202285,0.0,0.0,0.0,0.030332832,0.5,0.0,0.0,-0.017042069,-0.049441196,-0.040249616,0.03706888,-0.16767904,0.17336948,-0.10724864,-0.23894815,0.22868265,-0.06643899,0.05860576,0.028232869,0.28806573,-0.0597065,-0.24321608,0.22091088,0.20426525,0.124329045,-0.122049965,-0.22399727,0.082814656,-0.24673997,-0.058912877,-0.2628116,1.0,-1.0,-1.0,1.0,1.0,1.0,-1.0,-1.0,1.0,-1.0,-1.0,-1.0,1.0,0.38352656,1.0,1.0,-1.0,1.0,-1.0,0.5814316,1.0,-0.22109734,-0.3408591,-1.0
2025-07-21 16:26:05.555,1.3800000000000008,1380,69,0.21169838,0.3460165,-0.2236266,0.023223748,-0.8031342,-0.09964394,0.065780126,0.101975806,-0.023244072,0.0,0.0,0.0,0.02990588,0.5,0.0,0.0,0.072171316,-0.014268689,0.01687362,0.12324813,-0.13560994,0.22865227,-0.17747849,-0.26690078,0.24638629,-0.08934788,-0.0053579304,-0.05211814,0.277241,0.11173036,0.14628674,0.20865563,-0.03774415,0.16150694,-0.18153875,0.015877817,0.079123154,-0.02433913,-0.15665421,-0.16959408,1.0,0.38352656,1.0,1.0,-1.0,1.0,-1.0,0.5814316,1.0,-0.22109734,-0.3408591,-1.0,-0.90946233,-1.0,1.0,1.0,-0.22303978,1.0,-1.0,-1.0,1.0,-1.0,1.0,1.0
2025-07-21 16:26:05.579,1.4000000000000008,1400,70,0.24688217,0.042110212,0.058556724,-0.007176339,-0.5299529,0.089588284,-0.020674042,0.10489255,0.016496515,0.0,0.0,0.0,0.03042975,0.5,0.0,0.0,0.07619127,-0.012409335,0.10496397,0.12719616,-0.17735523,0.25835893,-0.21960366,-0.2777908,0.29674754,-0.14345263,-0.043015733,-0.009013457,-0.18938884,-0.040069982,0.22548358,-0.0051176264,0.0064581344,0.06851835,-0.12672563,-0.13954034,0.0696104,-0.15677516,0.0019978054,0.26172194,-0.90946233,-1.0,1.0,1.0,-0.22303978,1.0,-1.0,-1.0,1.0,-1.0,1.0,1.0,-0.61103237,-1.0,1.0,0.6499607,-0.89049774,1.0,-1.0,1.0,1.0,0.32655668,-1.0,-0.62373567
2025-07-21 16:26:05.597,1.4200000000000008,1420,71,0.016869636,0.21576312,0.21716064,0.25288415,0.030367555,-0.29054978,-0.040246,0.05104478,-0.0060730865,0.0,0.0,0.0,0.030875048,0.5,0.0,0.0,0.014754965,-0.078827694,0.17046307,0.10969659,-0.21689005,0.29456174,-0.26435736,-0.28625056,0.3108658,-0.11227828,-0.059709664,-0.024492318,-0.12615766,-0.27576572,0.16238952,-0.042961128,-0.14623564,0.11879127,-0.057813838,0.009666881,0.058460917,0.12692474,-0.2244604,-0.14037237,-0.61103237,-1.0,1.0,0.6499607,-0.89049774,1.0,-1.0,1.0,1.0,0.32655668,-1.0,-0.62373567,-1.0,0.45766854,1.0,-0.6047624,1.0,1.0,1.0,-1.0,1.0,1.0,1.0,1.0
2025-07-21 16:26:05.616,1.4400000000000008,1440,72,0.35916585,0.2283262,0.16156073,0.12790471,0.19986947,0.18727885,-0.006869421,0.11043962,-0.026092052,0.0,0.0,0.0,0.032801844,0.5,0.0,0.0,-0.07739878,-0.11881339,0.20706296,0.09567501,-0.2295668,0.32110465,-0.24770148,-0.30956134,0.3437918,-0.016145429,-0.07620459,0.041325722,-0.16790816,0.008674436,0.04826472,-0.11965215,0.052056666,0.04662832,0.16926126,-0.065735795,0.037531532,0.20968215,0.12451007,0.25709867,-1.0,0.45766854,1.0,-0.6047624,1.0,1.0,1.0,-1.0,1.0,1.0,1.0,1.0,1.0,-1.0,1.0,1.0,0.9512818,-0.70988923,-1.0,1.0,1.0,-1.0,-0.2825187,-1.0
2025-07-21 16:26:05.636,1.4600000000000009,1460,73,0.21200794,0.013079885,-0.29875487,0.016304465,-0.017602853,-0.20037688,-0.010525992,0.05833551,-0.012890129,0.0,0.0,0.0,0.032642532,0.5,0.0,0.0,-0.084889606,-0.15538721,0.26986048,0.09934276,-0.15209731,0.21828571,-0.24131317,-0.2988665,0.35799095,-0.010567199,-0.090154745,-0.011825327,0.17103216,-0.13713273,0.08212492,0.092019975,0.21972343,-0.22096835,-0.1225586,0.123281404,0.058830384,-0.14202043,-0.06893779,-0.20552325,1.0,-1.0,1.0,1.0,0.9512818,-0.70988923,-1.0,1.0,1.0,-1.0,-0.2825187,-1.0,-1.0,-1.0,1.0,0.43294555,-1.0,-0.28970736,1.0,0.094757706,-0.67153,-1.0,0.73997146,1.0
2025-07-21 16:26:05.656,1.4800000000000009,1480,74,-0.01034799,0.08858644,-0.022173192,-0.073912814,0.06072487,0.027890163,0.019500623,0.11894116,0.038409837,0.0,0.0,0.0,0.03328425,0.5,0.0,0.0,-0.10083575,-0.24767455,0.30419877,0.1342085,-0.11897822,0.14363337,-0.22733954,-0.23048364,0.2515557,-0.08289283,-0.09855226,0.02353582,-0.091866545,-0.29607305,0.021184266,-0.035162326,-0.022848092,-0.08526488,0.13289906,0.14181632,-0.2475024,-0.15712823,0.044445064,0.1519885,-1.0,-1.0,1.0,0.43294555,-1.0,-0.28970736,1.0,0.094757706,-0.67153,-1.0,0.73997146,1.0,1.0,1.0,1.0,-0.03016895,1.0,-1.0,1.0,-0.22198424,-1.0,1.0,-1.0,1.0
2025-07-21 16:26:05.679,1.5000000000000009,1500,75,0.23115018,-0.21243599,-0.34532332,0.32115632,0.75989074,0.03496253,-0.0074589234,-0.0038408434,-0.049239576,0.0,0.0,0.0,0.03465563,0.5,0.0,0.0,-0.0743955,-0.282581,0.31130522,0.119248234,-0.08387271,0.048533138,-0.12103736,-0.20619965,0.13705984,-0.06077336,-0.10567841,0.09998899,0.11430541,-0.020112127,0.08725596,-0.07183405,0.21020228,-0.18672961,0.31283376,-0.07450588,-0.3155908,0.23297782,-0.17015585,0.107923836,1.0,1.0,1.0,-0.03016895,1.0,-1.0,1.0,-0.22198424,-1.0,1.0,-1.0,1.0,-1.0,-1.0,1.0,-1.0,1.0,0.76203513,1.0,1.0,-1.0,1.0,-1.0,1.0
2025-07-21 16:26:05.696,1.520000000000001,1520,76,0.036270075,-0.13970053,-0.54720277,-0.18785739,-0.0056885662,0.194737,-0.027882116,0.03329825,-0.03612989,0.0,0.0,0.0,0.03314262,0.5,0.0,0.0,-0.069828935,-0.31064653,0.34520608,0.038800422,0.032532904,0.06825719,-0.01690448,-0.17761146,0.021147301,0.030446239,-0.19574797,0.18043151,-0.021627571,-0.12247073,0.10497808,-0.3045755,0.35898992,0.15913393,0.23986527,0.10696311,-0.28730598,0.19290486,-0.25977308,0.16087848,-1.0,-1.0,1.0,-1.0,1.0,0.76203513,1.0,1.0,-1.0,1.0,-1.0,1.0,-1.0,1.0,1.0,-1.0,-1.0,-1.0,1.0,1.0,-1.0,1.0,-0.8682727,1.0
2025-07-21 16:26:05.716,1.540000000000001,1540,77,-0.094611324,0.02852444,-0.41022316,-0.058149356,-0.01900097,0.027407184,0.043304447,0.006057206,-0.009101759,0.0,0.0,0.0,0.029759543,0.5,0.0,0.0,-0.0777238,-0.3341536,0.34694237,-0.06957951,0.09489864,0.021847203,0.059095543,-0.07778275,-0.051211417,0.08289722,-0.26630828,0.2304457,0.0064633866,0.033374004,0.07276041,-0.26176637,-0.0064471355,-0.22598512,0.18752529,0.27560297,-0.14834598,0.07912543,-0.06412624,0.18554308,-1.0,1.0,1.0,-1.0,-1.0,-1.0,1.0,1.0,-1.0,1.0,-0.8682727,1.0,-1.0,1.0,1.0,0.5486569,-1.0,-1.0,1.0,0.49723974,-0.64854145,1.0,-1.0,1.0
2025-07-21 16:26:05.736,1.560000000000001,1560,78,-0.15508483,-0.14699654,0.1673434,0.08054558,0.23993756,-0.07407613,0.054049287,0.007971793,-0.014560064,0.0,0.0,0.0,0.027066562,0.5,0.0,0.0,-0.070655376,-0.33187217,0.35123557,-0.06325883,0.030802606,-0.075564794,0.15430647,0.041473817,-0.093781605,0.11968297,-0.30148357,0.2682167,0.025496697,0.016477337,0.042972714,0.18158105,-0.29744628,-0.16168156,0.14830562,0.29001233,-0.12399937,0.14275853,-0.15439364,0.16947775,-1.0,1.0,1.0,0.5486569,-1.0,-1.0,1.0,0.49723974,-0.64854145,1.0,-1.0,1.0,0.07856129,1.0,1.0,-1.0,1.0,1.0,1.0,-1.0,-1.0,1.0,1.0,1.0
2025-07-21 16:26:05.756,1.580000000000001,1580,79,0.111737,0.056224775,0.30281696,-0.11139124,0.2995998,0.1838315,-0.015315349,0.016154675,-0.04002095,0.0,0.0,0.0,0.026963932,0.5,0.0,0.0,-0.041208122,-0.32769617,0.3706553,-0.077187434,0.0012446692,-0.0059359693,0.2077876,0.07911303,-0.15672281,0.15437882,-0.30114898,0.29632026,0.11703182,0.12695077,0.078757234,-0.107862,-0.013686409,0.24843219,0.13474622,-0.029303895,-0.08096911,0.046283316,0.07057264,-0.008374273,0.07856129,1.0,1.0,-1.0,1.0,1.0,1.0,-1.0,-1.0,1.0,1.0,1.0,-1.0,0.0030860864,1.0,1.0,-1.0,-0.706021,0.9903514,-0.2518377,1.0,0.71799815,-1.0,1.0
2025-07-21 16:26:05.779,1.600000000000001,1600,80,-0.07102339,-0.21089198,0.5897371,0.055930227,0.26300508,0.060383916,0.058587927,-0.063945994,0.019233176,0.0,0.0,0.0,0.024619985,0.5,0.0,0.0,-0.04196074,-0.31616017,0.3800431,-0.045962203,-0.02847588,-0.045513175,0.26204425,0.02023914,-0.08324841,0.18140867,-0.31563473,0.31379062,0.06057021,0.052230317,0.05040307,0.12982908,-0.114678696,-0.102844015,0.068056755,-0.19872594,0.19207793,0.01876455,-0.018185033,0.08403601,-1.0,0.0030860864,1.0,1.0,-1.0,-0.706021,0.9903514,-0.2518377,1.0,0.71799815,-1.0,1.0,0.035362825,1.0,1.0,-0.8867589,-0.8526499,1.0,-0.26921248,-0.50877035,0.4692819,1.0,-0.9891713,1.0
2025-07-21 16:26:05.796,1.620000000000001,1620,81,-0.08262018,-0.28223023,0.67356664,0.16199568,-0.0028092298,-0.009607735,0.069242544,-0.01619717,-0.015057509,0.0,0.0,0.0,0.02203568,0.5,0.0,0.0,-0.028309165,-0.30610502,0.38697743,-0.050938483,-0.14418235,0.029521797,0.23072599,-0.0654674,-0.028800474,0.21596695,-0.33944547,0.35169354,0.010510629,0.025620833,-0.04445431,-0.19233824,-0.32220584,0.18739392,-0.16044986,-0.3053865,0.14986186,0.0394048,-0.08544354,0.008941188,0.035362825,1.0,1.0,-0.8867589,-0.8526499,1.0,-0.26921248,-0.50877035,0.4692819,1.0,-0.9891713,1.0,-1.0,1.0,-1.0,1.0,1.0,1.0,-1.0,0.53411615,1.0,-1.0,1.0,1.0
2025-07-21 16:26:05.816,1.640000000000001,1640,82,0.1534425,0.06046138,0.33179146,-0.28441396,-0.16968805,-0.073030196,0.0063159657,-0.0064410213,0.03139872,0.0,0.0,0.0,0.020959243,0.5,0.0,0.0,-0.07577449,-0.21015696,0.2644767,-0.049446143,-0.20451668,0.10505008,0.11548891,-0.09788281,0.061536495,0.19349988,-0.3401499,0.35200077,-0.16897197,0.36586574,-0.42442742,0.15751386,0.01703341,0.14434832,-0.27832952,0.008757937,0.22432409,-0.16368493,0.117787145,-0.043024585,-1.0,1.0,-1.0,1.0,1.0,1.0,-1.0,0.53411615,1.0,-1.0,1.0,1.0,1.0,1.0,-1.0,-0.18731713,-0.30710748,1.0,-1.0,-1.0,1.0,0.6748227,1.0,0.6042068
2025-07-21 16:26:05.837,1.660000000000001,1660,83,0.2328341,0.10980325,0.060243778,0.18064284,0.3839776,0.00972149,0.004188594,-0.024690475,-0.0138862375,0.0,0.0,0.0,0.021880848,0.5,0.0,0.0,-0.07007008,-0.07622077,0.14458604,-0.026490163,-0.22362316,0.16497323,0.0007220662,-0.1366963,0.1176069,0.19195499,-0.28785473,0.33728448,0.14161333,0.40865424,-0.35738403,-0.06075247,-0.12745652,0.18154761,-0.30183864,-0.13639294,0.2028228,0.07570654,0.15321049,-0.104135945,1.0,1.0,-1.0,-0.18731713,-0.30710748,1.0,-1.0,-1.0,1.0,0.6748227,1.0,0.6042068,1.0,0.3230093,-1.0,1.0,1.0,1.0,-1.0,-1.0,1.0,-1.0,1.0,-1.0
2025-07-21 16:26:05.857,1.680000000000001,1680,84,0.42372176,0.2535798,-0.31142017,0.04777393,-0.0532071,-0.033162896,0.09183172,-0.032174136,-0.030999776,0.0,0.0,0.0,0.022671865,0.5,0.0,0.0,0.022522282,0.012708157,0.033676088,0.012989981,-0.20831217,0.21642224,-0.07311121,-0.22721219,0.19200711,0.1587186,-0.18226889,0.21295829,0.21953551,0.13555641,-0.30131418,0.23390286,0.2096557,0.121946536,-0.096405335,-0.26884034,0.124802686,-0.22518893,0.33434495,-0.28457797,1.0,0.3230093,-1.0,1.0,1.0,1.0,-1.0,-1.0,1.0,-1.0,1.0,-1.0,1.0,-1.0,1.0,-0.783006,-1.0,1.0,-1.0,1.0,1.0,-1.0,1.0,-1.0
2025-07-21 16:26:05.882,1.700000000000001,1700,85,0.44010198,0.11591097,-0.6471863,-0.27932698,-0.8170266,-0.041332718,0.057197157,-0.026390707,0.039987244,0.0,0.0,0.0,0.022958048,0.5,0.0,0.0,0.11177437,0.009628536,0.07996061,-0.013927791,-0.1928832,0.25891966,-0.15799522,-0.27344283,0.23292889,0.04871248,-0.02920981,0.08657528,0.15203716,-0.091674075,0.16949125,-0.23677924,-0.17349935,0.06963298,-0.24450547,-0.0854181,0.052780386,-0.30984792,0.46097812,-0.3398455,1.0,-1.0,1.0,-0.783006,-1.0,1.0,-1.0,1.0,1.0,-1.0,1.0,-1.0,-1.0,-1.0,1.0,1.0,-0.75922686,1.0,-1.0,1.0,1.0,-1.0,-1.0,0.18503371
2025-07-21 16:26:05.898,1.720000000000001,1720,86,0.14754443,0.11821095,-0.351984,-0.17476822,-0.62723833,-0.14369327,-0.011108691,0.056970514,0.026897714,0.0,0.0,0.0,0.024222424,0.5,0.0,0.0,0.101951145,-0.099081255,0.15079989,-0.019096721,-0.27689722,0.28974134,-0.2005353,-0.25985587,0.2641115,-0.04703001,0.034825906,0.08529699,-0.11880908,-0.2236518,0.143158,-0.00903262,-0.23396787,0.032012627,-0.106460385,0.08744358,0.06168063,-0.18502685,0.029661,-0.031053064,-1.0,-1.0,1.0,1.0,-0.75922686,1.0,-1.0,1.0,1.0,-1.0,-1.0,0.18503371,-1.0,-1.0,1.0,0.8593592,1.0,1.0,1.0,-1.0,1.0,-0.7312608,-1.0,-1.0
2025-07-21 16:26:05.917,1.740000000000001,1740,87,0.37900046,-0.16805886,-0.054352965,0.30573204,0.30624083,-0.09233944,-0.016842648,0.09958037,0.039578013,0.0,0.0,0.0,0.026287975,0.5,0.0,0.0,0.040111225,-0.22712818,0.20587882,0.0056420136,-0.31574082,0.31247908,-0.20412897,-0.29157087,0.28494436,-0.08809934,-0.023071798,0.0033839033,-0.1781201,-0.33866325,0.13945772,0.09378645,-0.019146707,0.0937598,0.07840278,-0.03774842,0.1512411,-0.17190969,-0.16419631,-0.2950497,-1.0,-1.0,1.0,0.8593592,1.0,1.0,1.0,-1.0,1.0,-0.7312608,-1.0,-1.0,-1.0,1.0,0.060763,-0.32346743,-1.0,1.0,-0.8985025,-1.0,1.0,-0.3352369,1.0,-1.0
2025-07-21 16:26:05.937,1.7600000000000011,1760,88,0.35589698,0.24629079,0.056530993,0.20601527,-0.41578114,0.0024305067,-0.070727095,0.048136882,0.005712675,0.0,0.0,0.0,0.028536173,0.5,0.0,0.0,-0.057019252,-0.31179106,0.18094808,-0.002443381,-0.37474415,0.3306914,-0.19395703,-0.33174312,0.31371537,-0.11055331,-0.041543946,-0.07528242,-0.19028522,-0.037506152,-0.06869479,-0.021390947,-0.16000703,0.090112716,-0.024379702,-0.20273075,0.009636915,-0.051664736,0.11049367,-0.24908309,-1.0,1.0,0.060763,-0.32346743,-1.0,1.0,-0.8985025,-1.0,1.0,-0.3352369,1.0,-1.0,1.0,1.0,1.0,1.0,1.0,1.0,-1.0,-1.0,1.0,-1.0,1.0,-1.0
2025-07-21 16:26:05.957,1.7800000000000011,1780,89,0.3170413,0.0724064,-0.017463278,0.18352705,0.03856447,-0.12445408,-0.08778394,0.015286041,0.01857812,0.0,0.0,0.0,0.02789715,0.5,0.0,0.0,-0.07624277,-0.28323,0.21238612,-0.022227071,-0.4027355,0.34774756,-0.20550169,-0.3795829,0.34820667,-0.17500909,0.0399895,-0.13743891,0.12631704,0.10633077,0.09412821,0.026493039,-0.06739536,-0.0023607067,-0.046912163,-0.14529328,0.07727896,-0.17664433,0.2162952,-0.12461158,1.0,1.0,1.0,1.0,1.0,1.0,-1.0,-1.0,1.0,-1.0,1.0,-1.0,-1.0,-1.0,1.0,-1.0,1.0,1.0,-0.94543,1.0,1.0,-1.0,-0.35533252,0.80457854
2025-07-21 16:26:05.980,1.8000000000000012,1800,90,0.30024698,0.0650856,0.13055933,-0.3764223,-0.6634554,0.19548555,-0.07289608,0.06557589,-0.020424398,0.0,0.0,0.0,0.029465806,0.5,0.0,0.0,-0.101261385,-0.25744802,0.26092038,-0.083877705,-0.3825293,0.35451955,-0.2637122,-0.38635972,0.35918358,-0.23804712,0.05533602,-0.08491911,-0.18433447,-0.04693943,0.089459196,-0.18610324,0.016769255,0.015702078,-0.16486505,-0.004239898,0.05754118,-0.21294285,-0.13388674,0.2735852,-1.0,-1.0,1.0,-1.0,1.0,1.0,-0.94543,1.0,1.0,-1.0,-0.35533252,0.80457854,-1.0,-0.84123784,1.0,1.0,-0.28378502,-1.0,-0.9048919,1.0,-1.0,1.0,-1.0,1.0
2025-07-21 16:26:05.998,1.8200000000000012,1820,91,0.032516655,-0.08276544,0.27275345,-0.060450055,-0.20332971,0.09325506,-0.05704773,0.10975889,-0.025711503,0.0,0.0,0.0,0.029306581,0.5,0.0,0.0,-0.1444963,-0.28524327,0.30294773,-0.0929463,-0.38011923,0.25460285,-0.28526375,-0.2899007,0.24397096,-0.20096235,-0.012954826,0.009638114,-0.008627789,0.0011975749,0.039851505,-0.0040089865,0.054129474,-0.28028738,-0.06097941,0.23208065,-0.35265914,0.25628918,-0.22837,0.23425502,-1.0,-0.84123784,1.0,1.0,-0.28378502,-1.0,-0.9048919,1.0,-1.0,1.0,-1.0,1.0,0.08191489,0.95526093,1.0,-0.28598124,1.0,-1.0,1.0,1.0,-1.0,-1.0,-1.0,1.0
2025-07-21 16:26:06.017,1.8400000000000012,1840,92,0.15413392,-0.20030221,-0.28715143,-0.397238,-0.0037312065,0.06579418,-0.060890317,0.16982801,-0.0030703556,0.0,0.0,0.0,0.027017934,0.5,0.0,0.0,-0.13573569,-0.26108366,0.32304263,-0.098042,-0.32319763,0.12536922,-0.25003177,-0.16053337,0.13171534,-0.19666862,-0.1440614,0.10089666,0.013009241,0.18578823,0.041878503,0.008357477,0.20122138,-0.25291967,0.23971312,0.40059742,-0.33076042,-0.088874914,-0.42760828,0.21817718,0.08191489,0.95526093,1.0,-0.28598124,1.0,-1.0,1.0,1.0,-1.0,-1.0,-1.0,1.0,-1.0,-1.0,1.0,0.09069377,0.23671433,1.0,1.0,-1.0,-0.7037518,1.0,-1.0,1.0
2025-07-21 16:26:06.040,1.8600000000000012,1860,93,0.12926064,0.12169246,-0.36342674,-0.1300209,0.05578988,0.21822853,-0.0665638,0.1258254,0.029456578,0.0,0.0,0.0,0.025810838,0.5,0.0,0.0,-0.14402626,-0.24249963,0.36219463,-0.0823771,-0.22449937,0.13994057,-0.1341769,-0.081343845,0.04021433,-0.16104056,-0.30311632,0.16437235,-0.12084346,-0.13972798,0.11384543,0.05710572,0.22656713,0.105384804,0.36912954,0.022405997,-0.22987108,0.15250127,-0.44036877,0.1308645,-1.0,-1.0,1.0,0.09069377,0.23671433,1.0,1.0,-1.0,-0.7037518,1.0,-1.0,1.0,1.0,0.16446021,1.0,-0.3982907,-1.0,-0.40329093,-0.050771747,-1.0,0.3252605,1.0,1.0,1.0
2025-07-21 16:26:06.058,1.8800000000000012,1880,94,0.16539906,0.0050638835,-0.5375093,0.1978889,0.4622124,0.0037269315,0.004912001,0.12375037,-0.03031663,0.0,0.0,0.0,0.022760674,0.5,0.0,0.0,-0.13474156,-0.25140256,0.37208837,-0.08010254,-0.19387452,0.100590594,-0.088787004,-0.14952436,0.06545373,-0.12354062,-0.3923053,0.20613971,0.20765054,0.025591344,0.0011834587,-0.061863538,0.046577692,-0.0733668,0.08886187,-0.17423193,0.011574432,0.17150815,-0.16347744,0.09868928,1.0,0.16446021,1.0,-0.3982907,-1.0,-0.40329093,-0.050771747,-1.0,0.3252605,1.0,1.0,1.0,-1.0,-1.0,1.0,1.0,0.40778372,0.1006521,-0.29995373,1.0,1.0,1.0,-1.0,1.0
2025-07-21 16:26:06.082,1.9000000000000012,1900,95,0.050793678,-0.17528602,0.086192,0.30732486,0.53433996,0.055843346,0.021219948,0.057860356,-0.028161218,0.0,0.0,0.0,0.01978649,0.5,0.0,0.0,-0.08909346,-0.26785466,0.3810246,-0.03997719,-0.156813,0.09008361,-0.10083721,-0.17528465,0.121882774,-0.06847493,-0.42082578,0.2405414,0.15196735,0.010901106,0.070707455,0.31050336,0.20905235,-0.04310197,-0.013696428,0.068711236,0.15310591,0.06849088,-0.022354286,0.15358981,-1.0,-1.0,1.0,1.0,0.40778372,0.1006521,-0.29995373,1.0,1.0,1.0,-1.0,1.0,-1.0,1.0,1.0,-0.9656672,-0.20696929,-1.0,1.0,1.0,-1.0,1.0,-1.0,1.0
2025-07-21 16:26:06.097,1.9200000000000013,1920,96,-0.1710098,0.13240618,-0.001346481,0.17136356,0.2756034,0.0502286,0.03371798,0.056404095,-0.031529568,0.0,0.0,0.0,0.018652366,0.5,0.0,0.0,-0.053450275,-0.28241634,0.3874054,-0.018149404,-0.1430221,0.008806432,-0.07183106,-0.113009006,0.0607956,-0.018408135,-0.45181972,0.28905708,-0.006156635,0.0025442138,-0.04389773,-0.16045815,-0.017542984,-0.21256335,0.1255028,0.25466406,-0.1906614,0.10477555,-0.032584168,0.15821904,-1.0,1.0,1.0,-0.9656672,-0.20696929,-1.0,1.0,1.0,-1.0,1.0,-1.0,1.0,-0.573429,1.0,1.0,-0.07733482,1.0,-1.0,1.0,-0.7277483,-0.51109177,-1.0,0.97323245,1.0
2025-07-21 16:26:06.117,1.9400000000000013,1940,97,-0.069012344,0.06479551,-0.25248274,-0.410709,-0.25234398,0.0771582,-0.011684608,0.06312147,-0.030054662,0.0,0.0,0.0,0.017416446,0.5,0.0,0.0,-0.07364846,-0.26269382,0.3942864,-0.037253164,-0.09531842,-0.08148085,0.00941729,-0.078580484,-0.004536257,-0.04498462,-0.45139456,0.31368968,-0.060081635,-0.009934945,-0.0059064305,-0.0064467927,0.19276778,-0.2152584,0.15703222,-0.038772054,-0.09275727,-0.14882071,0.040979102,0.09588147,-0.573429,1.0,1.0,-0.07733482,1.0,-1.0,1.0,-0.7277483,-0.51109177,-1.0,0.97323245,1.0,-1.0,1.0,1.0,-0.08449963,-0.1781154,-1.0,1.0,-0.014309734,1.0,1.0,-1.0,1.0
2025-07-21 16:26:06.137,1.9600000000000013,1960,98,0.07127923,0.33736652,-0.011259232,-0.12820332,-0.07408415,-0.099810824,0.037584946,0.08988761,-0.0048250887,0.0,0.0,0.0,0.016189292,0.5,0.0,0.0,-0.106871404,-0.24100699,0.39409265,-0.027219107,-0.083552554,-0.14094384,0.10394135,-0.084150106,0.057036117,-0.087159626,-0.44404545,0.3346514,-0.014230141,0.08879536,0.05756085,0.021308366,-0.025561664,-0.18591855,0.15376894,0.06642791,0.15406606,-0.008007297,-0.0096362615,0.05352014,-1.0,1.0,1.0,-0.08449963,-0.1781154,-1.0,1.0,-0.014309734,1.0,1.0,-1.0,1.0,-0.42008522,-1.0,1.0,-0.69743276,-0.03761687,1.0,-1.0,-1.0,1.0,1.0,1.0,1.0
2025-07-21 16:26:06.163,1.9800000000000013,1980,99,0.027938029,0.004414791,0.526463,0.116524175,-0.038130295,0.06408011,-0.019908097,0.09118638,-0.04248998,0.0,0.0,0.0,0.017536143,0.5,0.0,0.0,-0.13438752,-0.25800344,0.40865996,-0.07891792,-0.08745115,-0.07570365,0.096722245,-0.107598655,0.12831676,-0.100695364,-0.44224703,0.34872347,0.0017592288,-0.06847797,-0.028131166,-0.20144126,0.037884574,0.277773,-0.18475556,-0.2021546,0.23623914,-0.0072285263,0.10339394,-0.0120041035,-0.42008522,-1.0,1.0,-0.69743276,-0.03761687,1.0,-1.0,-1.0,1.0,1.0,1.0,1.0,-1.0,1.0,1.0,1.0,-1.0,1.0,1.0,0.13457766,1.0,-0.43297875,1.0,1.0
2025-07-21 16:26:06.178,2.0000000000000013,2000,100,0.028713446,0.27161056,0.31862542,-0.24995285,0.3856271,-0.047053292,0.06635077,0.103688076,0.001310388,0.0,0.0,0.0,0.017686252,0.5,0.0,0.0,-0.15183863,-0.23451316,0.4036878,-0.05062238,-0.12978919,0.034475833,0.12608656,-0.119953,0.19490059,-0.11627978,-0.39904568,0.34924158,-0.01748209,0.05602801,0.026752431,0.23145169,-0.22632033,0.25487885,0.16846077,0.10422782,0.14897215,-0.09204702,0.0649276,0.092588164,-1.0,1.0,1.0,1.0,-1.0,1.0,1.0,0.13457766,1.0,-0.43297875,1.0,1.0,1.0,1.0,-1.0,0.5801376,1.0,1.0,-1.0,-1.0,1.0,-0.87207973,1.0,-1.0
2025-07-21 16:26:06.198,2.0200000000000014,2020,101,0.36065105,0.08877803,-0.32762006,-0.22706622,0.019846996,-0.010029901,0.067606166,0.13996887,-0.03707126,0.0,0.0,0.0,0.017328495,0.5,0.0,0.0,-0.13575338,-0.13898923,0.29088232,0.004829561,-0.13639882,0.10376614,0.10996509,-0.13092688,0.23916517,-0.16098273,-0.31307238,0.24021101,0.17526764,0.23601662,-0.3967283,0.06909665,0.17535992,0.12538989,-0.2050787,-0.07176852,0.09339711,-0.1446504,0.23707065,-0.39239755,1.0,1.0,-1.0,0.5801376,1.0,1.0,-1.0,-1.0,1.0,-0.87207973,1.0,-1.0,0.17246173,1.0,-1.0,0.67077714,-1.0,1.0,-1.0,-1.0,1.0,0.6204814,1.0,-1.0
2025-07-21 16:26:06.218,2.0400000000000014,2040,102,0.09640795,0.18733029,-0.2755747,-0.020283522,-0.057530366,0.12993743,0.08922519,0.099471904,-0.035343587,0.0,0.0,0.0,0.017727135,0.5,0.0,0.0,-0.08671294,0.010700281,0.16470051,0.0679475,-0.13973622,0.17243452,0.02363785,-0.22192244,0.28017798,-0.1681331,-0.19032286,0.12222681,0.022341168,0.3188384,-0.24676716,0.058803484,-0.2095001,0.17447667,-0.22568466,-0.27174592,0.09343089,0.14773971,0.26448613,-0.27363476,0.17246173,1.0,-1.0,0.67077714,-1.0,1.0,-1.0,-1.0,1.0,0.6204814,1.0,-1.0,1.0,-1.0,-1.0,1.0,1.0,1.0,-1.0,-0.19072905,1.0,-1.0,1.0,-1.0
2025-07-21 16:26:06.238,2.0600000000000014,2060,103,0.14021559,0.031723246,-0.55217415,-0.30798134,-0.2516336,0.011750489,0.029697003,0.124840066,0.014412906,0.0,0.0,0.0,0.016885154,0.5,0.0,0.0,-0.023986012,0.06662406,0.044723894,0.12338645,-0.15830182,0.21168742,-0.030628772,-0.26001313,0.30872536,-0.19498703,-0.034722935,0.017974425,0.24691105,-0.045228817,-0.23146972,0.025569625,0.03301377,0.03700413,-0.13100809,0.06787846,0.0910268,-0.107945904,0.43716165,-0.20675646,1.0,-1.0,-1.0,1.0,1.0,1.0,-1.0,-0.19072905,1.0,-1.0,1.0,-1.0,0.19229735,-1.0,-0.1538161,1.0,0.55956113,1.0,-1.0,-1.0,1.0,-1.0,-1.0,-1.0
2025-07-21 16:26:06.261,2.0800000000000014,2080,104,0.055850778,-0.100049414,-0.081700794,-0.20767878,-0.39278334,0.0008237689,-0.009940808,0.1519802,-0.045568656,0.0,0.0,0.0,0.016716514,0.5,0.0,0.0,0.01393692,0.016642658,0.033437528,0.114820756,-0.11948762,0.24181092,-0.084114,-0.25915962,0.34189534,-0.23594393,0.044785563,-0.0724682,-0.016201843,-0.21261555,-4.206059e-06,-0.058165234,0.03053982,0.08557949,-0.09946323,-0.10064975,0.09117485,-0.08623559,0.020227645,-0.15643965,0.19229735,-1.0,-0.1538161,1.0,0.55956113,1.0,-1.0,-1.0,1.0,-1.0,-1.0,-1.0,0.1970406,0.894934,-0.7259662,1.0,-0.77283573,1.0,-1.0,-0.864774,1.0,0.30298877,-1.0,-0.40625373
2025-07-21 16:26:06.279,2.1000000000000014,2100,105,0.11392881,0.07129686,0.4625276,0.34532043,-0.06215689,-0.32131678,-0.005211852,0.15899466,-0.029820293,0.0,0.0,0.0,0.017705018,0.5,0.0,0.0,0.031395517,-0.0037320517,-0.032300536,0.12906332,-0.13529328,0.28272852,-0.11424197,-0.29590106,0.36438367,-0.21626678,-0.01457095,-0.08396035,0.103590354,0.05111937,-0.09702392,0.0038314825,-0.16069824,0.13267606,-0.072973624,-0.15839735,0.089508876,0.120145224,-0.25902689,-0.046519924,0.1970406,0.894934,-0.7259662,1.0,-0.77283573,1.0,-1.0,-0.864774,1.0,0.30298877,-1.0,-0.40625373,0.12834106,-1.0,-1.0,-0.7808767,1.0,1.0,1.0,-0.16306874,-0.35368586,-1.0,1.0,0.46605775
2025-07-21 16:26:06.298,2.1200000000000014,2120,106,0.004858933,0.0025994987,-0.1361884,-0.26204666,-0.11117817,0.102098875,-0.0034553404,0.21944788,0.026109809,0.0,0.0,0.0,0.020860357,0.5,0.0,0.0,0.042399958,-0.020726731,-0.11441331,0.10207999,-0.15647681,0.29492667,-0.08621409,-0.28822005,0.27559218,-0.22035083,-0.059569042,-0.040327486,-0.0062136115,-0.19719958,-0.22823827,-0.19732937,0.051135328,-0.0034201667,0.17430446,0.046317466,-0.19501306,-0.15271969,0.13302822,0.13949239,0.12834106,-1.0,-1.0,-0.7808767,1.0,1.0,1.0,-0.16306874,-0.35368586,-1.0,1.0,0.46605775,-1.0,-1.0,1.0,0.8735011,0.20381221,1.0,-1.0,1.0,1.0,-1.0,-1.0,1.0
2025-07-21 16:26:06.318,2.1400000000000015,2140,107,0.20546886,0.066592395,0.21246058,-0.5058325,-0.2916833,0.031899363,-0.008540916,0.21599275,0.020226067,0.0,0.0,0.0,0.022563111,0.5,0.0,0.0,-0.025945488,-0.13075694,-0.037655152,0.058895238,-0.112211645,0.30919594,-0.06944093,-0.27021086,0.27415994,-0.28422156,-0.08457128,0.04845848,-0.21828462,-0.30566186,0.31031516,-0.0807805,0.19358817,0.010113986,-0.076528355,0.09291266,0.11434646,-0.085515246,-0.17298973,0.22918068,-1.0,-1.0,1.0,0.8735011,0.20381221,1.0,-1.0,1.0,1.0,-1.0,-1.0,1.0,-1.0,1.0,1.0,-0.31908375,-1.0,-0.7655864,0.55563945,0.86395705,-1.0,1.0,-1.0,1.0
2025-07-21 16:26:06.338,2.1600000000000015,2160,108,0.17880765,0.03924847,0.1925691,-0.020462848,0.32489666,-0.2350381,0.07172382,0.26440442,0.022276113,0.0,0.0,0.0,0.022794554,0.5,0.0,0.0,-0.101043865,-0.20392208,0.05672911,0.039100397,-0.086224385,0.22873963,-0.0519859,-0.19357228,0.17350069,-0.25592962,-0.16731046,0.12497998,-0.18474066,-0.071896106,0.12991811,-0.07838077,0.0053017745,-0.27883083,0.11348571,0.31061336,-0.35776824,0.05579541,-0.124063715,0.2126142,-1.0,1.0,1.0,-0.31908375,-1.0,-0.7655864,0.55563945,0.86395705,-1.0,1.0,-1.0,1.0,-1.0,-0.9755282,1.0,-0.19096208,1.0,-1.0,1.0,-0.89916575,-1.0,1.0,1.0,1.0
2025-07-21 16:26:06.362,2.1800000000000015,2180,109,0.15589513,-0.17261615,-0.23199548,0.41851485,0.7778059,0.03755663,0.048219882,0.1415279,0.014115127,0.0,0.0,0.0,0.025865637,0.5,0.0,0.0,-0.16674282,-0.25350532,0.111770585,0.021144733,-0.046246048,0.103749104,0.06296477,-0.16681957,0.061332278,-0.1880928,-0.19198006,0.16810933,-0.1262506,-0.29163903,0.2246532,-0.07857787,0.21374209,-0.32851723,0.16166842,-0.1290438,-0.22553925,0.21577165,0.07134155,0.057443593,-1.0,-0.9755282,1.0,-0.19096208,1.0,-1.0,1.0,-0.89916575,-1.0,1.0,1.0,1.0,-1.0,0.9484688,1.0,0.08154127,0.64801127,-0.27772194,1.0,1.0,-1.0,1.0,-1.0,1.0
2025-07-21 16:26:06.379,2.2000000000000015,2200,110,0.19442339,0.2412643,-0.15860881,0.6493383,1.1940489,-0.18071435,0.09739479,0.09199795,-0.01387575,0.0,0.0,0.0,0.02667369,0.5,0.0,0.0,-0.23673339,-0.2793092,0.17089109,0.033755638,0.043963734,0.06903026,0.13152888,-0.12565443,-0.033198316,-0.08406344,-0.21828805,0.22533686,-0.11136236,0.025488082,0.063936755,-0.053486604,0.3226121,-0.093954295,0.12985587,0.21989867,-0.24208187,0.24099953,-0.065310664,0.15845606,-1.0,0.9484688,1.0,0.08154127,0.64801127,-0.27772194,1.0,1.0,-1.0,1.0,-1.0,1.0,-1.0,-1.0,1.0,-0.8289167,-0.26593623,-1.0,1.0,-1.0,1.0,0.7288796,1.0,1.0
2025-07-21 16:26:06.399,2.2200000000000015,2220,111,0.23962422,0.06804968,-0.26788202,0.794559,0.7800838,0.07563854,0.09712908,-0.04978988,0.0045982166,0.0,0.0,0.0,0.026584413,0.5,0.0,0.0,-0.27095965,-0.3039959,0.23865348,-0.04286967,0.11045137,-0.019892352,0.19512567,-0.16078548,0.032580163,-0.010266337,-0.2271017,0.25889853,-0.09638605,-0.20966509,0.08368693,-0.2077713,-0.04307468,-0.26620433,0.12846568,-0.16558523,0.24039558,0.11687297,0.07150643,0.14519396,-1.0,-1.0,1.0,-0.8289167,-0.26593623,-1.0,1.0,-1.0,1.0,0.7288796,1.0,1.0,-1.0,0.21870756,1.0,1.0,0.042340644,-0.6774209,-0.7950444,0.7696358,-0.5197175,1.0,-1.0,1.0
2025-07-21 16:26:06.419,2.2400000000000015,2240,112,0.18548374,0.4062236,0.019941103,0.37685508,0.5676088,0.10770086,0.07253339,-0.08793369,0.025479605,0.0,0.0,0.0,0.025924912,0.5,0.0,0.0,-0.29151946,-0.34240514,0.25682434,-0.040789854,0.10489865,-0.07145434,0.16977574,-0.1499139,-0.0039576464,0.056142516,-0.2380958,0.29724705,-0.019421864,0.007911784,0.096029185,0.12669937,0.0065136524,-0.077396914,-0.31618506,0.23015584,-0.18961096,0.09803259,0.0017204542,0.102405205,-1.0,0.21870756,1.0,1.0,0.042340644,-0.6774209,-0.7950444,0.7696358,-0.5197175,1.0,-1.0,1.0,0.2856042,-0.7059482,1.0,-1.0,0.2948521,-0.6036605,-1.0,-1.0,0.110488296,-1.0,-0.5955609,-1.0
2025-07-21 16:26:06.439,2.2600000000000016,2260,113,-0.3956853,0.13650478,-0.006777683,0.29554105,-0.057269737,-0.14139214,0.067905165,-0.11803272,-0.04057746,0.0,0.0,0.0,0.024322191,0.5,0.0,0.0,-0.2882948,-0.35198998,0.2837919,-0.0599389,0.12221515,-0.106656365,0.050828714,-0.14638111,0.0138814775,0.03606498,-0.2745582,0.1987345,-0.05718841,-0.16436093,0.14400133,-0.14949207,0.051973924,-0.13546371,-0.28272808,-0.17121199,0.04559588,-0.23783523,-0.1771638,-0.3626324,0.2856042,-0.7059482,1.0,-1.0,0.2948521,-0.6036605,-1.0,-1.0,0.110488296,-1.0,-0.5955609,-1.0,-1.0,1.0,1.0,-0.19110987,-0.71966016,-0.9016735,0.7170277,1.0,1.0,1.0,1.0,1.0
2025-07-21 16:26:06.463,2.2800000000000016,2280,114,0.11408548,-0.06973494,0.18446977,-0.09005077,0.24598418,0.20573835,0.07551222,-0.13114604,0.02365469,0.0,0.0,0.0,0.025073271,0.5,0.0,0.0,-0.2852433,-0.37677854,0.30457366,-0.06916769,0.13060127,-0.1624904,0.04570689,-0.17886089,0.0486248,0.052842673,-0.29656276,0.22414497,0.010894505,0.024153275,0.10263147,-0.07024443,-0.0672972,-0.06418284,0.05952989,-0.016912047,0.19006881,0.10716496,0.12867309,0.15591972,-1.0,1.0,1.0,-0.19110987,-0.71966016,-0.9016735,0.7170277,1.0,1.0,1.0,1.0,1.0,-0.78535414,1.0,1.0,-1.0,-1.0,-1.0,0.03252461,1.0,-0.82558846,-0.8715317,-1.0,1.0
2025-07-21 16:26:06.480,2.3000000000000016,2300,115,-0.07974161,0.22190274,-0.21661025,-0.6171218,-0.058841504,-0.046752598,0.13163485,-0.10864573,-0.025506806,0.0,0.0,0.0,0.02400042,0.5,0.0,0.0,-0.31682375,-0.3401707,0.3187614,-0.13622817,0.025391178,-0.20753905,0.0388286,-0.117667735,-0.0065763234,0.016409837,-0.29112247,0.25469664,-0.013883636,0.0016381528,0.07633982,-0.1416543,-0.24977666,-0.12299344,-0.056646097,0.26418445,-0.22704408,-0.27935886,-0.050900713,0.14685911,-0.78535414,1.0,1.0,-1.0,-1.0,-1.0,0.03252461,1.0,-0.82558846,-0.8715317,-1.0,1.0,-1.0,1.0,1.0,-0.87636113,0.13719627,1.0,0.97959775,-0.3556573,1.0,1.0,0.27267465,1.0
2025-07-21 16:26:06.499,2.3200000000000016,2320,116,0.20419335,-0.22116132,0.40947536,-0.089834705,0.29851574,0.6014831,0.16607636,-0.1366987,0.024317412,0.0,0.0,0.0,0.023010297,0.5,0.0,0.0,-0.3466823,-0.31349182,0.34622207,-0.17973813,-0.012617947,-0.12227705,0.06479769,-0.098974705,0.0039005936,0.0065498264,-0.28971657,0.29021275,-0.040890373,0.05007397,0.073054425,-0.15192182,-0.009615025,0.21703954,0.12180901,-0.08483185,0.20153837,0.17366405,0.02801228,-0.0018626029,-1.0,1.0,1.0,-0.87636113,0.13719627,1.0,0.97959775,-0.3556573,1.0,1.0,0.27267465,1.0,1.0,1.0,1.0,1.0,-1.0,1.0,-1.0,1.0,1.0,-1.0,-1.0,1.0
2025-07-21 16:26:06.519,2.3400000000000016,2340,117,0.4634189,-0.19105521,0.65138847,-0.27255642,0.12540753,-0.045644224,0.13319589,-0.07102558,0.049857136,0.0,0.0,0.0,0.016972117,0.5,0.0,0.0,-0.34513062,-0.2540622,0.3551095,-0.16263989,-0.058726057,-0.027087191,0.0913282,-0.110514194,0.07350319,-0.0114787,-0.30084163,0.31328264,0.043697923,0.14195137,0.013945068,0.12816493,-0.21900639,0.18798631,-0.079892844,0.0060510146,0.11352023,-0.20869468,-0.08955632,0.12097072,1.0,1.0,1.0,1.0,-1.0,1.0,-1.0,1.0,1.0,-1.0,-1.0,1.0,1.0,1.0,-0.42037058,1.0,-1.0,1.0,-1.0,-1.0,1.0,-0.4786868,1.0,-1.0
2025-07-21 16:26:06.539,2.3600000000000017,2360,118,0.5840722,-0.49588236,0.6201286,-0.072481334,-0.1733673,-0.12888807,0.21915552,-0.0445717,0.0034274843,0.0,0.0,0.0,0.012412752,0.5,0.0,0.0,-0.2727799,-0.17886515,0.26423705,-0.050796058,-0.19476523,0.056558765,0.060098577,-0.111113936,0.13520105,-0.061693244,-0.25332004,0.2108031,0.13005415,0.22818093,-0.24674621,0.20388286,-0.4277667,0.18927692,-0.089213066,-0.10557487,0.14239582,-0.020007234,0.15573634,-0.28360796,1.0,1.0,-0.42037058,1.0,-1.0,1.0,-1.0,-1.0,1.0,-0.4786868,1.0,-1.0,1.0,1.0,-1.0,-1.0,1.0,1.0,-1.0,0.45076385,1.0,-0.022822306,1.0,-1.0
2025-07-21 16:26:06.587,2.3800000000000017,2380,119,0.54491204,-0.31240273,0.33738157,-0.37368596,-0.76032794,-0.1899716,0.1880665,-0.022116106,-0.04560195,0.0,0.0,0.0,0.0144711025,0.5,0.0,0.0,-0.1957282,-0.050356362,0.14868623,-0.038718138,-0.2552477,0.13576426,0.0039376654,-0.11557431,0.19394377,-0.05729109,-0.14549534,0.09518616,0.28542295,0.3241281,-0.33516705,-0.08425614,-0.024234764,0.20783404,-0.22893825,0.011063701,0.03788631,0.08102306,0.31844524,-0.2740164,1.0,1.0,-1.0,-1.0,1.0,1.0,-1.0,0.45076385,1.0,-0.022822306,1.0,-1.0,-0.43494752,0.13936852,-0.688071,-0.4401489,-0.2874973,1.0,-1.0,-1.0,-1.0,-0.8036536,0.95433605,-0.47859958
2025-07-21 16:26:06.612,2.4000000000000017,2400,120,0.5056785,-0.15128943,-0.094441436,-0.48746586,-1.3492948,0.060382623,0.13776505,-0.0037186414,0.043074105,0.0,0.0,0.0,0.017381676,0.5,0.0,0.0,-0.17603287,0.01929447,0.060997896,-0.08483406,-0.2708598,0.19594605,-0.093396015,-0.11180207,0.10972524,-0.11469415,-0.0040395027,0.039916422,0.042336658,0.059196003,-0.19731312,-0.05688224,-0.0029020994,0.10605907,-0.12679613,-0.104109466,-0.27498564,-0.2001456,0.40277967,-0.06958109,-0.43494752,0.13936852,-0.688071,-0.4401489,-0.2874973,1.0,-1.0,-1.0,-1.0,-0.8036536,0.95433605,-0.47859958,-1.0,-1.0,-0.7889025,0.03266543,-0.2718176,1.0,-1.0,-0.5015348,1.0,-0.30455732,-1.0,-1.0
2025-07-21 16:26:06.630,2.4200000000000017,2420,121,0.36770344,-0.32789087,0.11308733,-0.12887983,-1.2943583,0.05967706,0.02481764,0.100681335,-0.014052338,0.0,0.0,0.0,0.018659778,0.5,0.0,0.0,-0.2199642,0.0055138106,-0.0068983273,-0.07892606,-0.27945498,0.23405759,-0.15780815,-0.18894754,0.1321744,-0.12039086,0.08056406,-0.042786427,-0.19976735,-0.17499372,-0.13175017,-0.0133456895,-0.105254,0.044293992,-0.20825839,-0.14898852,0.124912106,0.015169378,0.02389241,-0.20313963,-1.0,-1.0,-0.7889025,0.03266543,-0.2718176,1.0,-1.0,-0.5015348,1.0,-0.30455732,-1.0,-1.0,1.0,-0.6057615,-1.0,-0.6128424,0.4594204,1.0,-1.0,-0.697222,1.0,-1.0,-1.0,-1.0
2025-07-21 16:26:06.648,2.4400000000000017,2440,122,0.13810588,-0.44864166,-0.42116985,0.013956538,-1.2444121,0.10902237,-0.02681328,0.1629631,-0.0266438,0.0,0.0,0.0,0.017453345,0.5,0.0,0.0,-0.2103618,-0.1084333,-0.088271484,-0.09991476,-0.2551761,0.2700987,-0.21394214,-0.31479406,0.18942288,-0.17938893,0.01703724,-0.11658469,0.19697753,-0.34577137,-0.20108688,-0.070713766,0.12804915,0.124892,-0.07431357,-0.33639723,0.17751221,-0.2058085,-0.23608461,-0.22764398,1.0,-0.6057615,-1.0,-0.6128424,0.4594204,1.0,-1.0,-0.697222,1.0,-1.0,-1.0,-1.0,1.0,1.0,1.0,1.0,-1.0,1.0,-1.0,1.0,1.0,1.0,0.9149093,0.99530506
2025-07-21 16:26:06.668,2.4600000000000017,2460,123,0.2703252,-0.19768229,-0.40583423,0.1884929,0.053871397,-0.18641682,-0.019263808,0.17502727,0.03552137,0.0,0.0,0.0,0.01554831,0.5,0.0,0.0,-0.06972613,-0.17387533,-0.02097009,-0.08432492,-0.22676888,0.29795158,-0.27271584,-0.33621347,0.23410128,-0.139988,-0.005734849,-0.04938493,0.25520575,-0.016324557,0.20844531,0.008241587,0.025304513,0.07748182,-0.17039232,0.06444457,0.1405102,0.24204974,0.03190472,0.2237035,1.0,1.0,1.0,1.0,-1.0,1.0,-1.0,1.0,1.0,1.0,0.9149093,0.99530506,0.34517357,-0.26546216,-1.0,0.74926335,-1.0,1.0,0.05660745,-1.0,1.0,0.058138087,1.0,-1.0
2025-07-21 16:26:06.688,2.4800000000000018,2480,124,0.035575856,-0.15997738,-0.45836863,0.30436656,0.4037722,-0.28386846,-0.09971341,0.15287758,-0.031158503,0.0,0.0,0.0,0.016762132,0.5,0.0,0.0,-0.023090078,-0.19058715,-0.06911259,-0.048904225,-0.23296958,0.33871323,-0.24914017,-0.35897186,0.2866979,-0.07710078,0.07070436,-0.09796653,0.13650699,0.0004681536,-0.13812827,0.06864463,-0.073437706,-0.017042315,0.18916647,-0.10307952,0.11004635,0.05098502,0.30650717,-0.15196693,0.34517357,-0.26546216,-1.0,0.74926335,-1.0,1.0,0.05660745,-1.0,1.0,0.058138087,1.0,-1.0,1.0,-0.5561794,1.0,-1.0,1.0,1.0,1.0,-1.0,1.0,-1.0,-1.0,1.0
2025-07-21 16:26:06.712,2.5000000000000018,2500,125,-0.007813238,-0.327241,-0.61217976,0.17624377,0.3570144,0.10525621,-0.01978944,0.15106055,-0.046213,0.0,0.0,0.0,0.020177806,0.5,0.0,0.0,0.04583714,-0.26270577,-0.004935733,-0.042706132,-0.23052932,0.34249437,-0.17507917,-0.3853837,0.31262502,-0.13892433,0.089619786,-0.019334203,0.23455428,-0.18855627,0.20968097,-0.09119272,0.107678585,-0.027233314,0.20578913,-0.2065453,0.10831699,-0.24660288,-0.074579775,0.23164982,1.0,-0.5561794,1.0,-1.0,1.0,1.0,1.0,-1.0,1.0,-1.0,-1.0,1.0,-1.0,1.0,0.8375794,1.0,-1.0,1.0,-1.0,0.93877053,1.0,1.0,-1.0,0.91575885
2025-07-21 16:26:06.728,2.520000000000002,2520,126,-0.096995585,-0.2112515,-0.06670528,0.08807372,0.33361924,-0.11362663,-0.0118484,0.13913898,-0.0076999725,0.0,0.0,0.0,0.020639993,0.5,0.0,0.0,0.05199518,-0.28046447,0.05970851,-0.03924935,-0.24136364,0.35150686,-0.12145558,-0.4079212,0.32493514,-0.12498394,5.3080366e-05,0.05810631,-0.08806663,0.032050256,0.12534104,0.090703145,0.016481386,0.10866827,0.11713913,-0.041177787,0.020140199,0.11003634,-0.30310526,0.23368749,-1.0,1.0,0.8375794,1.0,-1.0,1.0,-1.0,0.93877053,1.0,1.0,-1.0,0.91575885,-0.8066404,1.0,-1.0,-0.7147403,0.42487428,1.0,-0.2506818,-0.0780718,1.0,1.0,-0.13541909,1.0
2025-07-21 16:26:06.748,2.540000000000002,2540,127,0.17344354,-0.08354394,-0.097348295,-0.24638665,0.1232277,0.12839802,0.0005805184,0.15026493,0.017217912,0.0,0.0,0.0,0.020371607,0.5,0.0,0.0,-0.0344946,-0.18001914,-0.003892397,-0.06387631,-0.2200853,0.37620735,-0.10850361,-0.397454,0.33500785,-0.033182696,-0.026547898,0.11569264,-0.12589665,0.28075647,-0.21552788,-0.17425808,0.08401742,0.09561402,0.035194088,-0.003351701,0.071181,0.26065475,-6.1474806e-05,0.13104427,-0.8066404,1.0,-1.0,-0.7147403,0.42487428,1.0,-0.2506818,-0.0780718,1.0,1.0,-0.13541909,1.0,0.5549269,1.0,-1.0,1.0,-1.0,1.0,-1.0,-1.0,1.0,-1.0,0.6882285,-1.0
2025-07-21 16:26:06.768,2.560000000000002,2560,128,-0.014437641,-0.17787519,0.038534883,-0.015501696,-0.08374011,-0.09957093,0.020907346,0.14463401,0.022410642,2.0,0.0,0.0,0.019883676,0.7655069,0.0,0.0,-0.039062217,-0.022188313,-0.08377642,-0.063283086,-0.20147534,0.38707873,-0.12529767,-0.39212662,0.35452342,-0.025347421,0.010871821,0.043520756,0.1959633,0.40323842,-0.17161438,0.028545769,0.04959719,0.023358088,-0.105675206,-0.09184556,0.10716072,-0.09103195,0.19483808,-0.30106875,0.5549269,1.0,-1.0,1.0,-1.0,1.0,-1.0,-1.0,1.0,-1.0,0.6882285,-1.0,1.0,-1.0,-1.0,1.0,1.0,1.0,-1.0,1.0,1.0,-1.0,-1.0,-1.0
2025-07-21 16:26:06.789,2.580000000000002,2580,129,0.25393632,0.18134199,0.3068808,-0.18370728,0.04228668,-0.17784366,-0.015336753,0.125481,-0.009423238,2.0,0.0,0.0,0.020429697,0.5623351,0.0,0.0,0.04362359,0.04501247,-0.14997955,-0.06496107,-0.17980887,0.38479787,-0.15126085,-0.38428405,0.37946156,-0.09546532,0.00782301,-0.04168327,0.23835608,0.04900464,-0.19016564,0.11611336,0.022687228,0.006310307,0.018904166,0.10563964,-0.047524683,-0.14347515,-0.17908655,-0.25669256,1.0,-1.0,-1.0,1.0,1.0,1.0,-1.0,1.0,1.0,-1.0,-1.0,-1.0,0.4729477,-1.0,-1.0,1.0,1.0,1.0,-1.0,1.0,1.0,-1.0,0.34203985,-1.0
2025-07-21 16:26:06.873,2.600000000000002,2600,130,0.54966944,0.0017527645,0.22928433,-0.52457726,-0.06184943,-0.097356856,0.045172323,0.1381875,-0.04418495,2.0,0.0,0.0,0.024474338,0.32376814,0.0,0.0,0.085224725,0.017765993,-0.1956052,-0.045603756,-0.14070126,0.39219782,-0.15498206,-0.3484196,0.3665541,-0.1704192,0.021342557,-0.11617904,0.072331816,-0.17295924,-0.14337017,0.07579543,0.16577129,-0.05879266,-0.092069045,0.08126231,-0.04631952,-0.20985353,0.13425227,-0.2276966,0.4729477,-1.0,-1.0,1.0,1.0,1.0,-1.0,1.0,1.0,-1.0,0.34203985,-1.0,1.0,-1.0,-1.0,0.02805525,1.0,1.0,-1.0,1.0,1.0,-1.0,-1.0,-1.0
2025-07-21 16:26:06.897,2.620000000000002,2620,131,0.58699614,-0.028717866,0.22105318,-0.56547105,-0.27013633,-0.11380201,-0.000912029,0.2208058,-0.003903731,2.0,0.0,0.0,0.029018218,0.17072313,0.0,0.0,0.14767145,-0.109567665,-0.2480907,-0.04034646,-0.060911525,0.39872256,-0.20377705,-0.3010774,0.37939525,-0.23873757,0.022470795,-0.17390966,0.16960354,-0.38945508,-0.043561164,-0.018101605,0.25512636,0.045490894,-0.15545052,0.0906729,-0.028006054,-0.086180665,-0.14999117,-0.15832008,1.0,-1.0,-1.0,0.02805525,1.0,1.0,-1.0,1.0,1.0,-1.0,-1.0,-1.0,-0.1487254,-1.0,1.0,0.41345853,1.0,1.0,1.0,1.0,1.0,0.6108738,-1.0,-1.0
2025-07-21 16:26:06.913,2.640000000000002,2640,132,0.51661587,-0.33263525,0.74012405,-0.4626286,0.4199585,-0.07285857,0.10303548,0.20841521,-0.007840793,2.0,0.0,0.0,0.03439006,0.09668144,0.0,0.0,0.1518151,-0.2743038,-0.15691514,-0.014386101,0.023471562,0.40434828,-0.17320937,-0.22400288,0.37501302,-0.18184751,-0.06284048,-0.22291008,-0.15753363,-0.49703628,0.3268229,0.10421774,0.30531424,0.026619196,0.14011167,0.16089238,-0.026747307,0.27806777,-0.27222338,-0.05356643,-0.1487254,-1.0,1.0,0.41345853,1.0,1.0,1.0,1.0,1.0,0.6108738,-1.0,-1.0,-1.0,1.0,-0.26560092,-1.0,1.0,-1.0,1.0,1.0,1.0,1.0,-1.0,1.0
2025-07-21 16:26:06.933,2.660000000000002,2660,133,1.0595086,-0.5217526,0.3637238,-0.47055477,0.19148213,0.09907009,0.120081976,0.26436508,-0.021071516,2.0,0.0,0.0,0.03954287,0.060653854,0.0,0.0,0.06226036,-0.369902,-0.14893383,-0.028752947,0.1797172,0.29084417,-0.113761865,-0.12848945,0.38267085,-0.08375015,-0.22378063,-0.12603638,-0.303905,-0.065849006,-0.055223186,-0.16590491,0.36748192,-0.34746063,0.22239742,0.2286876,0.034626253,0.3389807,-0.46984923,0.28828937,-1.0,1.0,-0.26560092,-1.0,1.0,-1.0,1.0,1.0,1.0,1.0,-1.0,1.0,1.0,1.0,1.0,-1.0,0.5454242,-1.0,-0.4586647,1.0,1.0,1.0,1.0,1.0
2025-07-21 16:26:07.065,2.680000000000002,2680,134,1.2955925,-0.5528557,-0.056057923,-0.49379277,0.06085002,-0.23091319,0.18702528,0.251156,-0.03229797,2.0,0.0,0.0,0.04202513,0.04153163,0.0,0.0,0.046826437,-0.32644415,-0.049689885,-0.11833124,0.26315862,0.16157229,-0.086783625,-0.04236696,0.39592376,0.024040077,-0.29995722,-0.042355623,0.11790085,0.26318708,0.2877582,-0.17433186,0.19465218,-0.30697984,0.016464164,0.27437487,0.04368911,0.1464973,-0.06858062,0.16824032,1.0,1.0,1.0,-1.0,0.5454242,-1.0,-0.4586647,1.0,1.0,1.0,1.0,1.0,-1.0,1.0,0.3664829,-1.0,-0.52516294,-1.0,-1.0,-1.0,-1.0,1.0,1.0,1.0
2025-07-21 16:26:07.095,2.700000000000002,2700,135,0.96042526,-0.2154212,0.29945788,-0.050147492,-0.04449528,-0.23265673,0.17805892,0.224747,0.020750536,2.0,0.0,0.0,0.04746743,0.030466205,0.0,0.0,0.01732483,-0.20692906,-0.0061694775,-0.19356638,0.27153575,0.04743505,-0.11300742,0.05665169,0.2839859,0.059196446,-0.30217594,0.026882416,-0.19840562,0.3402809,0.033732936,-0.1077326,-0.19105375,-0.2389793,-0.10957025,0.12019597,-0.36544925,-0.009796018,-0.03058657,0.14285597,-1.0,1.0,0.3664829,-1.0,-0.52516294,-1.0,-1.0,-1.0,-1.0,1.0,1.0,1.0,-1.0,1.0,1.0,-1.0,1.0,-1.0,1.0,0.68412995,-1.0,1.0,1.0,1.0
2025-07-21 16:26:07.116,2.720000000000002,2720,136,1.2609074,-0.25321135,-0.11100446,0.020814816,0.8879068,-0.23706944,0.21678428,0.19888775,0.024611138,2.0,0.0,0.0,0.053779628,0.023598555,0.0,0.0,-0.07472708,-0.06803922,0.07366585,-0.23292765,0.2956843,-0.0357304,-0.06251148,0.14366136,0.1520816,0.104926705,-0.28909233,0.09978266,-0.27738485,0.40546963,0.1325864,-0.09376128,0.08787628,-0.14585894,0.23718871,0.343168,-0.3364463,0.19239123,0.033382006,0.13225861,-1.0,1.0,1.0,-1.0,1.0,-1.0,1.0,0.68412995,-1.0,1.0,1.0,1.0,-1.0,-0.020411614,1.0,-1.0,-1.0,-1.0,1.0,-1.0,-1.0,1.0,1.0,1.0
2025-07-21 16:26:07.136,2.740000000000002,2740,137,1.0403562,-0.26574522,0.19045419,0.34306926,0.753026,-0.14533418,0.25486225,0.14422722,0.017564954,2.0,0.0,0.0,0.057481047,0.019101385,0.0,0.0,-0.15523335,0.02362103,0.14298593,-0.2899037,0.27879858,-0.10525423,0.035529513,0.19476849,0.042188674,0.17706339,-0.2834029,0.13958357,-0.10730108,0.08438653,0.2309476,-0.08619501,-0.15160327,-0.22052081,0.15510479,-0.08875416,-0.2524297,0.13057195,-0.03584205,0.16354984,-1.0,-0.020411614,1.0,-1.0,-1.0,-1.0,1.0,-1.0,-1.0,1.0,1.0,1.0,-1.0,1.0,1.0,0.7526694,-1.0,-1.0,1.0,-0.7392328,-1.0,1.0,1.0,1.0
2025-07-21 16:26:07.156,2.760000000000002,2760,138,1.0190641,-0.3926728,-0.08858199,0.28517747,0.9155093,-0.19633873,0.190088,0.054325867,0.039426614,2.0,0.0,0.0,0.0586772,0.01603778,0.0,0.0,-0.2036408,0.08002016,0.19893631,-0.24866466,0.1661658,-0.17841573,0.11555587,0.116771586,-0.03430043,0.25258523,-0.287777,0.18194455,-0.17053533,0.19561525,0.07139594,0.18087693,-0.33334157,-0.11006886,0.22210507,-0.32064012,-0.25189438,0.20554125,0.06423323,0.10729493,-1.0,1.0,1.0,0.7526694,-1.0,-1.0,1.0,-0.7392328,-1.0,1.0,1.0,1.0,-1.0,1.0,1.0,1.0,-0.27902594,1.0,0.7508829,-1.0,-0.628139,1.0,1.0,1.0
2025-07-21 16:26:07.176,2.780000000000002,2780,139,1.5244235,-0.016212545,-0.20908286,0.2796715,0.8392698,-0.09331325,0.24135837,-0.038872905,0.013666384,2.0,0.0,0.0,0.059644964,0.013893739,0.0,0.0,-0.2760242,0.19215904,0.25000408,-0.14070563,0.06565155,-0.094855785,0.16975711,-0.0164108,-0.077453956,0.3094357,-0.25996646,0.2229439,-0.12160478,0.27711377,0.10748775,0.27790466,-0.24390437,0.29741165,0.05972555,-0.35032254,-0.05154108,0.19278836,0.049842905,0.10973563,-1.0,1.0,1.0,1.0,-0.27902594,1.0,0.7508829,-1.0,-0.628139,1.0,1.0,1.0,-1.0,0.3012553,-1.0,1.0,1.0,1.0,-1.0,-0.6333164,-1.0,1.0,1.0,1.0
2025-07-21 16:26:07.199,2.800000000000002,2800,140,1.3374851,-0.22518368,-0.040699955,0.272401,0.3797327,-0.02231379,0.27796462,-0.0032659317,0.028824354,2.0,0.0,0.0,0.06093231,0.0123714525,0.0,0.0,-0.3108965,0.25841826,0.1575751,-0.024140237,0.068004854,-0.005377241,0.11674729,-0.15070121,-0.142545,0.35496804,-0.2573776,0.24802375,-0.10166069,0.06993169,-0.25168717,0.19640233,0.14206505,0.20160994,-0.24523847,-0.31934956,-0.11054764,0.028353479,-0.044811077,0.03164346,-1.0,0.3012553,-1.0,1.0,1.0,1.0,-1.0,-0.6333164,-1.0,1.0,1.0,1.0,0.9508886,1.0,-1.0,1.0,0.35158017,1.0,-1.0,0.1584169,1.0,1.0,1.0,1.0
2025-07-21 16:26:07.216,2.820000000000002,2820,141,1.5820607,0.22115487,-0.280781,0.12851122,0.65032274,-0.19569674,0.21089755,-0.06408661,-0.0063862368,2.0,0.0,0.0,0.062104203,0.011291096,0.0,0.0,-0.29467323,0.32587844,0.054703947,0.0650348,0.13188785,0.07917332,0.016252065,-0.21450564,-0.08323879,0.3779195,-0.22798547,0.26907536,0.12931408,0.22626127,-0.30652568,0.24174081,0.20592238,0.19991492,-0.19723535,0.08561638,0.21595344,0.15072541,0.02406363,0.020360336,0.9508886,1.0,-1.0,1.0,0.35158017,1.0,-1.0,0.1584169,1.0,1.0,1.0,1.0,1.0,-1.0,-1.0,1.0,-1.0,1.0,-1.0,-0.18188867,1.0,-1.0,1.0,0.4740071
2025-07-21 16:26:07.236,2.840000000000002,2840,142,1.7354827,0.09930644,-0.6392296,0.18331768,0.15004909,-0.37122306,0.2562833,-0.14727844,-0.018596213,2.0,0.0,0.0,0.06496536,0.010541213,0.0,0.0,-0.1591211,0.34579492,-0.029394807,0.14895456,0.119564794,0.14051308,-0.0824538,-0.21689586,0.023498537,0.37313065,-0.18225372,0.25446308,0.24108456,-0.14098312,-0.27439693,0.14331605,-0.12012601,0.22635315,-0.18295148,0.05636861,0.20433556,-0.10407888,0.19384661,-0.1124552,1.0,-1.0,-1.0,1.0,-1.0,1.0,-1.0,-0.18188867,1.0,-1.0,1.0,0.4740071,1.0,-1.0,-1.0,-0.03339237,1.0,1.0,0.44818267,-1.0,1.0,-1.0,1.0,-1.0
2025-07-21 16:26:07.256,2.860000000000002,2860,143,1.6654904,0.10832026,-0.7302178,0.383816,-0.35570514,-0.22222087,0.18585822,-0.09471645,0.024303695,2.0,0.0,0.0,0.07101522,0.010052406,0.0,0.0,-0.051963676,0.25731757,-0.10824786,0.1379738,0.12194774,0.20766382,-0.11863983,-0.23842214,0.09154002,0.29825625,-0.09892981,0.13727373,0.3004623,-0.33075556,-0.102716826,-0.10959121,0.1725742,0.13679767,-0.006774863,-0.10878621,0.13116235,-0.31228435,0.34233022,-0.3277691,1.0,-1.0,-1.0,-0.03339237,1.0,1.0,0.44818267,-1.0,1.0,-1.0,1.0,-1.0,1.0,-1.0,-1.0,1.0,-1.0,1.0,-1.0,1.0,1.0,-1.0,0.14531891,-1.0
2025-07-21 16:26:07.280,2.880000000000002,2880,144,1.4347878,0.3787079,-0.86072856,0.41318706,-0.65011257,-0.44287455,0.14379741,-0.106497064,-0.045006454,2.0,0.0,0.0,0.07549368,0.00978298,0.0,0.0,0.045435045,0.10968477,-0.16830243,0.16066778,0.12827514,0.24140906,-0.15373258,-0.25404242,0.15059616,0.17205362,-0.041178357,0.03218882,0.29234123,-0.48403955,-0.13892001,0.141383,-0.076432504,0.07894866,-0.10001065,-0.07914918,0.17873672,-0.39443606,0.17933021,-0.20406882,1.0,-1.0,-1.0,1.0,-1.0,1.0,-1.0,1.0,1.0,-1.0,0.14531891,-1.0,0.27309105,-1.0,-1.0,-1.0,1.0,1.0,1.0,-0.6095277,1.0,-1.0,1.0,-1.0
2025-07-21 16:26:07.296,2.900000000000002,2900,145,1.505218,0.16946751,-0.9469418,0.6257677,-0.96288186,-0.06299462,0.07374853,-0.024469528,0.043926157,2.0,0.0,0.0,0.08061869,0.009711151,0.0,0.0,0.071565546,-0.0823246,-0.22548796,0.14447695,0.12618692,0.29192722,-0.17572227,-0.30300525,0.19494376,0.043373503,0.051601656,-0.039919455,0.07368674,-0.54709786,-0.088651754,-0.13469511,0.10329272,0.10397793,-0.06430865,-0.20378959,0.18781836,-0.26604745,0.2547457,-0.16994739,0.27309105,-1.0,-1.0,-1.0,1.0,1.0,1.0,-0.6095277,1.0,-1.0,1.0,-1.0,-1.0,-1.0,1.0,1.0,0.7750605,1.0,-1.0,1.0,1.0,-1.0,-1.0,-1.0
2025-07-21 16:26:07.316,2.920000000000002,2920,146,1.8605663,-0.15056562,-0.6826956,0.48022574,-1.0133146,-0.036135208,0.003138403,0.052903604,-0.019072192,2.0,0.0,0.0,0.083072245,0.009831255,0.0,0.0,0.025468169,-0.2911762,-0.13011307,0.14984664,0.21073608,0.32309264,-0.23228991,-0.33433098,0.23497361,-0.052394606,0.076531015,-0.12681535,-0.2877259,-0.5306717,0.3242598,0.18114856,0.32160735,0.07699608,-0.10310355,-0.0068237754,0.07710883,-0.21992546,0.0061349547,-0.19833392,-1.0,-1.0,1.0,1.0,0.7750605,1.0,-1.0,1.0,1.0,-1.0,-1.0,-1.0,-1.0,0.15296006,1.0,-1.0,-1.0,1.0,1.0,1.0,1.0,-1.0,-1.0,1.0
2025-07-21 16:26:07.336,2.940000000000002,2940,147,2.0859258,-0.29847527,-0.9322334,0.6678933,-0.70257306,-0.05740191,0.0051571517,0.10748401,-0.04409728,2.0,0.0,0.0,0.0836196,0.010152795,0.0,0.0,-0.073661536,-0.37666234,-0.031768333,0.14410058,0.23717067,0.35012975,-0.2517583,-0.30332625,0.2639308,-0.1328872,0.008367269,-0.050973993,-0.22591849,-0.10129954,0.2379524,-0.09304692,-0.038595058,0.0104981065,0.031991836,0.008207929,0.10063224,-0.2109473,-0.3056797,0.2816401,-1.0,0.15296006,1.0,-1.0,-1.0,1.0,1.0,1.0,1.0,-1.0,-1.0,1.0,-1.0,0.7341647,1.0,-0.5998598,-0.21507522,0.5952316,1.0,1.0,1.0,1.0,-1.0,1.0
2025-07-21 16:26:07.356,2.960000000000002,2960,148,2.2656417,0.0790527,-0.70943785,0.84342116,-0.2268102,-0.004322067,-0.12872292,0.088243365,-0.026201861,2.0,0.0,0.0,0.084889226,0.5,0.0,0.0,-0.14469323,-0.36370823,0.05617273,0.09630393,0.20500734,0.34424186,-0.2037034,-0.27072158,0.2977697,-0.09526153,-0.13276912,0.03932599,-0.233191,0.16932487,0.2530752,-0.18095076,-0.11231932,0.05534993,0.13127449,0.1139358,0.058776062,0.27062938,-0.32932582,0.19637662,-1.0,0.7341647,1.0,-0.5998598,-0.21507522,0.5952316,1.0,1.0,1.0,1.0,-1.0,1.0,-1.0,-0.1925112,1.0,-0.6900113,1.0,-1.0,-1.0,0.13521937,-1.0,1.0,1.0,1.0
2025-07-21 16:26:07.376,2.980000000000002,2980,149,2.187452,-0.42155528,-0.41146073,0.31899947,-0.8629012,0.12194697,-0.11865135,0.063741654,0.019359725,2.0,0.0,0.0,0.08594072,0.7242532,0.0,0.0,-0.21032819,-0.32763383,0.09838416,0.010376054,0.2662397,0.2300503,-0.21651526,-0.18125403,0.1964676,0.0048892857,-0.19834204,0.11103794,-0.18467182,-0.0049873637,0.16059192,-0.17725433,0.24692507,-0.34939048,-0.1577577,0.2538721,-0.35784593,0.23772816,-0.019082626,0.2338306,-1.0,-0.1925112,1.0,-0.6900113,1.0,-1.0,-1.0,0.13521937,-1.0,1.0,1.0,1.0,-1.0,1.0,1.0,-1.0,-0.31998232,-1.0,1.0,1.0,-1.0,1.0,-1.0,1.0
2025-07-21 16:26:07.400,3.000000000000002,3000,150,1.983414,-0.5335236,-0.34308314,-0.11016142,-0.64136344,-0.06144411,-0.22366427,0.11354242,0.002922453,2.0,0.0,0.0,0.08572831,0.85329676,0.0,0.0,-0.26103446,-0.30531636,0.1558678,-0.06510614,0.36160466,0.10279733,-0.19426152,-0.08178046,0.08150655,0.071612485,-0.24190558,0.17083924,-0.10317623,0.020573422,0.032661643,-0.15306382,0.058986016,-0.21861115,0.18123448,0.3377659,-0.32713446,0.18156464,-0.07014284,0.07707816,-1.0,1.0,1.0,-1.0,-0.31998232,-1.0,1.0,1.0,-1.0,1.0,-1.0,1.0,-1.0,1.0,1.0,-0.5551697,-1.0,-1.0,1.0,0.2301006,0.18494368,1.0,1.0,1.0
2025-07-21 16:26:07.416,3.0200000000000022,3020,151,1.7697663,-0.28188786,0.06944398,-0.328195,-0.49100482,0.10999836,-0.18175672,0.1850048,-0.02124694,2.0,0.0,0.0,0.0871306,0.9147498,0.0,0.0,-0.28594324,-0.26911664,0.18310146,-0.1046767,0.34546542,0.0047655613,-0.088694304,-0.015004652,0.07850299,0.11350212,-0.20848621,0.22661492,-0.050850112,0.11326254,0.0224683,-0.046048436,-0.013706995,-0.22876726,0.22045022,0.13671127,-0.028954424,0.14166406,0.14748932,0.035760712,-1.0,1.0,1.0,-0.5551697,-1.0,-1.0,1.0,0.2301006,0.18494368,1.0,1.0,1.0,-1.0,1.0,1.0,-1.0,-1.0,-1.0,1.0,1.0,-1.0,1.0,-1.0,1.0
2025-07-21 16:26:07.437,3.0400000000000023,3040,152,1.8600113,-0.42325437,0.5410164,-0.27187088,-0.3802663,0.055728327,-0.12860964,0.23940656,0.04703709,2.0,0.0,0.0,0.0882509,0.9452337,0.0,0.0,-0.30562747,-0.20920548,0.21977404,-0.17005149,0.3233298,-0.06850692,0.018351156,0.085658476,-0.01970551,0.14379342,-0.16583048,0.26231813,-0.06717499,0.09229993,0.040347543,-0.10427228,-0.22362009,-0.16668172,0.20982692,0.35573506,-0.1963873,0.07195059,0.1254732,0.06608103,-1.0,1.0,1.0,-1.0,-1.0,-1.0,1.0,1.0,-1.0,1.0,-1.0,1.0,0.22285007,1.0,1.0,-0.7213499,-1.0,-1.0,1.0,-0.51013076,-1.0,1.0,1.0,1.0
2025-07-21 16:26:07.457,3.0600000000000023,3060,153,2.0668645,-0.50156516,0.47523072,-0.21130009,0.016583247,-0.11319063,-0.17634565,0.27003637,-0.020970207,2.0,0.0,0.0,0.088905364,0.96178675,0.0,0.0,-0.27592415,-0.123739354,0.24761774,-0.19879027,0.22919016,-0.124149665,0.11428431,0.14008065,-0.08193339,0.2022854,-0.09236794,0.2911289,0.18174885,0.15080154,0.13101259,-0.05318731,-0.40034583,-0.19553423,0.13287407,0.039171956,-0.1640086,0.20965752,0.19166918,0.08282484,0.22285007,1.0,1.0,-0.7213499,-1.0,-1.0,1.0,-0.51013076,-1.0,1.0,1.0,1.0,-1.0,1.0,1.0,1.0,-1.0,1.0,1.0,-1.0,-1.0,1.0,1.0,1.0
2025-07-21 16:26:07.477,3.0800000000000023,3080,154,2.0773776,-0.4781719,0.8204984,-0.49421173,0.027061708,-0.01676751,-0.121258356,0.21616265,0.0025758843,2.0,0.0,0.0,0.09041441,0.9715506,0.0,0.0,-0.2530652,-0.02256267,0.27768347,-0.1909008,0.11225687,-0.072415456,0.17495923,0.081941605,-0.15229236,0.24044567,0.029410847,0.3114506,-0.10247132,0.31794962,0.050793666,0.06302308,-0.16566466,0.20313646,0.17309736,-0.18253624,-0.08295932,0.17210089,0.3790642,0.046109345,-1.0,1.0,1.0,1.0,-1.0,1.0,1.0,-1.0,-1.0,1.0,1.0,1.0,1.0,1.0,-1.0,1.0,1.0,1.0,-1.0,-1.0,1.0,-0.89374673,-0.890346,-1.0
2025-07-21 16:26:07.497,3.1000000000000023,3100,155,1.7925237,-0.5787917,0.6789838,-0.2338426,0.31942737,-0.2949702,-0.09605417,0.28669637,-0.008249678,2.0,0.0,0.0,0.092235304,0.9777011,0.0,0.0,-0.21134764,0.1428038,0.18474166,-0.14845124,0.09199018,0.022302782,0.1600129,-0.059728503,-0.08825513,0.22812498,0.10678869,0.2268775,0.30454552,0.45774737,-0.23857535,0.13041759,0.090892486,0.2640546,-0.23080048,-0.45962876,0.33453533,-0.21434872,0.035136726,-0.25299868,1.0,1.0,-1.0,1.0,1.0,1.0,-1.0,-1.0,1.0,-0.89374673,-0.890346,-1.0,1.0,-1.0,-1.0,-1.0,-1.0,1.0,-1.0,0.39104167,1.0,-1.0,1.0,-1.0
2025-07-21 16:26:07.517,3.1200000000000023,3120,156,2.0922267,-0.39393654,0.30194023,-0.4057524,-0.29316604,-0.16846703,-0.049764976,0.29988888,0.019762607,2.0,0.0,0.0,0.09663355,0.98177373,0.0,0.0,-0.08367882,0.22296278,0.078928284,-0.14785935,0.10005309,0.08939311,0.06356686,-0.12284565,0.0042857085,0.11218234,0.16944578,0.10901749,0.3535946,0.016930394,-0.25484607,-0.17005546,0.0008036145,0.24675491,-0.25049448,0.023069512,0.23386523,-0.26736894,0.16292198,-0.2476322,1.0,-1.0,-1.0,-1.0,-1.0,1.0,-1.0,0.39104167,1.0,-1.0,1.0,-1.0,1.0,-1.0,-1.0,0.69418883,-1.0,1.0,-1.0,-1.0,1.0,-1.0,-0.56577384,-1.0
2025-07-21 16:26:07.545,3.1400000000000023,3140,157,1.7519722,-0.17795481,0.2518441,-0.13504753,0.38319078,-0.43542174,0.011097997,0.23019089,-0.031179368,2.0,0.0,0.0,0.10297159,0.9845701,0.0,0.0,0.011510542,0.17498003,-0.02033023,-0.13646424,0.100587256,0.16093113,-0.031021917,-0.18948902,0.08582259,0.015526822,0.17329903,0.0036112317,0.21257171,-0.17183803,-0.2697092,0.044453442,0.033098023,0.18590438,-0.17497887,-0.17272513,0.15597078,-0.20942299,-0.20544295,-0.21471755,1.0,-1.0,-1.0,0.69418883,-1.0,1.0,-1.0,-1.0,1.0,-1.0,-0.56577384,-1.0,1.0,-1.0,-1.0,-1.0,0.04151676,1.0,1.0,1.0,1.0,-1.0,1.0,-1.0
2025-07-21 16:26:07.565,3.1600000000000024,3160,158,1.7186244,-0.29083323,-0.39440995,-0.38891974,0.38613963,-0.2702935,-0.05192065,0.21212932,-0.026730737,2.0,0.0,0.0,0.10917798,0.98653656,0.0,0.0,0.09597349,0.072395116,-0.09984874,-0.13638471,0.11249393,0.22056824,-0.056940746,-0.2136484,0.15390119,-0.08039092,0.18434002,-0.069418564,0.24061838,-0.2959416,-0.19352588,-0.12262576,0.07186739,0.13439965,0.13870719,-0.013767461,0.11390881,-0.22416727,0.1600286,-0.2345941,1.0,-1.0,-1.0,-1.0,0.04151676,1.0,1.0,1.0,1.0,-1.0,1.0,-1.0,-1.0,-1.0,-1.0,1.0,-1.0,1.0,-1.0,0.47176263,1.0,-1.0,-1.0,-1.0
2025-07-21 16:26:07.586,3.1800000000000024,3180,159,1.5683365,0.05834828,-0.19687308,-0.2890321,0.41717044,-0.38999212,0.04297693,0.1819035,0.027514482,2.0,0.0,0.0,0.1148245,0.9879348,0.0,0.0,0.08792215,-0.093970574,-0.16388144,-0.1180125,0.1060595,0.2694569,-0.07371006,-0.15452847,0.21229865,-0.15208876,0.17950495,-0.14802624,-0.12277795,-0.41756356,-0.16406327,0.053043474,0.07571576,0.10060273,-0.27158725,0.2575992,0.12691703,-0.15978275,-0.17219695,-0.20013891,-1.0,-1.0,-1.0,1.0,-1.0,1.0,-1.0,0.47176263,1.0,-1.0,-1.0,-1.0,-1.0,-1.0,1.0,-1.0,1.0,1.0,1.0,-0.88072073,1.0,-1.0,-1.0,-1.0
2025-07-21 16:26:07.606,3.2000000000000024,3200,160,1.4120629,0.15018496,-0.43600383,-0.20377274,0.2532009,-0.11195799,0.010567186,0.112721756,0.031321395,2.0,0.0,0.0,0.12118186,0.9889241,0.0,0.0,0.002635935,-0.28650975,-0.08329228,-0.12625936,0.15753,0.30161518,-0.07598702,-0.10986885,0.25550988,-0.21508743,0.06336586,-0.19595304,-0.24554479,-0.4247979,0.33213928,-0.19098736,0.18327788,-0.004048364,0.14301014,0.011029463,0.055683106,-0.19937353,-0.31234545,-0.1474836,-1.0,-1.0,1.0,-1.0,1.0,1.0,1.0,-0.88072073,1.0,-1.0,-1.0,-1.0,-1.0,1.0,1.0,-0.78784233,1.0,-1.0,1.0,-1.0,1.0,1.0,-1.0,1.0
