openverse-orca/OrcaGym/log/simulation_log_20250721_121905.csv
timestamp,sim_time,physics_step,control_step,imu_angle_roll,imu_angle_pitch,imu_angle_yaw,imu_angular_velocity_roll,imu_angular_velocity_pitch,imu_angular_velocity_yaw,imu_acc_x,imu_acc_y,imu_acc_z,fl_joint1_pos,fl_joint1_vel,fl_joint1_torque,fl_joint2_pos,fl_joint2_vel,fl_joint2_torque,fl_joint3_pos,fl_joint3_vel,fl_joint3_torque,fr_joint1_pos,fr_joint1_vel,fr_joint1_torque,fr_joint2_pos,fr_joint2_vel,fr_joint2_torque,fr_joint3_pos,fr_joint3_vel,fr_joint3_torque,hl_joint1_pos,hl_joint1_vel,hl_joint1_torque,hl_joint2_pos,hl_joint2_vel,hl_joint2_torque,hl_joint3_pos,hl_joint3_vel,hl_joint3_torque,hr_joint1_pos,hr_joint1_vel,hr_joint1_torque,hr_joint2_pos,hr_joint2_vel,hr_joint2_torque,hr_joint3_pos,hr_joint3_vel,hr_joint3_torque,fl_force_x,fl_force_y,fl_force_z,fr_force_x,fr_force_y,fr_force_z,hl_force_x,hl_force_y,hl_force_z,hr_force_x,hr_force_y,hr_force_z,fl_hip_action,fl_thigh_action,fl_calf_action,fr_hip_action,fr_thigh_action,fr_calf_action,hl_hip_action,hl_thigh_action,hl_calf_action,hr_hip_action,hr_thigh_action,hr_calf_action
2025-07-21 12:19:05.559,0.0,0,0,-0.056013685,0.0010555757,-0.07993817,-0.0033888107,0.04361611,0.048283108,0.049819794,0.022283386,0.045789514,1.4966949,-0.05342183,0.0,0.0,0.85329676,0.0,0.0,0.005948757,-0.0076043718,-0.0022213724,0.009442923,-0.0045545907,-0.0065325573,-0.008139994,0.009702637,-0.0077463132,-0.008520362,0.0050082793,-0.0052609253,-0.04215959,-0.02431515,0.013308787,0.031368405,-0.016390393,-0.05483503,0.0139830075,-0.021039495,0.03660097,-0.017351793,-0.07190857,0.03729719,0.0,0.0,0.0,0.0,0.0,0.0,0.0,0.0,0.0,0.0,0.0,0.0,1.0,1.0,-1.0,1.0,1.0,1.0,-1.0,-1.0,1.0,1.0,0.08644669,0.7287537
2025-07-21 12:19:05.575,0.02,20,1,-0.014777228,-0.19839032,-0.19937442,-0.014971768,0.0401042,-0.005797414,0.018846143,0.027491035,-0.022293499,0.0,0.0,0.0,0.0,0.5,0.0,0.0,0.0189855,0.050988693,-0.02259077,0.013750814,0.02021745,0.0138155,-0.017407935,-0.02916823,0.022980431,0.027799852,0.001990119,0.026681732,0.112276725,0.19695105,-0.027382607,0.061624184,0.08766749,0.08159663,-0.083254635,-0.07376505,0.061412163,0.07567803,0.06321186,0.0042892634,1.0,1.0,-1.0,1.0,1.0,1.0,-1.0,-1.0,1.0,1.0,0.08644669,0.7287537,1.0,0.87502795,-1.0,0.55829746,-1.0,1.0,-1.0,-1.0,1.0,1.0,-1.0,1.0
2025-07-21 12:19:05.592,0.04,40,2,-0.16021396,0.2103616,0.19203414,0.44543695,-0.04245877,0.010117802,-0.010148818,0.0039725155,-0.0052011646,0.0,0.0,0.0,-0.0004022455,0.5,0.0,0.0,0.04491661,0.091170825,-0.052591972,0.035666544,0.0032523863,0.046220765,-0.040807277,-0.08001711,0.04195258,0.054697767,-0.018445207,0.036974803,0.05923068,0.091044605,-0.05462321,0.059537135,-0.098173805,0.09057078,-0.037584104,-0.08794741,0.027291015,-0.0053633302,-0.16219269,0.11388039,1.0,0.87502795,-1.0,0.55829746,-1.0,1.0,-1.0,-1.0,1.0,1.0,-1.0,1.0,1.0,-0.40610313,-1.0,1.0,1.0,1.0,-1.0,-0.8358387,1.0,0.95720756,1.0,-1.0
2025-07-21 12:19:05.612,0.06,60,3,0.057947155,0.17499325,-0.07659055,0.108442485,-0.04435539,0.08198045,-0.021450274,0.014083752,0.022190694,0.0,0.0,0.0,-0.0005725017,0.5,0.0,0.0,0.07688773,0.08676243,-0.07773648,0.04531285,0.0066075767,0.044055775,-0.037785944,-0.12926157,0.060777966,0.06117202,-0.003994016,0.0050666677,0.03518089,-0.073938526,0.013992538,0.0035992246,0.010804891,-0.036416877,-0.0246179,-0.040986013,0.005858633,0.029377788,0.13022332,-0.13690889,1.0,-0.40610313,-1.0,1.0,1.0,1.0,-1.0,-0.8358387,1.0,0.95720756,1.0,-1.0,1.0,1.0,-1.0,1.0,1.0,1.0,-1.0,-1.0,1.0,-0.70918274,1.0,-1.0
2025-07-21 12:19:05.632,0.08,80,4,-0.06127046,0.21342848,0.17339872,0.04789322,0.006053823,0.18435347,-0.038510356,-0.03116432,0.02408674,0.0,0.0,0.0,-0.0012322423,0.5,0.0,0.0,0.09008907,0.10980575,-0.07953562,0.060839824,0.056363884,0.06010904,-0.05801215,-0.16095935,0.08466591,0.038690314,0.07218196,-0.020165743,0.062007822,0.0772476,-0.004390561,-0.007855424,0.1682788,-0.00038989697,-0.029794002,-0.15927489,0.09583971,-0.09627018,0.124512956,-0.070381895,1.0,1.0,-1.0,1.0,1.0,1.0,-1.0,-1.0,1.0,-0.70918274,1.0,-1.0,1.0,-1.0,-0.70704925,1.0,-1.0,1.0,-1.0,1.0,1.0,-1.0,-0.7966982,-1.0
2025-07-21 12:19:05.658,0.1,100,5,0.08505916,0.43698272,0.019025141,0.20144527,0.06919918,-0.018185694,-0.059124414,-0.0065587745,0.03342187,0.0,0.0,0.0,-0.0031970534,0.5,0.0,0.0,0.10960866,0.090494014,-0.082062006,0.07703744,0.052638054,0.0762415,-0.06965784,-0.17204995,0.09395161,-0.00072005356,0.07395636,-0.030367743,-0.036243442,-0.2058824,-0.04380152,0.00050174416,0.010603039,0.00061127165,-0.02756955,0.077136375,0.07341054,-0.05814723,-0.20510885,-0.019431872,1.0,-1.0,-0.70704925,1.0,-1.0,1.0,-1.0,1.0,1.0,-1.0,-0.7966982,-1.0,-1.0,-1.0,1.0,1.0,1.0,1.0,-1.0,-1.0,1.0,-1.0,1.0,-1.0
2025-07-21 12:19:05.675,0.12000000000000001,120,6,-0.07479508,0.26792124,0.29786164,0.047825873,-0.052713625,0.14787495,-0.07769517,-0.0384879,0.020810291,0.0,0.0,0.0,-0.0041299453,0.5,0.0,0.0,0.07329196,0.011140093,-0.037919443,0.07490225,0.08506008,0.07677769,-0.088473745,-0.17077595,0.098383255,-0.029660203,0.07541807,-0.052914757,-0.1776222,-0.1955065,0.07405781,0.061823167,0.08555988,-0.005819063,-0.058991466,-0.011739058,-0.0076337447,-0.00023740785,0.18853837,-0.057740428,-1.0,-1.0,1.0,1.0,1.0,1.0,-1.0,-1.0,1.0,-1.0,1.0,-1.0,0.6132803,1.0,0.54554,0.9380912,1.0,1.0,-1.0,1.0,1.0,-0.59289193,-1.0,1.0
2025-07-21 12:19:05.693,0.14,140,7,0.49673116,0.38647613,-0.12827921,-0.03407942,0.12949976,-0.0633641,-0.025161043,-0.05420459,-0.015311375,0.0,0.0,0.0,-0.0056519113,0.5,0.0,0.0,0.06200151,-0.010124359,-0.019939873,0.0934024,0.13635434,0.07805074,-0.092652194,-0.1466779,0.0990469,-0.0298723,0.06684218,-0.023607701,0.0138806235,0.005844127,0.032632086,-0.044751495,0.18914138,0.066610165,0.015665699,0.10244473,0.03064447,-0.037923254,-0.13879205,0.042974275,0.6132803,1.0,0.54554,0.9380912,1.0,1.0,-1.0,1.0,1.0,-0.59289193,-1.0,1.0,-1.0,-1.0,1.0,1.0,-1.0,0.63033444,0.9663152,-1.0,1.0,1.0,-1.0,-1.0
2025-07-21 12:19:05.713,0.16,160,8,0.06406206,0.25936672,0.45217118,0.13972296,-0.09585807,0.25009638,-0.011205975,-0.09042755,0.028023876,0.0,0.0,0.0,-0.0070074718,0.5,0.0,0.0,0.049870677,-0.031176748,-0.0031262906,0.09471493,0.15798923,0.09114491,-0.059175674,-0.13816516,0.11711854,0.0021577948,-0.013677317,-0.042856317,-0.0032996663,-0.0541142,0.023471346,0.07627332,0.046512764,0.06588654,0.124089696,-0.100395165,0.092684045,0.14151035,-0.19431219,-0.1274815,-1.0,-1.0,1.0,1.0,-1.0,0.63033444,0.9663152,-1.0,1.0,1.0,-1.0,-1.0,1.0,-0.9728527,1.0,-1.0,0.36810914,-1.0,-1.0,1.0,1.0,1.0,1.0,1.0
2025-07-21 12:19:05.733,0.18,180,9,0.16901703,-0.15150476,-0.034286454,-0.122957714,-0.2906318,0.16761757,-0.081638336,-0.07759781,0.03860802,0.0,0.0,0.0,-0.009016513,0.5,0.0,0.0,0.056355376,-0.07121697,0.03236643,0.0609382,0.1439954,0.04496951,-0.08408657,-0.13617215,0.1127424,0.023646733,-0.022317013,-0.006419424,0.012786877,-0.0852012,0.11846619,-0.14011978,0.042101316,-0.041417576,-0.080731176,0.104147576,0.038884938,0.023394872,0.11935025,0.07186866,1.0,-0.9728527,1.0,-1.0,0.36810914,-1.0,-1.0,1.0,1.0,1.0,1.0,1.0,-1.0,1.0,1.0,-0.13753635,-1.0,-1.0,-1.0,-0.15371141,-1.0,1.0,-1.0,1.0
2025-07-21 12:19:05.758,0.19999999999999998,200,10,-0.19731651,-0.06992865,0.032759566,-0.054330558,-0.34837815,0.016781127,-0.025867611,0.0025756839,0.029171161,0.0,0.0,0.0,-0.012097364,0.5,0.0,0.0,0.04961878,-0.10029809,0.04056577,0.029877426,0.14172164,0.013036077,-0.086166546,-0.12114417,0.072570674,0.04156883,-0.06044349,0.020139668,-0.10580792,0.07851366,-0.024342373,-0.01556229,0.012655528,-0.013566755,-0.019378258,0.025543727,-0.11226805,0.019669546,-0.23344833,0.10281148,-1.0,1.0,1.0,-0.13753635,-1.0,-1.0,-1.0,-0.15371141,-1.0,1.0,-1.0,1.0,-1.0,1.0,1.0,-0.5801009,0.50193137,-1.0,1.0,1.0,-1.0,1.0,-0.87773377,1.0
2025-07-21 12:19:05.775,0.21999999999999997,220,11,0.23803118,-0.18630901,-0.23055679,-0.45234776,-0.18704766,-0.04810906,-0.034449182,0.03029036,0.027631633,0.0,0.0,0.0,-0.013472885,0.5,0.0,0.0,0.0057565733,-0.04837446,0.048784327,0.020857548,0.16378398,-0.0044058533,-0.053305395,-0.05929881,0.024716306,0.07725603,-0.103980914,0.04594212,-0.070976116,0.19918597,0.028516056,-0.12292068,0.10055822,-0.030070042,0.16074006,0.21669126,-0.13473246,-0.0057385787,-0.13575609,0.07168245,-1.0,1.0,1.0,-0.5801009,0.50193137,-1.0,1.0,1.0,-1.0,1.0,-0.87773377,1.0,-1.0,-1.0,1.0,-1.0,-1.0,-1.0,1.0,0.29429516,-1.0,1.0,-0.44091317,1.0
2025-07-21 12:19:05.793,0.23999999999999996,240,12,-0.27197045,0.104123354,-0.18470298,-0.116552815,-0.14466001,0.026880924,-0.047304004,0.011981647,-0.048896473,0.0,0.0,0.0,-0.013270458,0.5,0.0,0.0,-0.011043126,-0.042628594,0.07674223,-0.024227982,0.16155906,-0.04370984,-0.024484307,-0.014420424,0.003986616,0.07957618,-0.1268152,0.06513007,-0.01577417,0.0046765883,-0.0121825,-0.07279245,-0.09837446,-0.0020616315,0.09793991,0.13117109,-0.13014512,0.07739867,0.014859838,0.04115721,-1.0,-1.0,1.0,-1.0,-1.0,-1.0,1.0,0.29429516,-1.0,1.0,-0.44091317,1.0,-1.0,1.0,1.0,-0.9292034,0.7745852,-1.0,1.0,1.0,-0.9510493,1.0,-1.0,1.0
2025-07-21 12:19:05.813,0.25999999999999995,260,13,-0.16636346,-0.041250102,-0.15555586,0.02059846,-0.090641454,-0.03203946,-0.06716705,0.007173356,0.027198749,0.0,0.0,0.0,-0.0129867755,0.5,0.0,0.0,-0.029120008,-0.018543495,0.07894177,-0.043821767,0.18834776,-0.06487149,0.0056893863,0.042492334,-0.029324584,0.07594699,-0.14014581,0.07783302,0.0045857118,0.016424868,-0.0600421,-0.0108623905,0.06259919,-0.110927336,-0.0023464232,0.22909802,-0.0736495,0.084779575,-0.09005694,-0.030199833,-1.0,1.0,1.0,-0.9292034,0.7745852,-1.0,1.0,1.0,-0.9510493,1.0,-1.0,1.0,-1.0,1.0,1.0,-1.0,-0.42368776,-1.0,1.0,-0.90471554,0.40623808,1.0,-0.021476585,1.0
2025-07-21 12:19:05.833,0.27999999999999997,280,14,0.11514682,-0.21508658,-0.06039384,-0.14846803,-0.030477315,-0.0032068612,-0.11363768,-0.01193374,0.0013512588,0.0,0.0,0.0,-0.012469123,0.5,0.0,0.0,-0.049196094,0.03717337,0.070873946,-0.069391795,0.1483022,-0.06686494,0.046811774,0.05025225,-0.001997976,0.09598833,-0.12570243,0.08005048,0.027901506,0.15632516,0.025129937,-0.06565885,-0.20265824,-0.10781638,0.11730093,-0.040881414,-0.016401162,0.06599279,0.10453258,-0.044041198,-1.0,1.0,1.0,-1.0,-0.42368776,-1.0,1.0,-0.90471554,0.40623808,1.0,-0.021476585,1.0,-1.0,-1.0,1.0,-0.5936889,-0.1298323,-1.0,1.0,-0.20641431,-1.0,1.0,-1.0,1.0
2025-07-21 12:19:05.858,0.3,300,15,0.022580815,-0.024320766,0.17445403,0.10136405,-0.1508542,0.016154274,-0.112850405,0.022937987,0.028157683,0.0,0.0,0.0,-0.0116460705,0.5,0.0,0.0,-0.05343441,0.0561116,0.082024045,-0.06765221,0.114384845,-0.08436527,0.0582026,0.016105974,-0.034037836,0.09687633,-0.14349248,0.08339952,-0.093267836,-0.07115259,0.04747889,0.037877385,-0.047440447,-0.03156765,0.10990758,-0.052037638,-0.12769516,-0.03535676,0.0047447323,-0.014151663,-1.0,-1.0,1.0,-0.5936889,-0.1298323,-1.0,1.0,-0.20641431,-1.0,1.0,-1.0,1.0,-1.0,1.0,1.0,-1.0,-0.10694968,-0.27984565,1.0,1.0,-1.0,1.0,-0.2157612,1.0
2025-07-21 12:19:05.876,0.32,320,16,0.15274934,-0.06743587,-0.011374126,-0.004458199,-0.015729051,0.021527823,-0.06253845,0.0628046,-0.0005597154,0.0,0.0,0.0,-0.011571195,0.5,0.0,0.0,-0.07433121,0.06648194,0.09769217,-0.08837063,0.09445358,-0.07593498,0.07205142,0.06518464,-0.0491695,0.09394611,-0.13620503,0.08498765,-0.05213912,0.19314255,0.064757444,-0.07527435,-0.013432354,0.040709637,0.117648296,0.2488001,0.0108303595,-0.069485895,-0.029381145,-0.025873184,-1.0,1.0,1.0,-1.0,-0.10694968,-0.27984565,1.0,1.0,-1.0,1.0,-0.2157612,1.0,-1.0,-1.0,1.0,0.18906407,-1.0,-0.97506136,1.0,-1.0,-1.0,0.7078408,1.0,1.0
2025-07-21 12:19:05.893,0.34,340,17,-0.06445572,0.096323796,0.24056956,0.06967603,0.019070726,0.0067394613,-0.09428331,0.031716846,-0.035342462,0.0,0.0,0.0,-0.011742967,0.5,0.0,0.0,-0.078345686,0.08482102,0.099656954,-0.073383294,0.07320131,-0.09515072,0.088050604,0.053355217,-0.07997754,0.10575449,-0.10900011,0.09293083,-0.05583057,-0.06731541,0.02493058,-0.00612082,-0.09380678,0.001579823,-0.036544118,-0.07714458,-0.04339884,-0.022853155,0.11811983,-0.01406919,-1.0,-1.0,1.0,0.18906407,-1.0,-0.97506136,1.0,-1.0,-1.0,0.7078408,1.0,1.0,-1.0,-0.43466413,1.0,-1.0,1.0,-0.62333775,1.0,0.7981434,-0.833441,1.0,-1.0,1.0
2025-07-21 12:19:05.913,0.36000000000000004,360,18,0.113816224,-0.13230558,0.35461837,0.14668958,-0.16816646,0.073136196,-0.14680496,0.038764413,0.0071608,0.0,0.0,0.0,-0.0118881855,0.5,0.0,0.0,-0.07008237,0.07644425,0.11855031,-0.0930932,0.09114053,-0.091350004,0.10388643,0.05418678,-0.0817458,0.10837206,-0.10281849,0.10273,-0.09635201,-0.074559584,0.05655264,-0.019861976,0.12268247,-0.052026007,0.049391042,0.1746549,-0.0019451805,0.0500268,-0.056864813,0.025766248,-1.0,-0.43466413,1.0,-1.0,1.0,-0.62333775,1.0,0.7981434,-0.833441,1.0,-1.0,1.0,-1.0,1.0,1.0,-1.0,-1.0,1.0,1.0,-0.27859393,-1.0,1.0,0.6135301,1.0
2025-07-21 12:19:05.933,0.38000000000000006,380,19,-0.07067452,-0.21690434,0.16512111,-0.042658933,-0.07144124,0.08111943,-0.11285661,0.03552853,-0.012719745,0.0,0.0,0.0,-0.013680474,0.5,0.0,0.0,-0.09541582,0.069844015,0.11921989,-0.09919484,0.11347114,-0.06040002,0.121750474,0.040986273,-0.10483419,0.12090452,-0.08372894,0.101077914,0.013129291,0.08061707,-0.018335858,-0.06529416,-0.07107527,0.03167377,0.02504755,-0.08463709,0.010345373,-0.032279506,0.07971477,-0.0399495,-1.0,1.0,1.0,-1.0,-1.0,1.0,1.0,-0.27859393,-1.0,1.0,0.6135301,1.0,-1.0,-1.0,-1.0,1.0,-0.6224705,1.0,-1.0,-0.23026046,1.0,-0.680992,-1.0,1.0
2025-07-21 12:19:05.960,0.4000000000000001,400,20,-0.3530432,0.12751932,0.24798776,0.33169612,-0.09000244,-0.03371016,-0.0880968,0.065876395,0.003841316,0.0,0.0,0.0,-0.016061606,0.5,0.0,0.0,-0.088282295,0.09320213,0.068812825,-0.10847966,0.08015098,-0.021037176,0.08107186,0.028072413,-0.056861643,0.096895956,-0.074503824,0.11345222,0.040243596,-0.09953556,-0.0334574,0.046881538,-0.10940582,0.0246333,-0.071660936,-0.065621234,0.062119536,-0.15225679,-0.08545307,0.04726191,-1.0,-1.0,-1.0,1.0,-0.6224705,1.0,-1.0,-0.23026046,1.0,-0.680992,-1.0,1.0,1.0,1.0,-1.0,1.0,1.0,1.0,-1.0,-1.0,1.0,-1.0,1.0,-1.0
2025-07-21 12:19:05.976,0.4200000000000001,420,21,0.15570608,-0.10167414,0.113128535,0.18307258,0.40179148,-0.046774805,-0.11355017,0.03482425,0.0344696,0.0,0.0,0.0,-0.01542403,0.5,0.0,0.0,-0.064598314,0.11782633,0.027482338,-0.066131644,0.06450055,0.006865475,0.030182082,-0.034323502,-0.012286585,0.05677556,-0.07160276,0.08128648,0.17622253,0.19873849,-0.09368173,0.1277273,0.049086597,0.031086123,-0.07508682,-0.2572808,0.0336322,-0.086563036,0.19913767,-0.06307422,1.0,1.0,-1.0,1.0,1.0,1.0,-1.0,-1.0,1.0,-1.0,1.0,-1.0,1.0,-0.5003413,-1.0,1.0,-1.0,1.0,-1.0,1.0,1.0,0.16624035,1.0,-1.0
2025-07-21 12:19:05.994,0.4400000000000001,440,22,0.03597632,0.12976682,-0.057073735,0.17978954,0.55128586,-0.067307614,-0.09338665,0.009847897,0.027559584,0.0,0.0,0.0,-0.013430707,0.5,0.0,0.0,-0.016472304,0.14765775,0.0034410083,-0.033366967,0.061627265,0.029158743,-0.0039457525,-0.05189581,0.008783502,0.04293767,0.01913804,0.028270531,0.090657316,-0.013640518,-0.102530584,0.121317476,-0.06136479,0.12711121,-0.05325234,0.0719574,0.008474225,0.048254568,0.2614747,-0.021669794,1.0,-0.5003413,-1.0,1.0,-1.0,1.0,-1.0,1.0,1.0,0.16624035,1.0,-1.0,1.0,0.55060107,-1.0,0.91324675,1.0,1.0,-1.0,-1.0,1.0,-1.0,0.27514103,-1.0
2025-07-21 12:19:06.014,0.46000000000000013,460,23,-0.21203402,-0.06683112,-0.52438855,0.09681272,0.54046863,0.022656517,-0.07328017,-0.025729148,0.028289268,0.0,0.0,0.0,-0.012800087,0.5,0.0,0.0,0.010457178,0.14768983,-0.027022354,-0.0019311536,0.09011377,0.050297234,-0.023460422,-0.06629391,0.029146127,0.006476182,0.048106436,0.004111309,0.14092834,0.08753301,-0.11851329,0.071347035,0.13205396,0.06689237,-0.054900404,-0.08084957,0.02398295,-0.16030182,-0.020383941,-0.07017252,1.0,0.55060107,-1.0,0.91324675,1.0,1.0,-1.0,-1.0,1.0,-1.0,0.27514103,-1.0,1.0,-0.6434312,-1.0,1.0,-1.0,1.0,-1.0,-1.0,1.0,0.9754993,-0.33723775,-1.0
2025-07-21 12:19:06.034,0.48000000000000015,480,24,-0.24882422,0.10158891,-0.12966923,0.1250708,0.3510073,0.16202052,-0.08448092,-0.07404979,0.020759605,0.0,0.0,0.0,-0.012547351,0.5,0.0,0.0,0.044872783,0.15262917,-0.05967586,0.029828167,0.09127791,0.05514432,-0.055651695,-0.12845291,0.049464885,0.031956606,0.028327981,-0.028116964,0.10028323,0.014503994,0.004722191,0.045492515,-0.060157306,0.05405474,-0.074122846,-0.17889364,0.0777366,0.08119225,-0.09162733,-0.009381326,1.0,-0.6434312,-1.0,1.0,-1.0,1.0,-1.0,-1.0,1.0,0.9754993,-0.33723775,-1.0,1.0,-0.28774643,-1.0,1.0,0.82847387,1.0,-1.0,1.0,1.0,-0.8029121,0.47428027,-1.0
2025-07-21 12:19:06.059,0.5000000000000001,500,25,-0.23233628,0.24217837,-0.19528194,-0.23483929,0.14711398,0.12636276,-0.005057332,-0.14013514,0.010209888,0.0,0.0,0.0,-0.014506537,0.5,0.0,0.0,0.05866761,0.1586893,-0.06699611,0.057173163,0.11987307,0.06940708,-0.07295469,-0.12712584,0.058475126,0.009493416,0.04369318,-0.045418195,0.07185917,0.038799033,-0.07252821,0.07671266,0.06672113,0.08951397,-0.030214483,0.029685374,-0.06514454,-0.119461395,0.09945892,-0.057650026,1.0,-0.28774643,-1.0,1.0,0.82847387,1.0,-1.0,1.0,1.0,-0.8029121,0.47428027,-1.0,1.0,-1.0,-1.0,1.0,0.32462588,1.0,-1.0,0.07460752,1.0,-1.0,-0.8745695,-1.0
2025-07-21 12:19:06.076,0.5200000000000001,520,26,-0.08305509,-0.0663182,-0.16688688,-0.02740536,0.05745014,-0.019252598,0.033699475,-0.10704107,-0.04823807,0.0,0.0,0.0,-0.017411498,0.5,0.0,0.0,0.080460265,0.1518448,-0.07528517,0.06258689,0.13133372,0.09606296,-0.08497364,-0.1058127,0.062239867,-0.030161152,0.0036002211,-0.06330261,-0.017059114,-0.07127436,0.033865575,-0.04492064,0.0717289,0.05734697,0.044043414,0.07836371,-0.043997563,-0.024819285,-0.12362697,-0.08149833,1.0,-1.0,-1.0,1.0,0.32462588,1.0,-1.0,0.07460752,1.0,-1.0,-0.8745695,-1.0,1.0,0.16554022,-1.0,1.0,-1.0,1.0,-1.0,-1.0,1.0,1.0,1.0,-1.0
2025-07-21 12:19:06.094,0.5400000000000001,540,27,-0.2886499,0.1028959,0.12984319,0.1400678,-0.06367574,0.018941885,0.029541813,-0.09158169,-0.006924966,0.0,0.0,0.0,-0.01852398,0.5,0.0,0.0,0.09369976,0.14099205,-0.09798994,0.06919586,0.1262272,0.094201066,-0.087175585,-0.12876426,0.09170023,-0.002734982,-0.008188592,-0.088992804,0.10364877,-0.019109568,-0.03559755,-0.007667252,-0.117317185,-0.010154216,-0.051488977,-0.046778575,-0.025263464,0.117542095,0.043178834,-0.0034356366,1.0,0.16554022,-1.0,1.0,-1.0,1.0,-1.0,-1.0,1.0,1.0,1.0,-1.0,1.0,-1.0,-1.0,1.0,1.0,1.0,-1.0,-0.7495953,1.0,0.73183894,1.0,-1.0
2025-07-21 12:19:06.114,0.5600000000000002,560,28,-0.09954376,0.0007307404,-0.03645973,0.029259162,-0.21734108,0.10165752,-0.06757031,-0.11123824,-0.049364224,0.0,0.0,0.0,-0.01864124,0.5,0.0,0.0,0.10377258,0.06765029,-0.10842922,0.0721679,0.11795157,0.10134178,-0.08233371,-0.15416674,0.10127821,0.017571716,0.06256412,-0.1053147,-0.03779358,-0.22687098,0.0029388173,0.02334075,0.1046171,0.039107036,0.049469315,-0.0036059688,-0.017241517,0.0871876,0.23897319,-0.04243018,1.0,-1.0,-1.0,1.0,1.0,1.0,-1.0,-0.7495953,1.0,0.73183894,1.0,-1.0,1.0,1.0,-1.0,1.0,-1.0,1.0,-1.0,-0.20443675,1.0,0.47022653,-1.0,-1.0
2025-07-21 12:19:06.134,0.5800000000000002,580,29,-0.30983204,0.22068216,0.15626523,0.21098475,-0.006302897,-0.072741546,-0.009990175,-0.0999529,0.025674151,0.0,0.0,0.0,-0.019470803,0.5,0.0,0.0,0.12760162,0.06612226,-0.12142548,0.09175,0.13207766,0.1046655,-0.09824135,-0.14920795,0.09709098,0.035161167,0.057251483,-0.10010697,0.05497202,0.09164308,0.025594011,0.06084422,-0.09941411,0.039558154,0.024239771,0.040775437,0.06739354,-0.03265155,-0.08739987,0.014993381,1.0,1.0,-1.0,1.0,-1.0,1.0,-1.0,-0.20443675,1.0,0.47022653,-1.0,-1.0,1.0,-1.0,-1.0,1.0,1.0,1.0,-1.0,-1.0,1.0,-1.0,0.31485894,-1.0
2025-07-21 12:19:06.160,0.6000000000000002,600,30,-0.15380076,-0.07554295,0.003243081,0.12866433,-0.042009637,0.07805691,0.010591546,-0.11290994,-0.04920002,0.0,0.0,0.0,-0.018768342,0.5,0.0,0.0,0.13422243,0.050714206,-0.125018,0.10302469,0.13947257,0.1123554,-0.099110655,-0.15420082,0.11510233,0.01049843,0.059435796,-0.11044496,0.02611247,-0.21570233,0.034974817,0.010931886,0.03686923,-0.07486895,-0.02034286,-0.116388075,0.065944605,-0.07051811,-0.035887074,-0.06695867,1.0,-1.0,-1.0,1.0,1.0,1.0,-1.0,-1.0,1.0,-1.0,0.31485894,-1.0,1.0,1.0,-0.7320254,1.0,-1.0,1.0,-1.0,1.0,1.0,1.0,-1.0,-1.0
2025-07-21 12:19:06.176,0.6200000000000002,620,31,-0.14957967,0.26082164,0.23692076,0.108363435,0.092678316,-0.13948143,-0.07933398,-0.16336152,0.047672056,0.0,0.0,0.0,-0.018264152,0.5,0.0,0.0,0.13498397,0.028498454,-0.13007168,0.09743799,0.1514742,0.10367878,-0.10675983,-0.14938743,0.11740312,0.024057837,0.027513517,-0.1250839,0.074984185,-0.017433114,-0.037025828,-0.019748975,-0.025198862,0.027650185,0.021730402,0.1263591,-0.054957118,0.1385899,-0.1440363,0.03410896,1.0,1.0,-0.7320254,1.0,-1.0,1.0,-1.0,1.0,1.0,1.0,-1.0,-1.0,0.7257727,-1.0,-1.0,1.0,1.0,1.0,0.7849815,-1.0,1.0,-1.0,1.0,-1.0
2025-07-21 12:19:06.194,0.6400000000000002,640,32,-0.08209902,0.017174391,0.09132252,0.011406793,0.01299179,0.24701913,-0.016024135,-0.12413366,-0.03475393,0.0,0.0,0.0,-0.01793127,0.5,0.0,0.0,0.1415803,0.0045565977,-0.1237829,0.10320356,0.17888032,0.10586493,-0.10121563,-0.14484325,0.123692036,0.006044794,0.0027517173,-0.12002208,-0.05001933,-0.069140665,-0.0715655,-0.019859575,0.036253728,-0.03926544,0.16715164,-0.090711296,0.05375459,-0.12695667,0.14725213,0.0071187825,0.7257727,-1.0,-1.0,1.0,1.0,1.0,0.7849815,-1.0,1.0,-1.0,1.0,-1.0,-0.065414324,1.0,1.0,1.0,-0.34034023,1.0,-1.0,1.0,1.0,-0.46384346,-1.0,-0.5778904
2025-07-21 12:19:06.214,0.6600000000000003,660,33,0.15093829,0.0047258576,0.4627087,-0.28515896,0.018888054,-0.08848858,-0.056575593,-0.12563615,-0.03675488,0.0,0.0,0.0,-0.01908217,0.5,0.0,0.0,0.13338582,-0.012367412,-0.1117082,0.10834311,0.19542205,0.12985316,-0.09954895,-0.10972282,0.12749165,-0.019960707,-0.016462004,-0.1104126,-0.09991815,0.0011045476,0.16118015,-0.017900903,-0.045091555,0.071971275,-0.067008,0.081111915,-0.028227823,-0.025312513,-0.12902252,-0.020874348,-0.065414324,1.0,1.0,1.0,-0.34034023,1.0,-1.0,1.0,1.0,-0.46384346,-1.0,-0.5778904,-1.0,0.55600786,-1.0,0.2013182,-1.0,0.90874183,-1.0,-0.19572517,1.0,-0.35499752,1.0,-0.8368912
2025-07-21 12:19:06.235,0.6800000000000003,680,34,-0.002657445,0.082480885,0.29859635,-0.11192016,-0.07014555,-0.048909925,-0.0628889,-0.14677238,-0.03138623,0.0,0.0,0.0,-0.019586787,0.5,0.0,0.0,0.08018429,0.038741145,-0.11688473,0.09802145,0.17803791,0.13205828,-0.11803731,-0.099609256,0.13196915,-0.015664948,-0.02273124,-0.12742059,-0.18745542,0.096113086,-0.071441695,-0.041366864,-0.04942376,0.048337948,-0.021886835,-0.001102174,0.025787221,-0.0035019987,0.16152905,0.007276067,-1.0,0.55600786,-1.0,0.2013182,-1.0,0.90874183,-1.0,-0.19572517,1.0,-0.35499752,1.0,-0.8368912,0.4879913,-1.0,-1.0,1.0,1.0,1.0,-1.0,-1.0,1.0,-1.0,0.18869714,-0.067888945
2025-07-21 12:19:06.259,0.7000000000000003,700,35,-0.029815516,-0.059962306,0.10386001,0.12745357,-0.08713751,0.0651256,-0.053231772,-0.06953091,0.04484052,0.0,0.0,0.0,-0.018634846,0.5,0.0,0.0,0.08100427,-0.0027400863,-0.123359084,0.093817435,0.20726292,0.12894152,-0.117908485,-0.10815456,0.13915223,-0.030956214,-0.00460371,-0.09644496,-0.0227327,-0.21621892,-0.031518996,0.08111287,0.06348723,0.01660328,-0.08774759,-0.07026064,0.03434649,-0.0514135,0.11019843,0.08771276,0.4879913,-1.0,-1.0,1.0,1.0,1.0,-1.0,-1.0,1.0,-1.0,0.18869714,-0.067888945,1.0,1.0,-0.059428155,1.0,-1.0,1.0,-1.0,0.660535,1.0,1.0,-1.0,-1.0
2025-07-21 12:19:06.276,0.7200000000000003,720,36,0.25759178,-0.06999705,-0.024107032,0.062136646,0.014316278,-0.06784269,-0.027339462,-0.1046546,-0.007146092,0.0,0.0,0.0,-0.018659115,0.5,0.0,0.0,0.09941447,-0.0145455655,-0.11306279,0.11990596,0.20491624,0.14217493,-0.13700922,-0.09351829,0.12714191,-0.016526626,-0.025579082,-0.12032279,-0.00019457478,0.013951538,-0.014515754,0.00417318,-0.06551557,0.032769483,0.039793015,0.0763873,0.027266895,0.14376971,-0.18359569,-0.08396028,1.0,1.0,-0.059428155,1.0,-1.0,1.0,-1.0,0.660535,1.0,1.0,-1.0,-1.0,-0.1554227,-1.0,-1.0,1.0,-1.0,1.0,-1.0,-1.0,1.0,-1.0,1.0,-1.0
2025-07-21 12:19:06.295,0.7400000000000003,740,37,-0.3055518,0.005511569,0.26444918,0.149504,-0.15903229,0.070743166,-0.07491099,-0.12838076,-0.02226573,0.0,0.0,0.0,-0.018060412,0.5,0.0,0.0,0.080287576,-0.023274248,-0.11593264,0.11465758,0.19373497,0.12919988,-0.13898231,-0.09495314,0.1432965,-0.02376525,-0.043626033,-0.11894076,-0.052577164,-0.09992903,0.038498435,0.049898967,-0.037975173,0.03268694,0.022910874,-0.1608048,-0.05249501,-0.055915546,0.1054579,-0.014981038,-0.1554227,-1.0,-1.0,1.0,-1.0,1.0,-1.0,-1.0,1.0,-1.0,1.0,-1.0,1.0,-1.0,-1.0,1.0,1.0,1.0,-1.0,1.0,1.0,1.0,-0.28841832,0.6138352
2025-07-21 12:19:06.315,0.7600000000000003,760,38,-0.07463504,-0.25057787,0.10661972,0.15690392,0.048452552,0.17471202,-0.0322564,-0.12213522,0.043874998,0.0,0.0,0.0,-0.017285189,0.5,0.0,0.0,0.10218051,-0.05362741,-0.11613057,0.12554434,0.21203987,0.14570558,-0.15074404,-0.074223176,0.13965066,0.008489116,-0.061503492,-0.08671366,0.06381977,-0.038784914,-0.054020196,0.061977513,0.073714666,0.070373096,-0.031446476,0.17589873,0.028761147,0.10844786,-0.05539326,0.018521708,1.0,-1.0,-1.0,1.0,1.0,1.0,-1.0,1.0,1.0,1.0,-0.28841832,0.6138352,-1.0,1.0,1.0,-0.39159715,-1.0,-1.0,-0.43723032,-0.5484483,1.0,1.0,-1.0,1.0
2025-07-21 12:19:06.336,0.7800000000000004,780,39,-0.21750526,-0.37808326,0.12789032,-0.28650105,-0.37336576,-0.026801145,-0.108449206,-0.11686498,-0.031213129,0.0,0.0,0.0,-0.018609703,0.5,0.0,0.0,0.07746665,-0.06341318,-0.08857756,0.10040025,0.23632643,0.09195679,-0.14271112,-0.0853709,0.14139579,0.0254317,-0.09966519,-0.043111075,-0.16658789,-0.06499101,0.038237948,-0.025182014,0.012571858,-0.117213845,0.03125118,-0.13743861,0.037074815,0.1098117,-0.10423268,0.0696012,-1.0,1.0,1.0,-0.39159715,-1.0,-1.0,-0.43723032,-0.5484483,1.0,1.0,-1.0,1.0,-1.0,1.0,1.0,0.07344362,1.0,-1.0,-1.0,1.0,-0.91340756,1.0,-0.0891213,1.0
2025-07-21 12:19:06.359,0.8000000000000004,800,40,0.09057748,-0.07648548,-0.26671508,-0.626914,-0.1555213,-0.14802088,-0.06313129,-0.028793193,-0.021987023,0.0,0.0,0.0,-0.019594427,0.5,0.0,0.0,0.040284723,-0.04766357,-0.05582722,0.07783298,0.2736288,0.04624975,-0.1500499,-0.035591174,0.094111554,0.057691265,-0.10707874,-0.018457651,-0.018251918,0.13727638,0.10645274,-0.009812615,0.0871087,-0.14529014,0.02499087,0.19048744,-0.10642558,0.103260644,0.0642966,0.048772346,-1.0,1.0,1.0,0.07344362,1.0,-1.0,-1.0,1.0,-0.91340756,1.0,-0.0891213,1.0,-1.0,-1.0,1.0,-1.0,-0.3913481,-1.0,1.0,-0.12538882,-1.0,1.0,-0.24349065,1.0
2025-07-21 12:19:06.376,0.8200000000000004,820,41,-0.27338678,-0.36428463,-0.24967448,-0.44459316,-0.24177629,-0.016705474,-0.071718335,-0.028477307,-0.020324139,0.0,0.0,0.0,-0.019316414,0.5,0.0,0.0,0.0043930747,-0.02141518,-0.017937299,0.035497326,0.25874463,0.021517543,-0.10086218,-0.01914952,0.051981468,0.06576619,-0.101752475,0.025109433,-0.008302518,-0.10468447,0.028580086,-0.14229213,0.049298726,-0.015550665,0.15840177,-0.049430452,-0.12341379,0.050420675,-0.03943881,0.028855111,-1.0,-1.0,1.0,-1.0,-0.3913481,-1.0,1.0,-0.12538882,-1.0,1.0,-0.24349065,1.0,-1.0,1.0,1.0,-0.7337658,-0.20195112,0.1110782,1.0,1.0,-1.0,1.0,-1.0,1.0
2025-07-21 12:19:06.395,0.8400000000000004,840,42,-0.4446812,0.052669797,-0.011281073,-0.22664498,0.01957138,-0.17791656,-0.061672732,-0.012202425,-0.0017000642,0.0,0.0,0.0,-0.019375209,0.5,0.0,0.0,-0.019964002,-0.0003950478,0.004780989,-0.00038195503,0.2468003,0.01948813,-0.06402769,0.0287142,0.011348051,0.07223297,-0.13318403,0.053360917,0.018189246,0.18794172,0.067594655,-0.07310458,-0.07724902,-0.06509862,0.06351969,0.21261726,-0.1294033,0.0009190333,-0.034069944,0.050451685,-1.0,1.0,1.0,-0.7337658,-0.20195112,0.1110782,1.0,1.0,-1.0,1.0,-1.0,1.0,-1.0,1.0,1.0,-1.0,0.66895854,-1.0,1.0,-1.0,1.0,1.0,1.0,1.0
2025-07-21 12:19:06.415,0.8600000000000004,860,43,-0.098387025,-0.19788389,-0.057994183,-0.32853156,0.07623486,-0.048491072,-0.093941495,0.03749682,0.031532858,0.0,0.0,0.0,-0.018063609,0.5,0.0,0.0,-0.03599927,0.06312031,0.013726242,-0.017536886,0.24558382,-0.005267121,-0.016904904,0.03417333,0.036796443,0.09294347,-0.110267475,0.06025834,-0.029342996,0.1295717,0.105429865,-0.08097009,-0.0038245886,-0.12010679,0.049261708,-0.069136254,0.077288434,0.048629053,0.17544357,0.058580212,-1.0,1.0,1.0,-1.0,0.66895854,-1.0,1.0,-1.0,1.0,1.0,1.0,1.0,-1.0,-0.8697118,1.0,0.20407733,-0.9942299,-1.0,-0.95565283,-1.0,-1.0,1.0,-1.0,1.0
2025-07-21 12:19:06.436,0.8800000000000004,880,44,-0.39159447,0.062353868,0.16950272,0.19517235,-0.10860612,-0.006602342,-0.029953774,-0.0047174986,0.021644754,0.0,0.0,0.0,-0.016406683,0.5,0.0,0.0,-0.04505466,0.07151337,0.04830296,-0.012562995,0.2030682,-0.044749048,-0.03591597,-0.039805975,0.00912856,0.093635306,-0.11338897,0.070744775,-0.052459802,0.004326234,0.025752502,-0.031975564,-0.19890846,-0.11462115,-0.105853535,-0.16757399,-0.059123423,-0.00083021144,-0.07685991,-0.0025937706,-1.0,-0.8697118,1.0,0.20407733,-0.9942299,-1.0,-0.95565283,-1.0,-1.0,1.0,-1.0,1.0,-1.0,1.0,1.0,-1.0,1.0,-1.0,1.0,1.0,-1.0,1.0,-1.0,1.0
2025-07-21 12:19:06.458,0.9000000000000005,900,45,-0.31237292,-0.18333827,0.10515292,0.1178737,0.012440581,-0.097693816,-0.011090784,0.06479034,0.0067775063,0.0,0.0,0.0,-0.015352099,0.5,0.0,0.0,-0.053057164,0.08975201,0.050211832,-0.028308436,0.19373806,-0.05193004,-0.014376293,-0.050197974,-0.011969848,0.08972351,-0.122055955,0.08961444,-0.039055888,0.046814043,-0.029839722,-0.055624794,0.080042705,0.012518976,0.12077403,0.16858447,-0.07462968,0.03887356,-0.030966444,0.077810474,-1.0,1.0,1.0,-1.0,1.0,-1.0,1.0,1.0,-1.0,1.0,-1.0,1.0,-1.0,1.0,1.0,-1.0,-1.0,-1.0,1.0,0.5196817,0.8500041,1.0,0.7812206,1.0
2025-07-21 12:19:06.475,0.9200000000000005,920,46,0.069239855,0.01246119,0.02741847,-0.096345425,0.00093922025,-0.12401046,-0.02631028,0.05098239,0.042280283,0.0,0.0,0.0,-0.014440107,0.5,0.0,0.0,-0.06214472,0.14541596,0.05783281,-0.06471696,0.16820845,-0.06637423,0.015388567,-0.0041337395,0.00050858874,0.09193649,-0.115712985,0.09086712,0.020735556,0.055242416,0.026193606,-0.028892003,-0.09179475,-0.037690114,0.02417133,0.102681644,0.04940833,0.009562796,0.09557731,0.00011279236,-1.0,1.0,1.0,-1.0,-1.0,-1.0,1.0,0.5196817,0.8500041,1.0,0.7812206,1.0,-1.0,-1.0,1.0,0.02460277,-1.0,-1.0,-1.0,-1.0,-0.87209666,1.0,-1.0,1.0
2025-07-21 12:19:06.496,0.9400000000000005,940,47,-0.23069265,-0.13592367,0.22188698,0.26416668,-0.2763431,-0.07142636,-0.050546087,0.031196754,0.009805352,0.0,0.0,0.0,-0.012516753,0.5,0.0,0.0,-0.06639818,0.13506731,0.07996841,-0.045192275,0.07037164,-0.08189751,-0.011219863,-0.022083348,-0.02399319,0.11302976,-0.13017845,0.101324715,-0.0638871,-0.051705226,0.09728209,-0.041272286,-0.19505717,-0.064218916,-0.023736345,-0.15033162,-0.0830197,-0.034674212,-0.040275622,0.09653228,-1.0,-1.0,1.0,0.02460277,-1.0,-1.0,-1.0,-1.0,-0.87209666,1.0,-1.0,1.0,-1.0,1.0,1.0,-1.0,1.0,0.28181463,1.0,1.0,-1.0,1.0,-1.0,1.0
2025-07-21 12:19:06.515,0.9600000000000005,960,48,-0.12296013,0.0821304,0.021283487,0.09768225,0.025092026,-0.09266033,-0.082542844,0.05155116,0.031048754,0.0,0.0,0.0,-0.01065103,0.5,0.0,0.0,-0.07712244,0.14571597,0.08592949,-0.06827937,0.035643794,-0.08034289,0.012627171,-0.027054342,-0.04161008,0.10293357,-0.15344808,0.10088562,-0.033292733,0.15244277,0.050484456,-0.02289629,-0.0506803,0.002454073,0.07647697,0.12367444,0.011902682,0.044343725,-0.122908875,0.09894377,-1.0,1.0,1.0,-1.0,1.0,0.28181463,1.0,1.0,-1.0,1.0,-1.0,1.0,-1.0,-1.0,1.0,-0.56830597,1.0,-1.0,1.0,-1.0,-1.0,1.0,1.0,1.0
2025-07-21 12:19:06.539,0.9800000000000005,980,49,-0.14249526,-0.2247732,0.080955155,0.04950503,-0.102874026,0.11567916,-0.07563426,0.029081622,0.0058652456,0.0,0.0,0.0,-0.009537616,0.5,0.0,0.0,-0.09156347,0.16744901,0.09352954,-0.06974831,0.07616615,-0.09263669,0.037080936,-0.05511734,-0.060324118,0.12687153,-0.14491591,0.10166159,-0.038626682,0.0024627692,0.03923835,0.021451913,0.1228148,0.019580426,0.054564875,-0.1186139,0.005371529,0.07523617,0.073215656,-0.059448186,-1.0,-1.0,1.0,-0.56830597,1.0,-1.0,1.0,-1.0,-1.0,1.0,1.0,1.0,-1.0,1.0,1.0,-1.0,-0.5966188,-1.0,1.0,1.0,-1.0,1.0,-1.0,1.0
2025-07-21 12:19:06.559,1.0000000000000004,1000,50,0.22228326,-0.048349194,-0.104957215,0.18232779,-0.08544016,-0.057162933,-0.1319012,0.01055108,0.020181563,0.0,0.0,0.0,-0.01040904,0.5,0.0,0.0,-0.09584877,0.19685262,0.10418905,-0.09192612,0.08604622,-0.103841476,0.067491546,-0.045613933,-0.07623653,0.11638249,-0.13684587,0.10804359,0.020390123,0.050134577,0.017431974,0.00869894,-0.13129273,-0.0017611864,-0.024112632,0.19605218,-0.11413999,-0.0131297195,-0.029013108,0.09367073,-1.0,1.0,1.0,-1.0,-0.5966188,-1.0,1.0,1.0,-1.0,1.0,-1.0,1.0,-1.0,-1.0,1.0,-0.28617042,-1.0,1.0,1.0,-0.8135966,-0.7347059,1.0,1.0,1.0
2025-07-21 12:19:06.576,1.0200000000000005,1020,51,0.08098226,-0.25249282,-0.04503798,0.14281113,-0.09771485,0.03587894,-0.06551069,0.013995245,-0.0031717545,0.0,0.0,0.0,-0.01049312,0.5,0.0,0.0,-0.10753543,0.19178642,0.0967798,-0.086370386,0.0126854535,-0.05907813,0.07714713,-0.06500954,-0.07712747,0.12208167,-0.11248064,0.109598264,0.06840233,0.0087540895,-0.030318286,-0.033298347,-0.19908625,0.09704804,-0.026532311,-0.10752089,-0.03816012,-0.02644858,0.09375746,0.0379964,-1.0,-1.0,1.0,-0.28617042,-1.0,1.0,1.0,-0.8135966,-0.7347059,1.0,1.0,1.0,-1.0,-1.0,-1.0,1.0,1.0,1.0,-1.0,-0.010006756,1.0,0.21688999,0.030105393,1.0
2025-07-21 12:19:06.596,1.0400000000000005,1040,52,-0.10210385,-0.117526785,0.16004679,0.07740478,0.12945604,-0.06834742,-0.15288661,0.029440109,0.023155456,0.0,0.0,0.0,-0.009872165,0.5,0.0,0.0,-0.104466565,0.1836955,0.06092078,-0.07175542,-0.011242814,-0.02678872,0.03692405,-0.06277921,-0.054474957,0.12294638,-0.10600439,0.11850407,0.026015913,-0.042314563,-0.037253913,0.07934299,0.002712164,-0.015610957,-0.110875495,-0.0039670686,0.024778435,-0.0038354783,-0.019703653,0.031957734,-1.0,-1.0,-1.0,1.0,1.0,1.0,-1.0,-0.010006756,1.0,0.21688999,0.030105393,1.0,1.0,1.0,-1.0,1.0,1.0,1.0,-1.0,-1.0,1.0,1.0,1.0,1.0
2025-07-21 12:19:06.615,1.0600000000000005,1060,53,0.043616336,0.012665507,-0.25732407,0.11644999,0.4914771,0.04301878,-0.13925631,-0.037064236,0.024496669,0.0,0.0,0.0,-0.009054467,0.5,0.0,0.0,-0.06392612,0.21096613,0.025048705,-0.03617462,0.025017785,-0.012725153,0.018693073,-0.10008846,-0.0173715,0.13573171,-0.028050434,0.1360582,0.047045913,0.16612993,-0.08141654,0.09152056,0.07740199,-0.0017505281,-0.14399897,-0.123676926,0.089435644,0.07744975,0.2559151,0.071913235,1.0,1.0,-1.0,1.0,1.0,1.0,-1.0,-1.0,1.0,1.0,1.0,1.0,1.0,0.24443734,-1.0,1.0,-1.0,1.0,-1.0,-0.9072684,1.0,0.17664875,-1.0,-1.0
2025-07-21 12:19:06.641,1.0800000000000005,1080,54,-0.06558232,0.19435178,-0.2846071,0.25044298,0.45288163,0.016899511,-0.045242418,-0.0040967027,0.015801009,0.0,0.0,0.0,-0.009779666,0.5,0.0,0.0,-0.029288072,0.22890177,0.0019912652,0.0056385123,0.028113203,0.010761512,-0.0152306035,-0.15106072,0.018424746,0.11370274,-0.01222822,0.08248288,0.13250794,-0.08879124,-0.053566847,0.09148347,-0.0902616,0.09191681,-0.08835742,-0.06971974,0.055665456,0.017572835,-0.11597973,-0.10918311,1.0,0.24443734,-1.0,1.0,-1.0,1.0,-1.0,-0.9072684,1.0,0.17664875,-1.0,-1.0,1.0,0.26472574,-1.0,1.0,1.0,1.0,-1.0,-1.0,1.0,-1.0,1.0,-1.0
2025-07-21 12:19:06.659,1.1000000000000005,1100,55,-0.038449362,-0.062204354,-0.1698559,-0.105880156,0.43395564,0.16180405,-0.05210972,-0.05355629,-0.015333071,0.0,0.0,0.0,-0.010933921,0.5,0.0,0.0,-0.0016722588,0.2287354,-0.019737026,0.020713504,0.059168354,0.03792801,-0.05370761,-0.20218776,0.035654515,0.07991383,0.016881807,0.036171626,0.079545274,-0.0040612924,-0.030083707,-0.010385175,0.088636614,0.08852887,-0.0053800233,-0.17700057,0.12755594,-0.14617543,0.24054855,-0.09782,1.0,0.26472574,-1.0,1.0,1.0,1.0,-1.0,-1.0,1.0,-1.0,1.0,-1.0,1.0,-0.5114249,-1.0,1.0,-1.0,1.0,-1.0,1.0,1.0,-0.94150245,-1.0,-1.0
2025-07-21 12:19:06.676,1.1200000000000006,1120,56,-0.12322257,0.06312436,0.091745295,0.025805898,0.19425309,0.08696901,0.009149202,-0.075354606,0.011926557,0.0,0.0,0.0,-0.013651165,0.5,0.0,0.0,0.033955388,0.20556015,-0.05073124,0.052663032,0.08638653,0.06443916,-0.06743387,-0.21299471,0.045898873,0.020816427,0.016483618,0.018052014,0.07395121,-0.026788391,-0.011482022,0.07100275,0.029855609,0.002521037,-0.04930251,0.07720065,0.08009102,-0.051278327,-0.20469362,-0.10604239,1.0,-0.5114249,-1.0,1.0,-1.0,1.0,-1.0,1.0,1.0,-0.94150245,-1.0,-1.0,1.0,-1.0,-1.0,1.0,-1.0,1.0,-1.0,-0.36082956,1.0,-1.0,1.0,-1.0
2025-07-21 12:19:06.696,1.1400000000000006,1140,57,-0.40396693,0.08574387,0.15841173,0.03844559,0.04070879,-0.06921561,0.0045701745,-0.035669807,0.04656646,0.0,0.0,0.0,-0.016485905,0.5,0.0,0.0,0.052767213,0.15676686,-0.06663992,0.05407341,0.073204115,0.08481428,-0.06563927,-0.19916555,0.068577744,0.0012345132,0.0091171255,-0.030053189,0.13102122,-0.084568985,-0.042655904,0.0010956947,-0.099405564,0.105441384,-0.0986013,-0.018749788,-0.00544097,-0.13944033,0.16583869,-0.06001534,1.0,-1.0,-1.0,1.0,-1.0,1.0,-1.0,-0.36082956,1.0,-1.0,1.0,-1.0,1.0,-1.0,-1.0,1.0,1.0,1.0,-1.0,0.03642854,1.0,1.0,-0.047820408,-1.0
2025-07-21 12:19:06.716,1.1600000000000006,1160,58,-0.24309456,0.020064924,-0.11064792,-0.108663864,0.06755084,-0.04908038,-0.042101067,-0.04799888,0.042543266,0.0,0.0,0.0,-0.016865836,0.5,0.0,0.0,0.08346927,0.10135556,-0.072830416,0.070136845,0.08291257,0.076709434,-0.08304521,-0.17225312,0.07280029,0.019857008,0.024621472,-0.05097182,-0.02290425,-0.27176017,-0.035100248,0.011924647,0.18262918,0.042942416,-0.050377067,0.06406163,-0.008444611,0.06302236,0.015830738,-0.10994171,1.0,-1.0,-1.0,1.0,1.0,1.0,-1.0,0.03642854,1.0,1.0,-0.047820408,-1.0,1.0,1.0,-1.0,1.0,-1.0,1.0,-1.0,-1.0,1.0,0.4472624,0.06877594,-1.0
2025-07-21 12:19:06.741,1.1800000000000006,1180,59,-0.098459244,-0.09840374,0.11139799,0.09466785,-0.059039053,-0.04603082,-0.010703405,-0.1038138,0.03849805,0.0,0.0,0.0,-0.016669624,0.5,0.0,0.0,0.097124845,0.07107658,-0.090236805,0.0836121,0.0957271,0.08610381,-0.09334543,-0.18552738,0.084181026,0.024084186,0.011171765,-0.06375883,0.080255516,0.09356809,-0.017658792,0.032249875,-0.04184654,0.080367915,-0.04431219,-0.08082063,0.028262567,0.0732996,-0.045647047,-0.08992059,1.0,1.0,-1.0,1.0,-1.0,1.0,-1.0,-1.0,1.0,0.4472624,0.06877594,-1.0,1.0,-1.0,-1.0,1.0,-1.0,1.0,-1.0,-0.2331231,1.0,-0.16023003,1.0,1.0
2025-07-21 12:19:06.759,1.2000000000000006,1200,60,-0.2609085,-0.18266784,0.122140475,0.15427941,0.015766216,-0.082002476,0.021649918,-0.12367224,0.0329518,0.0,0.0,0.0,-0.01588067,0.5,0.0,0.0,0.09881186,0.027615849,-0.09829755,0.087629825,0.08349138,0.11331097,-0.10271177,-0.179287,0.09395996,0.01970236,0.06391102,-0.020387342,0.09376871,-0.20723853,-0.0071238726,0.0936333,-0.099008135,0.028066285,0.03628041,0.019412106,0.047490932,0.0139986845,0.18594484,0.01887341,1.0,-1.0,-1.0,1.0,-1.0,1.0,-1.0,-0.2331231,1.0,-0.16023003,1.0,1.0,1.0,0.34209636,-1.0,0.52948594,1.0,1.0,-1.0,-0.9664309,1.0,1.0,-1.0,1.0
2025-07-21 12:19:06.776,1.2200000000000006,1220,61,-0.20482828,0.24450785,0.14806181,0.25342095,-0.08341786,-0.021428464,-0.036369044,-0.1162371,-0.023209305,0.0,0.0,0.0,-0.013683255,0.5,0.0,0.0,0.11045427,0.0267674,-0.1141846,0.08205271,0.081852406,0.09989825,-0.10965275,-0.19977884,0.09500684,0.04702766,0.056521077,0.00045640228,0.024021525,0.0047010523,-0.009963304,-0.019031363,0.054138646,0.004671143,0.034023784,-0.15193613,0.05753906,0.10334892,-0.12450916,0.101502284,1.0,0.34209636,-1.0,0.52948594,1.0,1.0,-1.0,-0.9664309,1.0,1.0,-1.0,1.0,-0.47846866,1.0,1.0,0.49449438,0.13433501,1.0,-0.8253915,1.0,1.0,1.0,-0.020331282,-1.0
2025-07-21 12:19:06.796,1.2400000000000007,1240,62,0.03804921,0.2046802,0.20876913,-0.15194413,-0.012274501,-0.1868856,-0.0152087035,-0.068018936,-0.04019462,0.0,0.0,0.0,-0.0113524,0.5,0.0,0.0,0.08025414,0.06573787,-0.07023013,0.087332964,0.08159819,0.111299545,-0.1041178,-0.1784358,0.09455426,0.0675797,0.051300377,-0.021894576,-0.11138942,0.17188117,0.14179751,0.02651389,-0.02976425,0.027823696,-0.08033204,0.17087972,0.011365534,0.089875996,-0.017439552,-0.09979336,-0.47846866,1.0,1.0,0.49449438,0.13433501,1.0,-0.8253915,1.0,1.0,1.0,-0.020331282,-1.0,-1.0,-1.0,-1.0,1.0,1.0,1.0,-1.0,-1.0,1.0,-1.0,0.06091408,-1.0
2025-07-21 12:19:06.818,1.2600000000000007,1260,63,-0.1265713,0.0006726314,0.27561963,-0.1182967,-0.18280713,0.069283396,-0.037824336,-0.12702061,0.007429058,0.0,0.0,0.0,-0.008804258,0.5,0.0,0.0,0.056556102,0.09216448,-0.08899992,0.09478779,0.130312,0.112585865,-0.13274029,-0.17415787,0.12051626,0.029330513,0.043062884,-0.03965013,-0.04415834,-0.03888527,-0.011338801,-0.044078503,0.18681906,0.048902027,-0.041194018,-0.078847535,0.047919948,-0.12487633,-0.0828045,-0.084284246,-1.0,-1.0,-1.0,1.0,1.0,1.0,-1.0,-1.0,1.0,-1.0,0.06091408,-1.0,1.0,-0.88518006,-1.0,1.0,-1.0,1.0,-1.0,1.0,1.0,-0.7193836,0.32005635,-1.0
2025-07-21 12:19:06.836,1.2800000000000007,1280,64,0.11055488,0.08370457,-0.04957404,0.10046509,0.036209747,-0.01324621,0.010104688,-0.055139963,0.017110404,0.0,0.0,0.0,-0.0075350394,0.5,0.0,0.0,0.06994094,0.047808923,-0.09928293,0.10053266,0.12783471,0.11065593,-0.12759915,-0.14073221,0.11928554,0.0214101,0.060466193,-0.054516487,0.10500728,-0.25349125,-0.0028183612,0.017912172,-0.009274196,-0.038970087,-0.05366046,0.08570928,0.013409632,-0.012130224,0.10737755,0.021608828,1.0,-0.88518006,-1.0,1.0,-1.0,1.0,-1.0,1.0,1.0,-0.7193836,0.32005635,-1.0,0.7243717,-1.0,0.8044597,1.0,-0.55805546,1.0,-1.0,-1.0,1.0,-1.0,-0.7291723,-1.0
2025-07-21 12:19:06.863,1.3000000000000007,1300,65,-0.31028712,-0.07579918,0.31055743,0.27271578,-0.08842923,0.013317716,-0.07084066,-0.100733854,0.046306282,0.0,0.0,0.0,-0.0073365616,0.5,0.0,0.0,0.08051445,-0.019068167,-0.057819474,0.11547133,0.123311445,0.118764736,-0.12492148,-0.16256228,0.12682346,-0.012922286,0.011726688,-0.07315625,0.058764104,-0.11420209,0.11217526,-0.047494862,-0.120809816,0.03367645,-0.011503645,-0.11384037,0.02287814,-0.0627921,-0.15317273,-0.093006,0.7243717,-1.0,0.8044597,1.0,-0.55805546,1.0,-1.0,-1.0,1.0,-1.0,-0.7291723,-1.0,-0.2142931,1.0,-1.0,1.0,1.0,1.0,-1.0,1.0,1.0,0.7953137,0.31639782,-0.17616919
2025-07-21 12:19:06.882,1.3200000000000007,1320,66,0.20602606,-0.19560482,0.19421835,-0.124968216,0.0871446,-0.056138497,-0.01523689,-0.0831,-0.04972699,0.0,0.0,0.0,-0.005740701,0.5,0.0,0.0,0.057035856,-0.030963888,-0.08652306,0.1195,0.12708502,0.13386811,-0.14894393,-0.14749944,0.12035173,-0.006289465,0.01729579,-0.078061104,0.004660184,0.1393557,-0.030860743,-0.030206218,0.057800163,-0.0118495785,-0.039013725,0.09802803,-0.081168205,0.092744954,0.10128148,0.014674924,-0.2142931,1.0,-1.0,1.0,1.0,1.0,-1.0,1.0,1.0,0.7953137,0.31639782,-0.17616919,1.0,-1.0,-1.0,0.5358253,-1.0,1.0,-0.19344658,-1.0,0.10641515,1.0,-1.0,-1.0
2025-07-21 12:19:06.896,1.3400000000000007,1340,67,-0.14379658,-0.12011875,0.14246212,0.20648013,-0.06076021,0.067620486,-0.057959434,-0.1116902,0.03951787,0.0,0.0,0.0,-0.005634502,0.5,0.0,0.0,0.0683328,-0.026533397,-0.0959104,0.11882357,0.14883773,0.13523303,-0.11944981,-0.15839691,0.10308145,0.023756534,-0.03159281,-0.09167569,0.1073119,-0.08109869,-0.09383226,-0.0016640304,-0.10324823,0.042192034,0.031899247,-0.17929979,-0.0034159597,0.02231978,-0.12535132,-0.057968892,1.0,-1.0,-1.0,0.5358253,-1.0,1.0,-0.19344658,-1.0,0.10641515,1.0,-1.0,-1.0,0.11871372,-0.5887339,-1.0,1.0,-1.0,1.0,-1.0,1.0,1.0,-1.0,0.91937727,0.13014206
2025-07-21 12:19:06.917,1.3600000000000008,1360,68,-0.42695785,-0.14501181,0.11991671,0.03377684,0.03678282,-0.03328302,-0.027067104,-0.16091393,0.013336522,0.0,0.0,0.0,-0.005787578,0.5,0.0,0.0,0.06947895,-0.052785706,-0.11345637,0.12056789,0.1217997,0.13685267,-0.13093537,-0.14350861,0.104872614,0.016787669,-0.042424493,-0.065150134,-0.056477968,-0.16401301,-0.054504104,0.033235244,-0.0007826078,0.027043464,-0.028618183,0.08101073,0.076570295,-0.049356572,0.14484783,-0.035337202,0.11871372,-0.5887339,-1.0,1.0,-1.0,1.0,-1.0,1.0,1.0,-1.0,0.91937727,0.13014206,1.0,1.0,-1.0,1.0,1.0,1.0,-1.0,-1.0,1.0,0.6177044,-1.0,1.0
2025-07-21 12:19:06.943,1.3800000000000008,1380,69,-0.1524638,0.20315646,-0.16507044,0.08116749,0.25270113,-0.06528746,-0.09952326,-0.18321477,0.035294034,0.0,0.0,0.0,-0.0055958736,0.5,0.0,0.0,0.09050069,-0.03912513,-0.12208955,0.12509671,0.13758728,0.1264191,-0.13639113,-0.14292681,0.11265668,0.027478782,-0.052518945,-0.031361107,-0.020191286,0.06578916,-0.07203838,-0.011430023,0.13360345,-0.06745965,0.01878962,-0.11652194,0.07321593,0.073434226,-0.13026409,0.037016537,1.0,1.0,-1.0,1.0,1.0,1.0,-1.0,-1.0,1.0,0.6177044,-1.0,1.0,-1.0,0.29621407,1.0,-0.15877515,-1.0,1.0,0.69617873,-1.0,1.0,1.0,0.842268,-0.20579723
2025-07-21 12:19:06.959,1.4000000000000008,1400,70,-0.17293577,-0.25380522,0.126818,-0.4211879,-0.16593248,0.05274371,-0.090415664,-0.15532443,-0.02014972,0.0,0.0,0.0,-0.0050447513,0.5,0.0,0.0,0.083528765,-0.020533353,-0.09430373,0.09922956,0.15679257,0.14779559,-0.13460474,-0.1917243,0.12482662,0.040846717,-0.04420947,-0.020965232,-0.0053974977,0.05195124,0.08857408,-0.09840902,0.06593402,0.0902202,0.02905743,-0.013511064,0.012641514,0.015565991,0.19329263,0.06735989,-1.0,0.29621407,1.0,-0.15877515,-1.0,1.0,0.69617873,-1.0,1.0,1.0,0.842268,-0.20579723,-1.0,1.0,-1.0,1.0,-1.0,1.0,-1.0,1.0,1.0,1.0,-1.0,1.0
2025-07-21 12:19:06.980,1.4200000000000008,1420,71,-0.2655906,0.027347794,0.07512325,-0.069621466,0.055235285,-0.162834,-0.07220431,-0.1092821,-0.040237907,0.0,0.0,0.0,-0.0061163832,0.5,0.0,0.0,0.037097696,0.036360625,-0.1091354,0.09478397,0.15932716,0.14433986,-0.124957114,-0.16032498,0.12887022,0.06921252,-0.06259876,0.010565632,-0.15615104,0.19968148,-0.029327627,0.0904863,-0.0758788,0.051272355,-0.030578025,0.07773442,0.009542472,0.06948641,-0.2136664,0.14209402,-1.0,1.0,-1.0,1.0,-1.0,1.0,-1.0,1.0,1.0,1.0,-1.0,1.0,-0.4146594,-1.0,-1.0,1.0,1.0,1.0,-1.0,-1.0,1.0,1.0,1.0,1.0
2025-07-21 12:19:07.010,1.4400000000000008,1440,72,-0.087879136,-0.15519561,-0.20185702,-0.0089395335,-0.073132254,0.100006655,-0.0365387,-0.07273642,0.017057868,0.0,0.0,0.0,-0.0054698074,0.5,0.0,0.0,0.021820677,0.034864623,-0.10736468,0.10565314,0.17549661,0.14924634,-0.13718462,-0.15705585,0.13977703,0.07904207,-0.062081546,0.035640515,-0.010150563,-0.10518674,-0.06592069,0.046424598,0.14494053,0.0031784556,0.056558285,-0.03844383,0.056983165,-0.002303016,0.18452913,0.10934007,-0.4146594,-1.0,-1.0,1.0,1.0,1.0,-1.0,-1.0,1.0,1.0,1.0,1.0,0.46666583,1.0,-1.0,1.0,-1.0,1.0,-1.0,0.822873,1.0,1.0,-1.0,1.0
2025-07-21 12:19:07.026,1.4600000000000009,1460,73,-0.321864,-0.010022536,-0.067462586,0.04203917,0.032428928,-0.15214433,-0.06753416,-0.05048208,-0.04159239,0.0,0.0,0.0,-0.004878374,0.5,0.0,0.0,0.018934166,0.052166294,-0.12215877,0.12737112,0.1751194,0.14388785,-0.12770638,-0.1202946,0.13634343,0.10204199,-0.084124066,0.05739535,0.008181643,0.16790701,0.026161997,-0.026669761,-0.066597946,0.063737206,-0.05206394,0.097229935,0.0299797,-0.0097348215,-0.21369562,0.09298146,0.46666583,1.0,-1.0,1.0,-1.0,1.0,-1.0,0.822873,1.0,1.0,-1.0,1.0,-0.17419364,-1.0,-1.0,1.0,0.60786617,1.0,-1.0,-1.0,1.0,1.0,1.0,1.0
2025-07-21 12:19:07.046,1.4800000000000009,1480,74,0.04625332,-0.053514827,-0.3502331,0.029642213,-0.174063,0.10914484,-0.014202416,-0.062071554,-0.014581329,0.0,0.0,0.0,-0.004024557,0.5,0.0,0.0,0.009687791,0.043926764,-0.12120005,0.13430433,0.19298333,0.14780669,-0.14721352,-0.12452865,0.12780148,0.12324769,-0.072722755,0.06787588,-0.07418222,-0.09812743,-0.07200855,-0.011716883,-0.009526509,-0.07142551,-0.024266677,0.02387908,-0.004484208,0.031986278,0.07376733,0.07983411,-0.17419364,-1.0,-1.0,1.0,0.60786617,1.0,-1.0,-1.0,1.0,1.0,1.0,1.0,1.0,1.0,-1.0,1.0,-1.0,1.0,-1.0,-1.0,1.0,-1.0,-1.0,-1.0
2025-07-21 12:19:07.066,1.5000000000000009,1500,75,-0.3013072,-0.048314977,-0.23703021,0.17173643,-0.0058400566,-0.08605015,-0.0490789,-0.14693521,0.033117674,0.0,0.0,0.0,-0.0039482485,0.5,0.0,0.0,0.029440744,0.03086407,-0.14127457,0.13256678,0.18247892,0.13693978,-0.15741628,-0.13578409,0.13389838,0.09181087,-0.105500795,0.038809944,0.11412336,-0.0016216332,0.0006532006,0.046200376,-0.06306767,-0.0075629237,-0.034998044,-0.042293545,-0.038548723,-0.084830515,-0.11901535,-0.07249102,1.0,1.0,-1.0,1.0,-1.0,1.0,-1.0,-1.0,1.0,-1.0,-1.0,-1.0,1.0,-0.76068103,-1.0,1.0,-1.0,1.0,-1.0,-0.72728145,1.0,-1.0,1.0,-1.0
2025-07-21 12:19:07.092,1.520000000000001,1520,76,-0.2873647,-0.0626856,0.09967788,0.14113626,-0.0353661,-0.063838534,-0.09386337,-0.064869605,-0.035362083,0.0,0.0,0.0,-0.00335912,0.5,0.0,0.0,0.058872394,0.02016941,-0.14178948,0.14604504,0.15207002,0.14807895,-0.14873959,-0.16290472,0.1376784,0.039441504,-0.10409447,0.00855432,0.106023595,-0.061687402,-0.014119527,0.023914978,-0.13295548,0.055479318,0.0674824,-0.10555775,0.025893038,-0.1477176,0.07404115,-0.1324609,1.0,-0.76068103,-1.0,1.0,-1.0,1.0,-1.0,-0.72728145,1.0,-1.0,1.0,-1.0,1.0,-0.9326068,-1.0,1.0,1.0,1.0,-1.0,1.0,1.0,1.0,1.0,-0.5492753
2025-07-21 12:19:07.109,1.540000000000001,1540,77,-0.16015883,0.010761637,-0.13462062,0.013592829,0.024475032,0.09715115,-0.07316273,-0.1277728,0.04081709,0.0,0.0,0.0,-0.0017618554,0.5,0.0,0.0,0.08143491,-0.02208552,-0.13836831,0.1419812,0.17219879,0.13136852,-0.15198374,-0.14728974,0.1384566,0.04624641,-0.018171819,-0.01368915,0.06258543,-0.13317548,-0.019639457,-0.057661604,0.113438204,-0.03398706,0.0015708493,0.18652678,-0.081349604,0.08203498,0.14922251,-0.05775328,1.0,-0.9326068,-1.0,1.0,1.0,1.0,-1.0,1.0,1.0,1.0,1.0,-0.5492753,0.92481905,1.0,-1.0,1.0,-1.0,1.0,-1.0,-1.0,1.0,-1.0,-1.0,-1.0
2025-07-21 12:19:07.129,1.560000000000001,1560,78,-0.17686495,-0.08925747,0.122948,0.16604015,-0.052449547,-0.022758812,-0.103039406,-0.12696269,-0.020070445,0.0,0.0,0.0,-0.0022424306,0.5,0.0,0.0,0.07955662,-0.03026144,-0.14604338,0.150412,0.17652047,0.13494873,-0.15042493,-0.15378906,0.13363193,0.024335338,-0.0036703448,-0.042409945,0.059338,0.16100788,0.056834247,-0.031500187,0.02300765,-0.011894356,0.036289383,-0.054366387,0.006225886,-0.11873066,-0.16675028,-0.005800681,0.92481905,1.0,-1.0,1.0,-1.0,1.0,-1.0,-1.0,1.0,-1.0,-1.0,-1.0,1.0,-1.0,-1.0,1.0,-1.0,1.0,-1.0,1.0,1.0,-1.0,1.0,1.0
2025-07-21 12:19:07.147,1.580000000000001,1580,79,-0.19109222,0.090084575,-0.120240755,0.13075173,0.047242183,0.028088026,-0.097216,-0.09447224,0.028029973,0.0,0.0,0.0,-0.0018772035,0.5,0.0,0.0,0.11004528,-0.056165,-0.14961936,0.1620479,0.15886298,0.15181589,-0.15545453,-0.12863177,0.13919921,-0.011013014,0.0062534097,-0.011344686,-0.0009568536,-0.20969191,-0.01391915,0.07153725,-0.08389289,-0.018168585,-0.07837262,0.04286501,-0.037887767,-0.12960708,0.18374729,0.0052152188,1.0,-1.0,-1.0,1.0,-1.0,1.0,-1.0,1.0,1.0,-1.0,1.0,1.0,0.68204737,1.0,0.71905035,1.0,1.0,1.0,-1.0,-1.0,1.0,-0.23685859,-1.0,-1.0
2025-07-21 12:19:07.166,1.600000000000001,1600,80,-0.22862102,0.16898073,0.13209334,-0.10274526,0.036446717,-0.102565676,-0.11604808,-0.12594473,0.007139831,0.0,0.0,0.0,-0.0016013909,0.5,0.0,0.0,0.11987173,-0.081423946,-0.11603147,0.15935765,0.19190721,0.13355489,-0.16773094,-0.13949728,0.14229976,-0.015125064,-0.00081271864,-0.03426266,-0.0017301242,0.05579754,0.07453629,-0.052191917,0.072531074,0.043830406,0.0005393033,-0.11998042,0.078758806,0.010432682,-0.17474912,-0.030356219,0.68204737,1.0,0.71905035,1.0,1.0,1.0,-1.0,-1.0,1.0,-0.23685859,-1.0,-1.0,-1.0,1.0,-1.0,0.8550383,-0.0074453577,1.0,-0.44694978,-0.039015383,1.0,-0.23090611,1.0,1.0
2025-07-21 12:19:07.192,1.620000000000001,1620,81,-0.16507837,-0.08566285,0.06421905,-0.2945248,0.03678105,-0.022552777,-0.050221574,-0.15351847,-0.036691654,0.0,0.0,0.0,-0.0010613818,0.5,0.0,0.0,0.08536206,-0.042782575,-0.12979533,0.1483486,0.20793703,0.15096344,-0.1620498,-0.12464396,0.13383453,-0.012456766,0.012784624,0.0064262897,-0.12654646,0.09234632,-0.032606374,0.04487925,0.019642377,0.0013708182,0.0023416409,0.108288795,0.037619412,-0.012502249,0.22793376,0.089161254,-1.0,1.0,-1.0,0.8550383,-0.0074453577,1.0,-0.44694978,-0.039015383,1.0,-0.23090611,1.0,1.0,0.62684834,0.309192,-1.0,0.319036,-0.67940974,1.0,-1.0,-1.0,1.0,1.0,-1.0,0.886472
2025-07-21 12:19:07.209,1.640000000000001,1640,82,-0.14673758,0.010220697,0.15361202,0.055054486,-0.21273747,-0.00631626,-0.099904485,-0.054732777,0.023688333,0.0,0.0,0.0,-0.0013683769,0.5,0.0,0.0,0.08811,0.0034358937,-0.13680483,0.1396711,0.20469141,0.14609678,-0.16078256,-0.13679028,0.14944653,0.016652558,0.0007137493,0.032611568,-0.021753399,0.055563193,0.0018602672,-0.087435335,-0.002164659,-0.051734697,0.029697662,-0.16943699,0.03088858,0.026654258,-0.2243174,0.07681664,0.62684834,0.309192,-1.0,0.319036,-0.67940974,1.0,-1.0,-1.0,1.0,1.0,-1.0,0.886472,0.6060566,-1.0,-1.0,1.0,-1.0,1.0,-0.8595158,1.0,1.0,0.6404965,1.0,-0.7253109
2025-07-21 12:19:07.226,1.660000000000001,1660,83,-0.13688335,0.10875347,-0.06639682,0.12669228,0.029887745,0.016035603,-0.050781086,-0.10043863,-0.040111292,0.0,0.0,0.0,-0.0013284563,0.5,0.0,0.0,0.09486381,-0.033621278,-0.13627172,0.13201429,0.18319479,0.14658585,-0.15035091,-0.12277876,0.14370956,0.037609644,0.012367661,0.0028421318,0.08577851,-0.15251468,0.047196228,-0.06304963,0.020691086,0.012536712,-0.046965778,0.10293604,-0.050237585,0.037804507,0.13817962,-0.045084577,0.6060566,-1.0,-1.0,1.0,-1.0,1.0,-0.8595158,1.0,1.0,0.6404965,1.0,-0.7253109,1.0,0.37893403,-1.0,1.0,-0.4854472,1.0,-1.0,-1.0,1.0,-1.0,-0.9714684,-1.0
2025-07-21 12:19:07.247,1.680000000000001,1680,84,-0.13919812,0.020181935,0.0714638,0.23186511,0.042795,-0.13743475,-0.06301746,-0.1288509,-0.018800369,0.0,0.0,0.0,-0.0010336117,0.5,0.0,0.0,0.10564768,-0.040633127,-0.15419434,0.14140412,0.15482217,0.15444648,-0.17042258,-0.14024329,0.13687798,0.009942071,-0.02217148,-0.026104273,0.046363283,0.02000284,-0.067390114,0.013214772,-0.11010476,-0.0043791346,-0.04873825,-0.19425806,-0.056529425,-0.018635908,-0.117339276,-0.043791592,1.0,0.37893403,-1.0,1.0,-0.4854472,1.0,-1.0,-1.0,1.0,-1.0,-0.9714684,-1.0,1.0,-1.0,-1.0,1.0,0.9728065,1.0,-1.0,1.0,1.0,0.5687456,1.0,-0.52181244
2025-07-21 12:19:07.266,1.700000000000001,1700,85,-0.17327495,-0.14345987,-0.13938162,-0.13944302,0.055647798,-0.025258552,-0.03650986,-0.15299143,-0.01127542,0.0,0.0,0.0,0.0010169897,0.5,0.0,0.0,0.11063166,-0.027888892,-0.15000483,0.14430849,0.16980472,0.13755134,-0.15846202,-0.14464878,0.14612937,0.011511845,-0.009021312,-0.039750468,0.0078100357,0.0069221403,0.052728426,0.049970224,0.14513123,-0.015313181,0.0024301615,0.08697713,0.038975317,-0.004963461,0.13671768,-0.09980468,1.0,-1.0,-1.0,1.0,0.9728065,1.0,-1.0,1.0,1.0,0.5687456,1.0,-0.52181244,0.22504209,0.12062821,-1.0,1.0,-1.0,1.0,-1.0,-1.0,1.0,1.0,-1.0,1.0
2025-07-21 12:19:07.292,1.720000000000001,1720,86,-0.089046046,0.083114274,0.19322982,0.09836647,-0.08233775,-0.033464473,-0.06586803,-0.101250544,-0.032862283,0.0,0.0,0.0,0.0018775071,0.5,0.0,0.0,0.09508058,-0.01649538,-0.15101892,0.15471897,0.18089277,0.14712146,-0.16108093,-0.1537874,0.136593,0.046486158,-0.02563974,0.0056542256,0.02252734,-0.05272976,-0.081373505,-0.025197307,0.03432231,-0.06481498,-0.028965738,-0.08985999,0.08634391,0.03435351,-0.14557582,0.010629799,0.22504209,0.12062821,-1.0,1.0,-1.0,1.0,-1.0,-1.0,1.0,1.0,-1.0,1.0,1.0,0.1370579,-1.0,1.0,-1.0,1.0,0.28038064,-0.5049733,1.0,-0.9580585,1.0,-1.0
2025-07-21 12:19:07.309,1.740000000000001,1740,87,-0.14886273,0.04160636,-0.15618974,0.07951683,0.07868279,-0.05599863,-0.0807858,-0.13268134,0.025697427,0.0,0.0,0.0,0.0018227929,0.5,0.0,0.0,0.10850123,-0.0008371039,-0.16467077,0.15121873,0.17720562,0.15157987,-0.12825845,-0.16601016,0.15165254,0.019172397,-0.03391795,-0.029129982,-0.03586896,-0.028213909,0.058801174,0.07240525,-0.032217078,0.05135983,0.091005124,-0.033269066,-0.017853806,-0.054707527,0.06505506,-0.010955693,1.0,0.1370579,-1.0,1.0,-1.0,1.0,0.28038064,-0.5049733,1.0,-0.9580585,1.0,-1.0,0.23814462,-1.0,-0.4378965,1.0,-1.0,1.0,-1.0,-1.0,1.0,1.0,0.619698,1.0
2025-07-21 12:19:07.327,1.7600000000000011,1760,88,-0.3200355,-0.061384983,0.28970143,0.17125441,-0.0631651,-0.018714944,-0.1363995,-0.11990336,0.038114067,0.0,0.0,0.0,0.0029066333,0.5,0.0,0.0,0.113686115,-0.023173893,-0.15226747,0.1511844,0.14901175,0.15416436,-0.13757737,-0.20290704,0.14395654,0.032427635,0.023154244,-0.0027370583,0.050725978,-0.014223092,0.014709944,0.01359626,-0.0015486234,-0.031907614,0.021653593,-0.08339973,-0.012014405,0.065683104,0.16868293,0.01730664,0.23814462,-1.0,-0.4378965,1.0,-1.0,1.0,-1.0,-1.0,1.0,1.0,0.619698,1.0,1.0,-1.0,0.03991139,0.862915,1.0,1.0,0.72522485,1.0,1.0,1.0,-1.0,1.0
2025-07-21 12:19:07.347,1.7800000000000011,1780,89,-0.58940727,-0.06115735,0.078645945,0.097504266,0.20623244,0.10146389,-0.14238943,-0.11554194,-0.039561003,0.0,0.0,0.0,0.0032974195,0.5,0.0,0.0,0.12354416,-0.07042497,-0.1146105,0.15758531,0.16822003,0.1439124,-0.09356616,-0.19199401,0.15754701,0.060853876,0.00371041,0.031007886,0.08199777,-0.1554716,0.03990818,-0.031463537,0.17631046,-0.016778355,0.15580817,0.10010049,0.011689559,0.032024264,-0.19560063,0.05974673,1.0,-1.0,0.03991139,0.862915,1.0,1.0,0.72522485,1.0,1.0,1.0,-1.0,1.0,-1.0,1.0,1.0,-1.0,-0.14558688,-1.0,-1.0,1.0,1.0,1.0,-0.18341507,1.0
2025-07-21 12:19:07.368,1.8000000000000012,1800,90,-0.5336901,0.20920856,0.0625058,-0.45145336,-0.33909214,-0.103122346,-0.06629624,-0.12097212,0.010417761,0.0,0.0,0.0,0.002797307,0.5,0.0,0.0,0.07655518,-0.0797334,-0.0914623,0.11078576,0.20265988,0.1084676,-0.10061726,-0.10129619,0.15966697,0.070070274,-0.010942769,0.058243103,-0.12171673,0.016514545,0.100252286,-0.14332148,-0.0011788263,-0.16988657,-0.09857457,0.21967441,0.029326344,0.065962926,-0.06405146,0.008446241,-1.0,1.0,1.0,-1.0,-0.14558688,-1.0,-1.0,1.0,1.0,1.0,-0.18341507,1.0,-1.0,1.0,1.0,-1.0,-0.6072781,-1.0,-1.0,-1.0,1.0,1.0,0.72759765,1.0
2025-07-21 12:19:07.393,1.8200000000000012,1820,91,-0.45988,0.1421873,-0.16411762,-0.51240915,-0.3187661,-0.23101917,-0.1274272,-0.10105996,0.018768283,0.0,0.0,0.0,0.00304676,0.5,0.0,0.0,0.050777897,-0.05523608,-0.05567697,0.049072333,0.19897506,0.05392669,-0.11655306,-0.051668573,0.15593816,0.09465895,0.033283412,0.07440886,-0.09824458,0.1438016,0.072445795,-0.08455025,-0.017901195,-0.017874235,-0.042839088,-0.08315093,0.04443054,-0.020098284,0.09782566,0.100571275,-1.0,1.0,1.0,-1.0,-0.6072781,-1.0,-1.0,-1.0,1.0,1.0,0.72759765,1.0,-1.0,1.0,1.0,0.3070777,-0.09211435,0.44226032,1.0,-1.0,1.0,1.0,-0.87332064,1.0
2025-07-21 12:19:07.410,1.8400000000000012,1840,92,-0.55811024,0.015732698,-0.27903938,-0.42642042,0.05906,-0.27509528,-0.0951376,-0.014592921,-0.030136963,0.0,0.0,0.0,0.0046622003,0.5,0.0,0.0,0.02230849,0.024964733,-0.03108683,0.03893219,0.17702328,0.06579888,-0.0838104,-0.11189851,0.14854357,0.11729592,0.014204522,0.07911459,-0.12899427,0.2068672,0.008875368,0.035108306,-0.07000053,0.08031409,0.117858335,-0.1064442,0.03234196,-0.04615817,-0.20103517,0.0049869027,-1.0,1.0,1.0,0.3070777,-0.09211435,0.44226032,1.0,-1.0,1.0,1.0,-0.87332064,1.0,-1.0,1.0,1.0,-1.0,0.47099647,-1.0,0.10879116,-0.8465941,1.0,1.0,1.0,1.0
2025-07-21 12:19:07.429,1.8600000000000012,1860,93,-0.43610203,-0.2472496,-0.3043869,-0.5089651,-0.29837075,-0.114622705,-0.0689148,-0.016184187,0.015262768,0.0,0.0,0.0,0.007941157,0.5,0.0,0.0,-0.0025578523,0.091750346,-0.0014224503,0.0119598,0.17654613,0.019815058,-0.0732144,-0.13973062,0.16610233,0.11575071,0.029421575,0.0970271,-0.037299093,0.13203733,0.004761458,-0.117067926,0.053434063,-0.14011076,0.067048214,-0.09813926,-0.04801106,-0.030245153,0.16218689,0.0694491,-1.0,1.0,1.0,-1.0,0.47099647,-1.0,0.10879116,-0.8465941,1.0,1.0,1.0,1.0,-1.0,1.0,1.0,0.8137559,-0.97790885,0.004375398,-1.0,1.0,-0.4318974,1.0,-1.0,1.0
2025-07-21 12:19:07.448,1.8800000000000012,1880,94,-0.5884453,0.16061431,-0.24637085,-0.032571487,0.18658416,-0.33341274,-0.048955698,0.0276934,0.027388927,0.0,0.0,0.0,0.011943668,0.5,0.0,0.0,-0.042109232,0.1391247,0.032451436,0.004750877,0.16459541,0.026378395,-0.07791129,-0.10180989,0.123738445,0.12805465,0.025208881,0.11678198,-0.061895736,0.07560857,-0.011593023,0.04889315,-0.10864208,0.054893978,0.029788733,0.14966536,-0.16201234,-0.024953313,-0.08897673,0.039724518,-1.0,1.0,1.0,0.8137559,-0.97790885,0.004375398,-1.0,1.0,-0.4318974,1.0,-1.0,1.0,-1.0,0.9944414,1.0,-1.0,1.0,-1.0,1.0,-1.0,0.8792012,1.0,0.00019071624,1.0
2025-07-21 12:19:07.473,1.9000000000000012,1900,95,-0.1556252,-0.024447108,-0.11315883,0.010011332,0.038566228,-0.07901363,-0.07222591,0.010690956,0.033132393,0.0,0.0,0.0,0.017517751,0.5,0.0,0.0,-0.048164982,0.19251668,0.037979726,-0.0075551094,0.18044892,-0.0024239488,-0.060985893,-0.11355888,0.11998331,0.12804456,0.034527894,0.10594051,-0.042621702,0.0928495,0.083829544,-0.0030434595,0.087587714,-0.05340252,0.057994083,-0.015947301,-0.050874297,0.08997525,-0.056703288,-0.04232321,-1.0,0.9944414,1.0,-1.0,1.0,-1.0,1.0,-1.0,0.8792012,1.0,0.00019071624,1.0,-1.0,-1.0,1.0,-0.4067459,-1.0,-0.46967262,-1.0,-0.11885324,-1.0,1.0,0.50718933,1.0
2025-07-21 12:19:07.493,1.9200000000000013,1920,96,-0.2457187,-0.36162937,-0.08538717,-0.047960274,-0.15563923,-0.06231105,-0.00052028516,0.0074284743,-0.016596364,0.0,0.0,0.0,0.021369627,0.5,0.0,0.0,-0.07042284,0.20036305,0.04958822,-0.029401932,0.17527531,-0.015019764,-0.064275004,-0.10297286,0.06647228,0.12358185,0.054030303,0.10972929,-0.019072369,-0.06662073,0.021965353,0.010795591,-0.2090404,0.035264138,0.019237297,-0.049634032,-0.1771643,0.026813397,0.08161949,-0.019091275,-1.0,-1.0,1.0,-0.4067459,-1.0,-0.46967262,-1.0,-0.11885324,-1.0,1.0,0.50718933,1.0,-1.0,1.0,1.0,-0.792982,0.48095605,0.63130337,1.0,1.0,-1.0,1.0,-1.0,1.0
2025-07-21 12:19:07.511,1.9400000000000013,1940,97,-0.002530832,-0.35393474,0.050158847,-0.0013189533,0.049580637,-0.0031520277,-0.061970685,0.0121701555,-0.047221895,0.0,0.0,0.0,0.02261492,0.5,0.0,0.0,-0.08465346,0.2169756,0.07016665,-0.03387305,0.15171684,0.0017229929,-0.037793387,-0.050180178,0.025505932,0.14065066,0.04863051,0.113628566,-0.03456964,0.05822206,0.10001426,-0.057590067,0.08001727,-0.043575052,0.17150971,0.18808638,-0.14326344,-0.059018638,-0.07688712,0.004295181,-1.0,1.0,1.0,-0.792982,0.48095605,0.63130337,1.0,1.0,-1.0,1.0,-1.0,1.0,-1.0,-0.6671451,-0.3441763,0.38778603,-1.0,0.8115621,1.0,-0.1498385,0.60640216,1.0,-0.28116986,1.0
2025-07-21 12:19:07.528,1.9600000000000013,1960,98,-0.61170274,-0.04325557,0.26093435,0.103347,0.10130133,-0.030370904,-0.06729509,0.016011013,-0.021533618,0.0,0.0,0.0,0.023488201,0.5,0.0,0.0,-0.088850245,0.2145765,0.045917556,-0.029155385,0.133734,0.0023538454,-0.014695093,-0.023893975,0.04187966,0.142122,0.02563109,0.121991426,-0.0023362432,0.004737525,-0.10683357,0.03918005,-0.12988302,0.02055428,0.00850084,0.033880707,-0.006205726,-0.0418366,-0.007535212,0.004673212,-1.0,-0.6671451,-0.3441763,0.38778603,-1.0,0.8115621,1.0,-0.1498385,0.60640216,1.0,-0.28116986,1.0,1.0,1.0,-1.0,0.6123966,1.0,1.0,-1.0,-1.0,1.0,1.0,1.0,1.0
2025-07-21 12:19:07.550,1.9800000000000013,1980,99,-0.12344169,-0.03708465,0.08858395,0.020769574,0.32864082,0.040717304,-0.0016359771,0.007180639,-0.02530434,0.0,0.0,0.0,0.023899369,0.5,0.0,0.0,-0.061315086,0.2440468,0.019050207,-0.010113906,0.14876792,0.034117695,-0.028805895,-0.07396839,0.062901616,0.15171942,0.04283368,0.12583612,0.14829305,0.14609616,-0.07660939,-0.0059176395,-0.0027696425,0.09476484,-0.02575156,-0.15318048,0.12101749,-0.04520315,0.20515013,-0.02992309,1.0,1.0,-1.0,0.6123966,1.0,1.0,-1.0,-1.0,1.0,1.0,1.0,1.0,1.0,-1.0,-1.0,1.0,-1.0,1.0,-1.0,1.0,1.0,1.0,-1.0,0.7738743
2025-07-21 12:19:07.568,2.0000000000000013,2000,100,-0.20008686,0.14182685,-0.1091055,0.131927,0.259351,-0.0904878,-0.0142447315,-0.030327981,0.039974585,0.0,0.0,0.0,0.023201952,0.5,0.0,0.0,-0.022541216,0.2106502,-0.006619089,0.011724466,0.12970206,0.052838463,-0.04566404,-0.07671337,0.07321847,0.16260217,0.061957072,0.1306009,0.057907153,-0.14915577,-0.05992115,0.07917633,-0.063296,-0.025307233,0.000872933,0.0803478,0.07782036,0.06175698,-0.19086619,-0.06535872,1.0,-1.0,-1.0,1.0,-1.0,1.0,-1.0,1.0,1.0,1.0,-1.0,0.7738743,1.0,-1.0,-1.0,1.0,1.0,1.0,-1.0,-1.0,1.0,-0.63664377,1.0,-1.0
2025-07-21 12:19:07.594,2.0200000000000014,2020,101,-0.36427444,0.015908197,-0.27721915,-0.016945971,0.047789026,0.026661796,0.015158305,-0.027937409,-0.024513343,0.0,0.0,0.0,0.023360865,0.5,0.0,0.0,0.013130471,0.119598776,-0.03398304,0.030352766,0.12519595,0.048578896,-0.05261445,-0.08571329,0.09084993,0.11521865,0.06230117,0.076336175,0.075013086,-0.24604577,-0.0027235853,0.07143965,0.0007676035,0.034802824,-0.04365944,0.017944345,0.032438274,-0.14415115,0.18669683,-0.08314664,1.0,-1.0,-1.0,1.0,1.0,1.0,-1.0,-1.0,1.0,-0.63664377,1.0,-1.0,1.0,1.0,-1.0,1.0,1.0,1.0,-1.0,-1.0,1.0,-1.0,-1.0,-1.0
2025-07-21 12:19:07.610,2.0400000000000014,2040,102,-0.26589662,0.110170625,0.1028006,0.114387326,0.023348551,0.046926424,-0.0015806764,-0.037877325,0.0008642932,0.0,0.0,0.0,0.023642506,0.5,0.0,0.0,0.033544395,0.08432535,-0.057602473,0.037287544,0.16490243,0.06915412,-0.060118366,-0.122018754,0.10314199,0.06444968,0.05601503,0.03494153,0.03308448,0.09176871,-0.06420587,0.06133893,0.16630667,0.006084934,0.005116558,-0.058207795,0.073594704,-0.1497193,-0.08096413,-0.15923297,1.0,1.0,-1.0,1.0,1.0,1.0,-1.0,-1.0,1.0,-1.0,-1.0,-1.0,1.0,-1.0,-1.0,1.0,-1.0,1.0,-1.0,0.5987488,1.0,-1.0,0.48417976,-1.0
2025-07-21 12:19:07.628,2.0600000000000014,2060,103,-0.051169094,0.047298256,-0.010706172,0.08043263,0.0989352,-0.029178463,-0.05555644,-0.042775556,-0.03561346,0.0,0.0,0.0,0.02315884,0.5,0.0,0.0,0.06498213,0.052356943,-0.07210605,0.06211575,0.16133244,0.0777257,-0.06270997,-0.11824463,0.10630431,0.021268928,0.05988787,0.010700165,0.04142198,-0.20104994,-0.028276352,-0.00078179355,-0.019812303,-0.02135962,-0.0842174,0.06961473,-0.03131307,-0.114815176,0.111304566,-0.10122659,1.0,-1.0,-1.0,1.0,-1.0,1.0,-1.0,0.5987488,1.0,-1.0,0.48417976,-1.0,1.0,0.5338946,-1.0,1.0,0.2633228,1.0,-1.0,-1.0,1.0,-0.8088726,-0.14417787,-1.0
2025-07-21 12:19:07.650,2.0800000000000014,2080,104,0.19828154,0.067153096,-0.02085789,0.20652795,-0.020746142,-0.112911634,-0.057559688,-0.0756653,-0.022366736,0.0,0.0,0.0,0.02334385,0.5,0.0,0.0,0.07435642,0.02762294,-0.08823746,0.07447685,0.14958796,0.08505468,-0.07667583,-0.13571173,0.113192275,0.00940593,0.050894678,-0.013048652,0.06701609,0.07773817,-0.06536419,-0.031254534,0.023616932,-0.04716762,-0.018483562,-0.09383785,-0.015673036,-0.042664174,-0.0040788,-0.11513228,1.0,0.5338946,-1.0,1.0,0.2633228,1.0,-1.0,-1.0,1.0,-0.8088726,-0.14417787,-1.0,1.0,-1.0,-1.0,1.0,-1.0,1.0,-1.0,-1.0,1.0,-0.40909302,1.0,-1.0
2025-07-21 12:19:07.674,2.1000000000000014,2100,105,-0.14680597,0.38638082,0.027153406,0.41595381,-0.0011201575,0.04929522,-0.006197133,-0.13575603,-0.047098506,0.0,0.0,0.0,0.025209406,0.5,0.0,0.0,0.10031302,0.0014618131,-0.10429971,0.07755751,0.13276091,0.10344489,-0.0898,-0.15871237,0.12553644,-0.012014359,0.07398683,-0.053698298,-0.023855,-0.16780053,-0.089765996,0.06900398,-0.1661117,-0.0005246997,-0.03737782,-0.08493218,0.018190289,-0.009599007,0.14828925,-0.11554476,1.0,-1.0,-1.0,1.0,-1.0,1.0,-1.0,-1.0,1.0,-0.40909302,1.0,-1.0,0.70818025,-1.0,1.0,1.0,1.0,1.0,-1.0,1.0,1.0,0.9240107,-1.0,-1.0
2025-07-21 12:19:07.692,2.1200000000000014,2120,106,-0.06866912,0.14604633,0.36114818,0.08628998,0.042801034,-0.110418156,-0.10425818,-0.07763825,-0.029501079,0.0,0.0,0.0,0.02630679,0.5,0.0,0.0,0.09711805,-0.036729,-0.07797532,0.079795524,0.13415284,0.08793329,-0.089116864,-0.16074012,0.12509508,0.008732811,0.07919271,-0.053829353,0.03908222,-0.1173533,0.15596773,0.09851849,0.07851024,-0.022408003,0.042453893,0.08503685,-0.050241802,0.13051933,-0.09887622,-0.033376336,0.70818025,-1.0,1.0,1.0,1.0,1.0,-1.0,1.0,1.0,0.9240107,-1.0,-1.0,-1.0,1.0,1.0,-0.530968,1.0,-1.0,1.0,-1.0,1.0,1.0,0.01103,1.0
2025-07-21 12:19:07.714,2.1400000000000015,2140,107,-0.016524592,-0.18491547,0.11638349,-0.09035055,-0.32824352,0.044561155,-0.10230405,-0.089964144,0.03186081,0.0,0.0,0.0,0.027958112,0.5,0.0,0.0,0.068598725,-0.06049497,-0.045881767,0.051809877,0.17558245,0.057617586,-0.08123983,-0.16522089,0.12723872,0.04533688,0.057917066,-0.027412992,-0.030184317,-0.006908556,0.08508054,-0.13861668,0.11306866,-0.1418596,0.15304202,-0.056262657,0.042936087,0.04676027,-0.0993573,0.08988739,-1.0,1.0,1.0,-0.530968,1.0,-1.0,1.0,-1.0,1.0,1.0,0.01103,1.0,-1.0,1.0,1.0,-1.0,-0.79832065,-1.0,-1.0,0.40054128,-1.0,1.0,-1.0,1.0
2025-07-21 12:19:07.731,2.1600000000000015,2160,108,-0.11999867,0.050001465,-0.038201325,-0.23885907,-0.37994555,-0.16868421,-0.12951528,-0.0045579146,-0.010887819,0.0,0.0,0.0,0.027327456,0.5,0.0,0.0,0.031324662,-0.033631064,-0.014533432,0.0144614,0.19585274,0.016582597,-0.08811918,-0.13232261,0.082572974,0.055752374,-0.00015929648,0.013527618,-0.13071574,0.19880725,0.10954826,-0.08742598,0.0032417981,-0.04421724,-0.07372719,0.222236,-0.04549694,0.0779097,-0.1340502,0.08979597,-1.0,1.0,1.0,-1.0,-0.79832065,-1.0,-1.0,0.40054128,-1.0,1.0,-1.0,1.0,-1.0,-1.0,1.0,-1.0,0.5444004,-1.0,1.0,0.45962182,-1.0,1.0,0.3136597,1.0
2025-07-21 12:19:07.750,2.1800000000000015,2180,109,0.07065002,-0.30306113,-0.2579269,-0.42156106,-0.43090734,0.02554904,-0.039619993,-0.018294752,0.021105643,0.0,0.0,0.0,0.027717598,0.5,0.0,0.0,0.0077104345,-0.013144255,0.00499689,-0.016385932,0.2001081,-0.00031752433,-0.057882346,-0.08398336,0.03744106,0.08094769,-0.015532775,0.03484152,-0.037867744,-0.10057394,0.034195356,-0.09651264,0.060326893,-0.06290214,0.06813311,0.19835503,-0.110414445,-0.00669231,-0.007214755,0.069605395,-1.0,-1.0,1.0,-1.0,0.5444004,-1.0,1.0,0.45962182,-1.0,1.0,0.3136597,1.0,-1.0,1.0,1.0,-0.7616859,-1.0,-0.71158266,1.0,1.0,-1.0,1.0,-1.0,1.0
2025-07-21 12:19:07.776,2.2000000000000015,2200,110,-0.32239527,-0.33517984,-0.26251784,-0.2771781,-0.21483873,-0.1947836,-0.06247104,0.009066658,-0.005412663,0.0,0.0,0.0,0.027656047,0.5,0.0,0.0,-0.03090156,0.019033736,0.035653446,-0.044071544,0.20561631,-0.028565394,-0.012659285,0.003345325,0.0073086093,0.089842126,-0.030233053,0.046921015,0.00020974297,0.05338111,0.050513946,-0.057596274,0.035349187,-0.026563663,0.04808552,0.16147362,-0.043456767,-0.00010337288,-0.19947177,0.060583048,-1.0,1.0,1.0,-0.7616859,-1.0,-0.71158266,1.0,1.0,-1.0,1.0,-1.0,1.0,-1.0,1.0,1.0,-0.99007875,-1.0,0.7842441,1.0,1.0,1.0,1.0,1.0,1.0
2025-07-21 12:19:07.793,2.2200000000000015,2220,111,0.11292762,0.11443757,-0.32477406,-0.36178708,0.09014324,-0.02266152,-0.03397065,0.08277152,-0.033245843,0.0,0.0,0.0,0.028945906,0.5,0.0,0.0,-0.042466342,0.06725695,0.05284129,-0.049722042,0.17271413,-0.000619717,0.012591098,0.080050334,0.022731615,0.10589084,-0.037445728,0.060475904,-0.057256557,0.15217088,0.0981164,0.01636566,-0.012492384,0.04060672,0.084706716,0.100576356,-0.009490697,0.06143523,0.17631368,0.042026717,-1.0,1.0,1.0,-0.99007875,-1.0,0.7842441,1.0,1.0,1.0,1.0,1.0,1.0,-1.0,-1.0,1.0,1.0,-0.83719337,-0.21157378,-1.0,-1.0,1.0,1.0,-1.0,1.0
2025-07-21 12:19:07.809,2.2400000000000015,2240,112,-0.19132487,0.049431395,0.048152782,0.18061432,0.0497564,-0.076310836,-0.010741642,0.047377583,0.04018455,0.0,0.0,0.0,0.031111501,0.5,0.0,0.0,-0.041691873,0.09083387,0.06970281,-0.0313018,0.13789503,-0.013045099,-0.010582979,0.069096416,0.060669474,0.09195989,-0.020400416,0.07585025,-0.012600132,-0.09608399,0.08979439,0.0885092,-0.17457803,-0.06855906,-0.13329083,-0.17832154,-0.00021114977,0.08795767,-0.09571626,0.023113219,-1.0,-1.0,1.0,1.0,-0.83719337,-0.21157378,-1.0,-1.0,1.0,1.0,-1.0,1.0,-1.0,1.0,1.0,-1.0,0.1642408,-1.0,-1.0,0.38095704,1.0,1.0,-1.0,1.0
2025-07-21 12:19:07.829,2.2600000000000016,2260,113,-0.42875105,0.08147527,0.23937684,0.10899712,-0.0063029057,-0.14057437,-0.08560557,0.0842344,0.017072467,0.0,0.0,0.0,0.03283274,0.5,0.0,0.0,-0.051896457,0.10502292,0.0716704,-0.05044782,0.11701387,-0.03313573,-0.043409556,0.06192479,0.060802273,0.10189693,-0.055705633,0.08735409,0.04277522,0.051568847,-0.05263745,-0.12325658,-0.07501888,-0.07085344,-0.10420602,-0.0012489853,0.03908606,-0.019318817,-0.07178263,0.04624244,-1.0,1.0,1.0,-1.0,0.1642408,-1.0,-1.0,0.38095704,1.0,1.0,-1.0,1.0,-1.0,1.0,1.0,-0.6282826,-1.0,-0.79827094,-1.0,-1.0,-1.0,1.0,1.0,1.0
2025-07-21 12:19:07.849,2.2800000000000016,2280,114,-0.3490696,-0.069931775,0.19905666,-0.047268044,-0.07919407,-0.0798022,-0.064531945,0.076545835,0.041610204,0.0,0.0,0.0,0.03458447,0.5,0.0,0.0,-0.062200915,0.15566783,0.086652845,-0.07014323,0.09286472,-0.040378075,-0.054283924,0.034840032,0.030660972,0.11877184,-0.045963533,0.08827482,-0.1029367,0.12792264,0.061117887,-0.060140114,0.0016332034,0.040863357,0.007361545,-0.21559833,-0.1194925,-0.038894825,0.029688831,0.015806103,-1.0,1.0,1.0,-0.6282826,-1.0,-0.79827094,-1.0,-1.0,-1.0,1.0,1.0,1.0,-1.0,-1.0,1.0,-1.0,-0.6491392,1.0,1.0,0.8527105,-0.46426886,1.0,0.29210612,1.0
2025-07-21 12:19:07.875,2.3000000000000016,2300,115,-0.39163193,0.18482114,0.1490457,-0.12045322,0.13853057,0.025457412,-0.063334696,0.057967674,0.008533634,0.0,0.0,0.0,0.036459748,0.5,0.0,0.0,-0.07080974,0.17239965,0.09557382,-0.06325678,0.05495464,-0.011528744,-0.03891736,0.033035483,0.019971704,0.120638885,-0.026359376,0.10842723,-0.05166955,-0.09033896,0.075623386,-0.054105874,-0.061024293,0.07378927,0.08578645,0.06261763,-0.017885234,0.05027716,0.11478558,-0.018265566,-1.0,-1.0,1.0,-1.0,-0.6491392,1.0,1.0,0.8527105,-0.46426886,1.0,0.29210612,1.0,-1.0,0.11966503,1.0,-0.10594469,1.0,-1.0,1.0,-1.0,0.89268947,1.0,-1.0,1.0
2025-07-21 12:19:07.893,2.3200000000000016,2320,116,-0.42469883,0.23539609,0.21720673,0.07877978,-0.021322135,0.01722499,-0.0044838316,0.035155967,0.0024576392,0.0,0.0,0.0,0.036510278,0.5,0.0,0.0,-0.094217114,0.14488451,0.09250561,-0.071643606,0.093730204,-0.04935178,0.0034693612,-0.0068650455,0.03823544,0.120595194,-0.021848477,0.11197765,-0.05249838,-0.014227281,0.019310348,-0.025599858,0.15726903,-0.121329874,0.1339492,-0.25742915,0.02079977,0.081001304,-0.010104023,-0.00011593319,-1.0,0.11966503,1.0,-0.10594469,1.0,-1.0,1.0,-1.0,0.89268947,1.0,-1.0,1.0,-1.0,-0.03104109,1.0,-1.0,-1.0,-1.0,-1.0,0.3862234,1.0,1.0,1.0,1.0
2025-07-21 12:19:07.909,2.3400000000000016,2340,117,-0.40113586,-0.0463985,-0.079688296,-0.019025255,-0.079537764,0.037812315,-0.03129355,0.05288928,-0.038701516,0.0,0.0,0.0,0.03584291,0.5,0.0,0.0,-0.10364331,0.11816773,0.106530115,-0.0771768,0.09015013,-0.05118659,-0.018439703,-0.014901939,0.06482184,0.13485716,-0.020407084,0.12377473,-0.061434645,-0.06118981,0.060918424,-0.051947054,-0.13980773,-0.036293004,0.00018497632,0.10381581,0.0022494833,-0.049409967,0.14649734,-0.039646786,-1.0,-0.03104109,1.0,-1.0,-1.0,-1.0,-1.0,0.3862234,1.0,1.0,1.0,1.0,-1.0,1.0,1.0,-1.0,-1.0,-1.0,-0.7019288,-1.0,-0.6923268,1.0,-1.0,1.0
2025-07-21 12:19:07.932,2.3600000000000017,2360,118,-0.32912523,0.23659946,-0.0027582056,0.21039295,-0.11993086,-0.030182658,-0.11211446,0.05374531,0.032138716,0.0,0.0,0.0,0.035284363,0.5,0.0,0.0,-0.11270671,0.13877547,0.10102057,-0.098331444,-0.0008098209,-0.0847951,-0.034189686,-0.043784816,0.03230056,0.13876447,-0.013916799,0.12998988,-0.05309193,0.080726154,0.053607393,-0.06609554,-0.2503519,-0.026728304,-0.01175463,-0.10622031,-0.07612201,-0.024665015,-0.09244327,0.029967127,-1.0,1.0,1.0,-1.0,-1.0,-1.0,-0.7019288,-1.0,-0.6923268,1.0,-1.0,1.0,-1.0,-1.0,1.0,-1.0,0.8748224,-1.0,1.0,1.0,1.0,1.0,0.32813963,1.0
2025-07-21 12:19:07.958,2.3800000000000017,2380,119,-0.20744103,0.21028419,-0.20517845,-0.051350933,-0.008193925,0.058136493,-0.057676937,0.097652934,0.023543896,0.0,0.0,0.0,0.03514785,0.5,0.0,0.0,-0.12305154,0.13353363,0.11281262,-0.11662524,-0.0027207166,-0.0878848,-0.013147352,-0.054868855,0.0531914,0.1447938,-0.00032320514,0.11958815,0.04251629,0.031613663,0.04704313,-0.005973281,0.078839,-0.043880295,0.13357654,0.17733414,0.118061975,0.045915853,0.021140596,0.067384616,-1.0,-1.0,1.0,-1.0,0.8748224,-1.0,1.0,1.0,1.0,1.0,0.32813963,1.0,-1.0,-1.0,1.0,-0.6795242,-1.0,-1.0,1.0,-0.70774496,-1.0,1.0,-1.0,1.0
2025-07-21 12:19:07.980,2.4000000000000017,2400,120,-0.36568978,-0.20695762,-0.30611736,0.30066377,-0.091981836,0.07108922,-0.07916966,0.09872949,-0.014900087,0.0,0.0,0.0,0.034117326,0.5,0.0,0.0,-0.1216398,0.11307466,0.12718464,-0.11800673,-0.034510456,-0.10015527,0.009112783,-0.06483491,0.026491497,0.13457239,-0.023812769,0.1397114,-0.052931417,-0.06849388,-0.011351422,-0.023965346,-0.1971464,-0.08190491,0.11215195,-0.17595202,-0.08139602,0.027791856,-0.10913125,0.04545152,-1.0,-1.0,1.0,-0.6795242,-1.0,-1.0,1.0,-0.70774496,-1.0,1.0,-1.0,1.0,-1.0,1.0,1.0,0.49128908,1.0,1.0,1.0,1.0,-1.0,1.0,-1.0,1.0
2025-07-21 12:19:07.997,2.4200000000000017,2420,121,-0.026344525,-0.04325731,-0.30536857,0.062143043,0.15578006,-0.031409845,-0.0626962,0.0040691164,0.033959668,0.0,0.0,0.0,0.032484617,0.5,0.0,0.0,-0.12007006,0.11740489,0.11199366,-0.08702639,-0.045144588,-0.07023712,0.04169609,-0.04968515,-0.014397279,0.15234992,-0.059028637,0.13824601,-0.0351305,0.037888728,0.04749332,0.1242464,0.007544743,0.11925195,0.06719274,0.1140431,-0.05535553,-0.026646186,-0.1420068,0.0871416,-1.0,1.0,1.0,0.49128908,1.0,1.0,1.0,1.0,-1.0,1.0,-1.0,1.0,-1.0,-1.0,1.0,0.9683097,1.0,0.7082302,1.0,-1.0,0.36397922,1.0,-1.0,1.0
2025-07-21 12:19:08.017,2.4400000000000017,2440,122,-0.1370749,-0.05566685,0.07292421,0.13218696,0.110245876,0.14737926,-0.1014727,-0.005197006,0.047018565,0.0,0.0,0.0,0.03246544,0.5,0.0,0.0,-0.12691168,0.13598828,0.11350919,-0.04775248,-0.022289617,-0.05726988,0.062076792,-0.053811576,-0.005018715,0.1440912,-0.09491974,0.15407564,0.0855378,0.010303108,0.067299046,0.040985614,0.0088972645,0.0909109,0.11341491,-0.17436644,-0.009450949,0.07051401,-0.105147175,0.07747106,-1.0,-1.0,1.0,0.9683097,1.0,0.7082302,1.0,-1.0,0.36397922,1.0,-1.0,1.0,-1.0,-0.5097101,1.0,0.75927883,1.0,-0.6901254,-0.07680079,1.0,-1.0,1.0,-1.0,1.0
2025-07-21 12:19:08.043,2.4600000000000017,2460,123,-0.2228959,0.09238975,0.3369682,0.15917805,0.093518324,0.11823988,-0.120156705,0.017499775,-0.009845778,0.0,0.0,0.0,0.03200555,0.5,0.0,0.0,-0.12255488,0.114746414,0.12250847,-0.038642228,0.033139773,-0.07301063,0.049917072,-0.038594104,-0.031002536,0.14962454,-0.15114813,0.14404573,-0.037097514,-0.00032252615,0.036582466,0.027380092,0.17048812,-0.07396457,-0.016733913,0.15297411,0.00582864,-0.047595218,-0.099785805,-0.059457242,-1.0,-0.5097101,1.0,0.75927883,1.0,-0.6901254,-0.07680079,1.0,-1.0,1.0,-1.0,1.0,-1.0,1.0,1.0,-1.0,0.039062746,-1.0,1.0,1.0,-1.0,-1.0,1.0,1.0
2025-07-21 12:19:08.060,2.4800000000000018,2480,124,-0.024900004,-0.03474541,0.15668014,-0.16873822,-0.17578745,0.0059369993,-0.15905063,0.064205125,0.02356371,0.0,0.0,0.0,0.03015261,0.5,0.0,0.0,-0.11918792,0.1318734,0.118516654,-0.045577973,0.049930803,-0.08930322,0.07334601,0.027427386,-0.050208565,0.104039446,-0.13818507,0.1391761,0.04821071,0.19218946,-0.0583645,-0.026688352,-0.037436508,0.0077817803,0.086157985,0.25415882,-0.01986221,-0.050040253,0.1594139,-0.04420309,-1.0,1.0,1.0,-1.0,0.039062746,-1.0,1.0,1.0,-1.0,-1.0,1.0,1.0,-1.0,-1.0,1.0,-1.0,-1.0,1.0,1.0,-0.6325966,1.0,1.0,-0.1662807,1.0
2025-07-21 12:19:08.080,2.5000000000000018,2500,125,-0.113201305,0.013217721,0.28081816,0.01924784,-0.039658602,0.118701495,-0.13964552,0.04445309,-0.009202907,0.0,0.0,0.0,0.028966462,0.5,0.0,0.0,-0.12756334,0.13940449,0.1321232,-0.057694227,0.014552287,-0.05088727,0.07999495,0.032074355,-0.008038542,0.10702262,-0.119147286,0.13589656,-0.033607956,0.006940799,-0.023151238,0.007623039,-0.1067833,0.13780914,0.026593843,-0.20441562,0.13244149,-0.0061327517,0.01746099,-0.008306924,-1.0,-1.0,1.0,-1.0,-1.0,1.0,1.0,-0.6325966,1.0,1.0,-0.1662807,1.0,-0.73920536,1.0,-1.0,0.5521758,0.38695845,1.0,-1.0,-0.6622933,1.0,1.0,1.0,1.0
2025-07-21 12:19:08.097,2.520000000000002,2520,126,-0.08359452,0.23043843,0.13588147,-0.040397696,0.31680167,0.16574392,-0.07731005,0.021142282,0.03126344,0.0,0.0,0.0,0.026879052,0.5,0.0,0.0,-0.13480526,0.1876903,0.09280998,-0.046056498,0.012865022,-0.014502879,0.06385233,-0.026597865,0.006845086,0.11379094,-0.078394905,0.13492663,-0.01407076,0.063701436,-0.13037239,-0.012300381,0.053277235,0.08109557,-0.12791553,-0.104995295,0.1123023,0.075285524,0.16564052,0.039217524,-0.73920536,1.0,-1.0,0.5521758,0.38695845,1.0,-1.0,-0.6622933,1.0,1.0,1.0,1.0,1.0,1.0,-1.0,1.0,0.42585304,1.0,-1.0,-1.0,1.0,-1.0,1.0,-1.0
2025-07-21 12:19:08.117,2.540000000000002,2540,127,0.07477011,0.14699462,-0.27244866,-0.04152195,0.51006407,0.10866362,-0.08823164,0.021046462,-0.02924212,0.0,0.0,0.0,0.024007142,0.5,0.0,0.0,-0.097907834,0.2240342,0.050353803,-0.022731878,0.04508665,0.014074251,0.019306976,-0.09389045,0.044987634,0.07842916,0.014230888,0.095830284,0.12097525,0.06773127,-0.070434876,0.14958084,0.091448694,0.04732725,-0.12836054,-0.2278537,-0.015594045,-0.05646227,0.26999056,-0.056934725,1.0,1.0,-1.0,1.0,0.42585304,1.0,-1.0,-1.0,1.0,-1.0,1.0,-1.0,1.0,-0.4972396,-1.0,1.0,-0.9190586,1.0,-1.0,1.0,1.0,-0.9672407,0.91147035,-1.0
2025-07-21 12:19:08.143,2.560000000000002,2560,128,-0.022225704,0.3651039,-0.6143917,0.02166517,0.65660506,0.049670167,-0.027751448,-0.06269135,0.028778575,0.0,0.0,0.0,0.0216439,0.5,0.0,0.0,-0.039561305,0.20867273,0.0019659325,0.022177044,0.04137031,0.04118873,-0.00612048,-0.090423234,0.06371123,0.04776823,0.07104039,0.04827691,0.1431919,-0.16576017,-0.052897714,0.102893636,0.014045701,0.12688309,-0.07751802,0.16115147,-0.0009721481,-0.047068477,0.15377797,-0.10600967,1.0,-0.4972396,-1.0,1.0,-0.9190586,1.0,-1.0,1.0,1.0,-0.9672407,0.91147035,-1.0,1.0,-1.0,-0.057151794,1.0,1.0,1.0,-1.0,-1.0,1.0,-1.0,0.37254384,-1.0
2025-07-21 12:19:08.160,2.580000000000002,2580,129,-0.2271966,0.29670098,-0.5256454,-0.008216708,0.17991655,0.16541347,0.036404744,-0.08654171,0.034971226,0.0,0.0,0.0,0.01999112,0.5,0.0,0.0,-0.01404515,0.15563026,-0.00015907642,0.033215683,0.051985588,0.0476381,-0.038513552,-0.09414173,0.08253669,0.011552365,0.10169518,0.019782875,0.13488218,-0.16550297,0.019176891,-0.014270823,0.10553061,-0.008754099,0.042193826,-0.11415431,0.07533457,-0.025837956,0.073682025,-0.12152776,1.0,-1.0,-0.057151794,1.0,1.0,1.0,-1.0,-1.0,1.0,-1.0,0.37254384,-1.0,1.0,0.91228974,-0.8574281,1.0,1.0,1.0,-1.0,0.02899018,1.0,-1.0,-1.0,-1.0
2025-07-21 12:19:08.180,2.600000000000002,2600,130,-0.089372374,0.19429098,-0.37071905,-0.21710432,0.04799308,-0.024695313,0.028199047,-0.085671715,0.029323276,0.0,0.0,0.0,0.017359225,0.5,0.0,0.0,0.010154829,0.16910763,-0.0182426,0.055487636,0.094499245,0.06033178,-0.039977636,-0.08334729,0.072213866,-0.025174996,0.05299863,-0.007515272,0.10923063,0.091896705,-0.06863697,0.07506144,0.11230389,-0.05005531,-0.020227753,-0.013942798,0.045003347,-0.09399477,-0.12725602,-0.028450398,1.0,0.91228974,-0.8574281,1.0,1.0,1.0,-1.0,0.02899018,1.0,-1.0,-1.0,-1.0,1.0,-1.0,-1.0,1.0,-0.87761176,1.0,-1.0,-1.0,1.0,-1.0,1.0,-1.0
2025-07-21 12:19:08.198,2.620000000000002,2620,131,-0.1498317,-0.008569263,0.018849907,0.0586443,-0.064972915,-0.016602153,0.009450099,-0.063072324,-0.049294397,0.0,0.0,0.0,0.015453367,0.5,0.0,0.0,0.03758351,0.17995836,-0.038192827,0.049046446,0.104708046,0.07585094,-0.048964553,-0.09466417,0.0936671,-0.03898842,0.028873093,-0.044857483,-0.0062470743,0.0064314124,-0.07613425,0.06642698,-0.099554405,0.016472192,-0.05271993,-0.055376228,0.015464012,-0.08447383,0.07392631,-0.062148068,1.0,-1.0,-1.0,1.0,-0.87761176,1.0,-1.0,-1.0,1.0,-1.0,1.0,-1.0,1.0,-0.79787326,-1.0,1.0,1.0,1.0,-1.0,-0.2613578,1.0,1.0,0.3620902,-1.0
2025-07-21 12:19:08.218,2.640000000000002,2640,132,-0.061095014,0.1936622,0.112657145,-0.004310919,-0.06621718,-0.016297188,0.04403036,-0.045343395,-0.04120487,0.0,0.0,0.0,0.014915221,0.5,0.0,0.0,0.066528834,0.098801374,-0.06778965,0.05797484,0.13985516,0.081372835,-0.050191812,-0.09428321,0.087524645,-0.014595689,0.058219977,-0.053229123,0.009960309,-0.14666978,-0.04354237,0.03308994,0.09559107,0.0374323,-0.03897311,0.006627945,-0.043861374,0.1214221,0.002129832,-0.09030726,1.0,-0.79787326,-1.0,1.0,1.0,1.0,-1.0,-0.2613578,1.0,1.0,0.3620902,-1.0,1.0,-0.87766945,-1.0,1.0,-1.0,1.0,-1.0,-1.0,1.0,-0.33662868,1.0,-1.0
2025-07-21 12:19:08.243,2.660000000000002,2660,133,0.050698306,-0.086229,-0.0565372,0.19233514,-0.07547723,-0.035917558,-0.027485607,-0.052819856,-0.01140972,0.0,0.0,0.0,0.014442654,0.5,0.0,0.0,0.08531199,0.014410814,-0.072917424,0.07295702,0.13678463,0.07846672,-0.0694007,-0.11906225,0.09495004,-0.01495118,0.10988325,-0.079364344,-0.015121417,-0.1566304,-0.09393699,0.0012371027,0.026418138,0.0057730805,0.01156078,-0.072422065,0.014073125,0.008010162,0.08018108,0.017691437,1.0,-0.87766945,-1.0,1.0,-1.0,1.0,-1.0,-1.0,1.0,-0.33662868,1.0,-1.0,1.0,0.45398763,-1.0,1.0,-1.0,1.0,-1.0,-1.0,1.0,1.0,-1.0,-1.0
2025-07-21 12:19:08.260,2.680000000000002,2680,134,-0.2696671,0.17382734,0.21590798,0.49654013,0.007726585,-0.15486689,-0.035681408,-0.05097704,-0.037433557,0.0,0.0,0.0,0.014196282,0.5,0.0,0.0,0.09772165,0.013738532,-0.09811547,0.0918685,0.10479086,0.091611534,-0.06878115,-0.1636863,0.113056265,0.006029377,0.08916509,-0.09329049,0.10158318,0.044187844,0.015228807,0.045788642,-0.10905726,0.082723685,-0.062438536,-0.058054015,-0.03998815,0.034359556,-0.18128051,-0.056284893,1.0,0.45398763,-1.0,1.0,-1.0,1.0,-1.0,-1.0,1.0,1.0,-1.0,-1.0,1.0,-1.0,-1.0,1.0,1.0,1.0,-1.0,-1.0,1.0,-0.48634338,1.0,-0.09842685
2025-07-21 12:19:08.280,2.700000000000002,2700,135,-0.1380869,-0.021043673,0.035412163,0.19133793,-0.07265253,0.05112756,-0.09283059,-0.12022461,0.011359344,0.0,0.0,0.0,0.016120387,0.5,0.0,0.0,0.10606797,-0.017496904,-0.10841497,0.09684105,0.10614599,0.09988938,-0.079557665,-0.1998922,0.11105571,0.0009869642,0.10407088,-0.0867889,0.03321452,-0.22156839,0.04636724,-0.008882835,0.09451543,0.034910023,0.02222859,-0.027797105,-0.0043590814,0.014869657,0.08006418,0.006345956,1.0,-1.0,-1.0,1.0,1.0,1.0,-1.0,-1.0,1.0,-0.48634338,1.0,-0.09842685,1.0,1.0,1.0,1.0,-1.0,1.0,-1.0,0.28445318,1.0,1.0,-1.0,-1.0
2025-07-21 12:19:08.300,2.720000000000002,2720,136,0.10946587,0.34084556,0.24857238,0.10931778,0.05019723,-0.1563208,-0.1026167,-0.10293375,0.04021351,0.0,0.0,0.0,0.017525164,0.5,0.0,0.0,0.116263494,-0.045781784,-0.06521487,0.09510806,0.08402765,0.11094456,-0.096476875,-0.20269541,0.10905464,0.030580703,0.0993697,-0.07969872,0.019991584,0.025733618,0.024930915,0.090264216,0.017788671,0.01283294,-0.07535156,0.1701368,-0.023423698,-0.0015864598,-0.07249211,0.005146716,1.0,1.0,1.0,1.0,-1.0,1.0,-1.0,0.28445318,1.0,1.0,-1.0,-1.0,-1.0,-1.0,0.4879415,0.015667737,1.0,1.0,1.0,-1.0,1.0,-1.0,-0.19403751,-0.3000445
2025-07-21 12:19:08.321,2.740000000000002,2740,137,-0.2615111,0.0834232,0.12528376,-0.10525696,-0.16185258,0.19065315,-0.07614329,-0.04444278,0.04010792,0.0,0.0,0.0,0.019171922,0.5,0.0,0.0,0.086886816,-0.07374179,-0.051769536,0.09264354,0.1260329,0.101352304,-0.0926946,-0.19060542,0.12866266,0.0030672706,0.05299821,-0.075294875,-0.14210089,-0.08035624,0.088907294,-0.052383553,0.15536968,-0.022333084,0.058898732,-0.061693236,0.075596675,-0.03457006,-0.0032975925,-0.036758263,-1.0,-1.0,0.4879415,0.015667737,1.0,1.0,1.0,-1.0,1.0,-1.0,-0.19403751,-0.3000445,-0.43323997,1.0,-0.9026061,1.0,-1.0,1.0,-1.0,0.20627895,1.0,0.2058822,-1.0,-1.0
2025-07-21 12:19:08.343,2.760000000000002,2760,138,0.12949026,0.005789457,0.27834967,0.025872994,-0.0021377457,-0.06098285,-0.08298002,-0.10741363,-0.00907632,0.0,0.0,0.0,0.019027274,0.5,0.0,0.0,0.06587015,-0.05533439,-0.07125154,0.08217754,0.13331491,0.1107144,-0.094155155,-0.18906294,0.12419106,-0.0019642783,-0.01547222,-0.09156396,0.0024077017,0.11714593,-0.12873106,0.022274997,-0.06367333,-0.022251675,-0.07037864,0.059601948,-0.05220285,0.080245845,-0.16283832,-0.0049244477,-0.43323997,1.0,-0.9026061,1.0,-1.0,1.0,-1.0,0.20627895,1.0,0.2058822,-1.0,-1.0,0.74259555,-1.0,-1.0,1.0,-1.0,1.0,-1.0,-1.0,1.0,-1.0,1.0,-1.0
2025-07-21 12:19:08.360,2.780000000000002,2780,139,-0.23795618,0.18174346,0.35112265,0.21244547,0.04452866,-0.044204693,-0.04146446,-0.11451859,-0.028516602,0.0,0.0,0.0,0.018335894,0.5,0.0,0.0,0.069871545,-0.038812164,-0.0783868,0.08031524,0.115341805,0.124104194,-0.09668184,-0.17898057,0.14002877,-0.015869793,-0.02663953,-0.102635674,0.07975147,-0.09785684,-0.08121456,0.009774744,-0.027430473,-0.037998907,-0.013293524,-0.116369635,0.034906976,-0.068637,0.013130617,-0.044570263,0.74259555,-1.0,-1.0,1.0,-1.0,1.0,-1.0,-1.0,1.0,-1.0,1.0,-1.0,1.0,-1.0,-1.0,1.0,1.0,1.0,-1.0,0.97776353,1.0,0.47981632,1.0,-1.0
2025-07-21 12:19:08.380,2.800000000000002,2800,140,-0.07874676,0.27750692,0.106561095,0.052889604,0.33998057,0.05550329,-0.09694162,-0.06829738,0.030528009,0.0,0.0,0.0,0.019844826,0.5,0.0,0.0,0.09871345,-0.103467844,-0.08574101,0.10982995,0.1418939,0.124387555,-0.1148504,-0.15899935,0.13228619,-0.008921915,0.03262841,-0.1185769,0.0012394716,-0.09741413,0.030573001,-0.016317626,0.12640654,0.06685636,-0.0925293,0.20771469,-0.03950171,0.09385112,0.19746308,0.04028839,1.0,-1.0,-1.0,1.0,1.0,1.0,-1.0,0.97776353,1.0,0.47981632,1.0,-1.0,-0.07344128,0.7080747,1.0,1.0,-1.0,1.0,-1.0,-1.0,1.0,-1.0,-1.0,-1.0
2025-07-21 12:19:08.399,2.820000000000002,2820,141,-0.084923744,0.21435332,-0.09210218,-0.043523088,-0.03494962,-0.067074195,-0.0817019,-0.13109247,0.028032552,0.0,0.0,0.0,0.019789727,0.5,0.0,0.0,0.083045624,-0.13869892,-0.06997797,0.10484284,0.15281732,0.14107005,-0.13043976,-0.14358369,0.13027188,-0.031455528,0.045724683,-0.11211675,0.009247477,0.008457567,0.12548728,0.051664393,-0.055534765,0.008130933,-0.1016413,0.05290198,0.0031469434,-0.08705101,-0.1973419,0.017335959,-0.07344128,0.7080747,1.0,1.0,-1.0,1.0,-1.0,-1.0,1.0,-1.0,-1.0,-1.0,-1.0,1.0,-1.0,1.0,1.0,1.0,-1.0,-1.0,1.0,-0.47245586,0.327032,0.69057536
2025-07-21 12:19:08.423,2.840000000000002,2840,142,0.18434358,0.072671644,0.06636532,-0.11231765,-0.10410192,0.049067628,-0.086515926,-0.09405251,0.045015853,0.0,0.0,0.0,0.020668693,0.5,0.0,0.0,0.04315574,-0.10422132,-0.09415116,0.12001889,0.18506138,0.1285112,-0.124693796,-0.14314955,0.13986991,-0.04592575,0.04808067,-0.07949137,-0.07420564,0.10746026,-0.099871784,0.046588987,0.13810216,0.04098584,-0.05050083,-0.08722744,-0.010946866,-0.027195763,0.06516761,0.121473186,-1.0,1.0,-1.0,1.0,1.0,1.0,-1.0,-1.0,1.0,-0.47245586,0.327032,0.69057536,0.9984572,1.0,0.24186927,-0.91893154,-1.0,1.0,-0.7067537,-1.0,1.0,1.0,-1.0,-1.0
2025-07-21 12:19:08.443,2.860000000000002,2860,143,-0.31719077,-0.040214278,0.20842119,-0.056927033,-0.13710985,-0.07042261,-0.019401282,-0.08531774,0.0112775825,0.0,0.0,0.0,0.020207038,0.5,0.0,0.0,0.06770777,-0.05152385,-0.07531489,0.09296479,0.20294495,0.13604918,-0.14149974,-0.18333174,0.15810347,-0.010659533,0.00032261244,-0.10065766,0.05036591,0.046360683,-0.002966106,-0.11157279,-0.038726237,0.07563899,0.039037842,-0.067622125,0.012076846,0.037035234,-0.210636,0.0115893055,0.9984572,1.0,0.24186927,-0.91893154,-1.0,1.0,-0.7067537,-1.0,1.0,1.0,-1.0,-1.0,1.0,1.0,-1.0,1.0,-1.0,1.0,-1.0,-0.5303652,1.0,-1.0,1.0,-0.8333465
2025-07-21 12:19:08.460,2.880000000000002,2880,144,-0.16545953,0.17879082,0.0024227195,0.08168886,0.08630993,-0.1531563,-0.06255805,-0.1205234,0.015672378,0.0,0.0,0.0,0.020486582,0.5,0.0,0.0,0.07660475,0.027242783,-0.085709855,0.082687534,0.17904991,0.14451924,-0.14312696,-0.18483119,0.14910549,-0.02122114,-0.0065885284,-0.10886995,0.008174877,0.19061112,-0.018615633,-0.029026853,-0.039956793,0.059533767,0.023239365,0.061283164,-0.012797789,-0.021030929,0.07122572,0.03178993,1.0,1.0,-1.0,1.0,-1.0,1.0,-1.0,-0.5303652,1.0,-1.0,1.0,-0.8333465,1.0,-1.0,-1.0,1.0,1.0,1.0,-1.0,-1.0,1.0,-0.77024376,1.0,-1.0
2025-07-21 12:19:08.479,2.900000000000002,2900,145,-0.2856267,-0.11019926,-0.09630117,0.16912292,0.04505951,0.03402506,-0.09684174,-0.05859061,-0.013360263,0.0,0.0,0.0,0.02307362,0.5,0.0,0.0,0.10236421,0.032613646,-0.093880266,0.09539832,0.1969822,0.12678015,-0.14097224,-0.20359616,0.15243712,-0.04575302,0.06415224,-0.10983844,0.023173247,-0.09001785,-0.030323409,0.050614245,0.03467521,0.04735221,-0.028904783,-0.06186452,0.07288617,0.03213413,0.10285288,-0.08926523,1.0,-1.0,-1.0,1.0,1.0,1.0,-1.0,-1.0,1.0,-0.77024376,1.0,-1.0,1.0,-0.31665403,-0.5015657,0.53379434,-1.0,1.0,-1.0,1.0,1.0,1.0,-1.0,-0.7833934
2025-07-21 12:19:08.499,2.920000000000002,2920,146,-0.24121213,-0.10401474,-0.10689264,0.26240817,0.034824546,-0.100087,-0.110328674,-0.10252208,-0.029470945,0.0,0.0,0.0,0.024001783,0.5,0.0,0.0,0.1151592,0.002889614,-0.10486971,0.09294473,0.20076971,0.14839885,-0.14853512,-0.20615534,0.1551741,-0.015590486,0.054906566,-0.11399477,0.0043396694,-0.07647569,0.0218325,0.07730629,-0.13914832,-0.029226735,-0.015541451,0.11987589,0.037935503,0.068338595,-0.15972751,-0.032709926,1.0,-0.31665403,-0.5015657,0.53379434,-1.0,1.0,-1.0,1.0,1.0,1.0,-1.0,-0.7833934,1.0,0.59218013,-1.0,1.0,0.8775921,1.0,-0.5149088,-1.0,1.0,-0.418293,-0.4098651,0.01265797
2025-07-21 12:19:08.526,2.940000000000002,2940,147,-0.077762745,-0.07368346,-0.18013524,0.16960362,0.08710287,-0.033404175,-0.086256824,-0.14611551,0.016847122,0.0,0.0,0.0,0.025034472,0.5,0.0,0.0,0.1186648,0.003604849,-0.12032176,0.09386296,0.21111053,0.13462596,-0.15001659,-0.1934278,0.1423793,-0.011270514,0.019070685,-0.0865891,0.05330363,0.03407908,-0.03669677,0.07724905,0.068494834,-0.08012107,-0.0016069274,0.038904086,0.06277574,-0.07014368,-0.05922961,0.014775433,1.0,0.59218013,-1.0,1.0,0.8775921,1.0,-0.5149088,-1.0,1.0,-0.418293,-0.4098651,0.01265797,0.5528307,-0.7869725,-1.0,1.0,-1.0,1.0,-1.0,-1.0,1.0,1.0,-1.0,-0.48690203
2025-07-21 12:19:08.543,2.960000000000002,2960,148,-0.30693793,0.10891234,0.09242005,0.17768799,-0.098691344,0.08559591,-0.0716435,-0.10942501,-0.032303963,0.0,0.0,0.0,0.026378077,0.5,0.0,0.0,0.13088249,0.0036129926,-0.13612303,0.112125374,0.20634839,0.12830795,-0.13474102,-0.22898205,0.14947519,0.010139899,-0.04945882,-0.094858795,0.06610626,-0.035840683,-0.047001574,0.05867593,0.005744048,0.037755366,0.0061892443,-0.15030248,-0.018503843,0.019957606,-0.19167294,-0.05156128,0.5528307,-0.7869725,-1.0,1.0,-1.0,1.0,-1.0,-1.0,1.0,1.0,-1.0,-0.48690203,0.825114,-1.0,-1.0,1.0,-1.0,1.0,-1.0,1.0,1.0,-0.92741716,1.0,-1.0
2025-07-21 12:19:08.559,2.980000000000002,2980,149,-0.12459193,-0.185989,-0.16857746,0.07348061,-0.06165181,0.04374216,-0.060843613,-0.16325329,0.014810047,0.0,0.0,0.0,0.026396822,0.5,0.0,0.0,0.12847051,-0.00490639,-0.12670012,0.11117535,0.1939955,0.14043874,-0.14660749,-0.20915681,0.15239558,0.0036196148,-0.050978597,-0.10695466,0.01372579,-0.016110549,0.016450476,0.01226907,-0.066692434,-0.0033869208,-0.0863267,0.042167176,0.029262405,-0.020804977,0.061265044,-0.09072565,0.825114,-1.0,-1.0,1.0,-1.0,1.0,-1.0,1.0,1.0,-0.92741716,1.0,-1.0,1.0,-1.0,-1.0,1.0,-1.0,1.0,-1.0,0.21588966,1.0,-1.0,-0.9584399,-1.0
2025-07-21 12:19:08.579,3.000000000000002,3000,150,-0.5651088,-0.16673325,0.11098726,0.2662074,-0.04219921,0.07561863,-0.14820142,-0.1702064,0.031761408,0.0,0.0,0.0,0.026088247,0.5,0.0,0.0,0.13362679,-0.06324961,-0.13643166,0.115217544,0.15813628,0.14541443,-0.15884168,-0.17379667,0.15161754,-0.040315073,-0.09128581,-0.10524867,0.04473955,-0.057546977,-0.03352696,0.03921451,-0.05859607,0.029585766,-0.0348969,0.10066145,0.048111297,-0.018521892,-0.16965578,-0.053114794,1.0,-1.0,-1.0,1.0,-1.0,1.0,-1.0,0.21588966,1.0,-1.0,-0.9584399,-1.0,1.0,1.0,-1.0,1.0,0.4844122,1.0,-1.0,-0.99420977,1.0,1.0,0.48961595,1.0
2025-07-21 12:19:08.599,3.0200000000000022,3020,151,-0.18900973,-0.038390167,-0.1995134,0.04615386,0.06608038,0.110786684,-0.079085924,-0.21491079,-0.02706086,0.0,0.0,0.0,0.026479773,0.5,0.0,0.0,0.14642997,-0.05383763,-0.14422184,0.1293315,0.15790696,0.15189256,-0.1482747,-0.17536345,0.15741551,-0.014571399,-0.075445876,-0.06866635,0.029260805,0.14523421,-0.09119513,0.081218265,-0.04412456,0.023385042,-0.0117638195,-0.10972063,-0.04301085,0.018151496,0.13989326,0.10132289,1.0,1.0,-1.0,1.0,0.4844122,1.0,-1.0,-0.99420977,1.0,1.0,0.48961595,1.0,0.06810327,1.0,1.0,-0.83664423,-1.0,1.0,-0.8992473,1.0,1.0,1.0,-1.0,1.0
2025-07-21 12:19:08.624,3.0400000000000023,3040,152,-0.116282225,-0.14956178,-0.20313722,-0.4082589,-0.23701708,-0.19307286,-0.13385682,-0.11654711,-0.007957489,0.0,0.0,0.0,0.025474813,0.5,0.0,0.0,0.13161016,-0.02548584,-0.11128387,0.0834833,0.15592979,0.14907667,-0.1690245,-0.14718036,0.1447989,0.014529203,-0.07633341,-0.031465013,-0.06618931,0.09218408,0.15739729,-0.10786225,0.030631905,0.0041204845,-0.003664364,0.18302006,0.023415674,0.05474907,-0.1208312,0.16151275,0.06810327,1.0,1.0,-0.83664423,-1.0,1.0,-0.8992473,1.0,1.0,1.0,-1.0,1.0,-1.0,1.0,1.0,-0.021805882,-1.0,1.0,0.6125191,-1.0,1.0,1.0,1.0,1.0
2025-07-21 12:19:08.643,3.0600000000000023,3060,153,-0.02268245,-0.31323197,-0.15769695,-0.5966755,-0.16714144,-0.19692065,-0.08136656,-0.07908611,0.049952008,0.0,0.0,0.0,0.02544612,0.5,0.0,0.0,0.10407372,0.04029299,-0.07665866,0.06136625,0.15050982,0.15069401,-0.1273562,-0.1522399,0.15637402,0.039328538,-0.07317193,0.010405881,-0.16088039,0.16543742,0.11186945,-0.050366018,-0.014082976,-0.056563668,0.066856846,-0.033155262,-0.057973392,0.07281346,0.09778262,0.10413906,-1.0,1.0,1.0,-0.021805882,-1.0,1.0,0.6125191,-1.0,1.0,1.0,1.0,1.0,-1.0,-1.0,-1.0,1.0,-0.37197927,1.0,-1.0,-1.0,1.0,1.0,0.55424815,1.0
2025-07-21 12:19:08.659,3.0800000000000023,3080,154,-0.22013928,-0.060114976,-0.10588679,-0.085709214,-0.04090824,-0.22226967,-0.120234855,-0.030426167,0.045003217,0.0,0.0,0.0,0.026755055,0.5,0.0,0.0,0.05325563,0.051621668,-0.09021787,0.061206393,0.1415985,0.15899989,-0.124242395,-0.19689317,0.1535071,0.0702961,-0.013287234,0.022360608,-0.1615274,-0.1778042,0.014036602,0.060200736,-0.017850064,-0.07341727,-0.025284817,-0.036826883,-0.045849912,0.10089073,0.1834227,0.12627722,-1.0,-1.0,-1.0,1.0,-0.37197927,1.0,-1.0,-1.0,1.0,1.0,0.55424815,1.0,1.0,1.0,-1.0,-0.60595614,0.91401345,1.0,1.0,-1.0,1.0,-0.82272696,-0.7528732,0.6833718
2025-07-21 12:19:08.679,3.1000000000000023,3100,155,-0.380201,-0.017321037,-0.32156932,0.058072362,0.108485945,-0.1070135,-0.07462648,-0.022118337,0.010128717,0.0,0.0,0.0,0.029889483,0.5,0.0,0.0,0.07244558,0.056300204,-0.095038764,0.046509046,0.17474142,0.15716451,-0.08791538,-0.22403933,0.16021748,0.04243063,-0.023609279,0.046822812,0.04739147,0.19787115,-0.05569268,-0.05812403,0.13134052,0.057051238,0.04945852,-0.1027163,-0.054372653,-0.06275729,-0.10444396,-0.016822046,1.0,1.0,-1.0,-0.60595614,0.91401345,1.0,1.0,-1.0,1.0,-0.82272696,-0.7528732,0.6833718,0.6429123,-1.0,0.38473463,-0.19747597,-1.0,0.7005666,-1.0,0.10229698,1.0,1.0,1.0,1.0
2025-07-21 12:19:08.699,3.1200000000000023,3120,156,-0.42277184,-0.14622863,-0.3035955,-0.09923355,-0.12228916,-0.09631678,-0.09558884,-0.10928195,-0.005164896,0.0,0.0,0.0,0.032446366,0.5,0.0,0.0,0.06905848,0.039467167,-0.083457425,0.03223999,0.17958735,0.15360293,-0.08701688,-0.21758264,0.15552841,0.05855987,-0.025098564,0.056780085,0.0022464641,-0.05572434,0.012396862,-0.021758722,-0.05067087,-0.051798083,-0.08797214,0.13774861,-0.015519882,0.008374521,0.150129,0.09475816,0.6429123,-1.0,0.38473463,-0.19747597,-1.0,0.7005666,-1.0,0.10229698,1.0,1.0,1.0,1.0,-1.0,1.0,-1.0,1.0,-0.7260653,1.0,-1.0,-1.0,1.0,1.0,-0.3484461,1.0
2025-07-21 12:19:08.727,3.1400000000000023,3140,157,-0.41901416,-0.28668177,0.110538244,0.0027477196,-0.16554737,-0.06991196,-0.090846434,-0.09326008,0.01203914,0.0,0.0,0.0,0.03385056,0.5,0.0,0.0,0.049725052,0.054115497,-0.10296873,0.021336608,0.16750295,0.14691477,-0.10665995,-0.2241273,0.1603132,0.080246866,-0.028290533,0.07255138,0.022253808,0.01973308,-0.11314266,-0.01274089,-0.11651446,0.045493796,-0.03249368,-0.059622217,0.028041482,0.05775476,-0.10784797,0.083235204,-1.0,1.0,-1.0,1.0,-0.7260653,1.0,-1.0,-1.0,1.0,1.0,-0.3484461,1.0,1.0,-1.0,-1.0,0.8320833,1.0,1.0,-1.0,-0.030869871,1.0,1.0,-0.022732038,1.0
2025-07-21 12:19:08.743,3.1600000000000024,3160,158,-0.3263014,-0.10295873,0.065323405,-0.072781116,0.07050279,-0.10231497,-0.04097797,-0.050686397,0.04166035,0.0,0.0,0.0,0.03582609,0.5,0.0,0.0,0.074728385,0.04161599,-0.11375213,0.03034189,0.1806734,0.13564959,-0.117199294,-0.20189048,0.14686613,0.10899985,-0.022141078,0.1028612,0.031331394,-0.1297988,-0.030393261,0.011937138,0.10951872,-0.015639775,-0.07614043,0.09948475,-0.03701668,0.0882547,0.053784154,0.075195275,1.0,-1.0,-1.0,0.8320833,1.0,1.0,-1.0,-0.030869871,1.0,1.0,-0.022732038,1.0,0.7588464,0.791178,1.0,-1.0,-1.0,0.55410844,1.0,-1.0,1.0,1.0,0.5047603,1.0
2025-07-21 12:19:08.759,3.1800000000000024,3180,159,-0.24626492,-0.14621876,-0.27436283,0.011815846,-0.021421297,0.029352035,-0.06148985,-0.022385744,-0.04312731,0.0,0.0,0.0,0.038218413,0.5,0.0,0.0,0.072841704,0.019983405,-0.07923494,0.020171624,0.19881916,0.13016643,-0.093512535,-0.19594733,0.1426921,0.112569675,0.005349816,0.104814395,-0.019067854,0.02377988,0.10994804,-0.14282246,0.026082534,-0.03435562,0.17131639,-0.10672954,0.0523043,0.09350209,0.085647106,-0.025256913,0.7588464,0.791178,1.0,-1.0,-1.0,0.55410844,1.0,-1.0,1.0,1.0,0.5047603,1.0,-1.0,1.0,-1.0,-0.03286311,-1.0,0.5217529,-1.0,1.0,1.0,1.0,0.93638927,1.0
