openverse-orca/OrcaGym/log/simulation_log_20250719_144329.csv
timestamp,sim_time,physics_step,control_step,imu_angle_roll,imu_angle_pitch,imu_angle_yaw,imu_angular_velocity_roll,imu_angular_velocity_pitch,imu_angular_velocity_yaw,imu_acc_x,imu_acc_y,imu_acc_z,fl_joint1_pos,fl_joint1_vel,fl_joint1_torque,fl_joint2_pos,fl_joint2_vel,fl_joint2_torque,fl_joint3_pos,fl_joint3_vel,fl_joint3_torque,fr_joint1_pos,fr_joint1_vel,fr_joint1_torque,fr_joint2_pos,fr_joint2_vel,fr_joint2_torque,fr_joint3_pos,fr_joint3_vel,fr_joint3_torque,hl_joint1_pos,hl_joint1_vel,hl_joint1_torque,hl_joint2_pos,hl_joint2_vel,hl_joint2_torque,hl_joint3_pos,hl_joint3_vel,hl_joint3_torque,hr_joint1_pos,hr_joint1_vel,hr_joint1_torque,hr_joint2_pos,hr_joint2_vel,hr_joint2_torque,hr_joint3_pos,hr_joint3_vel,hr_joint3_torque,fl_force_x,fl_force_y,fl_force_z,fr_force_x,fr_force_y,fr_force_z,hl_force_x,hl_force_y,hl_force_z,hr_force_x,hr_force_y,hr_force_z,fl_hip_action,fl_thigh_action,fl_calf_action,fr_hip_action,fr_thigh_action,fr_calf_action,hl_hip_action,hl_thigh_action,hl_calf_action,hr_hip_action,hr_thigh_action,hr_calf_action
2025-07-19 14:43:29.748,0.0,0,0,0.017980024,0.0028229423,0.011524434,-0.021188539,0.040202945,0.03740041,1.2263914,-0.2865317,0.0,0.0,-0.007310893,0.0034421317,-0.009204333,-0.007175238,0.008187463,0.0099583315,-4.1849256e-05,0.0030900927,0.0051316996,0.0008773541,0.0094275605,-0.003015414,0.050930906,-0.004049506,-0.044287656,0.027879538,-0.051569495,0.03325454,-0.06205005,-0.016320696,-0.06936408,-0.040347334,-0.044485625,-0.041101903,0.0,0.0,0.0,0.0,0.0,0.0,0.0,0.0,0.0,0.0,0.0,0.0,1.23495,0.5397516,0.90381515,-0.58570594,2.0,-0.14516805,-0.1890971,0.8135384,2.0,0.5317604,1.8072944,0.42866227
2025-07-19 14:43:29.760,0.02,20,1,0.2965762,-0.06860561,0.028667318,0.03220942,0.020643542,-0.0102772415,0.0,0.0,0.0,0.0,0.020623116,0.019426582,0.009812211,-0.021439314,0.04777128,0.0011766161,-0.009429236,0.044830248,0.040113658,0.018712284,0.059840582,0.0040968694,0.030358952,0.108984634,0.05477238,0.017884212,0.20465808,0.045542974,0.053455044,0.12929481,0.15709364,0.070594266,0.23266809,0.065938056,1.23495,0.5397516,0.90381515,-0.58570594,2.0,-0.14516805,-0.1890971,0.8135384,2.0,0.5317604,1.8072944,0.42866227,1.157422,-2.0,-1.1804314,0.4763582,-2.0,0.4203085,1.7316182,-0.12765312,1.6146781,-1.7417908,-2.0,-2.0
2025-07-19 14:43:29.780,0.04,40,2,-0.07192711,-0.123510286,0.10210646,-0.028066548,-0.021814007,0.0148761915,0.0,0.0,0.0,0.00055700203,0.05838743,0.020899054,-0.005200976,0.0013369512,0.06953664,-0.002664455,0.034460954,0.04330607,0.06795841,-0.01888551,0.07568187,-0.035276994,0.018921137,-0.095261484,-0.042823646,0.076461844,0.04322123,-0.020433214,0.16409083,-0.10638217,0.025620507,-0.119960435,-0.05915129,-0.16480409,1.157422,-2.0,-1.1804314,0.4763582,-2.0,0.4203085,1.7316182,-0.12765312,1.6146781,-1.7417908,-2.0,-2.0,2.0,-2.0,-0.9538741,1.2870268,-0.72400653,-0.38241586,-1.5621998,2.0,2.0,-1.832392,-1.3891898,1.1167231
2025-07-19 14:43:29.803,0.06,60,3,-0.2710168,0.0070426636,-0.27195212,-0.015314194,0.031309467,-0.019670963,0.0,0.0,0.0,-8.3290615e-05,0.10719325,-0.08444968,-0.04047916,0.025405724,0.045912683,-0.0035837684,0.029385906,0.06194317,0.10840948,-0.07710382,-0.02221032,-0.0063444125,0.06565149,-0.34329456,-0.029403413,0.12610821,-0.06011183,-0.005085394,-0.015837332,0.110689975,0.1235176,-0.13742259,-0.31968638,0.07785933,2.0,-2.0,-0.9538741,1.2870268,-0.72400653,-0.38241586,-1.5621998,2.0,2.0,-1.832392,-1.3891898,1.1167231,-0.4337415,-2.0,2.0,0.06291181,-0.24129647,-1.554398,0.5606549,-0.67361724,0.9505756,-0.57106376,2.0,2.0
2025-07-19 14:43:29.820,0.08,80,4,-0.15138808,0.20711511,0.026441818,-0.03103989,-0.02640976,-0.0025292563,0.0,0.0,0.0,0.002372147,0.09996644,-0.22057039,0.012293347,0.018682035,0.0156061305,-0.05232769,0.03571759,0.047695637,0.11059758,-0.07423334,-0.052839052,0.039407928,-0.10896409,-0.3033383,0.056903902,-0.030869847,-0.08690951,-0.044519417,0.095028125,-0.08907437,-0.043331254,0.035704415,0.053398535,0.06291099,-0.4337415,-2.0,2.0,0.06291181,-0.24129647,-1.554398,0.5606549,-0.67361724,0.9505756,-0.57106376,2.0,2.0,0.6383365,1.496167,2.0,-1.9770719,0.2963018,-2.0,2.0,2.0,2.0,-0.1865692,0.7370958,2.0
2025-07-19 14:43:29.841,0.1,100,5,0.18329276,0.15816659,-0.04999245,0.015444689,0.06149872,0.015857074,0.0,0.0,0.0,0.004481216,0.09427724,-0.26946282,0.06468827,-0.024276271,0.032799024,-0.10275002,0.08712118,0.062222008,0.14948003,-0.07786007,0.009254528,0.08102569,-0.04798072,-0.065218896,0.106652856,-0.14695594,0.09595103,-0.17228898,0.1658619,0.19069183,0.03380404,-0.027600246,0.17439468,0.12951517,0.6383365,1.496167,2.0,-1.9770719,0.2963018,-2.0,2.0,2.0,2.0,-0.1865692,0.7370958,2.0,-1.146563,0.77297837,2.0,-0.6142705,-2.0,-0.18321483,2.0,-0.033282034,2.0,1.2392223,-2.0,2.0
2025-07-19 14:43:29.861,0.12000000000000001,120,6,0.03331929,0.08099118,-0.10117235,0.016201574,-0.008732907,-0.020350488,0.0,0.0,0.0,0.004818452,0.09255517,-0.26879075,0.096559934,-0.045898616,-0.015152272,-0.07822131,0.13246508,0.05323026,0.17662363,-0.0442673,0.016083844,0.1207787,-0.058529034,-0.010268669,0.14106427,-0.080183715,-0.14595576,-0.027653204,0.14635275,-0.06289783,0.004138935,-0.006878974,0.050008703,0.12197115,-1.146563,0.77297837,2.0,-0.6142705,-2.0,-0.18321483,2.0,-0.033282034,2.0,1.2392223,-2.0,2.0,-2.0,0.6812909,-0.11891897,-2.0,-1.8079824,0.87296003,2.0,1.4344054,2.0,1.5523493,-1.1537256,2.0
2025-07-19 14:43:29.881,0.14,140,7,0.02304627,-0.106056735,-0.05110133,0.0005849721,-0.016065462,0.042442124,0.0,0.0,0.0,0.00621218,0.077039495,-0.24553663,0.06985621,-0.08610088,-0.09289417,-0.045849424,0.16932784,0.10056872,0.19779061,-0.05402103,0.0074920566,0.15435266,0.008653141,0.059885055,-0.11386748,-0.12180327,-0.14203674,0.156021,0.008561663,0.21825439,-0.006115351,0.09584332,-0.061223064,0.13700104,-2.0,0.6812909,-0.11891897,-2.0,-1.8079824,0.87296003,2.0,1.4344054,2.0,1.5523493,-1.1537256,2.0,-1.8330334,0.41780984,-0.2615862,-1.4721621,-2.0,1.6575589,2.0,-2.0,2.0,0.4300416,0.94398224,2.0
2025-07-19 14:43:29.903,0.16,160,8,0.3034868,0.13257651,0.09676752,0.028065145,-0.053331077,-0.049353432,0.0,0.0,0.0,0.0075190375,0.039457593,-0.18915696,0.03826583,-0.12413484,-0.1903127,-0.00161451,0.20194474,0.094282515,0.22359213,-0.0447339,0.023981217,0.18453445,-0.16679433,0.07507723,-0.081931874,-0.01020991,-0.29778662,0.062024593,0.046333406,-0.12824014,0.07443075,-0.04245352,0.06734751,0.102225706,-1.8330334,0.41780984,-0.2615862,-1.4721621,-2.0,1.6575589,2.0,-2.0,2.0,0.4300416,0.94398224,2.0,-1.6150613,1.6745067,-1.7301879,-0.5903755,-1.4108,2.0,0.25641394,-1.8829592,2.0,-0.7690043,-0.66342485,2.0
2025-07-19 14:43:29.921,0.18,180,9,0.005074134,0.20968099,-0.07095853,-0.03755255,-0.04864411,-0.0252664,0.0,0.0,0.0,0.00726747,-0.0021187854,-0.11706258,-0.015428411,-0.12718755,-0.2792777,0.046222005,0.17482215,0.021974757,0.23623061,-0.04905689,0.050128266,0.19600116,-0.05169914,0.15967646,-0.19051176,-0.019923873,-0.11650882,0.14214437,-0.021041157,-0.32779497,0.11487553,-0.002948631,0.040572837,0.10952165,-1.6150613,1.6745067,-1.7301879,-0.5903755,-1.4108,2.0,0.25641394,-1.8829592,2.0,-0.7690043,-0.66342485,2.0,-0.77438337,1.1500084,-2.0,-0.30344504,-0.075036146,2.0,-0.9516715,0.9868656,2.0,0.26633543,2.0,1.6564829
2025-07-19 14:43:29.941,0.19999999999999998,200,10,0.27063513,-0.19055577,-0.029114032,-0.018669618,0.0031711664,0.025936348,0.0,0.0,0.0,0.0074721607,-0.01919865,-0.023398224,-0.06830655,-0.109146565,-0.2757105,0.08604362,0.13411988,-0.008766982,0.24831977,-0.047718927,0.08465755,0.20035261,-0.063412994,0.26824197,-0.11412117,0.0067636212,0.09826767,0.01626864,-0.052238382,0.023154946,-0.04226726,0.05538848,0.18661383,0.042671178,-0.77438337,1.1500084,-2.0,-0.30344504,-0.075036146,2.0,-0.9516715,0.9868656,2.0,0.26633543,2.0,1.6564829,-1.7190441,-2.0,-2.0,0.65024024,-0.7414343,1.6816688,-1.216414,-0.43548042,2.0,0.48926163,0.8798853,-2.0
2025-07-19 14:43:29.961,0.21999999999999997,220,11,-0.13924608,-0.021964964,-0.14152601,-0.05163591,-0.012457232,-0.02516598,0.0,0.0,0.0,0.009290689,-0.07866592,0.0008343282,-0.11622143,-0.09060578,-0.28372225,0.123568274,0.10581205,-0.017860837,0.26354113,-0.032809336,0.14201002,0.13057713,-0.088781856,-0.12709598,-0.1455517,-0.014367819,-0.06721589,0.06093463,-0.14563039,-0.08029884,-0.013352263,0.023741422,0.14756165,-0.28016928,-1.7190441,-2.0,-2.0,0.65024024,-0.7414343,1.6816688,-1.216414,-0.43548042,2.0,0.48926163,0.8798853,-2.0,-0.3328485,-1.2141979,-2.0,0.7613234,2.0,2.0,-1.3500769,-0.27761483,2.0,-0.09806003,1.0378864,-2.0
2025-07-19 14:43:29.985,0.23999999999999996,240,12,-0.090499595,-0.045118906,-0.13877313,0.026430916,0.011358022,-0.04118482,0.0,0.0,0.0,0.011615254,-0.08391138,-0.08247201,-0.15082334,-0.06535134,-0.291093,0.13011734,0.078965046,-0.019800968,0.27813992,-0.02485141,0.18600123,0.051963415,-0.02193693,-0.18810722,-0.13890137,0.036583584,0.031956583,0.0835477,-0.01893286,-0.082137264,-0.004158555,-0.029810194,0.18030204,-0.15821286,-0.3328485,-1.2141979,-2.0,0.7613234,2.0,2.0,-1.3500769,-0.27761483,2.0,-0.09806003,1.0378864,-2.0,0.006683942,-0.23583548,-1.9966793,1.5247748,2.0,2.0,0.29781473,-1.9057269,2.0,-1.5015374,-1.1471624,-2.0
2025-07-19 14:43:30.001,0.25999999999999995,260,13,-0.19047701,-0.2649358,-0.121720254,0.0028260676,-0.0037186032,0.0199017,0.0,0.0,0.0,0.01489841,-0.05795566,-0.099802226,-0.1671969,-0.03683828,-0.2831925,0.15391167,0.0699505,-0.027698232,0.27210745,-0.05884414,0.17078857,-0.012647108,-0.028013723,0.063653104,-0.04286919,0.1846218,0.060396362,0.0021843284,0.05873356,-0.08469736,0.02822823,-0.027617835,-0.2108713,-0.06571278,0.006683942,-0.23583548,-1.9966793,1.5247748,2.0,2.0,0.29781473,-1.9057269,2.0,-1.5015374,-1.1471624,-2.0,0.70334536,-2.0,-1.6280514,0.26739284,2.0,-0.84798825,-0.027590267,-2.0,2.0,-2.0,-0.7653484,-1.6239154
2025-07-19 14:43:30.021,0.27999999999999997,280,14,-0.21199627,0.07593393,0.0028901605,-0.018168952,0.03437979,-0.008429313,0.0,0.0,0.0,0.018166106,-0.034265213,-0.15503553,-0.1987776,-0.02049091,-0.23177676,0.099713966,0.076815195,-0.049859475,0.28123155,-0.103248134,0.09568218,-0.042205114,0.076841086,-0.24597597,-0.088148564,0.007010636,0.08729007,-0.106757455,-0.03223904,-0.13188572,0.008136672,-0.11164328,-0.15827605,-0.051694285,0.70334536,-2.0,-1.6280514,0.26739284,2.0,-0.84798825,-0.027590267,-2.0,2.0,-2.0,-0.7653484,-1.6239154,1.899077,-0.727481,0.13012688,0.522978,2.0,-1.9718761,-0.71603525,-0.05636453,2.0,-2.0,-0.24099955,0.39478883
2025-07-19 14:43:30.041,0.3,300,15,-0.07362493,0.12884593,-0.027702067,0.046357483,0.03157592,-0.047345567,0.0,0.0,0.0,0.019541169,0.018179674,-0.19604355,-0.14867239,-0.018423691,-0.16582535,0.035247423,0.04548484,-0.052063134,0.2795273,-0.13987416,0.037948687,-0.030458655,0.12328772,-0.06438072,0.10361432,0.021736259,0.18352799,-0.18985566,-0.045070652,-0.04658989,0.020623188,-0.028645964,-0.08877604,0.068536416,1.899077,-0.727481,0.13012688,0.522978,2.0,-1.9718761,-0.71603525,-0.05636453,2.0,-2.0,-0.24099955,0.39478883,1.1844181,-2.0,1.3269057,1.1202667,0.62689537,-1.591483,0.63303566,2.0,2.0,-2.0,-1.2863727,2.0
2025-07-19 14:43:30.068,0.32,320,16,-0.06894553,-0.15983607,-0.16752073,0.03505582,0.061088175,-0.025022225,0.0,0.0,0.0,0.020481654,0.06421468,-0.2608142,-0.09666569,0.010463948,-0.09389347,-0.033931524,0.06588742,-0.012583393,0.2859528,-0.17786269,-0.03470861,0.020172156,0.05967513,-0.25622207,0.20660888,0.08607118,0.22675772,-0.17610434,-0.035677318,0.14064606,-0.0470516,-0.024141278,-0.24611023,0.20859943,1.1844181,-2.0,1.3269057,1.1202667,0.62689537,-1.591483,0.63303566,2.0,2.0,-2.0,-1.2863727,2.0,1.5076318,-2.0,2.0,-0.51934844,0.10729351,-2.0,1.8174977,0.07419539,1.3654242,-0.64437896,0.82969034,2.0
2025-07-19 14:43:30.087,0.34,340,17,-0.19025104,-0.060570933,0.11820228,0.041669972,0.022988912,0.036758825,0.0,0.0,0.0,0.022246983,0.094139315,-0.36300376,-0.017542839,0.0015092653,-0.053856652,-0.074943915,0.1047894,0.010668578,0.2713596,-0.17125176,-0.06273172,0.07548235,0.07464992,-0.20299658,0.16941492,-0.010959415,0.0042260787,-0.16189234,0.06454928,0.052195378,-0.06592115,0.065994665,-0.005163206,0.100951955,1.5076318,-2.0,2.0,-0.51934844,0.10729351,-2.0,1.8174977,0.07419539,1.3654242,-0.64437896,0.82969034,2.0,0.4616322,1.5956774,2.0,-0.89144653,1.7711852,-2.0,1.9691455,2.0,2.0,-0.17447567,-0.2305448,2.0
2025-07-19 14:43:30.104,0.36000000000000004,360,18,0.15835373,-0.004741285,-0.04045621,0.0130487345,0.055787597,-0.014520496,0.0,0.0,0.0,0.021623205,0.089885406,-0.3957616,0.02739539,-0.011161686,0.020601569,-0.11651673,0.14180887,0.065002866,0.26966885,-0.15297827,-0.06297082,0.11149321,0.048215456,0.04504528,0.059481923,-0.10334577,0.33857772,-0.15075335,0.1466291,0.14291465,0.033126116,0.044550654,-0.025424452,0.06556284,0.4616322,1.5956774,2.0,-0.89144653,1.7711852,-2.0,1.9691455,2.0,2.0,-0.17447567,-0.2305448,2.0,-0.6478279,-0.3768884,2.0,-0.90648764,-2.0,-1.9548831,2.0,0.16038752,2.0,0.21725078,-2.0,2.0
2025-07-19 14:43:30.121,0.38000000000000006,380,19,0.255644,0.18988883,-0.10433183,0.002576083,-0.018172761,0.042424884,0.0,0.0,0.0,0.020263173,0.0639191,-0.38912427,0.054487128,-0.03654531,0.049783096,-0.13851176,0.17299215,0.07850804,0.27773124,-0.13015367,-0.10176892,0.14855985,-0.02838602,0.013982572,0.10024582,-0.060880862,-0.10474101,-0.034566104,0.049633384,-0.062004767,0.047555022,-0.004963626,-0.07516245,0.06978789,-0.6478279,-0.3768884,2.0,-0.90648764,-2.0,-1.9548831,2.0,0.16038752,2.0,0.21725078,-2.0,2.0,-1.1591562,-0.050565522,0.13736807,-2.0,-0.7489033,0.3208767,2.0,0.73689246,2.0,0.15983517,-0.31895328,2.0
2025-07-19 14:43:30.144,0.4000000000000001,400,20,0.14606118,-0.0031675352,-0.07670741,-0.031372763,0.03626772,-0.03724844,0.0,0.0,0.0,0.020774309,0.04080997,-0.34089646,0.03845532,-0.08692227,-0.010842539,-0.12167337,0.19464083,0.10476354,0.2793756,-0.1269789,-0.10626328,0.1785882,-0.07385826,0.06603917,-0.07433564,-0.081273325,-0.17911123,0.044382103,-0.005343737,0.13577935,-0.052622348,0.013368279,0.027601605,0.029981716,-1.1591562,-0.050565522,0.13736807,-2.0,-0.7489033,0.3208767,2.0,0.73689246,2.0,0.15983517,-0.31895328,2.0,-1.5232532,1.9975164,-0.27581203,-1.127651,-1.9248592,1.2307831,2.0,-2.0,2.0,0.039925765,1.1851804,2.0
2025-07-19 14:43:30.162,0.4200000000000001,420,21,0.21557215,-0.15552029,0.16494632,-0.011830514,0.03575476,0.018763486,0.0,0.0,0.0,0.021897325,0.03124731,-0.28377572,0.016507214,-0.10375207,-0.079225816,-0.06568512,0.23328826,0.08751537,0.29022667,-0.12754,-0.05148346,0.19459137,-0.062071066,0.17945251,-0.106980816,-0.076533794,-0.10394434,0.18037479,0.009768854,-0.18180992,0.052712932,0.035558112,0.20440215,0.007968825,-1.5232532,1.9975164,-0.27581203,-1.127651,-1.9248592,1.2307831,2.0,-2.0,2.0,0.039925765,1.1851804,2.0,-1.4747678,1.4927158,-2.0,-0.37008756,-2.0,2.0,0.74363285,-1.5306162,2.0,-0.57992035,-1.6886778,1.5430151
2025-07-19 14:43:30.185,0.4400000000000001,440,22,-0.13437858,-0.061987553,-0.08711434,-0.058206026,-0.036977034,0.0022561115,0.0,0.0,0.0,0.020926427,-0.0050118184,-0.22398296,-0.05252705,-0.109699346,-0.14219287,-0.012517341,0.23152791,0.055631015,0.29733574,-0.11961888,-0.05039348,0.2057559,-0.025613355,0.1773536,-0.19757864,0.039437033,-0.10677802,0.09484671,0.03562127,-0.11793299,-0.0008738085,-0.04849013,0.019910978,-0.0044499463,-1.4747678,1.4927158,-2.0,-0.37008756,-2.0,2.0,0.74363285,-1.5306162,2.0,-0.57992035,-1.6886778,1.5430151,-1.2201023,-0.17919867,-2.0,-0.608388,-1.2466855,1.8598686,0.054879464,-0.8735091,2.0,0.14040716,2.0,1.662238
2025-07-19 14:43:30.202,0.46000000000000013,460,23,-0.31008267,0.045299336,0.07921797,-0.024042977,-0.010902924,0.025103347,0.0,0.0,0.0,0.020502722,-0.030499998,-0.19081591,-0.10175147,-0.13055289,-0.18941893,0.048378583,0.20721176,-0.0012022156,0.30164582,-0.11839265,-0.014173212,0.2132339,-0.11990729,0.10622185,-0.17025729,-0.036223833,-0.1798893,0.08432443,-0.114408754,-0.14374161,-0.009887865,0.036963575,0.077617794,0.054095745,-1.2201023,-0.17919867,-2.0,-0.608388,-1.2466855,1.8598686,0.054879464,-0.8735091,2.0,0.14040716,2.0,1.662238,-0.91487217,1.8153784,-1.0771188,-0.00063339435,0.21773809,2.0,-1.8981113,1.2531942,2.0,-0.70427096,2.0,-0.32601506
2025-07-19 14:43:30.222,0.48000000000000015,480,24,0.27375916,-0.030476302,-0.09320388,-0.013617704,-0.024512783,0.034203798,0.0,0.0,0.0,0.019919222,-0.049763523,-0.14733757,-0.12292638,-0.11885188,-0.2033658,0.095600195,0.14641723,0.0035969922,0.30821124,-0.105495036,0.07997801,0.15088259,-0.004120023,0.15317766,0.025681214,0.008825708,0.088207535,0.08580042,-0.13291118,0.099413015,0.050903067,-0.085719794,0.27451575,-0.052785166,-0.91487217,1.8153784,-1.0771188,-0.00063339435,0.21773809,2.0,-1.8981113,1.2531942,2.0,-0.70427096,2.0,-0.32601506,-1.5248779,-0.87523204,-2.0,0.5939166,0.8097951,2.0,0.48199064,-2.0,2.0,-0.3809734,-1.2900335,-2.0
2025-07-19 14:43:30.242,0.5000000000000001,500,25,-0.05911448,-0.13443068,0.08085677,-0.0008527039,0.02277416,-0.016599566,0.0,0.0,0.0,0.020732146,-0.07416082,-0.12107096,-0.14692278,-0.10415152,-0.17165758,0.11023468,0.13801911,0.033406764,0.30121374,-0.09954165,0.13088526,0.07436442,-0.12348514,-0.007979766,-0.028162718,0.12301816,0.13785702,0.016752694,-0.050659873,-0.03361993,-0.05154009,0.056647293,-0.06534167,-0.11019931,-1.5248779,-0.87523204,-2.0,0.5939166,0.8097951,2.0,0.48199064,-2.0,2.0,-0.3809734,-1.2900335,-2.0,1.1962029,-2.0,-1.7220964,0.7976649,2.0,-1.7588724,-0.43265557,-2.0,2.0,-1.8760802,-1.018781,-2.0
2025-07-19 14:43:30.262,0.5200000000000001,520,26,-0.2328777,0.1423169,0.0022457065,-0.025080165,-0.009832801,0.032689054,0.0,0.0,0.0,0.020695735,-0.04551818,-0.19668478,-0.17432302,-0.070419155,-0.099641174,0.061133288,0.11635912,0.0049128933,0.31454703,-0.14167991,0.06708784,0.022057708,0.12987152,-0.26710603,-0.025765324,0.031878553,0.2057715,-0.20045647,-0.0909198,-0.14444433,0.00662807,-0.026626222,-0.29869324,-0.15432958,1.1962029,-2.0,-1.7220964,0.7976649,2.0,-1.7588724,-0.43265557,-2.0,2.0,-1.8760802,-1.018781,-2.0,1.8524412,-2.0,0.7332689,0.55281585,2.0,-2.0,-0.40095925,0.48973083,2.0,-2.0,0.34357882,0.054898918
2025-07-19 14:43:30.286,0.5400000000000001,540,27,0.0067052403,0.033085935,0.050703954,-0.024829512,-0.022499176,0.015115017,0.0,0.0,0.0,0.020570934,0.013839274,-0.31473798,-0.12964383,-0.041786768,0.009163747,-0.017008299,0.10431264,0.014266608,0.3154346,-0.17818432,0.030519556,0.00017485378,0.20766343,-0.19250141,0.042551555,0.051687647,0.22568366,-0.07138414,0.011855983,0.096444115,-0.062449608,-0.14106075,0.010138004,0.016802011,1.8524412,-2.0,0.7332689,0.55281585,2.0,-2.0,-0.40095925,0.48973083,2.0,-2.0,0.34357882,0.054898918,1.3341316,-2.0,2.0,1.0248163,-0.6463992,-2.0,0.8779598,1.2289672,1.6867104,-2.0,-2.0,2.0
2025-07-19 14:43:30.302,0.5600000000000002,560,28,-0.089335956,-0.09973497,-0.10975866,-0.03633468,0.048931085,0.04561212,0.0,0.0,0.0,0.02044155,0.051083766,-0.4006092,-0.042969383,-0.015431903,0.042957254,-0.07012467,0.100476295,0.07481583,0.2976049,-0.19745754,0.002173038,0.06954224,0.07431549,-0.20697154,0.18035024,0.05399473,-0.038993947,-0.080570824,0.08572221,0.15505484,0.0051663453,-0.030935192,-0.21299504,0.090264976,1.3341316,-2.0,2.0,1.0248163,-0.6463992,-2.0,0.8779598,1.2289672,1.6867104,-2.0,-2.0,2.0,0.45673043,-1.260571,2.0,-0.6412206,1.1392319,-2.0,1.4263165,0.22205687,2.0,0.2784497,0.0034604147,2.0
2025-07-19 14:43:30.322,0.5800000000000002,580,29,-0.020167947,-0.043088354,0.09429229,-0.054837473,0.04977431,0.03264981,0.0,0.0,0.0,0.021444336,0.05959287,-0.43882698,0.006612263,-0.011037993,0.08176189,-0.11591105,0.12570915,0.10494872,0.3094705,-0.17418206,-0.026927873,0.10244076,0.08069383,-0.045525886,0.17481898,-0.076702796,0.15945493,-0.034623414,0.07795808,-0.015716273,0.039584976,0.058720805,-0.007560214,0.14778613,0.45673043,-1.260571,2.0,-0.6412206,1.1392319,-2.0,1.4263165,0.22205687,2.0,0.2784497,0.0034604147,2.0,-0.18777071,2.0,2.0,-1.0472305,-1.1871492,-2.0,2.0,2.0,2.0,-0.10967158,-1.0916457,2.0
2025-07-19 14:43:30.342,0.6000000000000002,600,30,0.27110952,0.003041013,-0.14967921,0.0090345405,0.036531173,-0.028694306,0.0,0.0,0.0,0.021010479,0.04351309,-0.41601667,0.053996734,-0.045492552,0.09036407,-0.13320944,0.16650727,0.16319902,0.30019066,-0.16119678,-0.05413566,0.14892676,-0.08192176,0.070604,0.11786223,0.0022134695,-0.07972491,-0.046034556,0.12741567,0.17260797,0.00042042136,0.0633978,-0.16593513,0.037679803,-0.18777071,2.0,2.0,-1.0472305,-1.1871492,-2.0,2.0,2.0,2.0,-0.10967158,-1.0916457,2.0,-1.0892473,-0.52912825,2.0,-2.0,-0.06966827,-1.6185468,2.0,-2.0,2.0,1.0768418,-0.72508,2.0
2025-07-19 14:43:30.365,0.6200000000000002,620,31,0.15436195,0.07252321,-0.043498445,-0.06843024,-0.022814088,0.018497484,0.0,0.0,0.0,0.021719867,0.025951656,-0.397392,0.09148149,-0.084843494,0.06921593,-0.16382846,0.19331923,0.16230695,0.3126662,-0.16676098,-0.08688727,0.17942052,-0.022121914,0.062419534,0.07842457,-0.15891853,-0.04787196,-0.106470235,0.023941815,-0.057061836,-0.033466183,-0.058447845,0.028351938,0.04004681,-1.0892473,-0.52912825,2.0,-2.0,-0.06966827,-1.6185468,2.0,-2.0,2.0,1.0768418,-0.72508,2.0,-2.0,2.0,0.29771137,-1.7632184,-1.8462071,-0.41898724,2.0,-1.74277,2.0,0.80079824,-1.819193,2.0
2025-07-19 14:43:30.382,0.6400000000000002,640,32,-0.08401167,0.1499525,-0.027242456,-0.031074585,-0.03341304,0.04217388,0.0,0.0,0.0,0.023342542,0.01783787,-0.38222238,0.069092594,-0.13645503,-0.02027944,-0.13872342,0.224967,0.095997065,0.30311832,-0.18312794,-0.10307361,0.20676072,0.018589,0.10628382,-0.10417916,-0.13431492,-0.33924046,-0.01964296,0.12212231,-0.106926166,0.04923351,-0.035292998,-0.06327186,-0.010809726,-2.0,2.0,0.29771137,-1.7632184,-1.8462071,-0.41898724,2.0,-1.74277,2.0,0.80079824,-1.819193,2.0,-1.684638,2.0,-2.0,-1.4614828,-2.0,1.4980866,2.0,-1.2465522,2.0,0.05388112,-0.047763936,2.0
2025-07-19 14:43:30.402,0.6600000000000003,660,33,-0.1701823,0.19807805,0.33900103,-0.021529408,0.04003919,0.012280864,0.0,0.0,0.0,0.023985608,-0.022710454,-0.34400198,-0.015847713,-0.14722492,-0.14991155,-0.089443065,0.23873903,0.047666557,0.312816,-0.16215292,-0.07894483,0.20099443,-0.13394468,0.06930125,-0.14437611,0.02074416,-0.40448523,0.107298896,0.0472468,-0.11873124,0.08251879,0.059225697,0.025276747,-0.03413347,-1.684638,2.0,-2.0,-1.4614828,-2.0,1.4980866,2.0,-1.2465522,2.0,0.05388112,-0.047763936,2.0,0.21878536,2.0,-1.3688198,-0.516384,-0.7291298,2.0,-0.26894292,0.067439325,2.0,-2.0,0.022316612,2.0
2025-07-19 14:43:30.429,0.6800000000000003,680,34,0.099948004,0.15075812,-0.014887509,0.0147294225,-0.028398555,-0.016193934,0.0,0.0,0.0,0.020537715,-0.009961933,-0.31459743,-0.052768264,-0.14556867,-0.2036076,-0.01771746,0.2295163,0.043438908,0.32427388,-0.19448744,-0.061187416,0.21688661,-0.029954446,0.21298945,-0.162728,0.057468478,-0.05857599,0.17813666,-0.018492876,0.020356683,0.07861232,-0.14455721,-0.0005593567,0.11179363,0.21878536,2.0,-1.3688198,-0.516384,-0.7291298,2.0,-0.26894292,0.067439325,2.0,-2.0,0.022316612,2.0,-1.1911033,1.3265564,-1.7972126,-0.8296482,-0.45415244,2.0,-1.1204726,-0.70601904,2.0,-0.9375281,2.0,0.038194686
2025-07-19 14:43:30.442,0.7000000000000003,700,35,0.140318,0.15021859,0.0653538,0.027273796,0.015164365,0.03853629,0.0,0.0,0.0,0.019189138,-0.032968502,-0.22853684,-0.10823569,-0.16022584,-0.20695713,0.035268135,0.19309466,0.033567913,0.32021743,-0.18861908,-0.0025113695,0.17625213,-0.0036395586,0.14519024,-0.09654866,0.020727435,-0.041918047,0.08660833,-0.08556023,0.06718441,0.02544507,-0.054111864,0.25358844,-0.073427655,-1.1911033,1.3265564,-1.7972126,-0.8296482,-0.45415244,2.0,-1.1204726,-0.70601904,2.0,-0.9375281,2.0,0.038194686,-1.0610415,1.6380553,-2.0,0.79589957,1.4399769,1.8372854,-0.8226775,-0.9782249,2.0,0.28385842,0.41800994,-2.0
2025-07-19 14:43:30.468,0.7200000000000003,720,36,-0.04150259,-0.040396374,0.0042244215,0.055429697,-0.026038032,-0.03469639,0.0,0.0,0.0,0.01828513,-0.060565695,-0.1462679,-0.13946599,-0.15200488,-0.19152719,0.05713703,0.181686,0.032993227,0.31786317,-0.17494744,0.063502595,0.10030563,0.013850737,0.2927447,-0.044020686,0.10463291,0.12230047,0.078885384,0.021725554,0.021625292,0.0783466,0.06050421,0.112382494,-0.1253931,-1.0610415,1.6380553,-2.0,0.79589957,1.4399769,1.8372854,-0.8226775,-0.9782249,2.0,0.28385842,0.41800994,-2.0,-0.21774305,-1.6173944,-2.0,1.2711357,1.8682568,0.3478392,-0.44630164,-2.0,2.0,-1.5741447,-2.0,-2.0
2025-07-19 14:43:30.487,0.7400000000000003,740,37,-0.21101409,-0.07174594,0.01792312,0.0648081,0.009965024,-0.03036301,0.0,0.0,0.0,0.017871113,-0.060925826,-0.117399536,-0.18042593,-0.1314251,-0.15511754,0.06208136,0.1488244,0.019174831,0.33311614,-0.18289037,0.026775371,0.044245284,-0.053494386,0.006150147,-0.12228568,0.01506356,0.10119995,0.02302028,-0.13916108,-0.07758039,-0.058100834,-0.04692341,-0.23871031,-0.13343666,-0.21774305,-1.6173944,-2.0,1.2711357,1.8682568,0.3478392,-0.44630164,-2.0,2.0,-1.5741447,-2.0,-2.0,1.7636088,-2.0,-1.2753255,0.64349455,2.0,-2.0,-0.69074523,-1.5006269,2.0,-2.0,0.72712314,-1.6307588
2025-07-19 14:43:30.503,0.7600000000000003,760,38,-0.23397438,0.14301069,0.063448414,0.008507499,-0.029672243,0.0172546,0.0,0.0,0.0,0.01869799,-0.00827125,-0.18765163,-0.17186902,-0.09355828,-0.06353194,-0.007989943,0.112119064,-0.022909965,0.338532,-0.20005955,0.0020554939,-0.007106078,0.11586062,-0.29385254,-0.026435466,0.06468889,0.23650964,-0.110694036,-0.09545512,-0.05944899,0.04853753,-0.072827645,0.03123829,-0.04298033,1.7636088,-2.0,-1.2753255,0.64349455,2.0,-2.0,-0.69074523,-1.5006269,2.0,-2.0,0.72712314,-1.6307588,1.2864081,-2.0,1.4221481,1.2516087,0.6456106,-2.0,-0.06406879,2.0,2.0,-2.0,-1.2853916,0.9852656
2025-07-19 14:43:30.523,0.7800000000000004,780,39,-0.2521045,-0.3393131,-0.105539486,0.06204615,0.03183979,-0.027673693,0.0,0.0,0.0,0.018333742,0.030916408,-0.30625552,-0.106944166,-0.05940019,-0.002377516,-0.07537356,0.10425809,0.01500141,0.3268576,-0.22173552,-0.02298349,0.0006210602,0.0769889,-0.19164124,0.10081511,0.18008853,0.080670506,-0.1434769,-0.089702144,0.22011615,-0.028632298,-0.108676374,-0.12298117,0.08503805,1.2864081,-2.0,1.4221481,1.2516087,0.6456106,-2.0,-0.06406879,2.0,2.0,-2.0,-1.2853916,0.9852656,1.1999259,-2.0,2.0,0.029354485,0.2480531,-2.0,0.8812059,-0.1460656,1.1042469,-0.86920327,-0.29013145,2.0
2025-07-19 14:43:30.543,0.8000000000000004,800,40,-0.26284835,-0.25811675,0.010540024,0.012727331,0.0019476069,0.009835483,0.0,0.0,0.0,0.0186174,0.058951043,-0.40707666,-0.03430928,-0.037564233,0.013562856,-0.1143743,0.10811335,0.016355023,0.30796278,-0.22357012,-0.044940416,0.053029787,0.060649537,-0.22184426,0.100892305,-0.002636982,0.026265783,-0.07637589,-0.002783636,0.030656843,-0.02774152,0.05858257,-0.06616676,0.13791946,1.1999259,-2.0,2.0,0.029354485,0.2480531,-2.0,0.8812059,-0.1460656,1.1042469,-0.86920327,-0.29013145,2.0,0.43687946,1.4320288,2.0,-0.71384805,1.6534857,-2.0,2.0,2.0,2.0,0.19601145,0.4495052,2.0
2025-07-19 14:43:30.567,0.8200000000000004,820,41,0.30744526,-0.14654544,0.042446215,0.012930447,0.10448291,-0.015629066,0.0,0.0,0.0,0.018055629,0.08509579,-0.4298126,0.0043372237,-0.043534275,0.091894135,-0.14011963,0.14476123,0.04627807,0.30953994,-0.18439265,-0.009433822,0.10871184,-0.054487705,0.062119637,0.17929034,0.03781651,0.2326231,-0.059120845,0.07627064,0.26784784,-0.0038488708,0.034883913,0.15433986,0.11964039,0.43687946,1.4320288,2.0,-0.71384805,1.6534857,-2.0,2.0,2.0,2.0,0.19601145,0.4495052,2.0,-0.5401528,0.5700392,2.0,-0.7019668,-2.0,-1.7112904,2.0,-0.62918556,2.0,0.22685619,-2.0,2.0
2025-07-19 14:43:30.583,0.8400000000000004,840,42,0.4957609,0.08487439,-0.06579468,0.007998986,0.054826155,-0.030857814,0.0,0.0,0.0,0.015936166,0.056191377,-0.41925028,0.050208993,-0.055631958,0.122276284,-0.17136024,0.1712614,0.08225711,0.29719388,-0.15381314,-0.02815906,0.15008983,-0.0471293,0.058278583,0.13056621,-0.096281104,-0.01830069,-0.037768982,0.034308776,-0.0066590267,0.031702764,0.042103104,-0.19946189,0.14163756,-0.5401528,0.5700392,2.0,-0.7019668,-2.0,-1.7112904,2.0,-0.62918556,2.0,0.22685619,-2.0,2.0,-0.92726034,-0.6742566,1.2312424,-2.0,-0.84737885,-1.3640425,2.0,0.40829945,2.0,0.54360324,-0.30559528,2.0
2025-07-19 14:43:30.603,0.8600000000000004,860,43,0.1591013,-0.027158422,0.052820563,0.027394826,-0.0486844,0.033806186,0.0,0.0,0.0,0.015198811,0.0376083,-0.3939433,0.07603419,-0.107173905,0.04776697,-0.17845057,0.19652456,0.08794007,0.31489816,-0.14115977,-0.03917404,0.17458388,-0.005893282,0.033508886,0.036065232,-0.04083775,-0.27136368,-0.054654248,0.06159411,0.061267536,0.049945943,0.033177577,0.043093946,0.045520265,-0.92726034,-0.6742566,1.2312424,-2.0,-0.84737885,-1.3640425,2.0,0.40829945,2.0,0.54360324,-0.30559528,2.0,-1.1556315,2.0,0.33764857,-1.3343891,0.53502715,0.89005876,2.0,-1.5582657,2.0,0.20170756,-2.0,2.0
2025-07-19 14:43:30.623,0.8800000000000004,880,44,0.0016354563,0.12677406,0.23573987,-0.036166724,-0.041531485,-0.024988165,0.0,0.0,0.0,0.014839172,0.0077291294,-0.37573344,0.045554373,-0.12897529,0.041025225,-0.1157499,0.21570739,0.060383774,0.30747506,-0.111964464,-0.054474287,0.19171563,-0.009994488,0.04630423,-0.086625725,0.010294719,0.059670612,0.074142635,0.0399301,-0.10764677,-0.030694699,0.020799708,0.022587012,0.00097092096,-1.1556315,2.0,0.33764857,-1.3343891,0.53502715,0.89005876,2.0,-1.5582657,2.0,0.20170756,-2.0,2.0,-0.21395727,1.8648256,-0.33022094,-0.8852156,-2.0,-0.7155726,1.9314748,-0.4511534,2.0,-2.0,-0.59883726,2.0
2025-07-19 14:43:30.645,0.9000000000000005,900,45,0.0067067174,0.22844476,-0.17947455,0.04537052,0.0072533726,0.036778823,0.0,0.0,0.0,0.011672499,0.0038248848,-0.3500069,0.02534705,-0.12872468,0.0057120146,-0.12522395,0.23073675,0.019860826,0.31875175,-0.14135455,-0.07018315,0.2168623,-0.04005524,0.0021767768,-0.06474025,-0.07767207,-0.15149249,-0.0071544875,-0.009962843,-0.12128232,-0.054996807,-0.13197193,-0.088277616,0.03405758,-0.21395727,1.8648256,-0.33022094,-0.8852156,-2.0,-0.7155726,1.9314748,-0.4511534,2.0,-2.0,-0.59883726,2.0,-1.3317108,2.0,-2.0,-1.4404104,-1.3153605,0.9501911,1.9309242,-0.03690409,2.0,0.71435946,2.0,2.0
2025-07-19 14:43:30.666,0.9200000000000005,920,46,0.030088997,-0.042009667,0.03421897,-0.0029630526,0.009559758,-0.044860143,0.0,0.0,0.0,0.011779881,-0.010472112,-0.28388605,-0.048221603,-0.14924379,-0.08350902,-0.07129144,0.25542423,0.019975875,0.31504613,-0.16650128,-0.047971394,0.23267852,-0.016013363,0.19922878,-0.18654737,-0.093634136,-0.20837347,0.04903601,0.11242743,0.009036736,-0.06337831,0.09617139,0.17873871,-0.023342077,-1.3317108,2.0,-2.0,-1.4404104,-1.3153605,0.9501911,1.9309242,-0.03690409,2.0,0.71435946,2.0,2.0,-1.6529382,2.0,-2.0,-0.18813774,-2.0,2.0,-0.3425269,-1.8176465,2.0,1.290991,0.81642604,1.2652234
2025-07-19 14:43:30.685,0.9400000000000005,940,47,-0.10956451,-0.12810124,0.079944655,-0.0061530536,-0.004126151,-0.027074331,0.0,0.0,0.0,0.013090275,-0.039822455,-0.23230897,-0.10480983,-0.13815966,-0.12542258,-0.018527592,0.2312458,-0.025217522,0.31364366,-0.123394355,0.023520155,0.21839014,-0.06569056,0.18906589,-0.14202094,0.07240895,-0.1510347,0.096145265,-0.08620044,-0.11032957,0.061488714,0.18357639,0.18583532,0.0050480007,-1.6529382,2.0,-2.0,-0.18813774,-2.0,2.0,-0.3425269,-1.8176465,2.0,1.290991,0.81642604,1.2652234,-1.6668768,1.464406,-2.0,0.6378229,-0.6510205,1.7280439,-0.61392134,1.3411629,2.0,0.5138771,1.3253388,-0.87270844
2025-07-19 14:43:30.703,0.9600000000000005,960,48,0.214087,-0.16462848,-0.13761528,-0.06358575,0.03036776,-0.034709826,0.0,0.0,0.0,0.012294209,-0.08398967,-0.14456429,-0.14562495,-0.12705553,-0.15495543,0.036450136,0.18999304,-0.006735846,0.31337863,-0.08894174,0.107449874,0.15309556,-0.046476044,0.1843353,-0.04861063,0.05622743,-0.06211601,0.09973468,-0.17704415,0.16959918,-0.04617903,0.0030943367,0.2911787,-0.1804514,-1.6668768,1.464406,-2.0,0.6378229,-0.6510205,1.7280439,-0.61392134,1.3411629,2.0,0.5138771,1.3253388,-0.87270844,-1.272242,-0.59869987,-2.0,0.09238237,1.439828,2.0,-0.34882456,-2.0,2.0,1.5463191,0.26826245,-2.0
2025-07-19 14:43:30.723,0.9800000000000005,980,49,-0.10180322,0.10003289,0.02285717,-0.022707732,0.044651475,-0.026742253,0.0,0.0,0.0,0.013377719,-0.10925101,-0.10586224,-0.1661562,-0.097569905,-0.15087354,0.07299449,0.17719324,0.0039418465,0.31834754,-0.044659175,0.13954164,0.068569414,-0.01827759,-0.074817374,-0.036397725,-0.008298742,0.012552754,0.14257294,-0.12398581,-0.08341201,0.022781977,0.08394684,0.04999227,-0.17581943,-1.272242,-0.59869987,-2.0,0.09238237,1.439828,2.0,-0.34882456,-2.0,2.0,1.5463191,0.26826245,-2.0,-0.1815828,0.86178094,-2.0,0.42915198,2.0,0.14776023,-0.68919617,-1.251527,2.0,-1.194634,0.5545255,-2.0
2025-07-19 14:43:30.746,1.0000000000000004,1000,50,-0.13160571,0.12222867,-0.0010679385,0.017945807,0.01635302,0.03749188,0.0,0.0,0.0,0.014236767,-0.088037506,-0.0602726,-0.20198849,-0.08312821,-0.1238656,0.065764256,0.12167485,-0.011353603,0.3199208,-0.06334443,0.1600197,0.012526454,-0.023106113,0.22428188,-0.04660111,0.07552989,0.06773181,-0.017809385,-0.108462416,-0.09291156,0.07031144,-0.09084169,-0.038329136,-0.12213532,-0.1815828,0.86178094,-2.0,0.42915198,2.0,0.14776023,-0.68919617,-1.251527,2.0,-1.194634,0.5545255,-2.0,0.49899557,-2.0,-2.0,0.88435584,1.9896173,0.3064429,-0.43815947,-1.2434978,2.0,-2.0,-2.0,-2.0
2025-07-19 14:43:30.766,1.0200000000000005,1020,51,-0.21144183,0.104556166,-0.0042120083,-0.0068831956,0.039922196,0.021981746,0.0,0.0,0.0,0.014232064,-0.05536193,-0.050806377,-0.21867776,-0.06816314,-0.07178709,0.036777373,0.11793812,-0.05620807,0.3175163,-0.10953092,0.10877887,-0.05273442,0.05151211,-0.18634877,-0.06338388,0.12304704,0.20212394,-0.0871067,-0.10195593,-0.117458284,-0.009939366,-0.05263666,-0.28319305,-0.15847854,0.49899557,-2.0,-2.0,0.88435584,1.9896173,0.3064429,-0.43815947,-1.2434978,2.0,-2.0,-2.0,-2.0,1.5683812,-2.0,-0.32656753,0.98548883,2.0,-2.0,-0.2681948,-0.738945,2.0,-2.0,-0.41565138,-0.36987427
2025-07-19 14:43:30.784,1.0400000000000005,1040,52,-0.26793486,0.08470877,0.11729811,0.056210693,-0.023633236,-0.014751801,0.0,0.0,0.0,0.013899625,-0.01817119,-0.14820285,-0.18613277,-0.029042829,0.008172526,-0.025624404,0.08475249,-0.09333704,0.3160626,-0.15073588,0.0563762,-0.058130264,0.160782,-0.24711005,0.09821244,0.034446016,0.16300489,-0.21356513,-0.06545301,-0.080452375,0.04804981,-0.062339507,-0.13429245,0.009941873,1.5683812,-2.0,-0.32656753,0.98548883,2.0,-2.0,-0.2681948,-0.738945,2.0,-2.0,-0.41565138,-0.36987427,1.6210886,-2.0,1.756505,1.6831774,-0.30777708,-2.0,0.04369604,2.0,2.0,-2.0,-0.6357997,2.0
2025-07-19 14:43:30.804,1.0600000000000005,1060,53,-0.29027694,-0.23195991,-0.14565834,0.009938513,0.086753115,-0.035098955,0.0,0.0,0.0,0.012484736,0.04423724,-0.2698099,-0.1073352,0.0047254623,0.04759345,-0.06099546,0.092800595,-0.076895244,0.3041611,-0.17461139,-0.005537022,0.013738351,0.07848369,-0.2367388,0.17350319,0.093589574,-0.007818768,-0.042478185,-0.01685029,0.18259732,-0.034028366,-0.10651677,-0.10936631,0.1366346,1.6210886,-2.0,1.756505,1.6831774,-0.30777708,-2.0,0.04369604,2.0,2.0,-2.0,-0.6357997,2.0,1.1949404,-2.0,2.0,-0.16665652,-1.2382202,-1.8805283,1.5747385,1.3132088,1.0198377,-0.15446739,-0.32309723,2.0
2025-07-19 14:43:30.824,1.0800000000000005,1080,54,-0.2771275,-0.20344868,-0.084725216,0.015942639,0.091861494,-0.018026195,0.0,0.0,0.0,0.013055548,0.07638267,-0.37627473,-0.042444937,0.008863313,0.02959479,-0.11006555,0.11447758,0.01398694,0.29231775,-0.17138022,-0.03202003,0.062348273,0.033702947,-0.20520532,0.107594326,0.025447305,-0.23131567,-0.014568578,0.10292211,0.22110912,-0.022227518,0.06533976,-0.047231358,0.11022365,1.1949404,-2.0,2.0,-0.16665652,-1.2382202,-1.8805283,1.5747385,1.3132088,1.0198377,-0.15446739,-0.32309723,2.0,-0.23209552,1.1638759,2.0,-2.0,1.833245,-2.0,2.0,0.7076328,2.0,0.19961372,-0.07187127,2.0
2025-07-19 14:43:30.844,1.1000000000000005,1100,55,0.23972376,0.113402024,0.015490235,0.006163863,0.0878262,-0.017565679,0.0,0.0,0.0,0.014698006,0.05573745,-0.40082887,0.01496756,-0.04858081,0.037388176,-0.13504632,0.14425343,0.07294257,0.2968775,-0.14300063,-0.022465067,0.10745343,-0.1016786,0.055579938,0.1806928,-0.104279935,0.07627339,-0.06572524,0.1540822,0.10951072,0.00498583,0.03158079,0.0390775,0.13590907,-0.23209552,1.1638759,2.0,-2.0,1.833245,-2.0,2.0,0.7076328,2.0,0.19961372,-0.07187127,2.0,-1.070059,2.0,2.0,-1.053501,-1.0602232,-1.9773706,2.0,-0.21460927,2.0,1.3237122,-2.0,2.0
2025-07-19 14:43:30.868,1.1200000000000006,1120,56,0.4696398,0.297043,-0.038992032,0.07828691,-0.013143886,-0.0020345314,0.0,0.0,0.0,0.014676009,0.023562806,-0.39460897,0.060574885,-0.0711954,0.024782773,-0.16303568,0.18602139,0.06479803,0.2953904,-0.08861877,-0.06778392,0.14842431,-0.09848355,0.004349697,0.059200846,-0.036171235,-0.08029097,-0.119471066,0.06256709,-0.04701452,0.031219162,0.12694493,-0.2764259,0.13826697,-1.070059,2.0,2.0,-1.053501,-1.0602232,-1.9773706,2.0,-0.21460927,2.0,1.3237122,-2.0,2.0,-1.1183604,1.5351801,1.3933016,-2.0,-1.1229888,-1.9954256,2.0,1.0124971,2.0,0.5616309,0.1578204,2.0
2025-07-19 14:43:30.887,1.1400000000000006,1140,57,0.49990714,-0.08055228,-0.041881926,0.037639648,0.003926833,-0.045498513,0.0,0.0,0.0,0.0152008375,0.0130548375,-0.36395726,0.080854565,-0.11996513,-0.052954268,-0.18736032,0.20802724,0.07932609,0.29153207,-0.08236851,-0.074352525,0.15848263,-0.08973528,0.13487057,0.02172528,-0.04914443,-0.15852897,-0.062831305,0.008095181,0.1834502,0.025744034,-0.013943794,0.07881119,0.017751455,-1.1183604,1.5351801,1.3933016,-2.0,-1.1229888,-1.9954256,2.0,1.0124971,2.0,0.5616309,0.1578204,2.0,-1.1634611,1.8911486,-0.7675355,-1.8041298,-0.106358744,0.43070528,2.0,-2.0,2.0,1.1556246,-2.0,2.0
2025-07-19 14:43:30.904,1.1600000000000006,1160,58,0.010482227,-0.20772852,0.047857683,-0.005194843,-0.0354605,-0.024955656,0.0,0.0,0.0,0.016571281,-0.01937312,-0.2961615,0.03498629,-0.13748072,-0.08080072,-0.16087656,0.24286121,0.08664573,0.29480597,-0.07954234,-0.06228148,0.17750823,-0.05284761,0.20865443,-0.080682054,-0.072790645,0.05561883,0.07209207,0.079590015,-0.11717196,0.002839974,0.021692485,-0.018313281,0.09208083,-1.1634611,1.8911486,-0.7675355,-1.8041298,-0.106358744,0.43070528,2.0,-2.0,2.0,1.1556246,-2.0,2.0,-2.0,1.0186563,-2.0,-0.85151875,-2.0,0.04845591,2.0,-1.4977454,2.0,-0.44600922,1.1795853,2.0
2025-07-19 14:43:30.924,1.1800000000000006,1180,59,0.20504121,-0.03253062,0.15120122,0.02113077,-0.057827953,0.04836532,0.0,0.0,0.0,0.0160917,-0.05084432,-0.2242833,-0.032382477,-0.14970915,-0.13418812,-0.11917232,0.25147507,-0.009936688,0.30295426,-0.09083673,-0.007491341,0.19701853,-0.05355512,0.25281835,-0.19239749,0.054771964,-0.16706537,0.13622233,0.044543315,-0.28843912,-0.05301782,-0.014777873,0.08496378,-0.04625585,-2.0,1.0186563,-2.0,-0.85151875,-2.0,0.04845591,2.0,-1.4977454,2.0,-0.44600922,1.1795853,2.0,-0.6719222,1.0869619,-2.0,0.17516112,-1.8819337,2.0,-0.66606,-0.071011834,2.0,-0.02870493,-0.014142327,1.6456869
2025-07-19 14:43:30.946,1.2000000000000006,1200,60,-0.14364769,0.009294248,-0.13146986,0.0068422263,-0.01104761,-0.046956927,0.0,0.0,0.0,0.0140194595,-0.05746212,-0.13218805,-0.08627915,-0.12438177,-0.24725245,-0.047541276,0.24799785,-0.038597006,0.31426272,-0.08670768,0.0065609613,0.2134847,0.06348287,0.23127805,-0.17175244,0.09494823,-0.30557525,0.16985348,-0.14078337,-0.042282496,0.013375996,0.048436627,-0.03988432,0.081401706,-0.6719222,1.0869619,-2.0,0.17516112,-1.8819337,2.0,-0.66606,-0.071011834,2.0,-0.02870493,-0.014142327,1.6456869,-1.6478976,1.9853675,-2.0,-0.96764976,1.8062935,2.0,-1.5666816,0.9848047,2.0,1.1119161,2.0,-0.40293473
2025-07-19 14:43:30.966,1.2200000000000006,1220,61,0.22405678,0.21141282,-0.041761786,-0.056040574,0.013377885,-0.029238041,0.0,0.0,0.0,0.014712495,-0.10698317,-0.042922974,-0.13542598,-0.12161024,-0.26656178,0.015121333,0.19457312,0.015562721,0.30778143,-0.081623934,0.07126643,0.1604175,-0.021786127,0.22991279,-0.15950884,-0.024841007,0.12881678,0.10972335,-0.18536021,0.21209233,0.027176352,0.071871445,0.26699585,-0.054372985,-1.6478976,1.9853675,-2.0,-0.96764976,1.8062935,2.0,-1.5666816,0.9848047,2.0,1.1119161,2.0,-0.40293473,-0.98426396,-1.1819972,-2.0,1.2192082,0.47140673,1.3268026,-0.98084736,-2.0,2.0,0.7426843,-0.5256524,-2.0
2025-07-19 14:43:30.984,1.2400000000000007,1240,62,-0.29391044,0.0011389185,-0.034187097,0.0043226937,-0.05488783,0.049139075,0.0,0.0,0.0,0.01643436,-0.115044,-0.006885872,-0.16103944,-0.11345072,-0.2367895,0.038277216,0.15793885,0.0278089,0.31015083,-0.056413624,0.14002249,0.07361846,-0.05588573,0.04170208,-0.11886728,0.050721005,0.0021199586,0.022469558,-0.10277259,0.052534733,0.06873604,0.07002735,0.03924423,-0.24885044,-0.98426396,-1.1819972,-2.0,1.2192082,0.47140673,1.3268026,-0.98084736,-2.0,2.0,0.7426843,-0.5256524,-2.0,0.025823627,-1.1612487,-2.0,1.1343287,2.0,0.64086264,-1.6094414,-2.0,2.0,-0.5860415,-1.482142,-2.0
2025-07-19 14:43:31.004,1.2600000000000007,1260,63,-0.35601777,0.09206592,-0.17651784,0.04375109,-0.041486826,-0.02897225,0.0,0.0,0.0,0.017584879,-0.086664,-0.018818226,-0.19787718,-0.07034445,-0.19880974,0.022887038,0.111143306,0.016390447,0.32066563,-0.06927468,0.108170636,0.0130783245,-0.014883412,-0.05433043,-0.030922117,0.110183075,0.13305315,-0.07327132,-0.13976066,-0.05495221,-0.04434007,0.02484244,-0.19842762,-0.19190875,0.025823627,-1.1612487,-2.0,1.1343287,2.0,0.64086264,-1.6094414,-2.0,2.0,-0.5860415,-1.482142,-2.0,0.043243956,-2.0,-2.0,0.595903,2.0,-0.8230357,-0.26058787,-2.0,2.0,-2.0,0.2042911,-2.0
2025-07-19 14:43:31.024,1.2800000000000007,1280,64,-0.3191583,0.030521246,0.018008972,0.022881228,0.027341781,0.04211053,0.0,0.0,0.0,0.019911543,-0.07859946,-0.09729139,-0.21676156,-0.061212692,-0.16147572,-0.011836082,0.08445419,-0.028744536,0.30762783,-0.10820602,0.08701531,-0.04469031,0.0990698,-0.21705745,-0.057820078,-0.0057464563,0.14135505,-0.1461871,-0.09870404,-0.119057246,0.018845754,-0.053486247,0.024866482,-0.16443247,0.043243956,-2.0,-2.0,0.595903,2.0,-0.8230357,-0.26058787,-2.0,2.0,-2.0,0.2042911,-2.0,2.0,-1.1803803,-0.8718325,0.82089525,2.0,-1.2718993,-0.6252744,0.110585935,2.0,-2.0,-1.2370837,-1.4472471
2025-07-19 14:43:31.049,1.3000000000000007,1300,65,-0.20909785,-0.10631772,-0.13072608,0.035616327,-0.0131137995,-0.019873792,0.0,0.0,0.0,0.020631487,-0.016394358,-0.16409566,-0.20233226,-0.03060429,-0.07802741,-0.047700077,0.0698943,-0.022608468,0.3138726,-0.14710434,0.03402593,-0.082153566,0.19290118,-0.13427524,0.08597656,0.051758047,0.18944067,-0.062946886,-0.04897758,0.09204567,-0.017423877,-0.08043419,-0.19537422,-0.06775652,2.0,-1.1803803,-0.8718325,0.82089525,2.0,-1.2718993,-0.6252744,0.110585935,2.0,-2.0,-1.2370837,-1.4472471,0.97160023,-2.0,1.329982,0.59972394,1.5595886,-2.0,0.6340519,-0.90517926,2.0,-2.0,-0.5690946,1.1826932
2025-07-19 14:43:31.066,1.3200000000000007,1320,66,-0.22810893,-0.10707286,0.04842846,0.086340904,0.06470612,-0.04623711,0.0,0.0,0.0,0.022344867,0.012244137,-0.2756235,-0.12868272,-0.008442513,0.008391195,-0.10539582,0.06153451,-0.049391095,0.3171827,-0.18359055,-0.025459144,-0.040950775,0.04910656,-0.33789212,0.17734185,-0.023917286,0.26384443,-0.117915206,0.053322617,-0.018513659,0.0017895752,-0.008479068,-0.03824938,0.041204333,0.97160023,-2.0,1.329982,0.59972394,1.5595886,-2.0,0.6340519,-0.90517926,2.0,-2.0,-0.5690946,1.1826932,1.1563238,-1.6796347,2.0,0.6071612,-0.4872665,-2.0,1.8821099,2.0,2.0,-0.87285274,-0.44522786,2.0
2025-07-19 14:43:31.085,1.3400000000000007,1340,67,-0.10182683,-0.20722212,0.01143335,0.035950348,0.12528051,0.047210794,0.0,0.0,0.0,0.022103379,0.055818304,-0.34539345,-0.07128357,0.011727228,0.044177737,-0.12800811,0.11609012,-0.031563666,0.3068373,-0.18129522,-0.05056228,0.02308998,0.15098006,-0.20318626,0.09485688,0.009344962,-0.047416836,-0.009798387,0.042267963,0.16418852,0.055859078,0.06255488,-0.110049866,0.16224363,1.1563238,-1.6796347,2.0,0.6071612,-0.4872665,-2.0,1.8821099,2.0,2.0,-0.87285274,-0.44522786,2.0,0.8479772,0.24438532,2.0,-1.3854408,0.841498,-2.0,2.0,2.0,2.0,-0.16212611,0.24346578,2.0
2025-07-19 14:43:31.105,1.3600000000000008,1360,68,0.28986585,-0.2745433,-0.043023717,0.034168616,0.11973963,-0.042459115,0.0,0.0,0.0,0.021021714,0.058973372,-0.35045305,-0.011031416,-0.017724266,0.085648835,-0.16248699,0.15469377,0.07539205,0.31737012,-0.15740146,-0.03895871,0.06471636,0.067454174,0.023397628,0.068225935,-0.16586621,0.06609013,-0.062881134,0.078212954,0.37503308,-0.032423016,0.12387263,0.014895408,0.075463705,0.8479772,0.24438532,2.0,-1.3854408,0.841498,-2.0,2.0,2.0,2.0,-0.16212611,0.24346578,2.0,-0.4053734,0.45271918,2.0,-1.2283677,-0.15376064,-1.4605926,2.0,-1.9878464,2.0,0.8532712,-2.0,2.0
2025-07-19 14:43:31.125,1.3800000000000008,1380,69,0.5543093,0.14181639,-0.03538679,0.022766333,0.048055734,-0.04257641,0.0,0.0,0.0,0.020459937,0.061340913,-0.3299522,0.03167892,-0.06273807,0.08647922,-0.17636435,0.1786708,0.13197316,0.31660098,-0.1120278,-0.05713632,0.11520191,-0.06561871,0.028937345,0.14513406,-0.12922886,-0.062039908,0.0021302642,0.06541899,0.031843618,0.0024819782,0.18229663,-0.11967978,0.07717195,-0.4053734,0.45271918,2.0,-1.2283677,-0.15376064,-1.4605926,2.0,-1.9878464,2.0,0.8532712,-2.0,2.0,-1.6219132,0.9714286,1.537862,-1.9111677,-1.0935837,-1.5510544,2.0,-1.292126,2.0,0.63604444,-1.1137985,2.0
2025-07-19 14:43:31.145,1.4000000000000008,1400,70,0.36667913,0.20170459,-0.0410499,0.02477065,-0.02213066,-0.042797565,0.0,0.0,0.0,0.021317087,0.015674235,-0.2755586,0.049790297,-0.10835361,0.00261021,-0.19350323,0.21691659,0.09207433,0.31635305,-0.0957531,-0.11289771,0.15896462,-0.030793054,0.05667873,0.12092431,-0.070723146,-0.2769762,-0.0089433985,0.09400994,-0.20051259,0.073591,-0.073694885,-0.006623914,0.028075991,-1.6219132,0.9714286,1.537862,-1.9111677,-1.0935837,-1.5510544,2.0,-1.292126,2.0,0.63604444,-1.1137985,2.0,-1.6428566,2.0,-2.0,-1.5979536,-2.0,1.6910282,2.0,-0.09707784,2.0,0.43739218,-0.6009312,2.0
2025-07-19 14:43:31.169,1.4200000000000008,1420,71,-0.007237823,-0.13121639,-0.10951133,0.0034374394,-0.014354145,-0.004107237,0.0,0.0,0.0,0.022733765,-0.0140284,-0.19462965,-0.0006698117,-0.13287388,-0.11768277,-0.11332504,0.23769924,0.04584641,0.3182236,-0.09133929,-0.10114956,0.17643058,-0.11648062,0.12421286,-0.15348314,-0.06891576,-0.3506305,0.12684499,0.094026595,-0.029987967,-0.010307843,-0.01883489,-0.057104625,0.12981258,-1.6428566,2.0,-2.0,-1.5979536,-2.0,1.6910282,2.0,-0.09707784,2.0,0.43739218,-0.6009312,2.0,-1.5365676,0.4308543,-2.0,-1.1515701,-2.0,2.0,1.098454,-1.5813155,2.0,0.89487857,2.0,2.0
2025-07-19 14:43:31.185,1.4400000000000008,1440,72,-0.06132363,0.087776154,0.17384334,-0.016532471,0.010893243,-0.048225112,0.0,0.0,0.0,0.025178615,-0.04669115,-0.13753842,-0.073487334,-0.14256491,-0.25335163,-0.039043278,0.24255288,0.020361379,0.3144465,-0.08515809,-0.068383746,0.19806269,-0.037454236,0.12395146,-0.17308208,-0.08731763,-0.3592416,0.17099153,-0.047454055,-0.14991146,0.06488743,-0.008107371,0.0869998,0.058276325,-1.5365676,0.4308543,-2.0,-1.1515701,-2.0,2.0,1.098454,-1.5813155,2.0,0.89487857,2.0,2.0,-1.1330458,1.7208319,-1.825108,-0.040481552,-0.5433266,2.0,-1.6759462,0.67425114,2.0,-1.172791,1.5604069,1.6944319
2025-07-19 14:43:31.205,1.4600000000000009,1460,73,0.23132351,0.22882065,-0.013065426,-0.03670468,-0.019905519,-0.021710915,0.0,0.0,0.0,0.024726907,-0.06551707,-0.056750547,-0.110206105,-0.12354579,-0.28861284,0.0128997965,0.20116383,0.04503672,0.32297495,-0.113045104,-0.00071931997,0.19737457,-0.07288511,0.22687759,-0.050220925,0.015173845,-0.025623525,0.06591993,-0.12790167,0.1716617,-0.07475373,-0.097905025,0.26994073,-0.0666698,-1.1330458,1.7208319,-1.825108,-0.040481552,-0.5433266,2.0,-1.6759462,0.67425114,2.0,-1.172791,1.5604069,1.6944319,-1.677989,-1.1720045,-2.0,0.32280174,0.58600193,2.0,-1.6504775,-2.0,2.0,0.13235356,-0.36777782,-2.0
2025-07-19 14:43:31.225,1.4800000000000009,1480,74,-0.20871176,0.17513233,0.09447992,0.039497025,-0.050430186,0.02274563,0.0,0.0,0.0,0.023834454,-0.10734691,-0.026447093,-0.13746208,-0.10554015,-0.26765707,0.048926536,0.14928836,0.049000707,0.3229719,-0.10987035,0.05419663,0.123085596,-0.06546878,0.021215666,-0.14090256,0.025631981,0.09132657,0.099094674,-0.12827669,-0.088690676,0.0037515298,0.064162135,0.06532877,-0.14682697,-1.677989,-1.1720045,-2.0,0.32280174,0.58600193,2.0,-1.6504775,-2.0,2.0,0.13235356,-0.36777782,-2.0,0.5016338,-1.9198725,-2.0,1.6139327,1.9734902,0.6930602,-1.1719096,-1.0303335,2.0,-0.78419274,-0.5651562,-2.0
2025-07-19 14:43:31.250,1.5000000000000009,1500,75,-0.46450707,0.00831528,-0.10876993,0.0370377,0.009652219,0.022519784,0.0,0.0,0.0,0.02297454,-0.088536695,-0.059711844,-0.17047368,-0.08694634,-0.24736007,0.048089128,0.11926188,0.016253522,0.31932008,-0.09915764,0.023441384,0.060923666,0.08459249,-0.070420556,6.988548e-05,-0.0025891196,0.018251635,-0.033479724,-0.09853674,-0.09342246,-0.054858156,0.052287426,-0.05667646,-0.21542737,0.5016338,-1.9198725,-2.0,1.6139327,1.9734902,0.6930602,-1.1719096,-1.0303335,2.0,-0.78419274,-0.5651562,-2.0,0.25949228,-1.5188779,-1.2748268,0.59994704,2.0,-0.12105189,-0.60155815,-0.84388554,2.0,-2.0,0.8375473,-2.0
2025-07-19 14:43:31.266,1.520000000000001,1520,76,-0.20346104,-0.009082641,0.043747526,0.024796724,-0.018773787,-0.0073368084,0.0,0.0,0.0,0.02366644,-0.059186433,-0.115528725,-0.18300287,-0.059778158,-0.20129462,0.025770253,0.08869612,-0.027577005,0.3199541,-0.14906454,0.033288933,-0.016451348,0.07156325,-0.23323417,-0.053180717,-0.01615786,0.04393921,-0.034378495,-0.03128886,-0.10152242,-0.012824433,-0.10280744,0.16355684,-0.083413094,0.25949228,-1.5188779,-1.2748268,0.59994704,2.0,-0.12105189,-0.60155815,-0.84388554,2.0,-2.0,0.8375473,-2.0,1.449427,0.3489317,-0.20976602,1.3528122,2.0,-0.9259529,-0.30522156,0.153095,2.0,-2.0,-1.451971,-1.7607236
2025-07-19 14:43:31.285,1.540000000000001,1540,77,-0.15435813,-0.28546545,-0.1268175,0.014114612,0.047071,0.022938058,0.0,0.0,0.0,0.023555627,-0.0089577865,-0.15113616,-0.16309692,-0.025112301,-0.13399997,-0.0038873202,0.076647855,-0.0272353,0.32226735,-0.16570584,0.04022049,-0.06481526,0.16713351,0.119979694,0.006002415,0.15754496,0.23822676,-0.09939253,0.019297387,0.01576729,0.06836425,-0.14662237,-0.18432698,-0.1494464,1.449427,0.3489317,-0.20976602,1.3528122,2.0,-0.9259529,-0.30522156,0.153095,2.0,-2.0,-1.451971,-1.7607236,1.2217075,-2.0,-0.8085003,0.43548533,0.24764076,-2.0,0.36688995,-0.8814672,2.0,-2.0,-1.2407389,-0.91999954
2025-07-19 14:43:31.305,1.560000000000001,1560,78,-0.3783351,0.0050327047,0.031966414,0.0029665714,0.05528443,-0.04048809,0.0,0.0,0.0,0.024803337,0.02279708,-0.18320036,-0.14095256,-0.009553631,-0.08915155,-0.059198122,0.07199501,-0.036419816,0.32338905,-0.19987833,-0.046761934,-0.070632756,0.055715945,-0.24799462,0.04681905,-0.041624058,0.16104463,-0.11042646,-0.03700088,-0.12693653,0.04666722,-0.012091474,-0.2595353,-0.02117831,1.2217075,-2.0,-0.8085003,0.43548533,0.24764076,-2.0,0.36688995,-0.8814672,2.0,-2.0,-1.2407389,-0.91999954,1.8427345,-2.0,1.8124616,0.9321193,1.7259724,-2.0,0.34857452,2.0,2.0,-2.0,1.2525342,2.0
2025-07-19 14:43:31.325,1.580000000000001,1580,79,0.10468809,-0.17359465,0.0069602923,0.015370471,0.09691622,-0.0461827,0.0,0.0,0.0,0.025944112,0.06981772,-0.23255356,-0.09294595,0.011986042,-0.021260744,-0.11095764,0.06793884,-0.02608188,0.31850433,-0.23478843,-0.07948432,-0.022571828,0.10063942,-0.1600642,0.126885,0.050066307,0.16416068,-0.07271269,0.024351304,0.11824689,0.032640237,-0.02982294,0.077118725,0.22278036,1.8427345,-2.0,1.8124616,0.9321193,1.7259724,-2.0,0.34857452,2.0,2.0,-2.0,1.2525342,2.0,1.910169,-2.0,2.0,0.16946456,-1.0159476,-1.540083,1.3930045,1.4736831,1.6698151,-0.9699809,-1.7891693,2.0
2025-07-19 14:43:31.349,1.600000000000001,1600,80,0.037088547,-0.20628665,0.029953573,0.028722335,0.12408081,0.016119786,0.0,0.0,0.0,0.025740407,0.116463564,-0.3010661,-0.016849013,0.02318743,0.002126326,-0.13972116,0.092205375,0.065628864,0.30650726,-0.22060063,-0.10476859,0.046766877,0.14840674,-0.13996091,0.21356834,-0.018608395,-0.03412508,-0.08539638,0.070375234,0.2986131,-0.020134317,0.041207984,-0.15854447,0.18569571,1.910169,-2.0,2.0,0.16946456,-1.0159476,-1.540083,1.3930045,1.4736831,1.6698151,-0.9699809,-1.7891693,2.0,0.7330527,-1.8983089,2.0,-0.37114623,0.81445384,-2.0,1.2071314,0.023838647,0.85913235,-0.18974291,-0.23135686,2.0
2025-07-19 14:43:31.365,1.620000000000001,1620,81,0.22805518,0.20397592,0.24365437,0.06707649,0.040290944,0.0077263894,0.0,0.0,0.0,0.024831595,0.11561118,-0.38442943,0.028119298,0.010322818,0.019443218,-0.16922916,0.10903139,0.107144356,0.29166776,-0.18609631,-0.10214287,0.080668814,0.022657152,-0.22944035,0.16375466,-0.030971535,0.18260036,-0.0683292,-0.015806757,0.033861846,-0.049135506,0.018934805,-0.0047266865,0.12882192,0.7330527,-1.8983089,2.0,-0.37114623,0.81445384,-2.0,1.2071314,0.023838647,0.85913235,-0.18974291,-0.23135686,2.0,0.4623409,2.0,2.0,-0.45335934,-0.017329074,-2.0,2.0,2.0,2.0,-1.1855212,-1.1494586,2.0
2025-07-19 14:43:31.387,1.640000000000001,1640,82,0.49079174,0.09479467,0.0036432208,0.04539003,-0.0031974292,-0.016840026,0.0,0.0,0.0,0.021546276,0.12562673,-0.3969828,0.071636856,-0.006647148,0.029526537,-0.18418789,0.16016778,0.1406991,0.28100643,-0.18652944,-0.1609584,0.13287054,-0.082160726,0.08712195,0.15216155,-0.039140258,0.02852771,-0.015107405,0.066614404,0.2013811,0.026860852,-0.05500472,-0.09258322,0.11122395,0.4623409,2.0,2.0,-0.45335934,-0.017329074,-2.0,2.0,2.0,2.0,-1.1855212,-1.1494586,2.0,-0.17649238,-0.110207245,2.0,-1.4019388,1.4163247,-2.0,1.9195882,-2.0,2.0,0.19277258,-2.0,2.0
2025-07-19 14:43:31.406,1.660000000000001,1660,83,0.25353837,0.15014562,-0.019482533,0.008310789,0.007223163,-0.039850496,0.0,0.0,0.0,0.019717285,0.09917508,-0.38482386,0.10569427,-0.046830226,0.07072358,-0.20902298,0.18133846,0.14911783,0.29157263,-0.17246929,-0.22883709,0.15370421,0.0151876565,0.09159138,0.03459861,-0.03940806,0.21450332,-0.10803989,0.14404172,-0.025207274,-0.053721525,-0.022270074,-0.18069123,0.07929669,-0.17649238,-0.110207245,2.0,-1.4019388,1.4163247,-2.0,1.9195882,-2.0,2.0,0.19277258,-2.0,2.0,-0.80571973,-0.022380035,1.6148981,-1.3513938,-2.0,-2.0,2.0,-1.7459564,2.0,0.38550776,0.29650173,2.0
2025-07-19 14:43:31.426,1.680000000000001,1680,84,0.27834433,-0.029390706,0.10028734,0.00833238,-0.045413278,0.008064248,0.0,0.0,0.0,0.019457102,0.082686335,-0.3500704,0.12430754,-0.07042535,0.083816305,-0.2210814,0.2196345,0.070486315,0.29716745,-0.18388952,-0.23321332,0.18066888,0.013896326,0.11879626,0.09492528,-0.121671766,-0.1813572,-0.10157762,-0.007226826,-0.23867224,-0.011893846,0.022208966,-0.012983845,-0.011905658,-0.80571973,-0.022380035,1.6148981,-1.3513938,-2.0,-2.0,2.0,-1.7459564,2.0,0.38550776,0.29650173,2.0,-0.5020111,0.48464307,-0.3553874,-2.0,-1.06005,-0.30049106,2.0,-0.022849552,2.0,-0.7815786,-0.35590893,2.0
2025-07-19 14:43:31.449,1.700000000000001,1700,85,0.07139547,-0.064061165,-0.08774895,0.0009774568,0.016042884,-0.036357474,0.0,0.0,0.0,0.01837542,0.06539646,-0.29745206,0.08056922,-0.116482936,0.005235593,-0.19161837,0.22810557,0.041407607,0.29374355,-0.1761268,-0.21657495,0.19691463,-0.07524452,0.10123103,-0.16033615,-0.12905218,-0.21875283,0.024466515,-0.010181929,0.017078955,-0.033943947,0.0444388,-0.021768693,0.014278282,-0.5020111,0.48464307,-0.3553874,-2.0,-1.06005,-0.30049106,2.0,-0.022849552,2.0,-0.7815786,-0.35590893,2.0,-1.388236,1.4417332,-1.7402824,-1.3179392,-2.0,1.3752629,2.0,-2.0,2.0,0.17900367,2.0,2.0
2025-07-19 14:43:31.471,1.720000000000001,1720,86,-0.008037457,-0.052098893,0.12060433,-0.010507962,-0.05289865,-0.03189366,0.0,0.0,0.0,0.019056074,0.03790818,-0.23442309,0.021055898,-0.13206254,-0.116396785,-0.12350356,0.24785434,0.010210348,0.31314307,-0.16790663,-0.19684666,0.18808897,-0.16133842,0.13501945,-0.19369227,-0.03181019,-0.35979632,0.12951158,0.034314495,-0.11869551,-0.006026019,-0.007922021,-0.004986568,-0.00018273878,-1.388236,1.4417332,-1.7402824,-1.3179392,-2.0,1.3752629,2.0,-2.0,2.0,0.17900367,2.0,2.0,-1.3375083,1.6673024,-1.5810652,-0.8172699,-1.43087,2.0,-0.29358816,-1.1924481,2.0,-1.0831175,1.7422884,2.0
2025-07-19 14:43:31.488,1.740000000000001,1740,87,0.008456433,0.3565891,0.15775903,-0.051229294,-0.03776633,-0.04520821,0.0,0.0,0.0,0.018044349,-0.0014922024,-0.15859374,-0.043767102,-0.14009225,-0.21147005,-0.04609297,0.23134056,-0.01930935,0.31372666,-0.16915879,-0.16214852,0.20113334,-0.07935796,0.20162751,-0.086566396,-0.055043757,-0.2500917,0.24423066,-0.052624274,-0.065666646,-0.057259515,-0.028496677,0.06897973,-0.054127097,-1.3375083,1.6673024,-1.5810652,-0.8172699,-1.43087,2.0,-0.29358816,-1.1924481,2.0,-1.0831175,1.7422884,2.0,-1.097786,1.4204788,-1.7079467,0.21996239,-0.5923822,2.0,-1.366931,0.6972182,2.0,-1.6556834,2.0,0.15708938
2025-07-19 14:43:31.506,1.7600000000000011,1760,88,0.19500996,0.30652392,0.014155302,-0.0008946146,-0.08796422,-0.017961571,0.0,0.0,0.0,0.014153459,-0.04412482,-0.051567573,-0.083500005,-0.11136376,-0.22055838,0.011004032,0.19357847,0.01280217,0.3157414,-0.19933651,-0.08694578,0.17016605,-0.004546239,0.23942222,-0.019121133,0.04215185,0.07581854,0.070778966,-0.20258535,0.19187558,-0.02101824,-0.0893752,0.22784576,-0.10490831,-1.097786,1.4204788,-1.7079467,0.21996239,-0.5923822,2.0,-1.366931,0.6972182,2.0,-1.6556834,2.0,0.15708938,-1.2418226,-2.0,-1.7930514,0.5072438,0.35936385,1.0741502,-1.1350405,-2.0,2.0,-0.9315974,-0.55834824,-2.0
2025-07-19 14:43:31.526,1.7800000000000011,1780,89,-0.25471333,0.06581868,-0.047889538,0.03808228,-0.06476799,-0.009133522,0.0,0.0,0.0,0.011791107,-0.059976246,-0.023391472,-0.11622101,-0.100401625,-0.21068817,0.024064261,0.14209023,0.020269217,0.30322215,-0.19783658,-0.05786593,0.079075664,-0.051342983,-0.10642268,-0.05338351,-0.0010045635,0.08421458,0.044544682,-0.124508664,-0.0033099276,0.049638055,0.08525758,0.038425907,-0.2238142,-1.2418226,-2.0,-1.7930514,0.5072438,0.35936385,1.0741502,-1.1350405,-2.0,2.0,-0.9315974,-0.55834824,-2.0,0.5558201,-2.0,-1.7913785,0.8267878,2.0,-0.37086126,-0.67841434,-1.7670499,2.0,-1.032721,-0.1676651,-2.0
2025-07-19 14:43:31.546,1.8000000000000012,1800,90,-0.34481856,0.03621279,-0.018035443,0.015955904,-0.042162932,0.0325381,0.0,0.0,0.0,0.011679844,-0.04187805,-0.089139834,-0.14231087,-0.07023797,-0.17216417,-0.0046893437,0.11885234,-0.0008637154,0.32630756,-0.19410455,-0.064020574,0.028794082,0.082704775,-0.26228,-0.092318684,0.055198457,0.034815278,-0.098524384,-0.09333972,-0.06419025,0.03607406,0.072100624,0.061381094,-0.190988,0.5558201,-2.0,-1.7913785,0.8267878,2.0,-0.37086126,-0.67841434,-1.7670499,2.0,-1.032721,-0.1676651,-2.0,1.1812184,0.0742131,-0.20048508,0.43552673,2.0,-1.6451875,-0.8532749,-0.39923024,2.0,-2.0,0.25167274,-1.5164951
2025-07-19 14:43:31.566,1.8200000000000012,1820,91,-0.244125,0.13286352,-0.042869076,0.00716549,-0.07663069,-0.026666699,0.0,0.0,0.0,0.011706453,-0.010980038,-0.13191606,-0.1352715,-0.05554071,-0.10032819,-0.044731174,0.079699986,-0.029984292,0.32148725,-0.20974475,-0.033678636,-0.03276914,0.12693422,0.012834353,0.0348149,-0.0069595594,0.14579454,-0.1398412,-0.060257394,-0.0719884,-0.0007210103,-0.0331655,0.08132171,-0.17494799,1.1812184,0.0742131,-0.20048508,0.43552673,2.0,-1.6451875,-0.8532749,-0.39923024,2.0,-2.0,0.25167274,-1.5164951,1.3521322,-2.0,-1.3957822,0.8110385,-0.33107427,-0.6875485,0.31039602,0.9230542,2.0,-2.0,-1.8796624,-2.0
2025-07-19 14:43:31.587,1.8400000000000012,1840,92,-0.37610617,-0.30716437,-0.085302085,0.09333214,-0.0063943663,-0.049404077,0.0,0.0,0.0,0.011594298,0.035211142,-0.16695783,-0.13948551,-0.03181688,-0.07267658,-0.069612056,0.077030264,0.008221331,0.32140833,-0.24460346,-0.06133817,-0.06672667,0.111477844,-0.18851988,0.03934838,0.11806008,0.01588336,-0.08725548,0.020556778,0.22286634,0.01842036,-0.08564124,-0.26961637,-0.17632608,1.3521322,-2.0,-1.3957822,0.8110385,-0.33107427,-0.6875485,0.31039602,0.9230542,2.0,-2.0,-1.8796624,-2.0,1.279569,-2.0,2.0,0.82997316,2.0,-2.0,-0.23663074,-1.0430286,1.8783143,-2.0,0.7238504,2.0
2025-07-19 14:43:31.607,1.8600000000000012,1860,93,-0.24318653,-0.20756698,0.094058424,0.060786273,0.06505874,0.017571004,0.0,0.0,0.0,0.01279454,0.06016557,-0.28126237,-0.0681527,6.001369e-05,-0.02501886,-0.102998435,0.05251233,0.014873672,0.32039708,-0.25184026,-0.08954938,-0.029985992,0.033606403,-0.22314233,0.09959118,0.036412213,0.20895806,-0.17060767,-0.07679485,-0.09370741,0.040055715,0.016009696,0.02056026,0.20354569,1.279569,-2.0,2.0,0.82997316,2.0,-2.0,-0.23663074,-1.0430286,1.8783143,-2.0,0.7238504,2.0,1.3760704,-1.9737756,1.972402,0.6549035,-0.13276461,-2.0,0.76825297,2.0,2.0,-0.35395852,0.17025954,2.0
2025-07-19 14:43:31.627,1.8800000000000012,1880,94,-0.15479024,-0.22719607,0.03176242,-0.0056412993,0.100513265,-0.031542167,0.0,0.0,0.0,0.013006642,0.0936525,-0.359037,-0.0064590233,0.024395829,-0.017509595,-0.1471656,0.060291756,0.023891978,0.32066417,-0.22191562,-0.06523259,0.042733178,0.0950244,-0.20245998,0.06663657,-0.002400472,0.038431,-0.029648148,-0.039954316,0.09098739,-0.046937108,0.090558395,0.09467374,0.15157601,1.3760704,-1.9737756,1.972402,0.6549035,-0.13276461,-2.0,0.76825297,2.0,2.0,-0.35395852,0.17025954,2.0,1.024052,0.96885186,2.0,-0.9531585,-0.15421972,-2.0,2.0,2.0,1.8935658,0.21243848,-1.0493379,2.0
2025-07-19 14:43:31.650,1.9000000000000012,1900,95,0.14526501,-0.2423602,-0.16065887,0.002287142,0.021441286,-0.0053745313,0.0,0.0,0.0,0.011282012,0.11369752,-0.38010392,0.03411913,-0.010747527,-0.022661341,-0.16735025,0.102775775,0.11657242,0.31639886,-0.2013152,-0.072063066,0.08938098,-0.029235508,0.07120277,0.030594654,-0.13285013,-0.07833513,-0.09152706,0.11143947,0.29541415,0.012454259,0.13962716,-0.10117115,0.12675439,1.024052,0.96885186,2.0,-0.9531585,-0.15421972,-2.0,2.0,2.0,1.8935658,0.21243848,-1.0493379,2.0,-0.8498649,0.012899239,2.0,-1.9947702,1.5937244,-1.6497957,2.0,-1.729177,2.0,1.0030198,-1.5037065,2.0
2025-07-19 14:43:31.667,1.9200000000000013,1920,96,0.5537392,0.20193584,0.0005678394,0.03423478,0.033025607,-0.043974742,0.0,0.0,0.0,0.011331494,0.085358776,-0.37969387,0.07462525,-0.056389865,0.026788656,-0.18081887,0.15488893,0.16718078,0.30703008,-0.14823772,-0.16793452,0.12366165,-0.067550965,0.10148739,0.01756632,-0.11974641,0.2865724,0.033286665,0.14413449,-0.0010522997,-0.0636868,0.08774985,-0.14314571,0.06672961,-0.8498649,0.012899239,2.0,-1.9947702,1.5937244,-1.6497957,2.0,-1.729177,2.0,1.0030198,-1.5037065,2.0,-1.0683833,0.8579833,1.6963387,-1.518534,-2.0,-2.0,2.0,-1.8591177,2.0,0.1403224,-0.3638342,2.0
2025-07-19 14:43:31.687,1.9400000000000013,1940,97,0.43798316,0.044048183,-0.022186449,-0.046019677,-0.04378572,0.04402566,0.0,0.0,0.0,0.012130641,0.07019334,-0.33122477,0.08727051,-0.10220967,0.045872957,-0.214082,0.18080711,0.11778969,0.31281844,-0.14234018,-0.17355508,0.15757297,0.010881401,0.07861084,0.013820171,-0.13447247,-0.094189696,-0.10902533,0.11881846,-0.18469463,-0.019773303,0.0015639515,0.097987875,0.058099296,-1.0683833,0.8579833,1.6963387,-1.518534,-2.0,-2.0,2.0,-1.8591177,2.0,0.1403224,-0.3638342,2.0,-1.1458919,0.39724824,-1.5822241,-1.6991931,-1.8568141,0.44783905,2.0,-0.4313264,2.0,0.36080307,-1.0683122,2.0
2025-07-19 14:43:31.707,1.9600000000000013,1960,98,-0.12470517,-0.09276217,0.0032715062,-0.038976237,0.010361134,-0.026645675,0.0,0.0,0.0,0.012141091,0.03830094,-0.27301174,0.029184714,-0.120551445,-0.04541159,-0.17038897,0.21766962,0.060291525,0.31800047,-0.14483532,-0.18042967,0.18231829,-0.05837382,0.1802751,-0.12064558,-0.029612977,-0.25783494,0.10302141,0.12659124,-0.16601308,0.009317579,0.012880232,-0.023806429,0.08244342,-1.1458919,0.39724824,-1.5822241,-1.6991931,-1.8568141,0.44783905,2.0,-0.4313264,2.0,0.36080307,-1.0683122,2.0,-1.4227678,0.4782445,-2.0,-0.72114843,-2.0,2.0,1.5544087,-1.3711286,2.0,-0.53571993,2.0,2.0
2025-07-19 14:43:31.727,1.9800000000000013,1980,99,-0.0045611467,0.1365967,0.17543255,-0.057564568,-0.008085675,-0.034752917,0.0,0.0,0.0,0.01284878,-0.008766889,-0.2083727,-0.028987309,-0.12185348,-0.18283027,-0.076704025,0.21650665,0.020408941,0.32366964,-0.14351086,-0.14749531,0.18355748,-0.05181855,0.19430014,-0.13613789,0.018527778,-0.2570865,0.15914918,0.062182114,-0.1269328,0.060242675,-0.057907507,0.15870307,0.08801672,-1.4227678,0.4782445,-2.0,-0.72114843,-2.0,2.0,1.5544087,-1.3711286,2.0,-0.53571993,2.0,2.0,-0.6932466,0.90688217,-1.2889957,0.14178169,-1.372421,2.0,-1.6050191,-0.48063594,2.0,-1.6004115,0.84933764,1.6521897
2025-07-19 14:43:31.777,2.0000000000000013,2000,100,0.07877884,0.4550482,0.13138436,0.006154486,0.01275392,0.030655518,0.0,0.0,0.0,0.011489912,-0.021107681,-0.1311515,-0.06950531,-0.10038137,-0.27145523,-0.008915439,0.19020905,-0.0017386532,0.31856832,-0.15874013,-0.090150155,0.1863063,-0.08309657,0.23847947,-0.0706107,0.086150765,-0.20384747,0.08899868,-0.16228777,-0.091131926,-0.01811855,-0.0043418654,0.090212405,0.07005253,-0.6932466,0.90688217,-1.2889957,0.14178169,-1.372421,2.0,-1.6050191,-0.48063594,2.0,-1.6004115,0.84933764,1.6521897,-0.9984856,1.7976396,-2.0,0.52492946,1.3152225,2.0,-2.0,1.7045722,2.0,-0.9938434,1.0729713,-1.1151496
2025-07-19 14:43:31.789,2.0200000000000014,2020,101,0.2683786,-0.024592679,-0.14553308,0.027270675,-0.034836825,-0.04143741,0.0,0.0,0.0,0.009050709,-0.05582506,-0.034574796,-0.117526665,-0.08380396,-0.27059847,0.027929444,0.15296605,0.031692665,0.32310224,-0.16687751,-0.009121927,0.13852285,-0.06802865,0.38092053,-0.115024805,0.03711653,0.098209746,0.13325027,-0.081711225,0.14933522,0.03181522,-0.029422883,0.15029955,-0.13007008,-0.9984856,1.7976396,-2.0,0.52492946,1.3152225,2.0,-2.0,1.7045722,2.0,-0.9938434,1.0729713,-1.1151496,-0.68066245,-2.0,-2.0,1.4158975,2.0,2.0,-0.6915803,-2.0,2.0,-1.3159168,-1.2627623,-2.0
2025-07-19 14:43:31.809,2.0400000000000014,2040,102,-0.10913624,-0.09339921,-0.17337379,-0.02364315,-0.04947873,0.026963994,0.0,0.0,0.0,0.008868333,-0.060186327,0.014390978,-0.15261208,-0.07196552,-0.24742416,0.07751622,0.113961495,0.04803524,0.31412864,-0.17872857,0.043957796,0.06893288,0.0015001809,0.010095434,-0.038800813,0.0516944,-0.0279257,0.13295238,-0.13082908,0.0015097822,0.0776636,-0.04779333,-0.022167366,-0.16884565,-0.68066245,-2.0,-2.0,1.4158975,2.0,2.0,-0.6915803,-2.0,2.0,-1.3159168,-1.2627623,-2.0,0.26904127,-2.0,-2.0,0.25564745,2.0,0.14417239,-0.6805285,-2.0,2.0,-1.6664987,0.07976646,-2.0
2025-07-19 14:43:31.833,2.0600000000000014,2060,103,-0.16973211,0.08312437,-0.04561923,0.047797374,-0.016852792,0.0015324925,0.0,0.0,0.0,0.011819081,-0.038570914,-0.061355714,-0.18537147,-0.04644246,-0.2226848,0.049275946,0.100091144,0.046647385,0.3291883,-0.20567036,0.046143,-0.0075164507,0.03234126,-0.24018714,-0.07969331,0.011133831,0.090874344,-0.03109972,-0.10871571,-0.03199533,0.019212829,-0.10973714,-0.067246005,-0.19005413,0.26904127,-2.0,-2.0,0.25564745,2.0,0.14417239,-0.6805285,-2.0,2.0,-1.6664987,0.07976646,-2.0,1.1498071,-1.1574485,-0.10814151,0.5089755,2.0,-1.9307293,-0.24604428,-1.7641213,2.0,-2.0,0.30230522,-1.8663752
2025-07-19 14:43:31.851,2.0800000000000014,2080,104,-0.17638338,0.042995714,0.04691009,-0.004666376,-0.07660844,0.030850956,0.0,0.0,0.0,0.014082727,-0.0054230047,-0.14277785,-0.15219347,-0.033313792,-0.16594325,-0.013171347,0.08251867,0.026468823,0.33345455,-0.22110158,0.060006298,-0.045643844,0.11361353,-0.14713058,-0.01068565,0.06796027,0.25052503,-0.2185209,0.03541885,-0.09282079,-0.048934355,0.009586794,-0.011946122,-0.12852146,1.1498071,-1.1574485,-0.10814151,0.5089755,2.0,-1.9307293,-0.24604428,-1.7641213,2.0,-2.0,0.30230522,-1.8663752,1.9754142,-2.0,0.41766632,1.1073436,1.1404915,-2.0,-0.4026539,1.6423557,2.0,-2.0,-1.8020118,0.27659112
2025-07-19 14:43:31.869,2.1000000000000014,2100,105,-0.09405224,-0.14862657,-0.07178516,-0.026576167,0.020005377,-0.04767632,0.0,0.0,0.0,0.014065804,0.041361857,-0.23283741,-0.11276003,0.0018799294,-0.0684623,-0.07119242,0.05273308,0.058962848,0.3224282,-0.2346613,0.015630418,-0.034223065,0.1033953,-0.29108965,0.019545779,0.10160099,0.2574313,-0.1085107,-0.0023493476,0.16137642,-0.017214047,-0.033366676,-0.24166739,-0.009953579,1.9754142,-2.0,0.41766632,1.1073436,1.1404915,-2.0,-0.4026539,1.6423557,2.0,-2.0,-1.8020118,0.27659112,1.1567012,-2.0,2.0,0.8907499,0.6825775,-2.0,0.526648,0.0143447,0.4691092,-1.5835978,-0.39817297,2.0
2025-07-19 14:43:31.890,2.1200000000000014,2120,106,-0.20870596,-0.10611935,0.06683519,0.023991585,0.00016043532,-0.0142286485,0.0,0.0,0.0,0.014910806,0.07670376,-0.35161403,-0.049540374,0.008364509,-0.0050852685,-0.11661015,0.071025856,0.08184421,0.27506888,-0.24227566,-0.037638202,0.01838217,0.053294614,-0.16796461,0.1895218,0.03996445,0.13284646,-0.10763225,0.03955659,-0.07494088,-0.08695061,-0.050971445,-0.076376736,0.125933,1.1567012,-2.0,2.0,0.8907499,0.6825775,-2.0,0.526648,0.0143447,0.4691092,-1.5835978,-0.39817297,2.0,0.92168635,-0.122654006,2.0,0.34347346,0.36465266,-2.0,1.2186277,2.0,1.2226171,0.0300637,0.31600952,2.0
2025-07-19 14:43:31.909,2.1400000000000015,2140,107,-0.018758662,-0.33073437,-0.02782869,0.040680334,0.06677297,-0.00728338,0.0,0.0,0.0,0.0150063755,0.10058905,-0.36797634,0.016754007,0.027544461,0.02290189,-0.14464435,0.08867844,0.12767874,0.26856673,-0.20966904,-0.008401189,0.07198795,0.082699515,0.056350406,0.091121696,0.08790284,0.0030028394,-0.10753712,-0.005663034,0.21676123,-0.04001404,0.0776615,0.09127753,0.10603597,0.92168635,-0.122654006,2.0,0.34347346,0.36465266,-2.0,1.2186277,2.0,1.2226171,0.0300637,0.31600952,2.0,-0.015390683,0.5324393,2.0,-1.1838125,0.6544034,-2.0,2.0,-0.15523815,1.4607289,0.36452633,-2.0,2.0
2025-07-19 14:43:31.930,2.1600000000000015,2160,108,0.21609107,0.058775432,-0.020218935,-0.018520573,0.02593528,0.04323067,0.0,0.0,0.0,0.014817815,0.082289435,-0.34748593,0.059776053,-0.0008633105,0.056253448,-0.18812595,0.12232098,0.14613675,0.2642096,-0.17535411,-0.04123582,0.122413136,-0.0048135007,0.048612013,0.14206852,-0.075869985,0.17086901,-0.10014077,0.07136616,0.000989315,-0.056349497,0.12262893,-0.10858696,0.121752426,-0.015390683,0.5324393,2.0,-1.1838125,0.6544034,-2.0,2.0,-0.15523815,1.4607289,0.36452633,-2.0,2.0,-1.0532671,0.72748536,1.9753532,-1.2196872,-1.6120758,-1.9057473,2.0,0.40005076,2.0,1.1114511,-2.0,2.0
2025-07-19 14:43:31.954,2.1800000000000015,2180,109,0.07490736,0.07850189,-0.04964249,-0.049671993,0.026424665,0.017998198,0.0,0.0,0.0,0.015060915,0.078918226,-0.31660995,0.081706576,-0.031131836,0.03035858,-0.19953981,0.15124695,0.15634122,0.27565688,-0.14180031,-0.054864813,0.14964856,-0.052337952,0.011890498,0.1227905,-0.108796455,-0.16351265,-0.082181565,0.105239965,-0.031829115,0.07080965,0.06446602,-0.08283356,0.025658622,-1.0532671,0.72748536,1.9753532,-1.2196872,-1.6120758,-1.9057473,2.0,0.40005076,2.0,1.1114511,-2.0,2.0,-1.4396102,1.4170148,0.7646469,-2.0,-0.7520375,-0.73744977,2.0,0.38490605,2.0,0.73655003,-1.4645332,2.0
2025-07-19 14:43:31.970,2.2000000000000015,2200,110,0.0634189,0.022405894,-0.07228355,0.039218333,0.02243094,-0.018469175,0.0,0.0,0.0,0.015519398,0.062263843,-0.28284627,0.07178299,-0.09357535,-0.032987215,-0.19154273,0.18458205,0.1599755,0.27854294,-0.14366908,-0.0679514,0.1841898,0.031784683,0.014995493,0.03372536,-0.17960131,-0.14351055,-0.0014555629,0.118596345,0.037289903,0.08610913,0.054687165,-0.042565666,0.058936268,-1.4396102,1.4170148,0.7646469,-2.0,-0.7520375,-0.73744977,2.0,0.38490605,2.0,0.73655003,-1.4645332,2.0,-1.6675383,2.0,-0.3829956,-1.5630811,-1.6280286,0.23810066,2.0,-1.8420434,2.0,1.0422366,-0.32843912,2.0
2025-07-19 14:43:31.990,2.2200000000000015,2220,111,-0.065620065,0.13500154,-0.01587763,-0.0046739457,-0.0038868678,-0.0098136775,0.0,0.0,0.0,0.016153824,0.061899867,-0.25983313,0.03226176,-0.12084858,-0.11260712,-0.1508591,0.21997355,0.10925432,0.27664304,-0.13509832,-0.071040325,0.19795497,0.025501719,0.015634235,-0.086067334,-0.13796185,-0.21165171,0.13102087,-0.0064438386,-0.26150975,-0.017142955,-0.0051399632,0.01747815,0.04242895,-1.6675383,2.0,-0.3829956,-1.5630811,-1.6280286,0.23810066,2.0,-1.8420434,2.0,1.0422366,-0.32843912,2.0,-2.0,2.0,-2.0,-1.1585869,-2.0,2.0,2.0,-0.574049,2.0,-0.079792544,0.7899972,2.0
2025-07-19 14:43:32.010,2.2400000000000015,2240,112,0.20113893,0.09742263,0.13433768,0.008236125,-0.04509192,-0.00705355,0.0,0.0,0.0,0.016607506,0.044730492,-0.20799355,-0.022648508,-0.13682862,-0.24158747,-0.07819668,0.23022157,0.031343672,0.29849675,-0.1374692,-0.019090582,0.20942074,-0.057895187,0.18090577,-0.14024442,0.04221223,-0.27306366,0.21242543,0.109875016,-0.08819476,-0.036869343,0.003208128,0.15739787,0.0804377,-2.0,2.0,-2.0,-1.1585869,-2.0,2.0,2.0,-0.574049,2.0,-0.079792544,0.7899972,2.0,-0.4194553,1.478686,-2.0,-0.13948748,-1.5114248,2.0,-0.8259435,-0.8579397,2.0,-0.10657768,0.64142454,1.8011584
2025-07-19 14:43:32.033,2.2600000000000016,2260,113,-0.02606281,0.1110326,0.05330122,0.01953256,-0.036554214,0.0485018,0.0,0.0,0.0,0.0153546315,0.016465371,-0.11297377,-0.08375186,-0.12063623,-0.31898308,-0.010969142,0.21521568,-0.010753128,0.29197755,-0.12835509,0.023029549,0.21187297,-0.09741412,0.18491986,-0.14878675,0.019338857,-0.12451387,0.17856568,-0.14879595,-0.122939944,-0.031939976,0.041180782,0.18563342,0.03971531,-0.4194553,1.478686,-2.0,-0.13948748,-1.5114248,2.0,-0.8259435,-0.8579397,2.0,-0.10657768,0.64142454,1.8011584,-1.1470107,1.5976137,-2.0,0.7025167,1.084358,2.0,-2.0,1.4982079,2.0,-0.15780644,1.5123731,-0.90501475
2025-07-19 14:43:32.054,2.2800000000000016,2280,114,0.32718703,-0.07846957,-0.1448464,0.03932757,-0.06235643,0.04233756,0.0,0.0,0.0,0.01341792,-0.007110985,-0.002567184,-0.12977198,-0.12045918,-0.30999872,0.04770858,0.17748706,0.012023414,0.30187815,-0.11175903,0.11121231,0.15885769,-0.014677415,0.37310335,-0.119250596,0.10074945,0.10738956,0.13873237,-0.0659771,0.16039224,-0.006785978,0.0062422478,0.23434171,-0.17895842,-1.1470107,1.5976137,-2.0,0.7025167,1.084358,2.0,-2.0,1.4982079,2.0,-0.15780644,1.5123731,-0.90501475,-1.168544,-2.0,-2.0,1.438461,2.0,2.0,-0.6544423,-2.0,2.0,-0.47757035,-1.6129616,-2.0
2025-07-19 14:43:32.070,2.3000000000000016,2300,115,-0.067405984,-0.05258967,-0.12077924,0.0011210671,-0.021994568,-0.003094544,0.0,0.0,0.0,0.013609426,-0.03785973,0.049383964,-0.14845647,-0.09918311,-0.28776425,0.07444715,0.14810771,0.04288016,0.3074305,-0.10559631,0.1724911,0.07595389,-0.13420075,-0.057165336,-0.1065716,0.026056884,0.080019675,0.11720126,0.00468117,-0.012803875,-0.0079513,0.085554466,0.11528559,-0.13005438,-1.168544,-2.0,-2.0,1.438461,2.0,2.0,-0.6544423,-2.0,2.0,-0.47757035,-1.6129616,-2.0,0.7315421,-2.0,-2.0,1.2348825,2.0,0.5062285,-0.79518557,-2.0,2.0,-1.1835369,-2.0,-2.0
2025-07-19 14:43:32.090,2.3200000000000016,2320,116,-0.25072983,-0.011387386,-0.17850786,0.03308339,-0.053912263,0.03478302,0.0,0.0,0.0,0.01585126,-0.018820133,-0.016225213,-0.18304136,-0.070961095,-0.25900882,0.061620623,0.11527608,0.015402082,0.3063364,-0.12423267,0.13531922,0.01066306,0.12572208,-0.3151872,-0.04353297,0.100249104,0.07550257,-0.032844998,-0.07097088,0.011637995,0.03877509,-0.019069385,-0.2595019,-0.16797088,0.7315421,-2.0,-2.0,1.2348825,2.0,0.5062285,-0.79518557,-2.0,2.0,-1.1835369,-2.0,-2.0,1.1091365,-2.0,0.17230959,0.27458808,2.0,-2.0,-0.053538315,-2.0,2.0,-2.0,0.50359327,-0.9391365
2025-07-19 14:43:32.110,2.3400000000000016,2340,117,-0.15852787,0.13922259,-0.050309233,0.05787294,-0.030216921,0.040089253,0.0,0.0,0.0,0.019509582,0.0075112805,-0.15794688,-0.14037074,-0.044577356,-0.1907595,0.0007635696,0.107993335,-0.013730416,0.30236745,-0.16406767,0.10494877,-0.01000862,0.011367331,-0.3181835,0.13963579,0.08722726,0.20011692,-0.15039748,-0.0761686,-0.073431015,-0.02317717,-0.10950227,0.11197265,-0.03533153,1.1091365,-2.0,0.17230959,0.27458808,2.0,-2.0,-0.053538315,-2.0,2.0,-2.0,0.50359327,-0.9391365,1.4676366,-1.8541656,0.9178941,0.8343503,1.5251887,-0.711927,0.7947748,1.1289303,2.0,-2.0,-2.0,1.1027517
2025-07-19 14:43:32.133,2.3600000000000017,2360,118,-0.046497785,-0.35405052,-0.11253938,0.0048921434,0.019433215,-0.01045749,0.0,0.0,0.0,0.021095976,0.048504483,-0.26533905,-0.10073076,-0.028884463,-0.13477403,-0.03398077,0.104712605,0.033506837,0.3021143,-0.18699728,0.06807705,0.015432197,0.13150778,-0.2305182,0.13621327,0.034746442,0.21724652,-0.05136549,0.020206777,0.16629079,0.031905346,-0.14953816,-0.21397068,0.015042919,1.4676366,-1.8541656,0.9178941,0.8343503,1.5251887,-0.711927,0.7947748,1.1289303,2.0,-2.0,-2.0,1.1027517,1.3223399,-2.0,2.0,0.021079333,1.6345617,-2.0,1.0530314,-1.7162662,1.61154,-1.1554861,-0.4527942,2.0
2025-07-19 14:43:32.151,2.3800000000000017,2380,119,-0.11157695,-0.070182085,0.104974,-0.0341289,-0.02986561,-0.011888171,0.0,0.0,0.0,0.021717759,0.09226451,-0.37683088,-0.027499545,-0.02573071,-0.037361592,-0.08618504,0.13149,0.06538585,0.30397758,-0.20228186,0.031600453,0.07276124,0.03821732,-0.28619933,0.2307624,-0.08007296,0.24651329,-0.16342217,0.092682816,0.026776768,0.05897704,-0.026123527,-0.057549387,0.058614694,1.3223399,-2.0,2.0,0.021079333,1.6345617,-2.0,1.0530314,-1.7162662,1.61154,-1.1554861,-0.4527942,2.0,0.45198417,0.2873914,2.0,0.3548297,0.8776312,-2.0,2.0,2.0,2.0,-0.2131736,-1.019145,2.0
2025-07-19 14:43:32.170,2.4000000000000017,2400,120,0.039837755,-0.2594451,-0.05144984,-0.05018831,0.073369965,-0.04127329,0.0,0.0,0.0,0.020798974,0.091308415,-0.3912577,0.037272036,-0.0048102895,0.039397422,-0.12383953,0.15474771,0.118554465,0.29935923,-0.1778031,-0.05396607,0.1115575,-0.05501376,0.14808495,0.14551409,0.045280583,0.14471498,-0.11368478,0.12083559,0.29004595,0.028419936,0.053009428,-0.1887949,0.035823967,0.45198417,0.2873914,2.0,0.3548297,0.8776312,-2.0,2.0,2.0,2.0,-0.2131736,-1.019145,2.0,0.22876842,-1.3472252,2.0,-1.5255723,0.2762163,-2.0,2.0,-1.7778636,2.0,-0.15969023,-1.4763525,2.0
2025-07-19 14:43:32.190,2.4200000000000017,2420,121,-0.2087156,0.081442215,0.085488565,-0.05411352,0.08020877,0.008652468,0.0,0.0,0.0,0.019812105,0.07751888,-0.38254672,0.062575005,-0.05030098,0.057469565,-0.15514067,0.19992572,0.12751952,0.3091014,-0.15210794,-0.13155851,0.15573388,0.046917975,-0.03416892,0.13598865,-0.11071001,0.062698,-0.08666661,0.001017791,-0.10231326,0.023830678,-0.02572211,-0.1468599,0.0349338,0.22876842,-1.3472252,2.0,-1.5255723,0.2762163,-2.0,2.0,-1.7778636,2.0,-0.15969023,-1.4763525,2.0,-0.8020275,1.1187928,2.0,-1.1309112,-0.89597744,-1.6217669,2.0,0.4167552,2.0,-0.51873374,-0.15245593,2.0
2025-07-19 14:43:32.210,2.4400000000000017,2440,122,0.25363067,0.100925416,0.11264006,-0.039641973,-0.0013280876,0.045378603,0.0,0.0,0.0,0.018672287,0.065028824,-0.3820343,0.09786164,-0.063801505,0.018742302,-0.16971436,0.21616891,0.12663956,0.30282164,-0.15395717,-0.15311004,0.17161982,-0.0013869514,0.045465037,0.012607971,-0.058022734,-0.24725905,0.010547624,0.047302168,-0.013760357,0.034084685,0.01839479,0.0736821,0.005051873,-0.8020275,1.1187928,2.0,-1.1309112,-0.89597744,-1.6217669,2.0,0.4167552,2.0,-0.51873374,-0.15245593,2.0,-0.38315588,2.0,0.898468,-1.569698,1.7206153,-0.8842675,2.0,-2.0,2.0,-0.14835934,-2.0,2.0
2025-07-19 14:43:32.230,2.4600000000000017,2460,123,0.05484517,0.053916056,0.05732103,-0.03705223,-0.033452008,-0.012040121,0.0,0.0,0.0,0.016425515,0.06364769,-0.35819435,0.09428643,-0.09568585,0.015637204,-0.16796297,0.24135606,0.090958476,0.31365958,-0.14781839,-0.13044882,0.19012894,0.05111142,0.11974004,-0.0059933276,-0.018263143,0.104516946,-0.015287116,-0.006233103,-0.2863391,-0.010971331,0.07194079,-0.009002138,0.11009321,-0.38315588,2.0,0.898468,-1.569698,1.7206153,-0.8842675,2.0,-2.0,2.0,-0.14835934,-2.0,2.0,-1.2386364,1.5935735,-0.7750461,-1.4386188,-2.0,-1.1391197,2.0,0.21239048,2.0,-0.438263,-0.1953032,2.0
2025-07-19 14:43:32.251,2.4800000000000018,2480,124,0.05855394,0.046547327,-0.08366081,-0.016120672,0.013831592,-0.03056265,0.0,0.0,0.0,0.014077949,0.041991908,-0.30597386,0.054724082,-0.1158555,-0.020646647,-0.16588263,0.2521985,0.07073114,0.31608376,-0.1597436,-0.10925621,0.22050579,-0.08137032,0.16188426,-0.16060191,-0.034784153,-0.16779725,0.02758724,0.09452099,0.003098002,0.06985345,-0.040357403,0.049531437,-0.025444217,-1.2386364,1.5935735,-0.7750461,-1.4386188,-2.0,-1.1391197,2.0,0.21239048,2.0,-0.438263,-0.1953032,2.0,-1.4945678,1.6961846,-2.0,-0.86666155,-2.0,2.0,1.9575789,-2.0,2.0,1.1033007,0.31210515,1.15718
2025-07-19 14:43:32.271,2.5000000000000018,2500,125,-0.048979882,-0.0016883559,0.1912005,0.014849934,-0.02094045,0.014076404,0.0,0.0,0.0,0.0139671685,0.008664364,-0.24931985,-0.01304328,-0.13738118,-0.13666165,-0.09342381,0.26343185,0.020894729,0.3143076,-0.14245643,-0.065072864,0.2065413,-0.084791616,0.16072246,-0.1248897,0.057692185,-0.39254054,0.24221714,0.06561171,-0.22275794,0.051389016,0.012794992,0.11235417,-0.039206095,-1.4945678,1.6961846,-2.0,-0.86666155,-2.0,2.0,1.9575789,-2.0,2.0,1.1033007,0.31210515,1.15718,-0.53967416,2.0,-2.0,-0.39865106,-0.8710555,2.0,-0.7241158,0.765311,2.0,-0.60509807,0.8637187,2.0
2025-07-19 14:43:32.291,2.520000000000002,2520,126,0.27647698,0.1173198,-0.01952269,-0.02398401,0.021887809,-0.011353354,0.0,0.0,0.0,0.012527353,-0.016740466,-0.16044979,-0.08720223,-0.12054094,-0.18498945,-0.015381768,0.26400378,0.03555347,0.30935994,-0.15049359,-0.007723505,0.21074915,-0.007953962,0.19499502,-0.11227652,0.070486285,-0.0572812,0.21116951,-0.122351475,0.10329695,0.025976278,0.03231399,0.13961282,0.05543078,-0.53967416,2.0,-2.0,-0.39865106,-0.8710555,2.0,-0.7241158,0.765311,2.0,-0.60509807,0.8637187,2.0,-1.9261345,0.5851994,-1.8468829,-0.3674424,-0.82970744,2.0,-1.2977588,-1.0346138,2.0,-0.07774477,2.0,-2.0
2025-07-19 14:43:32.311,2.540000000000002,2540,127,0.030730223,0.28867596,0.06337583,0.005700583,-0.049558137,0.043041524,0.0,0.0,0.0,0.011068219,-0.048815817,-0.07680788,-0.124752544,-0.13494794,-0.20821528,0.032352857,0.22824028,0.047978323,0.31919786,-0.12721962,0.10457994,0.12948102,-0.05882924,0.19252346,-0.11126375,-0.056346696,-0.08648947,0.16388804,-0.10651594,0.032793526,-0.038308457,0.10021445,0.3269355,-0.1473311,-1.9261345,0.5851994,-1.8468829,-0.3674424,-0.82970744,2.0,-1.2977588,-1.0346138,2.0,-0.07774477,2.0,-2.0,-0.5040984,-0.7839666,-2.0,1.5312983,2.0,2.0,-0.7383703,-2.0,2.0,1.0687604,-1.9136267,-2.0
2025-07-19 14:43:32.331,2.560000000000002,2560,128,-0.3152611,0.03853164,0.09851783,-0.013055605,0.018646372,0.037350025,0.0,0.0,0.0,0.010081299,-0.053400025,-0.076968305,-0.1533461,-0.11032981,-0.21258391,0.060856476,0.19039948,0.030597549,0.31210288,-0.08387626,0.15729488,0.057052474,-0.048372336,-0.08626016,-0.10850723,0.0311177,-0.03575183,0.10978285,-0.07279381,-0.1254863,0.06437941,0.11565453,0.022314275,-0.102170795,-0.5040984,-0.7839666,-2.0,1.5312983,2.0,2.0,-0.7383703,-2.0,2.0,1.0687604,-1.9136267,-2.0,1.5347025,0.10631208,-2.0,1.2634101,2.0,0.26784548,-0.9434229,-0.9961815,2.0,-1.7959968,-1.3670162,-2.0
2025-07-19 14:43:32.353,2.580000000000002,2580,129,-0.29734558,0.055889774,-0.15660727,0.004025198,0.029904323,0.047436703,0.0,0.0,0.0,0.009349688,-0.016349781,-0.06714433,-0.18278508,-0.08994357,-0.2040118,0.054111417,0.13386004,0.0037056557,0.31742305,-0.101541385,0.08554264,-0.009967467,0.16180706,0.005539399,-0.092448175,0.027009355,0.15312612,-0.050883405,-0.10005009,-0.06342773,-0.027495392,-0.041635063,-0.25017616,-0.06898267,1.5347025,0.10631208,-2.0,1.2634101,2.0,0.26784548,-0.9434229,-0.9961815,2.0,-1.7959968,-1.3670162,-2.0,0.52047443,-2.0,-1.4833949,0.37333483,2.0,-0.66859704,-0.27960652,-2.0,2.0,-2.0,-0.40002334,-2.0
2025-07-19 14:43:32.371,2.600000000000002,2600,130,-0.26434454,0.09918061,0.09613542,0.03874876,-0.0010199687,0.04891485,0.0,0.0,0.0,0.010647113,0.012076749,-0.09168989,-0.18399818,-0.06816507,-0.14848499,0.020907052,0.11826691,-0.031976957,0.31999958,-0.15395534,0.038084015,-0.06813595,0.055110574,-0.17450035,0.021351995,0.10620847,0.1403785,-0.07163461,-0.10889577,-0.14845674,0.033269744,-0.14935477,-0.049579114,-0.1144509,0.52047443,-2.0,-1.4833949,0.37333483,2.0,-0.66859704,-0.27960652,-2.0,2.0,-2.0,-0.40002334,-2.0,2.0,-2.0,-0.17129688,0.82156336,2.0,-2.0,-1.348144,1.06554,2.0,-2.0,-0.4510033,-0.20659667
2025-07-19 14:43:32.391,2.620000000000002,2620,131,-0.10927218,-0.21940818,-0.051764682,0.08564674,-0.01541585,0.02351235,0.0,0.0,0.0,0.010621611,0.054453757,-0.21046643,-0.1529078,-0.051883206,-0.058106575,-0.034406815,0.064055935,-0.011650288,0.313074,-0.16923371,-0.01276287,-0.0557871,0.11158993,-0.29260328,0.09271131,0.102420315,0.2311919,-0.13071847,-0.10784355,0.23881945,-0.033246674,-0.11063436,-0.113199174,0.058203302,2.0,-2.0,-0.17129688,0.82156336,2.0,-2.0,-1.348144,1.06554,2.0,-2.0,-0.4510033,-0.20659667,0.89965993,-2.0,2.0,1.0095056,0.3262805,-2.0,0.4289639,-0.09473514,0.2488474,-2.0,-0.8910867,2.0
2025-07-19 14:43:32.411,2.640000000000002,2640,132,-0.28293586,-0.20930809,-0.031558443,0.049590226,0.056703124,-0.005393481,0.0,0.0,0.0,0.010681408,0.08218095,-0.33085573,-0.08139068,-0.008874506,-0.009978306,-0.09301826,0.06014596,0.0010636052,0.27385962,-0.20997186,-0.077009045,0.0103229415,0.029594772,-0.17510752,0.22963601,0.044104878,0.09567753,-0.04891566,0.05886828,0.029285721,-0.08396774,-0.054383885,-0.14114727,0.18554443,0.89965993,-2.0,2.0,1.0095056,0.3262805,-2.0,0.4289639,-0.09473514,0.2488474,-2.0,-0.8910867,2.0,1.0357348,-1.4697119,2.0,0.1799654,0.51268077,-2.0,1.4515021,2.0,0.88314146,0.17814352,0.98869383,2.0
2025-07-19 14:43:32.435,2.660000000000002,2660,133,0.04619942,-0.26240745,0.05157305,0.07416229,0.046046216,-0.035149947,0.0,0.0,0.0,0.010703354,0.098965585,-0.37373465,-0.014933802,-0.007902151,0.030644448,-0.1309003,0.09369691,0.049906347,0.24317929,-0.17060724,-0.06487356,0.05421212,0.041662313,-0.14119135,0.094416715,0.065449014,0.16111533,-0.033692904,0.034887604,0.23685558,-0.031375457,0.124480404,0.09445231,0.19267996,1.0357348,-1.4697119,2.0,0.1799654,0.51268077,-2.0,1.4515021,2.0,0.88314146,0.17814352,0.98869383,2.0,0.7739449,1.1297998,2.0,-1.3504174,-1.181385,-2.0,2.0,1.1024747,1.5088434,-0.37157398,-1.8742814,2.0
2025-07-19 14:43:32.452,2.680000000000002,2680,134,0.25246644,-0.14717078,-0.074669085,-0.0049731443,0.029883502,-0.0009825998,0.0,0.0,0.0,0.009338266,0.11413102,-0.36994767,0.031628825,-0.04001798,0.0041088983,-0.16418135,0.12882897,0.116895325,0.2515828,-0.15613227,-0.059157923,0.092480466,0.070366144,0.061032023,0.102362595,-0.14782237,-0.16007556,-0.08309606,0.03731698,0.13158794,-0.06195033,-0.011000329,-0.06900839,0.12786928,0.7739449,1.1297998,2.0,-1.3504174,-1.181385,-2.0,2.0,1.1024747,1.5088434,-0.37157398,-1.8742814,2.0,-1.098002,0.44230887,2.0,-1.622509,1.0831876,-1.4808635,2.0,-0.37573707,2.0,0.8569148,-1.9174423,2.0
2025-07-19 14:43:32.471,2.700000000000002,2700,135,0.57193494,0.28898257,0.020414531,-0.010667695,0.008184399,0.046982434,0.0,0.0,0.0,0.009329426,0.075731665,-0.34598523,0.0628041,-0.06849295,0.0019156192,-0.17008455,0.16363393,0.12965536,0.26884222,-0.12830727,-0.12440194,0.134685,-0.1561291,0.08654896,0.14881553,-0.13857724,0.14743333,-0.056738,0.07258157,-0.045745682,0.0030718867,0.11045678,-0.12505084,0.16059566,-1.098002,0.44230887,2.0,-1.622509,1.0831876,-1.4808635,2.0,-0.37573707,2.0,0.8569148,-1.9174423,2.0,-0.8030273,1.2725849,1.4161696,-1.678456,-2.0,-1.7477077,2.0,-0.21710432,2.0,0.2047878,-0.6383599,2.0
2025-07-19 14:43:32.491,2.720000000000002,2720,136,0.15654019,0.10284976,-0.07654988,0.0043852925,0.021927368,0.019362664,0.0,0.0,0.0,0.01030119,0.06696685,-0.31281316,0.07603838,-0.10943373,-0.02022355,-0.19663788,0.20667993,0.0804172,0.27409127,-0.13353442,-0.1262263,0.16536744,-0.04228244,0.06782513,-0.0003181044,-0.09276475,-0.10730404,0.0088925,0.038389783,-0.029184835,0.008496782,-0.053024173,-0.050710842,0.01623947,-0.8030273,1.2725849,1.4161696,-1.678456,-2.0,-1.7477077,2.0,-0.21710432,2.0,0.2047878,-0.6383599,2.0,-1.5000925,0.61537045,-0.89947724,-1.9963535,-1.4942396,0.32159248,2.0,-1.0065093,2.0,0.5253102,0.24843067,2.0
2025-07-19 14:43:32.511,2.740000000000002,2740,137,0.018669683,0.13573973,0.29441154,0.034092262,-0.048733193,-0.019198574,0.0,0.0,0.0,0.0115628475,0.031900465,-0.26579762,0.023326062,-0.152908,-0.12582539,-0.15543818,0.22296765,0.061775587,0.2754513,-0.11801282,-0.107157096,0.1725073,-0.02402504,0.07005554,-0.18118237,-0.05646608,-0.3123627,0.06985873,0.11359481,-0.055881497,0.0024098263,0.010587911,0.06384727,0.016718382,-1.5000925,0.61537045,-0.89947724,-1.9963535,-1.4942396,0.32159248,2.0,-1.0065093,2.0,0.5253102,0.24843067,2.0,-0.61059576,2.0,-0.8632091,-0.18534371,-1.4329276,2.0,0.72747326,-1.7785447,2.0,-2.0,-2.0,2.0
2025-07-19 14:43:32.531,2.760000000000002,2760,138,-0.01512136,0.44727793,0.036050424,0.015347071,-0.059366886,-0.010954294,0.0,0.0,0.0,0.008962746,0.007608989,-0.21589227,-0.0024909668,-0.14712381,-0.20787758,-0.071076915,0.20273633,-0.002657583,0.2895231,-0.15826836,-0.1147866,0.19367173,-0.052791685,0.10614774,-0.044524755,0.1176395,-0.20148076,0.109714925,-0.06476325,-0.24071614,0.046170652,-0.028737346,0.0135365175,0.09664298,-0.61059576,2.0,-0.8632091,-0.18534371,-1.4329276,2.0,0.72747326,-1.7785447,2.0,-2.0,-2.0,2.0,0.5321423,2.0,-2.0,-0.6843288,-0.6984375,2.0,-0.77190894,0.21211576,2.0,-1.3574525,1.7753295,2.0
2025-07-19 14:43:32.553,2.780000000000002,2780,139,0.051169224,0.093797415,-0.07434809,0.041644853,-0.029026624,-0.028682431,0.0,0.0,0.0,0.0069268127,0.029521046,-0.127403,-0.05992101,-0.13332516,-0.22261699,-0.019873906,0.1704061,-0.011864392,0.29540464,-0.17548162,-0.09007143,0.21245074,-0.0018630932,0.27068225,-0.15795135,0.046156835,-0.054578308,0.07693551,-0.14608763,0.03087108,-0.025283277,-0.06436589,0.13612553,-0.010772982,0.5321423,2.0,-2.0,-0.6843288,-0.6984375,2.0,-0.77190894,0.21211576,2.0,-1.3574525,1.7753295,2.0,-1.9344811,-1.2796422,-2.0,-0.76161057,-0.66265607,2.0,-1.6284322,-0.15784335,2.0,-0.7183365,2.0,-2.0
2025-07-19 14:43:32.572,2.800000000000002,2800,140,0.019955177,0.28096643,-0.011869673,0.07115926,-0.01133709,-0.03157623,0.0,0.0,0.0,0.0069191665,-0.0031763895,-0.08954212,-0.10829837,-0.15084565,-0.2384184,0.031783145,0.106239416,-0.009138555,0.3006208,-0.17317772,0.017149696,0.14122586,-0.12681028,-0.014573992,-0.06919812,-0.033560324,0.045117684,0.12913951,-0.1661027,0.0042915633,-0.020015536,-0.04182901,0.31865653,-0.16615188,-1.9344811,-1.2796422,-2.0,-0.76161057,-0.66265607,2.0,-1.6284322,-0.15784335,2.0,-0.7183365,2.0,-2.0,-0.40722808,-2.0,-2.0,1.6216675,1.5051131,1.0464612,-0.36630797,-1.0690005,2.0,-0.13873367,-0.74693334,-2.0
2025-07-19 14:43:32.592,2.820000000000002,2820,141,-0.36348876,-0.175425,0.050061725,0.05818227,-0.008323019,0.0066223214,0.0,0.0,0.0,0.006010579,-0.013923992,-0.12861821,-0.13298249,-0.14183149,-0.23174377,0.050661795,0.09933003,-0.031348493,0.30313623,-0.14368187,0.039233606,0.06566681,0.041811828,-0.25469857,-0.089406125,0.09319027,0.024921797,0.080084234,-0.09863135,-0.13517213,-0.040146057,0.117926404,-0.031972054,-0.21231347,-0.40722808,-2.0,-2.0,1.6216675,1.5051131,1.0464612,-0.36630797,-1.0690005,2.0,-0.13873367,-0.74693334,-2.0,1.6532623,1.2610258,0.030682191,0.61684304,2.0,-0.8631689,-1.1529262,0.93967927,2.0,-2.0,1.8612051,-1.8162415
2025-07-19 14:43:32.612,2.840000000000002,2840,142,0.14099848,-0.21367253,-0.18871647,0.018616455,-0.062713824,-0.0095313,0.0,0.0,0.0,0.005068077,0.0050148307,-0.16180716,-0.10859743,-0.115231305,-0.1740277,0.022486363,0.06645175,0.0088132555,0.30242565,-0.16123998,0.0761219,-0.0082408795,0.10155903,0.09292869,0.08745765,0.07440135,0.15116395,-0.13747466,-0.043199595,0.126391,0.060396705,-0.1308434,0.22260322,-0.16248944,1.6532623,1.2610258,0.030682191,0.61684304,2.0,-0.8631689,-1.1529262,0.93967927,2.0,-2.0,1.8612051,-1.8162415,0.34636527,-1.8982321,-1.8446808,0.85836864,0.9546019,0.81229967,0.6392662,-2.0,2.0,-2.0,-2.0,-2.0
2025-07-19 14:43:32.637,2.860000000000002,2860,143,-0.06774037,-0.23945403,0.030006949,0.04820191,-0.013325613,-0.030714417,0.0,0.0,0.0,0.0070696394,0.024182485,-0.17444602,-0.13952297,-0.070179984,-0.13544796,0.018786836,0.07439514,0.036066495,0.30778474,-0.19913597,0.09385182,-0.062103197,-0.0108137075,-0.24513738,0.0052593676,0.09578114,0.17837061,-0.022289548,-0.00462506,0.006576802,-0.0032682575,-0.05572008,-0.14136176,-0.13658123,0.34636527,-1.8982321,-1.8446808,0.85836864,0.9546019,0.81229967,0.6392662,-2.0,2.0,-2.0,-2.0,-2.0,2.0,-2.0,1.1319151,1.1238343,2.0,-2.0,-0.6956084,-1.8676426,2.0,-2.0,-2.0,1.5008433
2025-07-19 14:43:32.653,2.880000000000002,2880,144,-0.23930192,0.019090433,0.004675046,0.06393284,0.035129134,0.012695601,0.0,0.0,0.0,0.007019881,0.06433021,-0.28529757,-0.09482693,-0.032014843,-0.05331007,-0.049388517,0.07187488,0.047162663,0.3066554,-0.2283757,-0.0029363248,-0.02179836,0.12332462,-0.25675544,0.056149855,0.013119235,0.19387309,-0.2255774,-0.016308846,-0.00078585185,-0.0018559904,-0.011307691,-0.3794538,0.15168332,2.0,-2.0,1.1319151,1.1238343,2.0,-2.0,-0.6956084,-1.8676426,2.0,-2.0,-2.0,1.5008433,1.2777764,-2.0,2.0,0.9913834,1.6491568,-2.0,1.0928104,1.7084252,1.340625,-0.27705747,0.7560755,2.0
2025-07-19 14:43:32.672,2.900000000000002,2900,145,-0.01658211,-0.387942,0.09844618,0.003943386,-0.012596389,-0.02789619,0.0,0.0,0.0,0.0065316907,0.10879436,-0.3729086,-0.033414617,-0.01195411,0.054577015,-0.08978632,0.08379928,0.08944012,0.28867474,-0.204455,-0.042665143,0.034778178,0.010731796,-0.25395757,0.16707253,0.13086577,0.23410714,-0.11845363,0.11793583,0.25653094,-0.061842382,0.06587307,0.111901656,0.12765352,1.2777764,-2.0,2.0,0.9913834,1.6491568,-2.0,1.0928104,1.7084252,1.340625,-0.27705747,0.7560755,2.0,1.3670789,0.49931785,2.0,-0.55133325,-1.658211,-2.0,2.0,0.87799203,0.8345003,-0.7926958,-2.0,2.0
2025-07-19 14:43:32.692,2.920000000000002,2920,146,0.016052913,-0.28552955,-0.09466296,0.02937862,0.03372739,0.030382253,0.0,0.0,0.0,0.0047552367,0.12888281,-0.4106529,0.027775325,-0.014779471,0.10830152,-0.12582941,0.124148175,0.14277583,0.26321188,-0.19295451,-0.0856118,0.08043013,0.070333645,0.010672025,0.097114116,-0.07386103,-0.040209126,-0.044475578,0.14882769,0.12362259,-0.05329741,0.015786424,-0.2449153,0.046968438,1.3670789,0.49931785,2.0,-0.55133325,-1.658211,-2.0,2.0,0.87799203,0.8345003,-0.7926958,-2.0,2.0,-0.730366,-1.3238955,2.0,-1.3831394,0.6144817,-1.8952018,2.0,-0.41440916,1.7316678,-0.0629071,-0.35720086,2.0
2025-07-19 14:43:32.712,2.940000000000002,2940,147,0.30226025,0.12340995,0.24238688,0.033016082,0.06942807,0.029877936,0.0,0.0,0.0,0.0033313741,0.10674555,-0.42601117,0.0640785,-0.0602097,0.1191659,-0.16324471,0.16928773,0.123453856,0.26277822,-0.16680983,-0.09751249,0.13391452,-0.09203956,-0.07880758,0.16656817,-0.09461234,0.10727717,-0.052914742,0.07757986,-0.17637232,0.06649017,0.0057873363,0.05937852,0.08461575,-0.730366,-1.3238955,2.0,-1.3831394,0.6144817,-1.8952018,2.0,-0.41440916,1.7316678,-0.0629071,-0.35720086,2.0,0.2130378,2.0,2.0,-1.1099802,-1.612961,-1.3414041,2.0,2.0,2.0,-1.1710856,-2.0,2.0
2025-07-19 14:43:32.736,2.960000000000002,2960,148,0.15597239,0.017375898,-0.17002685,-0.05191711,-0.013816595,0.012736277,0.0,0.0,0.0,0.00066550105,0.09512603,-0.41302988,0.11161349,-0.070664905,0.07960352,-0.17462313,0.18856046,0.13523652,0.27016628,-0.17696239,-0.111265354,0.14894326,0.08951961,0.002461887,0.060559113,-0.016600423,-0.19534817,-0.018056408,0.053775277,0.081508614,0.06398458,-0.1199513,0.040192615,0.08495379,0.2130378,2.0,2.0,-1.1099802,-1.612961,-1.3414041,2.0,2.0,2.0,-1.1710856,-2.0,2.0,-1.3054739,1.0692656,1.2617192,-1.9873794,0.28714553,-0.55193806,2.0,-1.5030272,2.0,1.0984417,-2.0,2.0
2025-07-19 14:43:32.753,2.980000000000002,2980,149,0.08247767,0.14279003,-0.080730125,-0.0029770054,0.014480501,0.046396427,0.0,0.0,0.0,0.0015826551,0.07790089,-0.3903405,0.10253602,-0.109746434,0.063194074,-0.15582854,0.20859697,0.12891093,0.29042792,-0.18405198,-0.12651616,0.17781967,-0.061378993,0.0008697694,0.041644763,-0.0388882,0.0797002,0.014496884,0.0034362506,-0.0767411,-0.011779403,-0.1057624,-0.06364429,0.0073995227,-1.3054739,1.0692656,1.2617192,-1.9873794,0.28714553,-0.55193806,2.0,-1.5030272,2.0,1.0984417,-2.0,2.0,-2.0,2.0,0.25158787,-1.6722418,-2.0,-0.9411256,2.0,-1.3766991,2.0,0.07191296,0.36086005,2.0
2025-07-19 14:43:32.772,3.000000000000002,3000,150,0.101553366,0.20836246,0.19225517,-0.0210942,0.040818784,0.014373848,0.0,0.0,0.0,0.0031479374,0.07189234,-0.35757995,0.07395316,-0.136417,0.026231585,-0.15432684,0.24794944,0.08393015,0.28601527,-0.18219148,-0.08433945,0.1925918,-0.020850291,0.06496437,-0.07703065,-0.12718514,-0.12981202,-0.03419493,0.07029383,-0.1036759,0.058572654,-0.045553505,0.09657778,0.07307846,-2.0,2.0,0.25158787,-1.6722418,-2.0,-0.9411256,2.0,-1.3766991,2.0,0.07191296,0.36086005,2.0,-0.8932363,2.0,-1.0119518,-0.9050679,-1.9088578,0.7579114,2.0,-1.1406255,2.0,-0.75769097,-2.0,2.0
2025-07-19 14:43:32.792,3.0200000000000022,3020,151,-0.07249932,0.303021,0.08700006,0.018664366,0.014500425,-0.003832097,0.0,0.0,0.0,0.0014734563,0.03539467,-0.33585003,0.028078726,-0.14777799,-0.10771887,-0.11709564,0.2471162,0.0084205065,0.2993041,-0.1792022,-0.08629972,0.22013262,-0.039299887,0.09576307,-0.059125386,-0.020316679,-0.39061898,0.035149507,0.11141677,-0.23991813,-0.06288602,-0.014709542,0.016931614,0.031626567,-0.8932363,2.0,-1.0119518,-0.9050679,-1.9088578,0.7579114,2.0,-1.1406255,2.0,-0.75769097,-2.0,2.0,-0.1248654,2.0,-2.0,-1.091706,-0.76434314,2.0,0.754821,1.2287894,2.0,-0.44644397,0.003966339,2.0
2025-07-19 14:43:32.813,3.0400000000000023,3040,152,-0.019840866,-0.049580626,0.014877227,-0.03358307,-0.06094163,-0.0270807,0.0,0.0,0.0,-0.001215587,0.023485687,-0.26434353,-0.041960895,-0.148952,-0.16317506,-0.04493538,0.23428185,-0.030034367,0.29941764,-0.17417595,-0.05774725,0.23924997,0.003583259,0.16513379,-0.11571098,-0.05955541,-0.022735236,0.16349249,-0.06992822,0.0904426,0.026992047,0.08741127,0.034365516,0.06491393,-0.1248654,2.0,-2.0,-1.091706,-0.76434314,2.0,0.754821,1.2287894,2.0,-0.44644397,0.003966339,2.0,-1.1727746,-0.3234054,-0.8035878,-0.4885153,-2.0,2.0,0.16303325,-0.16079116,2.0,-0.9412863,2.0,0.08178672
2025-07-19 14:43:32.835,3.0600000000000023,3060,153,0.065088406,0.11252091,0.13286422,0.012487605,0.02812987,0.0372988,0.0,0.0,0.0,-0.0024303638,0.007102553,-0.23327498,-0.063474305,-0.15141764,-0.21170549,0.017784996,0.2215591,-0.022766218,0.29828212,-0.16947216,0.010741765,0.19553214,-0.075088836,0.08344324,-0.090000995,0.022735015,-0.071570404,0.10824448,-0.052926034,-0.065223925,0.033361703,0.046385773,0.18490528,-0.08393343,-1.1727746,-0.3234054,-0.8035878,-0.4885153,-2.0,2.0,0.16303325,-0.16079116,2.0,-0.9412863,2.0,0.08178672,-0.6398297,2.0,-0.90188456,0.030879738,0.3283901,2.0,-1.0415099,0.4165789,2.0,0.21199511,0.35504544,-2.0
2025-07-19 14:43:32.852,3.0800000000000023,3080,154,0.054555584,-0.101393744,-0.1302456,-0.035110876,-0.021252405,0.011412311,1.5,0.0,0.0,-0.003864822,-0.013068511,-0.18748006,-0.07003838,-0.1374793,-0.20367154,0.059613343,0.20386873,0.018049361,0.29862508,-0.16610229,0.054311443,0.10833518,-0.09331518,0.15688606,-0.05857433,0.08906485,0.06853741,0.052352015,-0.10535315,0.15445024,-0.030375956,0.07898544,0.13198012,-0.26366007,-0.6398297,2.0,-0.90188456,0.030879738,0.3283901,2.0,-1.0415099,0.4165789,2.0,0.21199511,0.35504544,-2.0,2.0,0.1526409,-2.0,0.8916195,2.0,2.0,-1.3508765,-2.0,2.0,-0.5332797,-0.8713765,-2.0
2025-07-19 14:43:32.873,3.1000000000000023,3100,155,-0.17858203,-0.116215676,-0.15448166,0.040808428,0.012349779,0.015956504,1.5,0.0,0.0,-0.0030014387,0.025708325,-0.1423562,-0.10727176,-0.09957952,-0.19547684,0.084409475,0.17830603,0.0130746085,0.29890886,-0.1437193,0.022475574,0.044994656,0.08766278,0.13161592,-0.019477213,0.046419285,0.039428152,0.07157728,-0.08134028,-0.051226333,0.036142323,0.029129792,-0.12368309,-0.15944426,2.0,0.1526409,-2.0,0.8916195,2.0,2.0,-1.3508765,-2.0,2.0,-0.5332797,-0.8713765,-2.0,1.4894892,-1.4842042,-1.9567244,0.47670776,2.0,1.8437952,-1.8376744,-2.0,2.0,-2.0,-0.49089563,-2.0
2025-07-19 14:43:32.893,3.1200000000000023,3120,156,0.0108267255,0.016552843,0.015732203,0.034430686,0.018332928,0.025980366,1.5,0.0,0.0,-0.00031494288,0.07458741,-0.15823296,-0.13915269,-0.085002504,-0.18081738,0.11601634,0.15884236,0.022952314,0.31986967,-0.17066565,-0.016713563,-0.025476716,0.14641728,-0.20611314,-0.008090241,0.099295706,0.07623135,0.021437258,-0.12887381,0.054114565,-0.045491084,-0.07453308,-0.044567473,-0.1183495,1.4894892,-1.4842042,-1.9567244,0.47670776,2.0,1.8437952,-1.8376744,-2.0,2.0,-2.0,-0.49089563,-2.0,2.0,-1.8164554,0.17446326,0.9116204,2.0,-0.10625045,-1.1575934,-2.0,2.0,-2.0,-1.303772,-2.0
