openverse-orca/OrcaGym/log/simulation_log_20250605_115807.csv
timestamp,imu_angle_roll,imu_angle_pitch,imu_angle_yaw,imu_angular_velocity_roll,imu_angular_velocity_pitch,imu_angular_velocity_yaw,imu_acc_x,imu_acc_y,imu_acc_z,fl_joint1_pos,fl_joint1_vel,fl_joint1_torque,fl_joint2_pos,fl_joint2_vel,fl_joint2_torque,fl_joint3_pos,fl_joint3_vel,fl_joint3_torque,fr_joint1_pos,fr_joint1_vel,fr_joint1_torque,fr_joint2_pos,fr_joint2_vel,fr_joint2_torque,fr_joint3_pos,fr_joint3_vel,fr_joint3_torque,hl_joint1_pos,hl_joint1_vel,hl_joint1_torque,hl_joint2_pos,hl_joint2_vel,hl_joint2_torque,hl_joint3_pos,hl_joint3_vel,hl_joint3_torque,hr_joint1_pos,hr_joint1_vel,hr_joint1_torque,hr_joint2_pos,hr_joint2_vel,hr_joint2_torque,hr_joint3_pos,hr_joint3_vel,hr_joint3_torque,fl_force_x,fl_force_y,fl_force_z,fr_force_x,fr_force_y,fr_force_z,hl_force_x,hl_force_y,hl_force_z,hr_force_x,hr_force_y,hr_force_z,fl_hip_action,fl_thigh_action,fl_calf_action,fr_hip_action,fr_thigh_action,fr_calf_action,hl_hip_action,hl_thigh_action,hl_calf_action,hr_hip_action,hr_thigh_action,hr_calf_action
2025-06-05 11:58:07.993,-0.0320984,-0.008176942,-0.0030980012,-0.020116514,-0.023974912,-0.008969229,0.0,0.55906725,0.0,0.0,-4.002024e-05,0.0077218073,-0.009681049,0.0040584537,0.0034233432,0.0022822828,0.0038074546,-0.008169439,0.0041939993,-0.0086411815,0.0031976504,0.0063018445,0.024224412,0.030576903,-0.022097798,0.051398393,0.015204808,0.014649622,-0.05074428,0.050555684,-0.062109817,-0.060306214,-0.036634646,0.023629071,0.0,0.0,0.0,0.0,0.0,0.0,0.0,0.0,0.0,0.0,0.0,0.0,1.3333758,-0.08326433,2.0,2.0,-0.31374866,-2.0,2.0,-1.229119,0.8640596,2.0,-0.3948978,-0.62279236
2025-06-05 11:58:08.000,0.04532616,0.04339164,0.03517931,0.020309538,0.0036224723,0.006311765,0.0,0.0,0.0,0.0,0.01875907,-0.012167452,0.048262913,0.00910009,0.00021739518,-0.047498226,0.01036067,-0.03936547,0.010879508,0.006323406,-0.0057992125,-0.019335248,0.039245028,-0.012337304,0.14860179,0.0006731896,-0.0671,-0.13314354,-0.0065946914,-0.044121124,0.10138969,-0.011986725,0.006871046,-0.020030398,1.3333758,-0.08326433,2.0,2.0,-0.31374866,-2.0,2.0,-1.229119,0.8640596,2.0,-0.3948978,-0.62279236,-1.7987117,1.030691,2.0,2.0,0.9283894,-2.0,2.0,-1.649769,-2.0,2.0,-1.4644194,2.0
2025-06-05 11:58:08.019,0.027096327,-0.023204146,0.018681463,-0.053182665,-0.054603104,-0.04640966,0.0,0.0,0.0,4.524375e-05,-0.0073432242,0.025888108,0.07261697,0.022968404,0.017843332,-0.083384275,0.032474183,-0.09561678,-0.010657225,0.030598033,-0.06503902,0.02032163,0.0017748927,0.09323157,0.08230787,0.059861332,0.00712215,-0.04735275,0.0696204,-0.14928974,-0.16987589,0.036457013,-0.10668367,0.10043117,-1.7987117,1.030691,2.0,2.0,0.9283894,-2.0,2.0,-1.649769,-2.0,2.0,-1.4644194,2.0,-2.0,1.666122,2.0,2.0,0.040302098,-2.0,2.0,-1.6833115,-2.0,2.0,0.18910626,2.0
2025-06-05 11:58:08.040,0.039143514,0.028089272,0.040345717,-0.040169872,-0.006206074,0.010557667,0.0,0.0,0.0,0.00023188975,-0.01258022,0.09125391,0.10794645,0.041913185,0.015361998,-0.08266128,0.03408894,-0.13596714,-0.028994685,0.03142035,-0.055477824,0.06789448,-0.015546471,0.09639909,0.008842482,-0.031571567,-0.053991146,-0.027164266,-0.026741631,-0.06524687,-0.054805554,0.024796674,0.011967108,0.0479156,-2.0,1.666122,2.0,2.0,0.040302098,-2.0,2.0,-1.6833115,-2.0,2.0,0.18910626,2.0,-2.0,1.659122,2.0,2.0,0.2792641,-2.0,2.0,-2.0,-2.0,2.0,1.1695492,2.0
2025-06-05 11:58:08.062,0.039616544,0.012678218,0.033197615,-0.00802671,-0.01832239,0.0029642826,0.0,0.0,0.0,-1.1038661e-05,-0.03272264,0.14311035,0.122860044,0.046632744,-0.009603209,-0.06697551,0.051316578,-0.18176931,-0.011911745,0.04831114,-0.017724516,0.10522165,-0.06852448,0.10541375,0.122084185,0.017758721,-0.0874557,-0.0311938,-0.060039833,-0.16327612,0.09133285,0.08104949,0.1428186,0.008901926,-2.0,1.659122,2.0,2.0,0.2792641,-2.0,2.0,-2.0,-2.0,2.0,1.1695492,2.0,-2.0,1.5472548,1.461921,2.0,0.63775617,-2.0,2.0,-2.0,-2.0,2.0,1.547148,2.0
2025-06-05 11:58:08.083,0.07762434,0.029277852,0.012899357,-0.06981658,0.01164895,0.0017397078,0.0,0.0,0.0,-0.0009199918,-0.038027823,0.19174583,0.14389846,0.06243616,-0.029081872,-0.053320408,0.040383004,-0.2236204,0.025009885,0.054657906,0.049351465,0.116423465,-0.03012562,0.06263383,-0.034233674,0.09877283,-0.08613857,0.015863651,0.015809651,-0.07460728,0.129625,0.03333209,0.20087168,0.120226845,-2.0,1.5472548,1.461921,2.0,0.63775617,-2.0,2.0,-2.0,-2.0,2.0,1.547148,2.0,-2.0,1.7159581,-1.9201013,2.0,0.33702692,-2.0,2.0,-2.0,-2.0,2.0,1.7046634,2.0
2025-06-05 11:58:08.099,0.114739425,0.015027182,0.024564128,-0.025349366,-0.04514228,0.04075306,0.0,0.0,0.0,-0.0021271221,-0.03821624,0.23162967,0.09384633,0.07201597,-0.026457358,-0.05788635,0.050294988,-0.2465219,0.04432679,0.056586348,0.12707482,0.13848329,-0.0028680763,0.15386789,-0.23667705,0.037281994,0.026507176,0.05473759,0.019740408,-0.020346463,-0.019786542,0.05695379,0.10329166,0.09030893,-2.0,1.7159581,-1.9201013,2.0,0.33702692,-2.0,2.0,-2.0,-2.0,2.0,1.7046634,2.0,-2.0,2.0,-2.0,2.0,0.19070573,1.1505477,2.0,-2.0,-2.0,2.0,1.4216775,-2.0
2025-06-05 11:58:08.119,-0.06735592,0.021869743,-0.019661818,-0.010004125,-0.028528715,0.041960966,0.0,0.0,0.0,-0.0033340554,-0.047563523,0.2800152,0.023889255,0.07681579,-0.036982037,-0.01744748,0.06106859,-0.26443973,0.039050475,0.0711524,0.16386026,0.09410346,0.04083054,0.13185692,-0.17447045,-0.0016536206,0.03971919,0.014556996,-0.03460872,-0.023315648,0.06573356,0.0018653206,0.15570702,-0.09779589,-2.0,2.0,-2.0,2.0,0.19070573,1.1505477,2.0,-2.0,-2.0,2.0,1.4216775,-2.0,-2.0,2.0,-2.0,2.0,-0.2611156,2.0,1.5215864,-2.0,-1.6295941,2.0,-1.1560707,-2.0
2025-06-05 11:58:08.144,-0.08197615,0.09100903,0.0151603725,-0.058046434,-0.06203735,-0.0072680116,0.0,0.0,0.0,-0.0038058653,-0.050282165,0.31528795,-0.016777597,0.09976729,-0.04808994,0.014181139,0.07070627,-0.2699351,0.05455513,0.06281678,0.12944776,0.03392521,-0.07557429,0.08745126,-0.044255793,-0.010745224,0.02630493,0.15033548,-0.026956704,-0.08523844,-0.0049906233,0.07245505,-0.04141218,-0.039118268,-2.0,2.0,-2.0,2.0,-0.2611156,2.0,1.5215864,-2.0,-1.6295941,2.0,-1.1560707,-2.0,-2.0,2.0,-2.0,2.0,-0.6861627,2.0,-0.05964119,-2.0,1.3835845,2.0,-1.4535861,-2.0
2025-06-05 11:58:08.160,-0.06375378,-0.13183959,0.052370626,-0.0044771703,-0.0048553064,-0.016296815,0.0,0.0,0.0,-0.0043286067,-0.07016498,0.3325628,-0.05952974,0.09373484,-0.05967591,0.064621024,0.05539162,-0.3070789,0.07859296,0.07185895,0.068787634,0.03428322,0.0074452306,0.10284985,-0.07454834,-0.07373948,-0.10630974,0.059078235,-0.04526836,-0.084707454,0.10977962,-0.0037438816,-0.03813203,-0.03380237,-2.0,2.0,-2.0,2.0,-0.6861627,2.0,-0.05964119,-2.0,1.3835845,2.0,-1.4535861,-2.0,-2.0,1.4995961,-2.0,2.0,-0.70845383,2.0,-2.0,-2.0,2.0,2.0,-1.4898589,-2.0
2025-06-05 11:58:08.184,0.06215384,-0.1416775,0.10355003,-0.027363686,-0.022277039,-0.036460023,0.0,0.0,0.0,-0.005649979,-0.0669077,0.33707368,-0.076495215,0.08578311,-0.07677768,0.10566059,0.0528494,-0.33584735,0.11059919,0.06453717,0.04199831,0.049888145,-0.0021566611,-0.09228317,0.0020395117,7.006046e-05,-0.027281044,0.073323056,-0.068192124,-0.040104322,0.020996597,-0.07414784,-0.026957564,0.073950686,-2.0,1.4995961,-2.0,2.0,-0.70845383,2.0,-2.0,-2.0,2.0,2.0,-1.4898589,-2.0,-2.0,1.4540546,-2.0,2.0,-0.021738948,2.0,-2.0,-2.0,2.0,2.0,-0.76000226,-2.0
2025-06-05 11:58:08.200,0.045348298,-0.059278045,0.0076191546,-0.03004997,-0.024596745,-0.038055237,0.0,0.0,0.0,-0.007091994,-0.07525953,0.32963142,-0.069788344,0.08957404,-0.07145995,0.12833783,0.030300152,-0.36211124,0.12615483,0.07070069,0.019127656,0.058821548,-0.07172906,-0.054300208,-0.026593229,-0.053523708,-0.028347392,0.10703385,-0.06341716,0.020097408,0.11811697,0.019762753,0.0054809097,-0.019217627,-2.0,1.4540546,-2.0,2.0,-0.021738948,2.0,-2.0,-2.0,2.0,2.0,-0.76000226,-2.0,-2.0,1.7918257,-2.0,2.0,-0.71505755,2.0,-2.0,-1.9305466,2.0,2.0,-1.3284261,-2.0
2025-06-05 11:58:08.221,0.16472387,-0.009868539,-0.037824653,0.009886444,-0.011780349,-0.041029472,0.0,0.0,0.0,-0.006911933,-0.07631011,0.29999208,-0.05589755,0.09491693,-0.07132294,0.14644273,0.0014197943,-0.38609436,0.14616224,0.074171856,-0.016753102,0.08148636,-0.014106373,-0.0016821328,0.013994381,-0.01653128,-0.058965664,0.10497526,0.024082616,-0.00355337,0.031428058,-0.019284647,-0.09379661,0.018724784,-2.0,1.7918257,-2.0,2.0,-0.71505755,2.0,-2.0,-1.9305466,2.0,2.0,-1.3284261,-2.0,-2.0,1.9839127,-2.0,2.0,-0.9749724,2.0,-2.0,-1.940178,2.0,2.0,-2.0,-2.0
2025-06-05 11:58:08.241,0.19899797,0.05188607,0.04003237,-0.06472369,0.06019029,-0.027817626,0.0,0.0,0.0,-0.0062715854,-0.07118715,0.31076974,-0.056285255,0.082266904,-0.1126705,0.17182143,-0.020295145,-0.3904675,0.17460431,0.078813404,-0.055367164,0.08591357,0.03344144,-0.022033107,-0.06393249,0.038802717,-0.12279222,-0.008376251,-0.10355624,-0.024821635,-0.013174369,-0.010603183,-0.119950734,-0.025377186,-2.0,1.9839127,-2.0,2.0,-0.9749724,2.0,-2.0,-1.940178,2.0,2.0,-2.0,-2.0,-2.0,1.7954944,-2.0,2.0,-0.5936498,2.0,-2.0,-2.0,2.0,2.0,-2.0,-2.0
2025-06-05 11:58:08.261,0.19205439,-0.024641313,0.087698735,-0.051944096,0.00652245,-0.013874576,0.0,0.0,0.0,-0.006578386,-0.089428104,0.30456078,-0.07314325,0.091414675,-0.11716644,0.18583804,-0.025789926,-0.4110945,0.19419502,0.08486521,-0.083592564,0.08867813,-0.043305345,0.07361408,-0.12763488,0.04974916,-0.08811815,0.034931254,-0.008060037,-0.08118687,0.04509211,-0.02812926,-0.075160116,-0.028382642,-2.0,1.7954944,-2.0,2.0,-0.5936498,2.0,-2.0,-2.0,2.0,2.0,-2.0,-2.0,-2.0,1.4362551,-2.0,2.0,0.013161002,2.0,-2.0,-2.0,2.0,2.0,-1.1440804,-2.0
2025-06-05 11:58:08.283,0.042137895,-0.19073877,-0.01445972,-0.05182064,0.017158745,0.0005018058,0.0,0.0,0.0,-0.0076351874,-0.088445015,0.31496817,-0.10567732,0.07877967,-0.0929006,0.1883919,-0.03251459,-0.41396523,0.19274968,0.07935343,-0.10485151,0.08074485,0.03504016,0.009578097,-0.05980946,0.04802631,-0.015221745,-0.023925051,-0.08672938,0.011347258,0.027627237,-0.011491307,-0.03033947,-0.0035714386,-2.0,1.4362551,-2.0,2.0,0.013161002,2.0,-2.0,-2.0,2.0,2.0,-1.1440804,-2.0,-2.0,1.8898368,-2.0,2.0,-0.757096,2.0,-2.0,-1.8807552,2.0,2.0,-1.6742777,-2.0
2025-06-05 11:58:08.301,0.179814,-0.07532286,0.08777826,-0.11078592,0.011117903,0.00012171439,0.0,0.0,0.0,-0.008022592,-0.096593216,0.3051528,-0.10522917,0.0871695,-0.097516336,0.20897989,-0.051753987,-0.42259926,0.20490783,0.07882085,-0.1375154,0.060578313,-0.078253455,-0.05505452,-0.07008479,0.026907805,0.03388065,0.04148413,-0.08338081,0.053960398,-0.000716952,0.061968397,0.008945455,-0.043827314,-2.0,1.8898368,-2.0,2.0,-0.757096,2.0,-2.0,-1.8807552,2.0,2.0,-1.6742777,-2.0,-2.0,0.9290378,-2.0,2.0,-0.05189985,2.0,-2.0,-1.6403295,2.0,2.0,-0.8791598,-2.0
2025-06-05 11:58:08.321,0.04415796,-0.13427968,-0.079961464,-0.11151107,0.05350492,-0.03690747,0.0,0.0,0.0,-0.00892319,-0.09501048,0.30191082,-0.10543842,0.083788745,-0.09283526,0.22278656,-0.04919464,-0.41208726,0.20999128,0.08515687,-0.15606375,0.048872463,-0.0065995227,-0.09629556,-0.057063878,-0.019848458,0.01339996,0.05191385,0.009734433,-0.02335115,0.07947004,-0.063300304,-0.048272967,-0.069724135,-2.0,0.9290378,-2.0,2.0,-0.05189985,2.0,-2.0,-1.6403295,2.0,2.0,-0.8791598,-2.0,-2.0,2.0,-2.0,2.0,-0.96820897,2.0,-2.0,-1.7838115,2.0,1.4713002,-1.8184049,-2.0
2025-06-05 11:58:08.341,0.18362679,-0.054397553,0.04026237,-0.06388524,0.09998657,0.016933242,0.0,0.0,0.0,-0.008778483,-0.108367294,0.29141313,-0.10455899,0.08412101,-0.10842516,0.22487976,-0.05974827,-0.4240837,0.2304375,0.09513756,-0.1725287,0.041981477,-0.05177425,0.045250926,-0.03341882,-0.055015888,-0.02397341,0.008855633,-0.06533799,0.03570791,-0.0056007393,0.009757339,-0.032712687,-0.08092307,-2.0,2.0,-2.0,2.0,-0.96820897,2.0,-2.0,-1.7838115,2.0,1.4713002,-1.8184049,-2.0,-2.0,0.8311415,-2.0,2.0,-0.1617369,2.0,-2.0,-1.3630563,2.0,2.0,-1.4206885,-2.0
2025-06-05 11:58:08.361,0.1863018,-0.21074814,-0.09796706,-0.07642095,0.09159437,-0.0026564968,0.0,0.0,0.0,-0.009320874,-0.1048294,0.27754998,-0.11072974,0.08974431,-0.09958038,0.22258627,-0.070355274,-0.39545995,0.22287622,0.09713184,-0.19885324,0.033616107,0.036118962,-0.016795136,0.06228069,0.07053224,0.0023723103,-0.011245534,-0.027519032,-0.03381586,0.044746544,0.066956334,-0.036171533,-0.06319387,-2.0,0.8311415,-2.0,2.0,-0.1617369,2.0,-2.0,-1.3630563,2.0,2.0,-1.4206885,-2.0,-2.0,2.0,-2.0,2.0,-0.91613966,2.0,-2.0,-1.7601974,2.0,-0.8900356,-2.0,-2.0
2025-06-05 11:58:08.384,0.21818902,-0.2650585,0.092234805,-0.16285592,0.102961436,-0.02378598,0.0,0.0,0.0,-0.009558787,-0.11038681,0.27097088,-0.112663195,0.089360304,-0.115499504,0.23865446,-0.07436031,-0.3941446,0.24068801,0.10050804,-0.22189248,0.04134779,-0.020903412,0.029883074,0.025044685,0.018343544,0.008729329,0.0031712237,-0.022727655,-0.008265701,0.06104024,-0.062365744,-0.047600526,-0.07498027,-2.0,2.0,-2.0,2.0,-0.91613966,2.0,-2.0,-1.7601974,2.0,-0.8900356,-2.0,-2.0,-2.0,0.90852827,-2.0,2.0,0.768676,2.0,-2.0,-1.0579813,2.0,-2.0,-0.78300864,-2.0
2025-06-05 11:58:08.402,-0.0057547735,-0.25493023,0.08786858,-0.1562894,0.08984003,0.023091579,0.0,0.0,0.0,-0.011176077,-0.10265896,0.2888618,-0.09106623,0.09006293,-0.0676473,0.24275021,-0.09288276,-0.39662263,0.25175983,0.08382031,-0.22103982,0.025256012,-0.06739238,0.008064966,-0.033360917,0.0043277326,0.1220953,0.037494056,-0.038959652,-0.051444996,-0.04993252,-0.049728755,0.0365876,-0.059111144,-2.0,0.90852827,-2.0,2.0,0.768676,2.0,-2.0,-1.0579813,2.0,-2.0,-0.78300864,-2.0,-2.0,1.6480446,-2.0,2.0,0.72993094,0.050066225,-2.0,-0.4635818,0.20003793,-2.0,1.0597581,-2.0
2025-06-05 11:58:08.422,-0.28578174,-0.2250262,0.033270948,-0.093728654,0.10857124,-0.021139039,0.0,0.0,0.0,-0.013134065,-0.103784025,0.2937018,-0.07849166,0.082444444,-0.033804834,0.21337312,-0.09240248,-0.35631418,0.24145293,0.057548985,-0.1698273,-0.026337948,0.0057126456,0.04046516,-0.01752309,0.051076427,0.08237188,-0.036232125,0.05628868,0.050571218,0.020266576,-0.0017235302,0.13576876,-0.1299344,-2.0,1.6480446,-2.0,2.0,0.72993094,0.050066225,-2.0,-0.4635818,0.20003793,-2.0,1.0597581,-2.0,-2.0,1.4246154,-2.0,2.0,1.0307862,-2.0,-2.0,0.3551783,-2.0,-2.0,1.4597597,-2.0
2025-06-05 11:58:08.442,-0.28113455,-0.07377579,0.02743208,-0.10621645,0.13501473,-0.026177913,0.0,0.0,0.0,-0.013723692,-0.106345564,0.31273222,-0.06776114,0.09868397,0.019374449,0.13244224,-0.09823683,-0.29662007,0.18294127,0.046540678,-0.0889172,-0.07218832,0.02289859,0.00320233,0.080358855,-0.04096422,0.13350983,-0.19759168,-0.044201504,0.09715235,-0.15923594,-0.027239839,0.16818278,-0.12800744,-2.0,1.4246154,-2.0,2.0,1.0307862,-2.0,-2.0,0.3551783,-2.0,-2.0,1.4597597,-2.0,-2.0,0.7165509,-2.0,2.0,2.0,-2.0,-2.0,0.16356474,-2.0,-2.0,0.18047014,0.7256509
2025-06-05 11:58:08.465,-0.20166573,0.11084815,0.00076557713,-0.06302868,0.11750002,0.014822745,0.0,0.0,0.0,-0.013376486,-0.10357161,0.33488443,-0.07266126,0.08937414,0.088149354,0.062105674,-0.08425597,-0.23162803,0.13430452,0.03371909,-0.070221215,-0.038878955,-0.0083107315,-0.00504386,0.057163127,0.01070953,0.1417622,-0.17787059,-0.026869802,0.06258255,-0.032810774,-0.037946668,0.09384888,0.040999215,-2.0,0.7165509,-2.0,2.0,2.0,-2.0,-2.0,0.16356474,-2.0,-2.0,0.18047014,0.7256509,-2.0,0.50815374,2.0,1.0918641,2.0,-2.0,-2.0,-0.060795896,-2.0,-2.0,-0.66952884,2.0
2025-06-05 11:58:08.484,-0.26460445,0.10399789,0.03638602,-0.053923458,0.14032315,0.009791284,0.0,0.0,0.0,-0.012532661,-0.11000172,0.30785543,-0.01755614,0.0852533,0.15301372,0.0037347993,-0.08276626,-0.2045902,0.105375126,0.0040473025,-0.065083355,0.008560448,-0.02529763,-0.12647013,0.15228754,-0.06372434,0.20441818,-0.15165623,0.0050211246,0.049111646,-0.13372551,-0.026682865,-0.008896477,0.11809864,-2.0,0.50815374,2.0,1.0918641,2.0,-2.0,-2.0,-0.060795896,-2.0,-2.0,-0.66952884,2.0,-2.0,-0.41579935,2.0,-2.0,2.0,-2.0,-2.0,-0.7319041,-2.0,0.12291463,-0.8069918,2.0
2025-06-05 11:58:08.504,-0.28239754,0.14608635,0.0531239,-0.067895815,0.10950169,-0.014513738,0.0,0.0,0.0,-0.012232588,-0.11195407,0.24211769,0.025710866,0.06280769,0.21930993,-0.03147801,-0.074075416,-0.16741696,0.071520105,0.0036067758,-0.08315149,0.041959394,-0.011659272,-0.21416453,0.07160818,-0.08393884,0.12412164,-0.04596404,0.033385407,0.058680635,-0.088914305,0.05294362,-0.0982925,0.05616389,-2.0,-0.41579935,2.0,-2.0,2.0,-2.0,-2.0,-0.7319041,-2.0,0.12291463,-0.8069918,2.0,-1.9060608,-0.8523092,2.0,-2.0,2.0,-2.0,-2.0,-1.8883969,-2.0,2.0,-0.57172376,2.0
2025-06-05 11:58:08.522,-0.24950017,0.27931708,0.049811553,-0.0038364779,0.09445896,-0.038816255,0.0,0.0,0.0,-0.012083088,-0.10256131,0.17824587,0.078047946,0.040248804,0.2589504,-0.0819729,-0.07579317,-0.17190869,0.07302979,0.00949165,-0.098167755,0.08724283,0.07738553,-0.17156275,0.09526554,-0.013578604,0.10712996,-0.09995301,0.0026223485,-0.0986538,-0.06140128,0.017036436,0.019673124,0.13412276,-1.9060608,-0.8523092,2.0,-2.0,2.0,-2.0,-2.0,-1.8883969,-2.0,2.0,-0.57172376,2.0,-0.81474876,-0.3898737,2.0,-2.0,2.0,-2.0,-2.0,-2.0,-2.0,2.0,-0.92550385,2.0
2025-06-05 11:58:08.542,-0.1588593,0.13505693,-0.115041256,-0.018747648,0.115858965,0.006133566,0.0,0.0,0.0,-0.011313134,-0.08376061,0.11584699,0.11107635,0.022309424,0.2878882,-0.09526611,-0.08370543,-0.2022559,0.0729211,0.018543234,-0.123892635,0.11722012,-0.013680549,-0.08031104,0.12874027,-0.07957158,-0.004570722,0.069511026,-0.038793076,-0.098063916,-0.08597228,-0.021433415,-0.10061003,0.09937808,-0.81474876,-0.3898737,2.0,-2.0,2.0,-2.0,-2.0,-2.0,-2.0,2.0,-0.92550385,2.0,0.86921877,-0.14651081,2.0,-2.0,1.1055171,-2.0,-2.0,-0.8438318,-2.0,2.0,-0.55956304,2.0
2025-06-05 11:58:08.562,-0.030680997,0.0204907,0.038828585,0.026611667,0.060565636,-0.021530287,0.0,0.0,0.0,-0.009912131,-0.0841393,0.0841779,0.13366935,0.013222596,0.2771233,-0.0612803,-0.09527415,-0.22563429,0.04819193,0.027514003,-0.1314779,0.13073377,-0.004915761,0.015365444,0.10720526,-0.04289838,-0.054142367,0.11351851,-0.07804091,0.009142955,-0.010922812,0.070494205,-0.07785465,0.06810807,0.86921877,-0.14651081,2.0,-2.0,1.1055171,-2.0,-2.0,-0.8438318,-2.0,2.0,-0.55956304,2.0,2.0,-0.062201835,2.0,-2.0,1.2320974,-2.0,-2.0,-2.0,-2.0,2.0,-0.7036234,2.0
2025-06-05 11:58:08.583,0.18333696,-0.049706556,-0.0410819,-0.027053716,0.10936472,-0.03904901,0.0,0.0,0.0,-0.0093075335,-0.05079473,0.06785329,0.16878158,0.018503398,0.24942109,-0.03712162,-0.08853075,-0.24157648,0.0394609,0.04237535,-0.13443165,0.16031903,0.038478237,-0.10796348,0.052872945,-0.070118174,-0.0030317772,0.005196191,0.023578662,-0.0612517,-0.04405293,-0.040403146,-0.023221763,0.038030993,2.0,-0.062201835,2.0,-2.0,1.2320974,-2.0,-2.0,-2.0,-2.0,2.0,-0.7036234,2.0,2.0,-0.22386935,2.0,-2.0,1.5171487,-2.0,-2.0,-1.7727716,-2.0,2.0,-1.4530523,2.0
2025-06-05 11:58:08.601,0.17981043,-0.107922755,-0.050850864,-0.016631901,0.039228667,-0.027919488,0.0,0.0,0.0,-0.009483991,-0.019059934,0.048785526,0.1758528,-0.008487903,0.24740332,-0.047772624,-0.11501476,-0.26937193,0.043851882,0.039293446,-0.1676693,0.18135612,0.0046359356,-0.08393992,0.035047002,-0.06309122,0.0047496757,-0.067081384,0.019483639,-0.0546572,-0.06049471,0.025504457,-0.020332284,0.048388608,2.0,-0.22386935,2.0,-2.0,1.5171487,-2.0,-2.0,-1.7727716,-2.0,2.0,-1.4530523,2.0,2.0,-0.24144122,2.0,-2.0,1.5433387,-2.0,-2.0,-1.527665,-2.0,2.0,-1.6872383,1.1854347
2025-06-05 11:58:08.623,0.056464575,-0.08618985,-0.013644047,-0.043439064,0.08902874,0.038333993,0.0,0.0,0.0,-0.009361491,0.0043823933,0.04454784,0.1944611,-0.003120527,0.23693778,-0.047736067,-0.10925488,-0.27584064,0.038529977,0.055794135,-0.19890179,0.18416475,0.11235854,-0.1090974,0.001811284,-0.042534098,0.020754883,0.043190356,-0.025630737,0.03940634,-0.008072529,-0.047182858,-0.15844199,0.023849094,2.0,-0.24144122,2.0,-2.0,1.5433387,-2.0,-2.0,-1.527665,-2.0,2.0,-1.6872383,1.1854347,2.0,0.1962873,2.0,-2.0,1.554451,-2.0,-2.0,-1.830642,-2.0,2.0,-1.5479972,-1.2628995
2025-06-05 11:58:08.643,0.07353628,-0.0139335105,-0.09976585,0.014843938,0.13086443,0.049988713,0.0,0.0,0.0,-0.008947144,0.01495629,0.0448533,0.20077014,-0.019795572,0.2447731,-0.06518756,-0.12436811,-0.2926154,0.03349509,0.056368165,-0.21954899,0.1195213,0.029795084,0.079083726,0.02265981,-0.030965568,0.024394078,-0.044198874,0.037023537,-0.036720045,-0.032930553,0.006572067,-0.026995378,-0.08521335,2.0,0.1962873,2.0,-2.0,1.554451,-2.0,-2.0,-1.830642,-2.0,2.0,-1.5479972,-1.2628995,2.0,1.017982,0.98103535,-2.0,1.2212172,-2.0,-2.0,-1.3963411,-2.0,2.0,-1.2910525,-2.0
2025-06-05 11:58:08.665,-0.005673414,0.02471,-0.058088355,-0.03446062,0.09302871,-0.04114277,0.0,0.0,0.0,-0.0078682965,0.04181032,0.06464642,0.19831578,-0.025140265,0.25483158,-0.06449745,-0.13257533,-0.28589532,0.019384174,0.07237135,-0.24209791,0.068637535,0.10914265,0.11348967,-0.10263809,-0.06890176,-0.025075639,0.0504224,-0.038735688,-0.036722787,-0.023290966,-0.05643445,0.02224143,-0.14108521,2.0,1.017982,0.98103535,-2.0,1.2212172,-2.0,-2.0,-1.3963411,-2.0,2.0,-1.2910525,-2.0,2.0,1.4754132,-2.0,-2.0,0.7439299,-1.0530065,-2.0,-1.827906,-2.0,2.0,-0.9106326,-2.0
2025-06-05 11:58:08.683,0.051458914,0.088064194,-0.036224507,-0.02458344,0.08937215,-0.0001644751,0.0,0.0,0.0,-0.006778354,0.050116196,0.11903633,0.122821726,-0.02982266,0.24272522,-0.063097045,-0.11928774,-0.2944108,0.022887716,0.066331156,-0.24746749,-0.00414528,0.07208472,0.1286012,-0.18463804,0.0072676553,0.045953464,-0.016262434,0.08046039,-0.06128791,-0.056683477,-0.04166205,0.062206704,-0.09987315,2.0,1.4754132,-2.0,-2.0,0.7439299,-1.0530065,-2.0,-1.827906,-2.0,2.0,-0.9106326,-2.0,2.0,1.6239281,-2.0,-2.0,0.9959834,2.0,-2.0,-2.0,-2.0,2.0,-1.8166285,-2.0
2025-06-05 11:58:08.703,-0.009425168,0.3189436,-0.002467313,-0.018744139,0.10346055,0.0018198101,0.0,0.0,0.0,-0.005551418,0.05807862,0.12762009,0.0718922,-0.05273579,0.23733957,-0.019937826,-0.115932964,-0.31954703,0.0005623733,0.083174564,-0.27198803,-0.041258775,0.100141816,-0.022524733,-0.076900184,0.011242634,-0.075298525,0.1821125,-0.008124205,-0.032313462,0.016767383,0.085679315,-0.111419484,-0.08723992,2.0,1.6239281,-2.0,-2.0,0.9959834,2.0,-2.0,-2.0,-2.0,2.0,-1.8166285,-2.0,2.0,1.4131546,-2.0,0.14448091,1.2712317,2.0,-2.0,-2.0,-2.0,2.0,-2.0,-2.0
2025-06-05 11:58:08.723,0.12234792,0.5132063,-0.03192366,0.013460578,0.008058066,-0.003459971,0.0,0.0,0.0,-0.004767392,0.076969594,0.14884023,0.051907107,-0.029691033,0.25081953,0.023670461,-0.10308247,-0.33778667,-0.027504757,0.07711425,-0.3057108,-0.089316905,0.0038084243,0.091872714,-0.09463769,0.06866987,0.047510453,0.1288411,-0.00796597,-0.12440738,-0.073910825,0.008862092,-0.08919424,-0.047100734,2.0,1.4131546,-2.0,0.14448091,1.2712317,2.0,-2.0,-2.0,-2.0,2.0,-2.0,-2.0,2.0,1.034873,-2.0,2.0,1.1409025,2.0,-2.0,-2.0,0.82796764,2.0,-2.0,-2.0
2025-06-05 11:58:08.743,0.11252301,0.319255,-0.08091936,-0.056565914,0.053453714,-0.040032987,0.0,0.0,0.0,-0.0040129563,0.09850073,0.15490255,0.014901877,-0.02941423,0.2500447,0.061519343,-0.10447436,-0.3657849,-0.0033716217,0.097090565,-0.33434063,-0.10343964,0.02864196,-0.030128587,-0.07793325,0.067242704,0.0095905075,0.11923502,-0.037724704,-0.011460654,0.07566064,0.06042398,-0.053175043,-0.007826411,2.0,1.034873,-2.0,2.0,1.1409025,2.0,-2.0,-2.0,0.82796764,2.0,-2.0,-2.0,2.0,1.0188417,-2.0,2.0,-0.1917017,2.0,-2.0,-1.6220182,2.0,2.0,-2.0,-2.0
2025-06-05 11:58:08.765,-0.016516503,0.20324057,-0.07613494,-0.07011723,0.020071883,-0.023146972,0.0,0.0,0.0,-0.0028083944,0.089220785,0.15064417,0.0038918538,-0.0006217098,0.20586748,0.11095772,-0.09371162,-0.36184165,0.030905008,0.10052835,-0.3660781,-0.078991644,-0.05541421,-0.030951733,0.0060829017,0.07225956,-0.10987326,0.14782125,-0.063492455,-0.0446547,0.124040246,-0.022770954,-0.014476433,0.09325197,2.0,1.0188417,-2.0,2.0,-0.1917017,2.0,-2.0,-1.6220182,2.0,2.0,-2.0,-2.0,2.0,1.5347745,-2.0,2.0,-1.021877,2.0,-2.0,-1.38424,2.0,2.0,-2.0,-2.0
2025-06-05 11:58:08.784,-0.016892387,0.12896173,-0.010598348,-0.093144566,-0.067917265,-0.012221002,0.0,0.0,0.0,-0.0015337353,0.083155565,0.1616205,0.0012735417,0.0031314343,0.13902497,0.1389492,-0.10654461,-0.36008596,0.07384622,0.10841246,-0.37926358,-0.0703822,-0.06662425,-0.046500903,-0.010407622,0.095373414,-0.12801284,0.13533652,0.030399457,0.057122376,0.13295653,0.056025494,-0.011135736,0.06834827,2.0,1.5347745,-2.0,2.0,-1.021877,2.0,-2.0,-1.38424,2.0,2.0,-2.0,-2.0,2.0,1.2301555,-2.0,2.0,-1.2965251,2.0,-2.0,-1.3266032,2.0,2.0,-2.0,-2.0
2025-06-05 11:58:08.803,-0.08960505,0.14844713,-0.022261024,-0.042452756,-0.092890814,-0.004461761,0.0,0.0,0.0,-0.0006053686,0.08379409,0.16331097,-0.006960562,0.021797355,0.07030931,0.15225653,-0.092796534,-0.35290426,0.113521405,0.11198959,-0.3836281,-0.053771924,-0.07502459,-0.008973027,-0.094002254,0.09886022,-0.15251544,0.11149346,-0.042510364,-0.04003485,0.068305016,0.058901016,-0.08734485,0.037866082,2.0,1.2301555,-2.0,2.0,-1.2965251,2.0,-2.0,-1.3266032,2.0,2.0,-2.0,-2.0,2.0,1.3655987,-2.0,2.0,-1.2010938,2.0,-2.0,-1.4282376,2.0,2.0,-2.0,-2.0
2025-06-05 11:58:08.824,-0.07899583,0.16501144,0.017376944,-0.090314835,-0.05733607,-0.049240295,0.0,0.0,0.0,6.693662e-05,0.09585263,0.17730995,-0.033114064,0.036551256,0.013886252,0.17552212,-0.09605488,-0.34897172,0.1373953,0.11931141,-0.3942619,-0.041128427,0.050639026,-0.04020814,-0.07518306,0.0056724125,-0.12882385,0.036858883,0.079321876,0.030188903,0.09112721,-0.04554247,0.015553465,-0.0014147235,2.0,1.3655987,-2.0,2.0,-1.2010938,2.0,-2.0,-1.4282376,2.0,2.0,-2.0,-2.0,2.0,1.0458833,-2.0,2.0,-1.1126392,2.0,-2.0,-1.5067068,2.0,2.0,-1.898185,-2.0
2025-06-05 11:58:08.844,-0.0059392555,0.17328276,-0.01539171,-0.03004813,-0.07533267,-0.031039897,0.0,0.0,0.0,0.0005251964,0.08610484,0.17585944,-0.034916546,0.049219627,-0.039194647,0.17662841,-0.102986194,-0.35265392,0.15597925,0.119791,-0.4131632,-0.046275023,0.012538705,0.085747875,-0.068737306,0.026468046,-0.10657024,0.07812911,-0.047417775,0.02121309,0.0865506,-0.052006517,-0.04938635,0.016466483,2.0,1.0458833,-2.0,2.0,-1.1126392,2.0,-2.0,-1.5067068,2.0,2.0,-1.898185,-2.0,2.0,1.2378104,-2.0,2.0,-0.91608745,2.0,-2.0,-1.5935953,2.0,2.0,-2.0,-2.0
2025-06-05 11:58:08.867,-0.027512947,0.15089945,-0.03368996,-0.029835897,-0.09496551,-0.0414857,0.0,0.0,0.0,0.0010000344,0.081079096,0.19791633,-0.06407877,0.058011916,-0.07773209,0.20725073,-0.08832581,-0.34805566,0.17959239,0.118309714,-0.41241533,-0.039672166,-0.04353016,0.068865545,-0.008585896,0.059651274,-0.07062387,0.000887004,0.01447182,0.053440675,0.106558144,-0.027013665,0.019131476,0.02360278,2.0,1.2378104,-2.0,2.0,-0.91608745,2.0,-2.0,-1.5935953,2.0,2.0,-2.0,-2.0,2.0,1.4513909,-2.0,2.0,-1.174633,2.0,-2.0,-1.7300692,2.0,0.42009664,-2.0,-2.0
2025-06-05 11:58:08.883,-0.020328337,0.10006029,0.04893577,-0.024621403,-0.064471364,0.0276089,0.0,0.0,0.0,0.0013767479,0.07693359,0.19760081,-0.061902367,0.060905725,-0.09767398,0.21087623,-0.08361565,-0.34685168,0.19282329,0.12916392,-0.42182848,-0.05330427,0.05322239,0.048396032,0.017409619,0.065189645,-0.04530808,0.009881218,-0.040384993,0.016010996,-0.022744177,0.04767907,0.05780644,0.05341841,2.0,1.4513909,-2.0,2.0,-1.174633,2.0,-2.0,-1.7300692,2.0,0.42009664,-2.0,-2.0,2.0,0.09598609,-2.0,2.0,-0.20191449,2.0,-2.0,-1.5220376,2.0,-1.2321434,-1.730719,-2.0
2025-06-05 11:58:08.950,0.006483629,0.0014371064,-0.0016991819,-0.014867804,-0.111883305,0.01884046,0.0,0.0,0.0,0.00089397543,0.08411551,0.20369057,-0.07028515,0.06589915,-0.09795018,0.21083954,-0.09385874,-0.34980926,0.19477502,0.11061337,-0.42056125,-0.038927235,0.028482474,0.04331671,0.03272098,0.010450488,-0.012140266,0.057004225,0.07166908,-0.02551827,0.060399573,-0.041581955,-0.04585598,0.061228514,2.0,0.09598609,-2.0,2.0,-0.20191449,2.0,-2.0,-1.5220376,2.0,-1.2321434,-1.730719,-2.0,2.0,1.387892,-2.0,2.0,0.079926014,0.23250937,-2.0,-1.8530998,2.0,-2.0,-1.5001891,-2.0
2025-06-05 11:58:08.970,-0.13308924,0.023934288,0.09907699,-0.06293388,-0.055192523,-0.048364334,0.0,0.0,0.0,0.00011373106,0.0646394,0.18673885,-0.05566485,0.070460856,-0.085116245,0.19895864,-0.09204145,-0.3657874,0.20818545,0.07591571,-0.42857498,-0.05284678,0.006994836,0.08136463,0.07087134,-0.0009883678,0.0033804483,-0.05868874,-0.043722592,-0.007167391,0.0800941,-0.053247314,-0.0436041,0.059911564,2.0,1.387892,-2.0,2.0,0.079926014,0.23250937,-2.0,-1.8530998,2.0,-2.0,-1.5001891,-2.0,2.0,0.29038605,-2.0,1.515351,1.9641775,-2.0,-2.0,-1.6726409,-2.0,-2.0,-0.87917584,-2.0
2025-06-05 11:58:08.990,-0.12931965,-0.016391214,-0.008195016,-0.07574875,-0.05607714,-0.017088251,0.0,0.0,0.0,-0.0012377083,0.058309328,0.18918297,-0.054880433,0.08084008,0.002330228,0.12572865,-0.09241195,-0.36799827,0.15135539,0.062381994,-0.41142035,-0.07301337,-0.104285486,0.04926393,0.048115067,-0.053447425,0.23516145,-0.21882343,0.04702362,0.035511255,-0.14794701,-0.061372742,0.033538084,-0.01091912,2.0,0.29038605,-2.0,1.515351,1.9641775,-2.0,-2.0,-1.6726409,-2.0,-2.0,-0.87917584,-2.0,2.0,1.4544291,-1.0128773,-2.0,1.6336459,-2.0,-2.0,-0.99823904,-2.0,-2.0,-1.9713036,-1.0483098
2025-06-05 11:58:09.011,-0.06126911,0.013174719,0.0785916,-0.02815669,-0.06628985,-0.033850037,0.0,0.0,0.0,-0.002046586,0.03773177,0.20131415,-0.060358174,0.064005405,0.06663901,0.054872084,-0.09528531,-0.34667012,0.07606361,0.038987402,-0.41829756,-0.07037094,-0.049226623,0.003487762,-0.0306231,-0.10564856,0.11199119,-0.0957539,-0.007950755,-0.020609062,-0.12763944,-0.116571985,0.011431307,-0.009295193,2.0,1.4544291,-1.0128773,-2.0,1.6336459,-2.0,-2.0,-0.99823904,-2.0,-2.0,-1.9713036,-1.0483098,2.0,0.9497378,2.0,-2.0,1.3423946,-2.0,-2.0,-1.8783418,-2.0,-2.0,-1.9350815,0.5190989
2025-06-05 11:58:09.035,0.06093724,-0.24165912,0.060747534,0.0052638943,-0.021884305,0.035608288,0.0,0.0,0.0,-0.0034742567,0.051969506,0.20710814,-0.01527293,0.032092072,0.08323374,0.030479321,-0.09174006,-0.37214786,0.020241087,0.023668896,-0.42628387,-0.047107212,0.029817387,-0.008143922,0.08786245,-0.044866357,-0.043927018,-0.03585342,-0.06543208,-0.081114724,-0.10403553,-0.042739976,-0.087991156,0.116757914,2.0,0.9497378,2.0,-2.0,1.3423946,-2.0,-2.0,-1.8783418,-2.0,-2.0,-1.9350815,0.5190989,2.0,0.39929584,2.0,-2.0,1.2731581,-2.0,-2.0,-1.7427598,-2.0,-1.6333908,-2.0,2.0
2025-06-05 11:58:09.051,0.20899352,-0.39880335,0.02968193,-0.053974103,-0.011737244,-0.035962343,0.0,0.0,0.0,-0.0045874473,0.059274312,0.20165698,0.04696944,0.009343111,0.08171335,0.026093623,-0.09177807,-0.37959388,-0.038407374,0.004549822,-0.453173,0.00234812,0.09374966,-0.048726264,0.09974019,-0.067642674,0.02569026,0.026384022,0.06186977,-0.009458517,-0.16856442,-0.11248593,0.033831373,0.053193837,2.0,0.39929584,2.0,-2.0,1.2731581,-2.0,-2.0,-1.7427598,-2.0,-1.6333908,-2.0,2.0,2.0,0.11497571,2.0,-2.0,0.9018338,-2.0,-2.0,-1.3155054,-2.0,-0.32579553,-1.8200598,2.0
2025-06-05 11:58:09.071,0.30806023,-0.48398927,0.065166906,-0.09239527,0.0037273613,0.010653011,0.0,0.0,0.0,-0.0053207697,0.07560148,0.17105076,0.08296747,-0.023452865,0.08104405,0.0094393,-0.10343402,-0.371541,-0.07479245,-0.014849041,-0.44685388,0.04786769,-0.006101356,-0.022802887,0.10034164,-0.11112968,-0.06679717,-0.05926413,-0.013622498,-0.053336766,-0.06845564,0.030840809,0.02825984,0.12720856,2.0,0.11497571,2.0,-2.0,0.9018338,-2.0,-2.0,-1.3155054,-2.0,-0.32579553,-1.8200598,2.0,2.0,-0.29710242,2.0,-2.0,1.0678265,-2.0,-2.0,-1.5127704,-2.0,2.0,-1.7857276,2.0
2025-06-05 11:58:09.091,0.15417449,-0.12594444,0.1166386,-0.10094424,0.053300694,-0.04607663,0.0,0.0,0.0,-0.006724408,0.08084717,0.13564305,0.11762903,-0.05472383,0.09129417,-0.01343444,-0.11263528,-0.37898883,-0.084829174,-0.0021458662,-0.4445431,0.07612994,-0.02714022,-0.016674493,0.057090644,-0.04038716,0.078153715,0.02045023,-0.071356215,0.017884798,0.026529428,-0.009863312,0.07824478,0.13007659,2.0,-0.29710242,2.0,-2.0,1.0678265,-2.0,-2.0,-1.5127704,-2.0,2.0,-1.7857276,2.0,2.0,-0.15677956,2.0,-2.0,1.7217467,-2.0,-2.0,-2.0,-2.0,2.0,-1.6560637,2.0
2025-06-05 11:58:09.111,-0.0050607906,-0.045390077,-0.011351016,-0.08150761,-0.0069611417,0.011199249,0.0,0.0,0.0,-0.008472902,0.09843749,0.1093873,0.13655865,-0.058542065,0.08657229,-0.01778599,-0.13034151,-0.4016845,-0.053434927,0.02433359,-0.43241832,0.107683115,0.010535353,-0.015905315,0.13281755,-0.01405287,0.07237887,-0.09360533,-0.08243045,-0.054570336,0.064838976,-0.020950831,0.07511593,0.107455984,2.0,-0.15677956,2.0,-2.0,1.7217467,-2.0,-2.0,-2.0,-2.0,2.0,-1.6560637,2.0,2.0,0.04304316,2.0,-2.0,1.3386121,-2.0,-2.0,-1.4203321,-2.0,2.0,-1.67886,1.9389441
2025-06-05 11:58:09.134,-0.10316821,-0.03039859,0.024654353,-0.03695109,0.006966413,-0.010203586,0.0,0.0,0.0,-0.009488731,0.09306792,0.09087737,0.15225686,-0.05767322,0.12041287,-0.03261304,-0.13329688,-0.3787435,-0.04578782,0.031155644,-0.42810336,0.14545567,0.040523995,-0.05337852,-0.012888768,0.030450074,0.10348477,-0.0034517837,-0.028337322,-0.0017215726,0.03477159,-0.04823635,0.057904582,0.12897573,2.0,0.04304316,2.0,-2.0,1.3386121,-2.0,-2.0,-1.4203321,-2.0,2.0,-1.67886,1.9389441,2.0,0.1132138,2.0,-2.0,1.3168373,-2.0,-2.0,-1.8615853,-2.0,2.0,-1.287539,0.96052206
2025-06-05 11:58:09.152,-0.018970177,-0.11769173,0.023916423,-0.06609959,0.09245654,0.014422973,0.0,0.0,0.0,-0.010245266,0.106349,0.086969264,0.17440505,-0.05932609,0.12958653,-0.041402437,-0.13942407,-0.37270042,-0.02962888,0.040210836,-0.39293873,0.13728724,-0.019519838,0.028248608,-0.021013191,-0.029516906,0.06264427,-0.035596564,-0.04737109,-0.030347863,0.012884968,0.028588796,-0.016341705,0.022184312,2.0,0.1132138,2.0,-2.0,1.3168373,-2.0,-2.0,-1.8615853,-2.0,2.0,-1.287539,0.96052206,2.0,0.34954444,2.0,-2.0,1.4769399,-2.0,-2.0,-1.9716793,-2.0,2.0,-1.2864883,-0.6084511
2025-06-05 11:58:09.172,0.0034552745,-0.07241032,-0.019978834,-0.057073414,0.048024252,0.04761074,0.0,0.0,0.0,-0.010458846,0.09629286,0.078957066,0.1942478,-0.06493761,0.14432102,-0.03853104,-0.15043451,-0.3875357,-0.02498572,0.055226136,-0.3877466,0.102553844,0.064007916,-0.034373563,0.06982255,-0.0070201014,0.0009935267,0.035746753,-0.061754256,-0.025597347,0.07250619,-0.044944588,0.10822265,-0.15441637,2.0,0.34954444,2.0,-2.0,1.4769399,-2.0,-2.0,-1.9716793,-2.0,2.0,-1.2864883,-0.6084511,2.0,0.86451095,1.1714672,-2.0,1.4151584,-2.0,-2.0,-1.9131383,-2.0,2.0,-1.0604693,-2.0
2025-06-05 11:58:09.191,0.056405205,-0.027179083,-0.008691312,-0.06656231,0.09680374,-0.03761643,0.0,0.0,0.0,-0.009961427,0.10939107,0.09053577,0.18000834,-0.06564292,0.16320671,-0.064327724,-0.13843592,-0.38775113,-0.029821957,0.057934586,-0.3514086,0.053298876,0.021225603,0.12607539,-0.008515278,0.062750086,0.037535835,-0.05278984,-0.05395595,0.0029853682,-0.05851577,0.06363518,0.090149924,-0.20559306,2.0,0.86451095,1.1714672,-2.0,1.4151584,-2.0,-2.0,-1.9131383,-2.0,2.0,-1.0604693,-2.0,2.0,1.2831745,-2.0,-2.0,1.2163566,-1.0526823,-2.0,-2.0,-2.0,2.0,-1.1119952,-2.0
2025-06-05 11:58:09.213,-0.0037276414,-0.012352864,-0.10303822,-0.11074315,0.05323716,-0.048259802,0.0,0.0,0.0,-0.009057986,0.105772756,0.1345659,0.11413457,-0.06187545,0.19030644,-0.07158015,-0.13593064,-0.38565734,-0.031786308,0.054800324,-0.33876726,-0.010405792,0.021040585,0.025551355,-0.18386395,-0.0026082532,-0.0033053232,-0.027203077,0.0293194,-0.013645284,-0.020368163,0.0138088,0.1146472,-0.10716545,2.0,1.2831745,-2.0,-2.0,1.2163566,-1.0526823,-2.0,-2.0,-2.0,2.0,-1.1119952,-2.0,2.0,2.0,-2.0,-2.0,0.2887743,2.0,-2.0,-1.6544198,-2.0,2.0,-2.0,-2.0
2025-06-05 11:58:09.235,-0.15412305,0.21840192,-0.007865476,-0.053810455,0.044881836,0.0052284356,0.0,0.0,0.0,-0.0077484734,0.099993326,0.1779925,0.053201165,-0.07774359,0.17583916,-0.011431621,-0.1208969,-0.39051455,-0.032951534,0.06468201,-0.35264093,-0.05073307,0.04696437,0.05199671,-0.19278137,0.05312161,-0.065658964,0.17515774,0.0090232175,-0.05725073,0.0075464477,0.07251285,-0.01253405,-0.031689204,2.0,2.0,-2.0,-2.0,0.2887743,2.0,-2.0,-1.6544198,-2.0,2.0,-2.0,-2.0,2.0,1.3654418,-2.0,0.78250384,1.1215516,2.0,-2.0,-2.0,-1.5472958,2.0,-2.0,-2.0
2025-06-05 11:58:09.251,-0.009943279,0.26480523,-0.07093689,-0.09668357,0.01266523,-0.029824419,0.0,0.0,0.0,-0.0068634967,0.12485017,0.20378962,0.014432512,-0.052355047,0.16819009,0.029889815,-0.122913145,-0.37940097,-0.02081002,0.08062549,-0.37853062,-0.08779888,0.051143546,0.100710504,0.016023807,-0.032151833,0.1039415,0.10140277,-0.025153805,-0.072285734,0.045765407,0.04200037,-0.10359121,-0.110790595,2.0,1.3654418,-2.0,0.78250384,1.1215516,2.0,-2.0,-2.0,-1.5472958,2.0,-2.0,-2.0,2.0,1.4560947,-2.0,2.0,0.47170419,2.0,-2.0,-2.0,1.4351647,2.0,-2.0,-2.0
2025-06-05 11:58:09.272,0.03914475,0.12844929,-0.014559042,-0.06365853,-0.007616322,0.025491394,0.0,0.0,0.0,-0.0057393303,0.12703702,0.21906616,0.02187324,-0.03172492,0.17976044,0.069778234,-0.10986649,-0.40347552,0.0111926915,0.089617856,-0.39213228,-0.08032119,-0.016588636,0.08341115,-0.011799757,0.04956514,0.010265127,0.08294944,0.06474887,-0.044354692,0.07373593,0.0872843,-0.030564737,0.053500935,2.0,1.4560947,-2.0,2.0,0.47170419,2.0,-2.0,-2.0,1.4351647,2.0,-2.0,-2.0,2.0,1.0113609,-2.0,2.0,-0.57220095,2.0,-2.0,-1.7135454,2.0,2.0,-2.0,-2.0
2025-06-05 11:58:09.291,0.037414923,0.12740253,-0.07057186,-0.044111326,-0.008919957,-0.030067267,0.0,0.0,0.0,-0.0047273845,0.11297213,0.22394893,0.02211697,-0.013223555,0.1230191,0.10098658,-0.10849785,-0.4155707,0.05411641,0.09600074,-0.41176304,-0.06629287,0.025293427,0.01937794,0.026436925,0.040044613,-0.17874348,0.019255716,-0.05456854,0.032466322,0.065785006,-0.010844386,-0.03821865,0.087195374,2.0,1.0113609,-2.0,2.0,-0.57220095,2.0,-2.0,-1.7135454,2.0,2.0,-2.0,-2.0,2.0,1.8838731,-2.0,2.0,-1.2385848,2.0,-2.0,-1.6598328,2.0,1.0352058,-2.0,-2.0
2025-06-05 11:58:09.313,0.033573966,0.02568186,-0.06676104,-0.03796113,-0.008669914,-0.035847444,0.0,0.0,0.0,-0.0035903275,0.12318037,0.237635,0.009036521,-0.009778397,0.06723358,0.1281332,-0.09879112,-0.397011,0.09176111,0.11006292,-0.4155797,-0.052292172,-0.002154303,0.019935183,-0.025206206,0.049617816,-0.23924324,-0.012532259,-0.02348718,0.037436604,0.013423576,0.037505582,-0.01989441,0.09530257,2.0,1.8838731,-2.0,2.0,-1.2385848,2.0,-2.0,-1.6598328,2.0,1.0352058,-2.0,-2.0,2.0,1.7754551,-2.0,2.0,-1.4905776,2.0,-2.0,-1.902016,2.0,-2.0,-2.0,-2.0
2025-06-05 11:58:09.335,0.069122195,-0.07535085,0.042873535,-0.09392244,-0.035678353,-0.010213573,0.0,0.0,0.0,-0.0028983906,0.10873897,0.2410514,-0.0064960537,0.005962304,-0.014014334,0.15402673,-0.11502436,-0.40426758,0.11818713,0.08986417,-0.42821983,-0.0397897,0.025446016,0.030032406,0.038399197,0.047089733,-0.20337956,0.08027595,-0.014194425,0.058051378,0.033340376,0.004712554,-0.085037254,-0.03984285,2.0,1.7754551,-2.0,2.0,-1.4905776,2.0,-2.0,-1.902016,2.0,-2.0,-2.0,-2.0,2.0,2.0,-2.0,2.0,0.1019029,0.8848182,-2.0,-1.8889258,2.0,-2.0,-2.0,-2.0
2025-06-05 11:58:09.352,0.07382352,-0.09393622,0.104226805,-0.08172932,-0.0050054514,0.049067345,0.0,0.0,0.0,-0.0037948696,0.103622854,0.27276567,-0.0056536333,0.024635723,-0.007082367,0.14978892,-0.10462476,-0.41064548,0.13832302,0.0757337,-0.41977426,-0.046094112,-0.00648353,0.07896738,-0.02299102,0.10126261,0.03952422,0.007883514,-0.010102167,-0.04983007,0.10365992,-0.041665774,0.03281581,0.037077636,2.0,2.0,-2.0,2.0,0.1019029,0.8848182,-2.0,-1.8889258,2.0,-2.0,-2.0,-2.0,2.0,0.8760885,-2.0,2.0,1.5487887,-1.4928509,-2.0,-1.9547017,-1.3127987,-2.0,-1.0809363,-2.0
2025-06-05 11:58:09.372,0.006220048,-0.10448188,-0.0077719865,-0.042274415,0.0751161,-0.027755968,0.0,0.0,0.0,-0.006072075,0.07711965,0.2766201,-0.015857818,0.04809983,0.034761146,0.103932545,-0.10368512,-0.42370886,0.09026855,0.049747746,-0.42212135,-0.059298128,0.026220417,0.083686925,0.056013227,-0.029426206,0.11445436,-0.11898133,-0.016856786,-0.024015527,-0.097763576,-0.10409958,0.078342885,-0.06114342,2.0,0.8760885,-2.0,2.0,1.5487887,-1.4928509,-2.0,-1.9547017,-1.3127987,-2.0,-1.0809363,-2.0,2.0,1.6997582,-2.0,-0.9643686,2.0,-2.0,-2.0,-1.6532179,-2.0,-2.0,-2.0,-2.0
2025-06-05 11:58:09.392,0.1072333,-0.06772068,0.10183301,-0.11963064,-0.0017224601,0.04936696,0.0,0.0,0.0,-0.0074316924,0.07424349,0.28693014,-0.027146721,0.023230148,0.114807315,0.036341004,-0.091492265,-0.42186362,0.031477414,0.031410627,-0.4191798,-0.05184521,-0.027216319,-0.03707313,-0.09329646,-0.06379003,0.12854785,-0.09591572,0.06352896,0.041305915,-0.114590734,6.775954e-05,-0.07951787,-0.060119633,2.0,1.6997582,-2.0,-0.9643686,2.0,-2.0,-2.0,-1.6532179,-2.0,-2.0,-2.0,-2.0,2.0,1.5355957,-0.46757242,-2.0,2.0,-2.0,-2.0,-2.0,-2.0,-2.0,-1.8439693,-2.0
2025-06-05 11:58:09.417,-0.06033163,-0.048506472,0.050099522,-0.11849322,0.078074634,-0.033738494,0.0,0.0,0.0,-0.0090938285,0.07096688,0.29768732,-0.038293324,0.010649511,0.17128924,-0.021085503,-0.10527295,-0.41801488,-0.0060633095,0.0030891425,-0.42069364,-0.048955195,0.06276432,0.010190024,-0.030500557,-0.07939398,0.099284135,-0.09082623,-0.07110497,0.013032053,-0.11692611,-0.04018986,0.059344973,0.02866839,2.0,1.5355957,-0.46757242,-2.0,2.0,-2.0,-2.0,-2.0,-2.0,-2.0,-1.8439693,-2.0,2.0,1.1901869,2.0,-2.0,2.0,-2.0,-2.0,-2.0,-2.0,-2.0,-2.0,-1.7504625
2025-06-05 11:58:09.434,-0.12889223,-0.07157188,0.05527803,-0.033708524,0.044058383,-0.03138362,0.0,0.0,0.0,-0.011042344,0.08737819,0.30747703,0.014040828,-0.013679529,0.23492374,-0.065986715,-0.10640367,-0.4251221,-0.024092223,-0.010576387,-0.42282975,-0.064635634,0.011253463,-0.019780511,0.16176191,-0.055719603,0.121185124,-0.07339953,-0.09341246,0.048147008,-0.018798435,0.04130489,0.03687957,-0.056726255,2.0,1.1901869,2.0,-2.0,2.0,-2.0,-2.0,-2.0,-2.0,-2.0,-2.0,-1.7504625,2.0,0.87770903,2.0,-2.0,2.0,-2.0,-2.0,-2.0,-2.0,-2.0,-2.0,2.0
2025-06-05 11:58:09.452,-0.21519372,-0.1454456,0.058501527,-0.044094346,0.016615547,-0.0069757444,0.0,0.0,0.0,-0.012529489,0.08469336,0.30285096,0.050717384,-0.023934942,0.26290357,-0.07257403,-0.116733156,-0.4064226,-0.026972024,-0.01699811,-0.42790097,-0.016534999,0.041422904,-0.069015376,0.15837248,-0.047103766,0.029729817,0.036732078,0.044107288,-0.016845938,0.011798124,-0.05950366,-0.014319539,0.08750885,2.0,0.87770903,2.0,-2.0,2.0,-2.0,-2.0,-2.0,-2.0,-2.0,-2.0,2.0,2.0,0.30916277,2.0,-2.0,2.0,-2.0,-2.0,-1.3966198,-2.0,-1.2329166,-2.0,2.0
2025-06-05 11:58:09.473,-0.18558027,-0.12169801,-0.03159302,0.00027923196,0.054955073,0.027361806,0.0,0.0,0.0,-0.012954051,0.08431935,0.2764612,0.09107712,-0.021689005,0.2658147,-0.075642556,-0.11732866,-0.4182702,-0.034562822,-0.038156115,-0.44757068,0.027621264,0.0819239,-0.10973547,0.041605394,0.05557071,0.090424724,0.10282497,-0.05148202,0.08515442,0.031381957,-0.0051232195,0.026121134,0.10895055,2.0,0.30916277,2.0,-2.0,2.0,-2.0,-2.0,-1.3966198,-2.0,-1.2329166,-2.0,2.0,2.0,0.01572933,2.0,-2.0,0.94972736,-2.0,-2.0,-0.6265801,-2.0,1.3697062,-1.9387631,2.0
2025-06-05 11:58:09.492,-0.17285505,-0.12289064,0.12715755,-0.04887775,0.050822888,-0.004646484,0.0,0.0,0.0,-0.0127040325,0.094238915,0.23346819,0.13007894,-0.026503649,0.28514022,-0.06298323,-0.118071415,-0.39252794,-0.030317023,-0.031519897,-0.45030218,0.06946517,-0.032212306,-0.018238686,0.107957795,-0.018379958,-0.029158372,0.08606259,-0.0010213292,0.050245326,-0.0891703,-0.0008853634,0.030773543,0.049612302,2.0,0.01572933,2.0,-2.0,0.94972736,-2.0,-2.0,-0.6265801,-2.0,1.3697062,-1.9387631,2.0,2.0,-0.35067925,2.0,-2.0,1.5000931,-2.0,-2.0,-2.0,-2.0,2.0,-1.4615049,2.0
2025-06-05 11:58:09.517,0.045554552,-0.14300832,0.015345739,-0.022922209,0.056013525,0.021867635,0.0,0.0,0.0,-0.013616009,0.10511508,0.18382232,0.15352929,-0.047347948,0.2639576,-0.05071912,-0.13214865,-0.38473964,-0.041684326,-0.00842717,-0.43892545,0.102541976,-0.042897526,-0.059436675,0.06801167,-0.0904838,-0.009234714,0.048763283,-0.03472398,-0.008274905,-0.037371665,-0.00033277523,0.0672942,0.14033498,2.0,-0.35067925,2.0,-2.0,1.5000931,-2.0,-2.0,-2.0,-2.0,2.0,-1.4615049,2.0,2.0,-0.32027432,2.0,-2.0,1.7191484,-2.0,-2.0,-1.7405478,-2.0,2.0,-2.0,2.0
2025-06-05 11:58:09.534,0.038328156,-0.10641041,-0.0058285217,0.006647813,0.03707909,0.037737694,0.0,0.0,0.0,-0.014059759,0.099888764,0.14618282,0.17675409,-0.04565971,0.2760845,-0.05609472,-0.1478979,-0.40188658,-0.050608452,0.01663389,-0.43656552,0.122884735,0.08468775,-0.11500879,-0.0006433042,0.020101236,-0.038884394,-0.07446453,0.022189552,-0.01949502,-0.033043515,-0.0074774367,-0.05287189,0.03924341,2.0,-0.32027432,2.0,-2.0,1.7191484,-2.0,-2.0,-1.7405478,-2.0,2.0,-2.0,2.0,2.0,-0.0460336,2.0,-2.0,1.5405947,-2.0,-2.0,-1.6175424,-2.0,2.0,-1.9341652,0.25335672
2025-06-05 11:58:09.553,-0.046420876,-0.12735741,0.016914666,-0.071430676,0.1319497,-0.029962115,0.0,0.0,0.0,-0.013876291,0.098054074,0.12069359,0.18320037,-0.048081763,0.27355433,-0.06514857,-0.13604431,-0.3953796,-0.04271884,0.017653394,-0.44370645,0.12326767,0.027963506,-0.04553299,0.05329664,-0.028955605,0.014824801,0.010364661,0.0062225685,0.013636348,-0.05914362,0.08794881,0.021870937,-0.05336859,2.0,-0.0460336,2.0,-2.0,1.5405947,-2.0,-2.0,-1.6175424,-2.0,2.0,-1.9341652,0.25335672,2.0,0.24632171,2.0,-2.0,1.5978473,-2.0,-2.0,-2.0,-2.0,2.0,-1.7016244,-1.5332689
2025-06-05 11:58:09.573,-0.04204014,-0.059431206,-0.046482407,-0.058806404,0.115159675,0.010215616,0.0,0.0,0.0,-0.013532191,0.103840835,0.108499944,0.20878153,-0.058539208,0.2935144,-0.06956899,-0.13545136,-0.4041199,-0.039332815,0.027401868,-0.4348178,0.0618838,0.0038684476,-0.09527876,0.017105129,-0.02069373,-0.016365616,0.016909651,0.008921099,-0.008148029,-0.063714415,0.061331965,0.066183366,-0.074857295,2.0,0.24632171,2.0,-2.0,1.5978473,-2.0,-2.0,-2.0,-2.0,2.0,-1.7016244,-1.5332689,2.0,0.8796885,1.9730798,-2.0,1.513984,-2.0,-2.0,-1.9758319,-2.0,2.0,-1.7938681,-2.0
2025-06-05 11:58:09.593,-0.04479797,-0.11024572,-0.01210322,0.024938682,0.10900499,-0.00461729,0.0,0.0,0.0,-0.012783904,0.10363046,0.112566695,0.20816323,-0.051072393,0.28845084,-0.077175364,-0.13966526,-0.41791493,-0.04123369,0.052092616,-0.433362,0.019621335,-0.050664626,0.079156265,0.009882675,0.023891782,-2.9429657e-05,0.021591432,-0.00968434,-0.057991117,-0.03580935,-0.008037114,-0.052127667,-0.1258135,2.0,0.8796885,1.9730798,-2.0,1.513984,-2.0,-2.0,-1.9758319,-2.0,2.0,-1.7938681,-2.0,2.0,1.4056932,-0.109855555,-2.0,1.3473265,-2.0,-2.0,-2.0,-2.0,2.0,-1.7027969,-2.0
2025-06-05 11:58:09.618,0.046825554,-0.04795404,0.0026854067,0.0013928801,0.10610638,-0.047133293,0.0,0.0,0.0,-0.011900689,0.11367859,0.14802754,0.18339615,-0.058354013,0.2948424,-0.08255194,-0.14194603,-0.40970778,-0.050646644,0.046779614,-0.43103456,-0.033328038,0.039544843,0.13468131,-0.018724138,0.014264598,0.025137953,0.011983169,0.021633962,-0.06713263,0.021647457,0.073274456,0.030774673,-0.1648522,2.0,1.4056932,-0.109855555,-2.0,1.3473265,-2.0,-2.0,-2.0,-2.0,2.0,-1.7027969,-2.0,2.0,1.4296081,-2.0,-2.0,1.1513565,0.981634,-2.0,-2.0,-2.0,2.0,-1.6687508,-2.0
2025-06-05 11:58:09.634,0.07948233,0.21800297,-6.082512e-06,-0.07172722,0.09875599,0.029303804,0.0,0.0,0.0,-0.011156582,0.11808746,0.1834445,0.14117868,-0.064756036,0.27970973,-0.040566687,-0.12348869,-0.426142,-0.051584434,0.072241895,-0.4156984,-0.0799049,0.05209377,0.0063517233,-0.07552193,-0.08003661,0.050743945,0.1400889,0.06319627,0.044641867,0.008628547,-0.046679344,-0.03070826,-0.14147328,2.0,1.4296081,-2.0,-2.0,1.1513565,0.981634,-2.0,-2.0,-2.0,2.0,-1.6687508,-2.0,2.0,1.8264824,-2.0,-1.554291,1.5671167,2.0,-2.0,-2.0,-2.0,2.0,-2.0,-2.0
2025-06-05 11:58:09.655,0.11542083,0.38924488,-0.009896157,-0.06560349,0.05209627,-0.0073797456,0.0,0.0,0.0,-0.010587126,0.1208923,0.19285549,0.117012896,-0.06209645,0.3067852,0.012991281,-0.12342559,-0.42869928,-0.061890908,0.069525994,-0.43019015,-0.09756726,0.020848177,0.053989902,-0.107565545,0.06413771,-0.016558707,0.15938333,-0.013949447,-0.08942577,0.016455201,0.02315237,-0.009877597,-0.07824129,2.0,1.8264824,-2.0,-1.554291,1.5671167,2.0,-2.0,-2.0,-2.0,2.0,-2.0,-2.0,2.0,1.5471177,-2.0,1.2768918,1.2229601,2.0,-2.0,-2.0,-1.0679436,2.0,-2.0,-2.0
2025-06-05 11:58:09.674,0.18309478,0.3385687,-0.029904407,-0.008767712,0.06462772,-0.046841424,0.0,0.0,0.0,-0.010191119,0.13395597,0.21137953,0.08173552,-0.055638608,0.3098862,0.047188956,-0.11809852,-0.43903846,-0.068445005,0.08424161,-0.42918754,-0.13298851,0.07450622,-0.027435366,-0.106114075,-0.0054487493,0.04465202,0.05499194,0.063693404,-0.06740275,0.030031066,-0.04467324,0.04313891,-0.0691415,2.0,1.5471177,-2.0,1.2768918,1.2229601,2.0,-2.0,-2.0,-1.0679436,2.0,-2.0,-2.0,2.0,0.7135396,-2.0,2.0,0.61389536,2.0,-2.0,-1.9680275,2.0,2.0,-2.0,-2.0
2025-06-05 11:58:09.694,0.21412502,0.30895057,-0.056924917,-0.019462842,0.0066660945,-0.025709527,0.0,0.0,0.0,-0.009861383,0.16157945,0.2120496,0.046739407,-0.025626082,0.27498928,0.08402956,-0.11791515,-0.4507564,-0.013654961,0.079921514,-0.4473875,-0.15532379,-0.044809096,-0.0035550552,-0.12709685,0.046440072,-0.0023813406,0.044994816,0.049110956,-0.05089966,0.19837973,0.028245063,4.534918e-05,-0.02617128,2.0,0.7135396,-2.0,2.0,0.61389536,2.0,-2.0,-1.9680275,2.0,2.0,-2.0,-2.0,2.0,1.0788954,-2.0,2.0,-0.28534564,2.0,-2.0,-1.2362803,2.0,2.0,-2.0,-2.0
2025-06-05 11:58:09.718,0.13846503,0.1379083,-0.12750597,-0.03797369,-0.020847056,0.023167636,0.0,0.0,0.0,-0.00888789,0.15493284,0.20585337,0.025659101,-0.012850958,0.23303075,0.12287932,-0.10179092,-0.4405129,0.034161188,0.09177026,-0.48037988,-0.13829282,0.04821498,0.019029165,-0.095268786,0.0244844,-0.13093996,0.040258635,0.08137472,0.01701154,0.18094395,0.094312534,-0.014415405,0.016105043,2.0,1.0788954,-2.0,2.0,-0.28534564,2.0,-2.0,-1.2362803,2.0,2.0,-2.0,-2.0,2.0,1.9969931,-2.0,2.0,-1.2714801,2.0,-2.0,-1.2150887,2.0,0.112415984,-2.0,-2.0
2025-06-05 11:58:09.735,-0.0022122862,-0.04768562,-0.09508795,-0.07494449,0.023233827,-0.029098256,0.0,0.0,0.0,-0.00695351,0.13704823,0.21116558,0.01396376,9.6741445e-05,0.14845838,0.14639115,-0.108488984,-0.4073996,0.06718502,0.093518175,-0.477225,-0.12358376,-0.02548665,0.09509469,0.020395247,0.04224761,-0.2543504,0.09380772,-0.02686799,0.022479065,0.045307636,0.017567359,-0.04430073,0.04200078,2.0,1.9969931,-2.0,2.0,-1.2714801,2.0,-2.0,-1.2150887,2.0,0.112415984,-2.0,-2.0,2.0,1.9310215,-2.0,2.0,-1.3549392,2.0,-2.0,-1.84797,2.0,-2.0,-2.0,-2.0
2025-06-05 11:58:09.756,-0.03406608,-0.08329336,0.07021946,-0.09720747,0.023065696,0.021597793,0.0,0.0,0.0,-0.0054927124,0.12564357,0.2493022,0.014985534,0.015041496,0.06330455,0.15534794,-0.09979528,-0.40064666,0.093156375,0.07546008,-0.4782303,-0.11083537,-0.09171899,0.108702525,0.017917864,-0.036333058,-0.25161827,-0.009120946,0.067581624,-0.040098853,0.102201894,-0.011044216,0.07094623,0.08568086,2.0,1.9310215,-2.0,2.0,-1.3549392,2.0,-2.0,-1.84797,2.0,-2.0,-2.0,-2.0,1.6051725,1.2351291,-2.0,2.0,0.3111387,1.1034096,-2.0,-1.4738625,2.0,-2.0,-1.9817373,-2.0
2025-06-05 11:58:09.774,-0.019549236,-0.04413221,0.0041727484,-0.03720641,0.0376852,0.035354633,0.0,0.0,0.0,-0.005498759,0.10577114,0.25613505,-0.0052617337,0.03129585,0.053266685,0.15406543,-0.102282606,-0.3984323,0.12921584,0.05574902,-0.4848412,-0.094355054,-0.045116115,0.08156944,0.03888129,0.034523845,-0.02259429,-0.071702324,0.035957415,-0.022327013,0.04113543,-0.019620372,-0.019681377,0.06857481,1.6051725,1.2351291,-2.0,2.0,0.3111387,1.1034096,-2.0,-1.4738625,2.0,-2.0,-1.9817373,-2.0,2.0,2.0,-2.0,2.0,0.7023721,-2.0,-2.0,-2.0,1.6089573,-2.0,-2.0,-2.0
2025-06-05 11:58:09.794,0.054970894,-0.005178806,0.12013963,-0.123367004,0.016592652,0.041349825,0.0,0.0,0.0,-0.0062226458,0.09492518,0.28796622,-0.009375326,0.05106519,0.06701788,0.10342141,-0.08682668,-0.39238402,0.13902651,0.04554179,-0.49565157,-0.08544584,-0.09106368,0.12928873,-0.0103423605,0.004088667,0.03797254,-0.21030384,-0.026508864,-0.038053244,-0.022486262,0.012462421,-0.013269124,0.023628933,2.0,2.0,-2.0,2.0,0.7023721,-2.0,-2.0,-2.0,1.6089573,-2.0,-2.0,-2.0,2.0,0.684888,-2.0,-1.6421089,2.0,-2.0,-2.0,-2.0,-2.0,-2.0,-1.4710364,-2.0
2025-06-05 11:58:09.818,0.041646253,-0.04991953,0.023592276,-0.12754528,0.007600289,-0.009092828,0.0,0.0,0.0,-0.0075662374,0.07237356,0.29532826,-0.023681918,0.032827962,0.12453949,0.03856592,-0.10027518,-0.4100767,0.09580024,0.0110685965,-0.48891494,-0.0909828,-0.028455406,-0.03646674,-0.027777588,-0.0203856,0.21712784,-0.12456735,-0.022398775,-0.05144765,-0.14998391,-0.09744168,-0.046936736,-0.023687078,2.0,0.684888,-2.0,-1.6421089,2.0,-2.0,-2.0,-2.0,-2.0,-2.0,-1.4710364,-2.0,2.0,1.3741376,0.67552906,-2.0,1.749533,-2.0,-2.0,-1.4769622,-2.0,-2.0,-2.0,-2.0
2025-06-05 11:58:09.835,-0.12626964,-0.088431515,0.06267442,-0.09719807,0.05727541,0.0046150587,0.0,0.0,0.0,-0.008003966,0.08152595,0.29510763,-0.008184313,0.00036405693,0.17774414,-0.023772178,-0.09708906,-0.3988215,0.039234255,-0.0012104107,-0.47574097,-0.08839225,0.052854296,0.04322939,-0.0067188526,-0.07018281,0.13491458,-0.054828513,-0.06868529,0.034639906,-0.109807044,0.0075076367,-0.057631332,-0.018060353,2.0,1.3741376,0.67552906,-2.0,1.749533,-2.0,-2.0,-1.4769622,-2.0,-2.0,-2.0,-2.0,2.0,0.9971148,2.0,-2.0,1.5250103,-2.0,-2.0,-1.9793408,-2.0,-2.0,-2.0,1.3894135
2025-06-05 11:58:09.855,-0.18351652,-0.07434966,0.010459953,-0.07587885,0.03824313,-0.024407743,0.0,0.0,0.0,-0.008463637,0.07225866,0.28884938,0.051559195,-0.020752845,0.21600027,-0.059631363,-0.10989103,-0.38919932,0.016907632,-0.0051425556,-0.4836277,-0.05950764,-0.05673812,0.053053327,0.08868685,0.009839095,0.029100241,0.02254097,-0.029750668,0.0653868,-0.015598646,0.022560326,-0.012843606,0.088162705,2.0,0.9971148,2.0,-2.0,1.5250103,-2.0,-2.0,-1.9793408,-2.0,-2.0,-2.0,1.3894135,2.0,0.5891216,2.0,-2.0,1.1292619,-2.0,-2.0,-1.1629964,-2.0,-1.3660951,-2.0,2.0
2025-06-05 11:58:09.875,-0.17092687,-0.055795263,-0.021816442,-0.0029076803,0.02743649,0.00750245,0.0,0.0,0.0,-0.00818149,0.077260524,0.28061065,0.085214734,-0.021496132,0.22890629,-0.057185937,-0.10990586,-0.38254312,0.00577536,-0.017016584,-0.4957462,-0.015511018,0.024149846,0.021370653,0.04188829,-0.02982289,-0.0014235326,-0.019908516,0.050671987,-0.0061358144,0.0032605347,-0.013784508,-0.007081815,0.05331052,2.0,0.5891216,2.0,-2.0,1.1292619,-2.0,-2.0,-1.1629964,-2.0,-1.3660951,-2.0,2.0,2.0,0.16531745,2.0,-2.0,0.43357664,-2.0,-2.0,-0.8563288,-2.0,0.66919804,-1.6097324,2.0
2025-06-05 11:58:09.895,-0.07017938,-0.032948226,0.102999434,-0.02469718,0.05521375,-0.046818927,0.0,0.0,0.0,-0.008043312,0.100223556,0.23514047,0.119009554,-0.014875145,0.21774085,-0.02379128,-0.12772286,-0.37154737,-0.005899777,-0.024217015,-0.4790599,0.03779468,0.062022362,-0.06944345,0.11224153,0.007439591,-0.050729,0.11578556,-0.07254708,0.033820268,-0.0797372,-0.030183826,0.006680366,0.08132343,2.0,0.16531745,2.0,-2.0,0.43357664,-2.0,-2.0,-0.8563288,-2.0,0.66919804,-1.6097324,2.0,2.0,-0.33380756,2.0,-2.0,0.68923086,-2.0,-2.0,-1.844892,-2.0,2.0,-1.1418647,2.0
2025-06-05 11:58:09.918,0.11924554,-0.07790481,0.069820486,-0.06831374,0.038305245,0.027922215,0.0,0.0,0.0,-0.009271261,0.10558427,0.19143385,0.13433929,-0.037861433,0.21075666,-0.015529928,-0.12806407,-0.36811015,0.0015188092,-0.010333096,-0.43662116,0.0810435,-0.058421597,-0.18309823,0.07943219,-0.04818249,-0.06723526,0.019630646,0.020738749,-0.027594559,0.052558873,0.0028541042,0.010189928,0.12105853,2.0,-0.33380756,2.0,-2.0,0.68923086,-2.0,-2.0,-1.844892,-2.0,2.0,-1.1418647,2.0,2.0,-0.41377923,2.0,-2.0,1.822923,-2.0,-2.0,-2.0,-2.0,2.0,-1.9512515,2.0
2025-06-05 11:58:09.935,0.04756663,-0.023943223,-0.007061901,-0.025364563,0.020461181,-0.024079157,0.0,0.0,0.0,-0.010509307,0.10505434,0.14607702,0.16230299,-0.036358144,0.21393807,-0.030205848,-0.1407201,-0.37321755,0.0014478236,0.02075387,-0.4333721,0.10369379,-0.04113944,-0.06654722,0.0361155,0.0561315,0.007830705,0.013567352,-0.07076488,0.004922867,-0.03286843,-0.035841163,0.023930008,0.01694413,2.0,-0.41377923,2.0,-2.0,1.822923,-2.0,-2.0,-2.0,-2.0,2.0,-1.9512515,2.0,2.0,-0.11015842,2.0,-2.0,1.1674207,-2.0,-2.0,-1.3622333,-2.0,2.0,-1.6782944,1.7739605
2025-06-05 11:58:09.957,0.01614002,0.01819176,-0.021745283,-0.05232245,0.07835426,-0.006171737,0.0,0.0,0.0,-0.010686204,0.116759196,0.118361644,0.16853505,-0.035596177,0.22573344,-0.029384438,-0.14153233,-0.3808202,-0.015232153,0.026187168,-0.41904864,0.13840489,0.03589855,-0.026672874,-0.027896686,0.012810251,-0.023699872,-0.039036665,-0.04831212,0.0044815936,-0.06458168,-0.028998012,0.020309964,0.0108133685,2.0,-0.11015842,2.0,-2.0,1.1674207,-2.0,-2.0,-1.3622333,-2.0,2.0,-1.6782944,1.7739605,2.0,0.10555818,2.0,-2.0,0.8501067,-2.0,-2.0,-1.4072437,-2.0,2.0,-1.0873001,1.6630763
2025-06-05 11:58:09.975,0.033026803,0.0013488445,-0.030739827,-0.06977726,0.010285996,-0.017827217,0.0,0.0,0.0,-0.010720754,0.11575876,0.0983743,0.18114562,-0.049401492,0.2110302,-0.033414446,-0.16066349,-0.37833712,-0.020519407,0.03449674,-0.39440787,0.15427275,-0.03566763,0.011851706,0.066275105,0.036607485,0.017340241,0.0071383184,-0.032702774,0.0874816,0.030428993,0.03374064,0.029122163,0.06036877,2.0,0.10555818,2.0,-2.0,0.8501067,-2.0,-2.0,-1.4072437,-2.0,2.0,-1.0873001,1.6630763,2.0,0.14079788,2.0,-2.0,0.85353005,-2.0,-2.0,-1.3423625,-2.0,2.0,-0.9551241,1.9486287
2025-06-05 11:58:09.999,0.032144908,-0.0053959717,0.021034172,-0.039638624,0.10127666,-0.034091357,0.0,0.0,0.0,-0.010883665,0.10592255,0.08337825,0.19348185,-0.03860803,0.2118151,-0.04580245,-0.16176835,-0.36650363,-0.022176452,0.05080957,-0.36896446,0.17282952,0.036356103,0.0087257605,-0.013814055,3.6301265e-06,-0.0157209,0.0549931,-0.06982827,0.084283195,-0.07621627,-0.03280194,0.09313941,0.07250825,2.0,0.14079788,2.0,-2.0,0.85353005,-2.0,-2.0,-1.3423625,-2.0,2.0,-0.9551241,1.9486287,2.0,0.15600207,2.0,-2.0,1.021395,-2.0,-2.0,-1.9171749,-2.0,2.0,-0.7920918,1.7266389
2025-06-05 11:58:10.017,0.027684212,-0.045186285,-0.060441554,-0.009657631,0.015335025,-0.046328526,0.0,0.0,0.0,-0.011141589,0.11639655,0.08049658,0.212193,-0.038877495,0.22501153,-0.056729507,-0.1632804,-0.38236657,-0.042073946,0.049388852,-0.3519673,0.17226373,0.007902112,0.0021669944,0.051375605,-0.04435445,0.013286404,-0.06403326,0.018176664,-0.06663042,-0.0049856035,-0.054871216,0.090854526,-0.022995982,2.0,0.15600207,2.0,-2.0,1.021395,-2.0,-2.0,-1.9171749,-2.0,2.0,-0.7920918,1.7266389,2.0,0.27521697,2.0,-2.0,1.0428137,-2.0,-2.0,-1.3990078,-2.0,2.0,-0.8159381,0.19893695
2025-06-05 11:58:10.035,-0.024445683,0.06627486,-0.049802165,-0.0635582,0.055889033,-0.014858825,0.0,0.0,0.0,-0.01083667,0.114180684,0.078713045,0.21510762,-0.037234858,0.2095284,-0.06387539,-0.16273198,-0.38544396,-0.051614653,0.06122751,-0.32314456,0.15512,0.0012143255,0.04235526,-0.033776466,-0.03485017,0.060350362,0.047410604,0.0071095414,0.021026753,0.03179107,-0.02162847,0.013476487,-0.05921043,2.0,0.27521697,2.0,-2.0,1.0428137,-2.0,-2.0,-1.3990078,-2.0,2.0,-0.8159381,0.19893695,2.0,0.8881752,0.19392608,-2.0,0.9462344,-2.0,-2.0,-1.4962841,-2.0,2.0,-0.41672596,-2.0
2025-06-05 11:58:10.056,-0.034852494,-0.03022616,0.026868576,-0.08937738,0.106831826,0.008201148,0.0,0.0,0.0,-0.010590165,0.10650386,0.101980254,0.18245414,-0.053009722,0.20907912,-0.06840232,-0.16787858,-0.3653312,-0.05086032,0.06762397,-0.28296894,0.078845754,-0.062946714,0.12456367,-0.1073632,0.032523207,0.032049898,-0.07771119,0.020174535,0.054171942,-0.039384484,-0.051348668,0.11377866,-0.18213226,2.0,0.8881752,0.19392608,-2.0,0.9462344,-2.0,-2.0,-1.4962841,-2.0,2.0,-0.41672596,-2.0,2.0,1.3769984,-2.0,-2.0,1.4393888,2.0,-2.0,-2.0,-2.0,2.0,-0.85940564,-2.0
2025-06-05 11:58:10.076,-0.027119981,0.0887883,-0.08369309,-0.082132906,0.028733138,-0.046896752,0.0,0.0,0.0,-0.010482376,0.110245414,0.1342505,0.116414286,-0.056225162,0.22030956,-0.010540013,-0.15446208,-0.37121025,-0.05905427,0.066333614,-0.25480348,0.023149306,-0.06458583,0.0951507,-0.13420863,-0.010018881,-0.048113998,0.12239963,0.001180975,-0.07515088,0.023390194,-0.054698467,-0.0123070795,-0.20848435,2.0,1.3769984,-2.0,-2.0,1.4393888,2.0,-2.0,-2.0,-2.0,2.0,-0.85940564,-2.0,2.0,2.0,-2.0,2.0,0.44926885,2.0,-2.0,-2.0,-2.0,2.0,-2.0,-2.0
2025-06-05 11:58:10.100,-0.09366142,0.2829821,0.037017193,-0.016522728,0.040168405,0.03918465,0.0,0.0,0.0,-0.009585375,0.12376933,0.17488284,0.059638556,-0.03520224,0.20912609,0.027284162,-0.15203391,-0.38758492,-0.07063595,0.07897139,-0.2781731,-0.006305935,0.086110264,0.08986564,-0.1567222,0.08850113,0.0136911,0.08062438,-0.0059674964,-0.03992982,-0.03878373,0.04241645,-0.05296166,-0.009072509,2.0,2.0,-2.0,2.0,0.44926885,2.0,-2.0,-2.0,-2.0,2.0,-2.0,-2.0,1.0406872,1.1648505,-2.0,2.0,0.56846344,2.0,-2.0,-2.0,1.9237597,2.0,-2.0,-2.0
2025-06-05 11:58:10.117,-0.06431191,0.14869887,-0.034077935,-0.08148999,-0.009193616,-0.004343858,0.0,0.0,0.0,-0.00898806,0.12561375,0.18924516,0.044730112,-0.021362325,0.20253778,0.08180697,-0.14014272,-0.41481596,-0.010215058,0.094450876,-0.29887787,-0.0048569134,-0.04924231,-0.006347124,-0.055405557,0.09723997,-0.082939066,0.11296193,-0.025806218,-0.021384854,0.13250293,-0.02783018,-0.049457505,-0.035327952,1.0406872,1.1648505,-2.0,2.0,0.56846344,2.0,-2.0,-2.0,1.9237597,2.0,-2.0,-2.0,2.0,2.0,-2.0,2.0,-1.0725082,2.0,-2.0,-2.0,2.0,2.0,-2.0,-2.0
2025-06-05 11:58:10.136,0.015202851,0.18626994,-0.038940474,-0.09349396,0.022997873,-0.0035909077,0.0,0.0,0.0,-0.008476532,0.12232352,0.19956046,0.047551285,0.007076043,0.1392074,0.10420582,-0.119826026,-0.42340124,0.034585755,0.098444566,-0.33493552,-0.0011626431,0.074088104,0.024734877,-0.004673374,0.10058405,-0.12666653,0.09834988,0.09663731,-0.0067018103,0.10560111,0.084268756,0.014642317,-0.031468436,2.0,2.0,-2.0,2.0,-1.0725082,2.0,-2.0,-2.0,2.0,2.0,-2.0,-2.0,2.0,1.6096727,-2.0,2.0,-1.4020267,2.0,-2.0,-1.990925,2.0,2.0,-2.0,-2.0
2025-06-05 11:58:10.156,0.03349768,0.13010786,-0.052447896,-0.09907379,0.019431438,0.03968902,0.0,0.0,0.0,-0.008157812,0.12363643,0.19751024,0.035668787,0.016662281,0.059397206,0.14082047,-0.11346071,-0.42301556,0.07551949,0.09775952,-0.3458376,0.0047755125,0.061761085,0.046601277,-0.06145693,0.057941075,-0.239108,0.11450671,0.06069073,-0.053335693,0.03601069,0.01933282,-0.09836838,0.08617142,2.0,1.6096727,-2.0,2.0,-1.4020267,2.0,-2.0,-1.990925,2.0,2.0,-2.0,-2.0,2.0,1.7867997,-2.0,2.0,-1.2428534,2.0,-2.0,-1.9316894,2.0,2.0,-2.0,-2.0
2025-06-05 11:58:10.176,0.07427521,0.11008096,-0.033901412,-0.035172697,-0.021073898,-0.029351993,0.0,0.0,0.0,-0.007856034,0.118261985,0.22518153,0.023415444,0.026539585,0.0016011898,0.14610851,-0.12065157,-0.43355972,0.10672629,0.10233385,-0.34946716,0.003991132,-0.009462057,0.08091323,-0.09649385,-0.028972084,-0.11817299,0.041245703,0.0013607015,-0.047603417,0.12889042,-0.065719165,-0.008151433,-0.024299884,2.0,1.7867997,-2.0,2.0,-1.2428534,2.0,-2.0,-1.9316894,2.0,2.0,-2.0,-2.0,2.0,1.7116659,-2.0,2.0,-1.2131228,2.0,-2.0,-2.0,2.0,2.0,-2.0,-2.0
2025-06-05 11:58:10.200,0.07192934,0.08323925,-0.042739823,-0.06631405,-0.0011863232,-0.03744513,0.0,0.0,0.0,-0.0075711706,0.120861456,0.22564992,-0.0008011089,0.04032538,-0.065238066,0.16488193,-0.104401276,-0.44099987,0.120547116,0.10492856,-0.37435657,0.01303454,0.06612991,0.096976265,0.0045958254,0.04184342,-0.12384066,0.07003271,0.058757473,0.016342806,0.008657085,0.026611766,-0.005686533,0.049797427,2.0,1.7116659,-2.0,2.0,-1.2131228,2.0,-2.0,-2.0,2.0,2.0,-2.0,-2.0,2.0,1.5845412,-2.0,2.0,-1.1098828,2.0,-2.0,-2.0,2.0,1.407968,-2.0,-2.0
2025-06-05 11:58:10.276,0.093024895,0.056316577,-0.03460971,-0.03842764,-0.040662464,-0.040254027,0.0,0.0,0.0,-0.0073956945,0.11667879,0.24434589,-0.015473634,0.054097068,-0.08728606,0.19346048,-0.099231616,-0.43670106,0.14880134,0.10949498,-0.36501867,-0.006143965,0.03855217,0.05839243,-0.039319158,-0.034051023,-0.12681444,-0.029128104,0.016031612,-0.042816143,0.037265997,-0.043427214,-0.021199387,0.011755339,2.0,1.5845412,-2.0,2.0,-1.1098828,2.0,-2.0,-2.0,2.0,1.407968,-2.0,-2.0,2.0,1.5025344,-2.0,2.0,-0.9319237,2.0,-2.0,-2.0,2.0,0.34294868,-2.0,-2.0
2025-06-05 11:58:10.296,-0.0037109412,-0.004827997,0.057098452,-0.09534836,-0.03387389,0.035757635,0.0,0.0,0.0,-0.0074848323,0.103330806,0.2530437,-0.045600135,0.06177156,-0.10773674,0.19411491,-0.106557235,-0.44328755,0.16590396,0.089521565,-0.38067546,0.0018676884,-0.025757201,0.02914422,-0.11538101,-0.0049066804,-0.058935087,0.05587035,-0.05895056,0.049138103,0.03310103,-0.095455185,-0.06718664,-0.01938943,2.0,1.5025344,-2.0,2.0,-0.9319237,2.0,-2.0,-2.0,2.0,0.34294868,-2.0,-2.0,2.0,1.2936349,-2.0,2.0,-0.12523061,2.0,-2.0,-2.0,2.0,0.37443298,-1.8016849,-2.0
2025-06-05 11:58:10.321,0.042004462,-0.05731948,-0.0073630363,-0.069600694,0.0003655136,-0.0004625132,0.0,0.0,0.0,-0.0081504565,0.112132244,0.2492811,-0.055311427,0.06739539,-0.100297436,0.21136816,-0.10157087,-0.4405536,0.195363,0.087276354,-0.39616972,-0.007879468,-0.07356062,-0.0025527836,0.043077078,0.07660816,0.016605858,-0.048788678,-0.061929412,-0.006473874,-0.037734397,-0.03414351,0.0026042308,-0.05619427,2.0,1.2936349,-2.0,2.0,-0.12523061,2.0,-2.0,-2.0,2.0,0.37443298,-1.8016849,-2.0,2.0,1.7137382,-2.0,2.0,-0.41540784,2.0,-2.0,-2.0,2.0,-2.0,-1.995872,-2.0
2025-06-05 11:58:10.336,0.0055187712,-0.07595242,0.12872829,-0.10773595,0.003527347,0.010057268,0.0,0.0,0.0,-0.008942276,0.09017404,0.26372054,-0.0672669,0.06470172,-0.10621413,0.21810676,-0.10681864,-0.46177724,0.19261089,0.071167655,-0.3924814,-0.020184081,0.011835363,-0.044019252,-0.087953225,0.008574343,0.03987559,0.033266462,0.016692504,0.00038924033,0.01969645,-0.032577485,-0.071878895,-0.060298376,2.0,1.7137382,-2.0,2.0,-0.41540784,2.0,-2.0,-2.0,2.0,-2.0,-1.995872,-2.0,1.2977523,1.2487918,-2.0,2.0,1.3510755,-0.5996311,-2.0,-1.541541,-1.4122145,-2.0,-0.33268622,-2.0
2025-06-05 11:58:10.356,-0.11232699,-0.15983728,0.048326105,-0.050318442,-0.04602574,0.016800456,0.0,0.0,0.0,-0.010821431,0.09561035,0.2849291,-0.060355864,0.061882176,-0.043152247,0.17725927,-0.09668152,-0.43076468,0.14446524,0.051757246,-0.3720087,-0.03984392,0.029765543,0.02428118,0.017738093,-0.051686928,0.12956764,-0.17307827,0.07816746,0.041956656,-0.19937624,-0.050277773,0.033289157,-0.06706486,1.2977523,1.2487918,-2.0,2.0,1.3510755,-0.5996311,-2.0,-1.541541,-1.4122145,-2.0,-0.33268622,-2.0,1.5473504,1.7215399,-2.0,2.0,2.0,-2.0,-2.0,-0.7714154,-2.0,-2.0,-0.7169775,-2.0
2025-06-05 11:58:10.377,-0.12920702,-0.09088383,0.07278701,-0.07942962,-0.023194702,0.023151262,0.0,0.0,0.0,-0.01169165,0.066685855,0.2910817,-0.06601416,0.071107246,0.04305975,0.10623115,-0.10277993,-0.39800897,0.08325863,0.034223597,-0.3499036,-0.043924768,-0.02414624,0.027377449,0.035169765,0.018447984,0.14587799,-0.11425838,0.0127564715,0.17017744,-0.17333424,-0.018180404,0.08372275,-0.05954473,1.5473504,1.7215399,-2.0,2.0,2.0,-2.0,-2.0,-0.7714154,-2.0,-2.0,-0.7169775,-2.0,2.0,2.0,-2.0,-1.3682961,2.0,-2.0,-2.0,-1.5805671,-2.0,-2.0,-1.2908574,-2.0
2025-06-05 11:58:10.401,0.050554648,-0.028962677,0.12251773,-0.09311918,-0.012318494,0.021547746,0.0,0.0,0.0,-0.012291523,0.07445275,0.30453232,-0.057291735,0.054808624,0.10982055,0.03954732,-0.09929368,-0.38688737,0.014137496,0.01580085,-0.3397611,-0.070439816,-0.057505123,0.069851846,-0.045756686,-0.11943441,0.16594906,-0.07529253,-0.0069130594,0.043975662,-0.11760032,-0.09743265,-0.018296828,0.015307934,2.0,2.0,-2.0,-1.3682961,2.0,-2.0,-2.0,-1.5805671,-2.0,-2.0,-1.2908574,-2.0,2.0,1.3592255,-1.0120932,-2.0,2.0,-2.0,-2.0,-2.0,-2.0,-2.0,-1.4413615,-2.0
2025-06-05 11:58:10.418,0.014601671,-0.11393224,0.08742157,-0.021358922,0.05188653,0.030888025,0.0,0.0,0.0,-0.013727996,0.062184278,0.31265202,-0.06910565,0.03492528,0.1918351,-0.01987515,-0.09803144,-0.40151593,-0.029787378,4.561101e-05,-0.33044544,-0.059018567,0.013353397,-0.0010112817,0.03890299,-0.012370933,0.1401574,-0.09340286,0.032576047,-0.07856402,-0.14984018,-0.0048402767,0.06414888,0.0009600106,2.0,1.3592255,-1.0120932,-2.0,2.0,-2.0,-2.0,-2.0,-2.0,-2.0,-1.4413615,-2.0,2.0,0.810724,0.9399506,-2.0,2.0,-2.0,-2.0,-2.0,-2.0,-2.0,-1.7642833,-2.0
2025-06-05 11:58:10.438,-0.107633874,-0.1162746,0.08591753,-0.07918589,0.009380545,0.0019057743,0.0,0.0,0.0,-0.015637595,0.07279217,0.30634436,-0.03468964,-0.0014209972,0.2381881,-0.051481377,-0.09673353,-0.41699275,-0.07657196,-0.020402348,-0.32856888,-0.062215984,-0.008690709,0.029835459,0.027434297,-0.06670456,0.08172862,-0.12300053,0.05156199,-0.0029582812,-0.106393784,-0.024018565,-0.07049463,-0.007564166,2.0,0.810724,0.9399506,-2.0,2.0,-2.0,-2.0,-2.0,-2.0,-2.0,-1.7642833,-2.0,2.0,0.5758201,2.0,-2.0,2.0,-2.0,-2.0,-2.0,-2.0,-1.6471574,-2.0,0.5546192
2025-06-05 11:58:10.458,0.049280073,-0.19272567,0.062422242,-0.094189174,0.018271152,0.021202272,0.0,0.0,0.0,-0.017654778,0.07640262,0.29008505,0.017713198,-0.011409624,0.2706339,-0.08356312,-0.10215709,-0.41486326,-0.1013413,-0.026288055,-0.36475018,-0.044541728,-0.05514771,-0.076915585,0.14088915,-0.103502735,0.05213557,-0.05718364,-0.022357792,0.0101959985,-0.05769376,-0.05325264,0.0077520814,0.0014682262,2.0,0.5758201,2.0,-2.0,2.0,-2.0,-2.0,-2.0,-2.0,-1.6471574,-2.0,0.5546192,2.0,0.3518161,2.0,-2.0,2.0,-2.0,-2.0,-1.7639173,-2.0,-0.7968228,-2.0,2.0
2025-06-05 11:58:10.477,-0.03524028,-0.15814999,0.05770424,-0.09193563,0.01911892,-0.025522504,0.0,0.0,0.0,-0.019373761,0.07520917,0.25733727,0.07565749,-0.021892823,0.2763777,-0.08251809,-0.10590798,-0.44037235,-0.110285856,-0.04618637,-0.39415255,-0.0010102947,-0.04457288,-0.11112315,0.14194272,-0.064062245,0.0070162024,0.06477701,0.027758127,-0.009448673,0.03819166,0.0024825428,-0.12478397,0.08991609,2.0,0.3518161,2.0,-2.0,2.0,-2.0,-2.0,-1.7639173,-2.0,-0.7968228,-2.0,2.0,2.0,-0.029203512,2.0,-2.0,1.9867194,-2.0,-2.0,-1.3985895,-2.0,1.5237224,-2.0,2.0
2025-06-05 11:58:10.501,-0.14432512,-0.10583052,0.028620118,-0.02216699,0.08627476,0.028304053,0.0,0.0,0.0,-0.020441784,0.07127584,0.23412007,0.127437,-0.029191548,0.29092684,-0.06613063,-0.11393168,-0.43924788,-0.09632393,-0.018085442,-0.40451372,0.039281584,0.017901253,-0.08886827,0.022117658,0.05824804,0.05868527,-0.015587336,-0.025117658,-0.06556819,-0.045188263,0.008485625,0.01643298,0.098353826,2.0,-0.029203512,2.0,-2.0,1.9867194,-2.0,-2.0,-1.3985895,-2.0,1.5237224,-2.0,2.0,2.0,-0.14805785,2.0,-2.0,1.8149478,-2.0,-2.0,-1.770062,-2.0,2.0,-1.9998205,2.0
2025-06-05 11:58:10.517,-0.054807093,-0.12401138,-0.013333701,-0.0064308858,0.029435204,-0.017459657,0.0,0.0,0.0,-0.021202615,0.094511084,0.19966514,0.15024193,-0.031371858,0.28946525,-0.05176977,-0.12878649,-0.4378759,-0.08757589,-0.012081847,-0.4183915,0.08627227,-0.0053167865,-0.14605246,0.034799054,-0.040739078,0.054823313,-0.036797855,-0.05334288,-0.07652891,0.06869314,0.11189859,0.04038421,0.1436415,2.0,-0.14805785,2.0,-2.0,1.8149478,-2.0,-2.0,-1.770062,-2.0,2.0,-1.9998205,2.0,2.0,-0.13398924,2.0,-2.0,1.9515687,-2.0,-2.0,-1.738942,-2.0,2.0,-2.0,1.0604244
2025-06-05 11:58:10.538,-0.012438731,-0.14855328,-0.03934205,-0.012309253,0.08271997,-0.046352163,0.0,0.0,0.0,-0.021536767,0.0987489,0.15966776,0.16595033,-0.0386756,0.29775774,-0.056376893,-0.13593666,-0.43123624,-0.073372126,0.004816601,-0.4279255,0.10419977,0.026594765,-0.10410331,0.070608236,-0.08316066,0.104164734,-0.01534843,-0.0017723955,-0.03382726,-0.016331866,0.030345492,-0.008331142,0.09097889,2.0,-0.13398924,2.0,-2.0,1.9515687,-2.0,-2.0,-1.738942,-2.0,2.0,-2.0,1.0604244,2.0,0.10344794,2.0,-2.0,1.690336,-2.0,-2.0,-1.5651432,-2.0,2.0,-2.0,-0.42196938
2025-06-05 11:58:10.557,-0.08690561,-0.10504949,-0.057307843,0.012691404,0.13255443,0.020189408,0.0,0.0,0.0,-0.021433594,0.104515955,0.14632256,0.18885714,-0.032043237,0.30942214,-0.058565542,-0.12748766,-0.4330156,-0.06842348,0.017120648,-0.420009,0.06773149,-0.0050725373,-0.09635075,-0.022607164,0.053558372,0.058889106,-0.06621362,0.04795539,0.037853867,-0.05592754,-0.024147673,0.0036116485,-0.018999776,2.0,0.10344794,2.0,-2.0,1.690336,-2.0,-2.0,-1.5651432,-2.0,2.0,-2.0,-0.42196938,2.0,0.74014246,2.0,-2.0,1.4585346,-2.0,-2.0,-1.5570837,-2.0,2.0,-1.6602807,-2.0
2025-06-05 11:58:10.578,-0.07337107,-0.1121427,-0.004999426,-0.061309803,0.09413413,0.03038918,0.0,0.0,0.0,-0.021282475,0.10073164,0.15198514,0.20801975,-0.04124962,0.331628,-0.07245279,-0.13421977,-0.42275658,-0.07306322,0.026290327,-0.42166907,0.020228036,-0.056322377,0.049207795,0.008430743,0.05250678,0.05219858,0.025383689,-0.08083527,0.09248395,-0.051668387,0.006641544,0.085867256,-0.14282644,2.0,0.74014246,2.0,-2.0,1.4585346,-2.0,-2.0,-1.5570837,-2.0,2.0,-1.6602807,-2.0,2.0,1.322875,0.17630969,-2.0,1.4580523,-2.0,-2.0,-2.0,-2.0,2.0,-1.682296,-2.0
2025-06-05 11:58:10.601,0.08552285,-0.026738536,0.019708604,0.022076847,0.08314552,-0.045965713,0.0,0.0,0.0,-0.021358365,0.09816169,0.16868131,0.18002477,-0.04396585,0.3288607,-0.060311023,-0.1294705,-0.41532096,-0.07635285,0.0514444,-0.4150218,-0.019302992,0.050250825,0.033894658,-0.021986734,0.02224276,-0.029664323,-0.078127295,-0.003529403,-0.0049467837,-0.011656594,0.05784147,0.061550245,-0.16569039,2.0,1.322875,0.17630969,-2.0,1.4580523,-2.0,-2.0,-2.0,-2.0,2.0,-1.682296,-2.0,2.0,1.1413893,-2.0,-2.0,1.6574901,0.76265246,-2.0,-2.0,-2.0,2.0,-1.5781841,-2.0
2025-06-05 11:58:10.618,0.10538352,0.26981518,-0.006765327,0.022179184,0.12263314,0.034994774,0.0,0.0,0.0,-0.021421075,0.10215889,0.18351486,0.15859108,-0.04293169,0.34890166,-0.040101003,-0.13097273,-0.42898566,-0.06896931,0.058152992,-0.409759,-0.072966084,0.06305237,0.05714458,-0.09111764,-0.039463583,-0.018252969,0.0631349,-0.025891373,-0.067298084,-0.06511768,0.03415269,-0.019832078,-0.09599628,2.0,1.1413893,-2.0,-2.0,1.6574901,0.76265246,-2.0,-2.0,-2.0,2.0,-1.5781841,-2.0,2.0,1.6918594,-2.0,-2.0,1.7397971,2.0,-2.0,-2.0,-2.0,2.0,-2.0,-2.0
2025-06-05 11:58:10.638,0.12820414,0.37058738,0.0051261117,-0.08668904,0.08291546,-0.04883684,0.0,0.0,0.0,-0.021261342,0.12584527,0.19662747,0.12921162,-0.07032135,0.34956643,0.011046328,-0.11531889,-0.42893714,-0.07533451,0.06529592,-0.4220261,-0.10721532,0.006867954,0.10080725,-0.113357015,0.039200548,-0.04098967,0.119904205,-0.04421966,-0.0423934,0.04319106,0.06340883,0.0060819425,-0.077755496,2.0,1.6918594,-2.0,-2.0,1.7397971,2.0,-2.0,-2.0,-2.0,2.0,-2.0,-2.0,2.0,1.5685021,-2.0,0.26825985,1.4893265,2.0,-2.0,-2.0,-1.4519119,2.0,-2.0,-2.0
2025-06-05 11:58:10.658,0.16098988,0.3741029,0.038754653,-0.017273137,0.079495944,0.017815286,0.0,0.0,0.0,-0.021219864,0.14171845,0.21127126,0.08134548,-0.052158713,0.35092682,0.04467963,-0.11292136,-0.4493611,-0.076740116,0.07719777,-0.4331077,-0.12293302,0.07140066,-0.00771603,-0.031124536,0.038315713,0.022165261,0.10130043,0.011912588,0.0022744199,0.04478596,0.036580227,-0.02281155,-0.05176068,2.0,1.5685021,-2.0,0.26825985,1.4893265,2.0,-2.0,-2.0,-1.4519119,2.0,-2.0,-2.0,2.0,0.6612317,-2.0,2.0,1.199322,2.0,-2.0,-2.0,2.0,2.0,-2.0,-2.0
2025-06-05 11:58:10.678,0.22580066,0.29903248,-0.09524032,-0.034197588,-0.017717194,-0.008496793,0.0,0.0,0.0,-0.021304118,0.14356662,0.22090511,0.046765763,-0.029888535,0.35509634,0.07969835,-0.110080875,-0.46400955,-0.03522068,0.0826649,-0.4358028,-0.14806211,0.060213882,0.04332858,-0.14289503,-0.008126482,0.033151045,0.121340305,-0.0303844,-0.042586546,0.07486781,0.04696054,-0.04201075,-0.014032773,2.0,0.6612317,-2.0,2.0,1.199322,2.0,-2.0,-2.0,2.0,2.0,-2.0,-2.0,2.0,0.93461037,-2.0,2.0,0.049292207,2.0,-2.0,-1.0781237,2.0,2.0,-2.0,-2.0
2025-06-05 11:58:10.701,0.050299868,0.12905994,-0.15716249,-0.0640294,-0.03420349,0.045942806,0.0,0.0,0.0,-0.020867426,0.13426101,0.22555496,0.018762594,-0.013041937,0.30841058,0.11050169,-0.103955954,-0.43539238,0.018507669,0.07963931,-0.46984276,-0.14651594,0.048744164,0.055180665,-0.11327437,0.029949322,-0.091043435,0.08366501,0.0047383104,0.08012894,0.09452438,-0.012298894,-0.098953746,0.0048423423,2.0,0.93461037,-2.0,2.0,0.049292207,2.0,-2.0,-1.0781237,2.0,2.0,-2.0,-2.0,2.0,2.0,-2.0,2.0,-1.2469162,2.0,-2.0,-1.0388805,2.0,-0.37048644,-2.0,-2.0
2025-06-05 11:58:10.719,-0.0942476,0.00484153,-0.04423846,-0.110122934,0.03172663,-0.03996876,0.0,0.0,0.0,-0.019274933,0.12527433,0.24057613,0.0059254137,0.0063305367,0.20477396,0.14798123,-0.09695691,-0.39862898,0.04642266,0.088971354,-0.4807277,-0.11561852,0.042415828,0.015032123,-0.042736366,-0.033179563,-0.2988979,0.030997796,-0.024801457,0.010358869,0.0797205,-0.06662932,0.040448464,-0.0044080545,2.0,2.0,-2.0,2.0,-1.2469162,2.0,-2.0,-1.0388805,2.0,-0.37048644,-2.0,-2.0,2.0,1.48751,-2.0,2.0,-1.1380512,2.0,-2.0,-1.6839672,2.0,-2.0,-2.0,-2.0
2025-06-05 11:58:10.739,-0.07017605,-0.020611826,0.017729273,-0.080904365,0.056363836,-0.015647087,0.0,0.0,0.0,-0.018370487,0.124100335,0.2547817,0.016397495,0.010325665,0.13075389,0.15193257,-0.11093638,-0.39180902,0.092641406,0.07643197,-0.481148,-0.10767299,0.02113632,0.04989809,0.05386526,-0.011564292,-0.251296,-0.013130325,0.04000482,0.033975605,0.045381155,0.030005,0.0395776,0.0011659934,2.0,1.48751,-2.0,2.0,-1.1380512,2.0,-2.0,-1.6839672,2.0,-2.0,-2.0,-2.0,2.0,1.5550892,-2.0,2.0,-0.06152737,1.0941015,-2.0,-1.6421989,2.0,-2.0,-2.0,-2.0
2025-06-05 11:58:10.758,0.02774619,-0.07130947,0.06902967,-0.0473694,0.0030153464,0.026647247,0.0,0.0,0.0,-0.01859715,0.10491625,0.27175876,-0.0025982505,0.032290116,0.08823428,0.1488319,-0.10613044,-0.39850113,0.11742468,0.055909622,-0.48788542,-0.09342959,-0.08447922,-0.0023117086,-0.09192018,0.051473435,0.003757207,0.0033908456,-0.020127896,-0.047682513,0.10967602,-0.056744594,-0.008087081,0.04992308,2.0,1.5550892,-2.0,2.0,-0.06152737,1.0941015,-2.0,-1.6421989,2.0,-2.0,-2.0,-2.0,1.6622941,0.8195857,-2.0,2.0,1.1278259,-1.0945656,-2.0,-1.7350489,1.7424705,-2.0,-1.189764,-2.0
2025-06-05 11:58:10.778,-0.028344652,-0.06578677,0.0026643912,-0.060699355,-0.02140983,0.042093508,0.0,0.0,0.0,-0.019584779,0.09373605,0.27047527,0.0041789976,0.037422396,0.112385534,0.10929165,-0.0901485,-0.3869941,0.13489006,0.0326044,-0.46820974,-0.10440708,0.02643127,-0.0421321,-0.011586343,-0.015409714,0.11316285,-0.07195545,-0.040522445,-0.053164158,0.049711823,-0.03824939,0.032710332,-0.052525908,1.6622941,0.8195857,-2.0,2.0,1.1278259,-1.0945656,-2.0,-1.7350489,1.7424705,-2.0,-1.189764,-2.0,2.0,0.5994625,-2.0,1.1712976,2.0,-2.0,-2.0,-2.0,-2.0,-2.0,-1.3173409,-2.0
2025-06-05 11:58:10.800,-0.026861196,-0.08251231,-0.055906154,-0.030545492,0.038542982,0.017507829,0.0,0.0,0.0,-0.019686172,0.07282507,0.28019935,-0.0062778257,0.051237665,0.16637982,0.04987621,-0.086566314,-0.39679953,0.07842016,0.030299444,-0.4613271,-0.091165006,-0.0036211635,0.0694337,0.04522455,0.004431735,0.21170957,-0.19652775,-0.053646382,0.028099477,-0.195173,-0.07803354,0.007680169,-0.058621347,2.0,0.5994625,-2.0,1.1712976,2.0,-2.0,-2.0,-2.0,-2.0,-2.0,-1.3173409,-2.0,2.0,1.7751968,-0.7437204,-2.0,1.7180358,-2.0,-2.0,-1.1660818,-2.0,-2.0,-2.0,-2.0
2025-06-05 11:58:10.819,-0.08489672,-0.009814353,0.029536024,-0.11868838,0.0051868726,-0.0061117266,0.0,0.0,0.0,-0.018878868,0.06455192,0.29768088,-0.015532455,0.025315959,0.21596253,0.0026192528,-0.0923761,-0.3844591,0.01916085,0.012601939,-0.4634471,-0.091378845,-0.059344873,-0.043884777,-0.010759044,-0.117699675,0.12850678,-0.17177495,0.021058634,-0.011802997,-0.1698163,-0.041578796,-0.0546682,-0.022595512,2.0,1.7751968,-0.7437204,-2.0,1.7180358,-2.0,-2.0,-1.1660818,-2.0,-2.0,-2.0,-2.0,2.0,1.4210498,2.0,-2.0,1.8064177,-2.0,-2.0,-1.7278233,-2.0,-2.0,-2.0,-1.8201948
2025-06-05 11:58:10.839,-0.1860401,-0.0393856,0.07526882,-0.020486528,-0.015462392,0.015715668,0.0,0.0,0.0,-0.019407382,0.067558445,0.3070536,0.040865146,0.005028766,0.24600975,-0.056640618,-0.10143556,-0.37935734,-0.00012263327,0.002576043,-0.45579782,-0.09646077,0.034462355,0.017390715,0.05346764,-0.035464916,0.034850366,-0.04786385,-0.017621659,0.0049111554,-0.05407996,0.018663254,0.039735015,-0.0009446275,2.0,1.4210498,2.0,-2.0,1.8064177,-2.0,-2.0,-1.7278233,-2.0,-2.0,-2.0,-1.8201948,2.0,0.5245421,2.0,-2.0,1.8349836,-2.0,-2.0,-2.0,-2.0,-1.4129804,-2.0,2.0
2025-06-05 11:58:10.859,-0.12905052,-0.14696318,-0.08008012,-0.065752015,0.04367434,0.048937213,0.0,0.0,0.0,-0.02032371,0.075140126,0.2779309,0.06700397,-0.01947529,0.27506,-0.05586215,-0.11413422,-0.37490422,-0.009384647,-0.015350176,-0.47569352,-0.05250149,0.0042326185,-0.010732182,0.13848741,-0.10460922,-0.038873956,0.05509685,-0.021583004,0.060622588,-0.0006712876,-0.0048441556,-0.08679558,0.08644961,2.0,0.5245421,2.0,-2.0,1.8349836,-2.0,-2.0,-2.0,-2.0,-1.4129804,-2.0,2.0,2.0,0.19935575,2.0,-2.0,0.8641148,-2.0,-2.0,-0.46869916,-2.0,0.71259165,-2.0,2.0
2025-06-05 11:58:10.882,-0.1764034,-0.008749198,0.09171872,0.005448219,0.018212676,0.021436667,0.0,0.0,0.0,-0.019756287,0.07941168,0.25903982,0.121618256,-0.010338453,0.27261,-0.040723123,-0.119423866,-0.3655237,-0.021397255,-0.021836191,-0.46820414,0.00875144,-0.024401292,-0.034715112,0.17418194,0.027969068,0.034950733,0.11586833,-0.07243776,0.007835191,-0.036650296,0.0013741822,0.07074544,0.056220204,2.0,0.19935575,2.0,-2.0,0.8641148,-2.0,-2.0,-0.46869916,-2.0,0.71259165,-2.0,2.0,2.0,-0.5024307,2.0,-2.0,0.9319219,-2.0,-2.0,-1.755175,-2.0,2.0,-1.3736699,2.0
2025-06-05 11:58:10.901,0.017511234,-0.0953259,-0.012759501,-0.06808076,0.09739886,-0.00074240385,0.0,0.0,0.0,-0.020274973,0.10061571,0.21149194,0.14165132,-0.018856144,0.27758604,-0.041748453,-0.12787583,-0.37006617,-0.018922446,0.0044219415,-0.44827685,0.052466393,0.07173709,-0.21140867,0.12455421,-0.019212322,-0.0358978,0.085822225,-0.023038026,-0.07703418,-0.077487595,0.11080721,0.12572935,0.17038274,2.0,-0.5024307,2.0,-2.0,0.9319219,-2.0,-2.0,-1.755175,-2.0,2.0,-1.3736699,2.0,2.0,-0.66416204,2.0,-2.0,1.3425708,-2.0,-2.0,-1.6787153,-2.0,2.0,-2.0,2.0
2025-06-05 11:58:10.919,0.07378321,-0.013080163,-0.019088395,-0.057184476,0.049655154,-0.016140124,0.0,0.0,0.0,-0.020927543,0.10157618,0.13666916,0.17190696,-0.02260516,0.26073,-0.039853882,-0.14550401,-0.36358544,-0.03423034,0.018399455,-0.4441833,0.07358922,0.023922926,-0.15717559,0.036521364,-0.03339913,0.01192414,-0.016410388,-0.048748422,0.018038644,0.03022815,0.03552268,-6.037257e-05,0.15090902,2.0,-0.66416204,2.0,-2.0,1.3425708,-2.0,-2.0,-1.6787153,-2.0,2.0,-2.0,2.0,2.0,-0.43020257,2.0,-2.0,1.3687079,-2.0,-2.0,-1.5526353,-2.0,2.0,-2.0,2.0
2025-06-05 11:58:10.939,0.019112239,-0.021356197,-0.00075046613,-0.058370117,0.08674556,-0.03238587,0.0,0.0,0.0,-0.021307679,0.101190984,0.09890613,0.18844263,-0.039715536,0.26084659,-0.026370712,-0.14549379,-0.3808879,-0.024921972,0.028816534,-0.45905396,0.11578007,-0.025869401,-0.13139471,0.10378055,0.05471363,0.024922647,-0.037245978,-0.081345305,0.056721482,-0.005297185,-0.014340176,0.0021276572,0.11717274,2.0,-0.43020257,2.0,-2.0,1.3687079,-2.0,-2.0,-1.5526353,-2.0,2.0,-2.0,2.0,2.0,-0.32438037,2.0,-2.0,1.4553221,-2.0,-2.0,-1.5660299,-2.0,2.0,-2.0,1.9523588
2025-06-05 11:58:10.959,0.027714187,-0.047944404,-0.014495261,-0.07687714,0.0574501,-0.042675477,0.0,0.0,0.0,-0.021431578,0.10603124,0.06065178,0.19987202,-0.045078482,0.25486895,-0.038928837,-0.1594742,-0.38193128,-0.03733766,0.03684108,-0.44848981,0.14478475,0.07314065,-0.090866156,0.08041849,0.05455534,-0.06566757,0.016578358,0.052627154,-0.050188,-0.017620176,-0.0017103535,0.050478242,0.105411895,2.0,-0.32438037,2.0,-2.0,1.4553221,-2.0,-2.0,-1.5660299,-2.0,2.0,-2.0,1.9523588,2.0,-0.19616756,2.0,-2.0,1.3197155,-2.0,-2.0,-1.7350466,-2.0,2.0,-1.7889923,1.0500852
2025-06-05 11:58:10.981,-0.01816385,-0.056781147,-0.012903582,-0.07814814,0.025230195,0.01706955,0.0,0.0,0.0,-0.021170279,0.107151866,0.042983223,0.20400447,-0.043493297,0.2680515,-0.056033332,-0.14869423,-0.38079417,-0.044848774,0.046796296,-0.44300646,0.14665301,-0.042389236,-0.10308541,0.012797461,-0.02558714,-0.047428668,-0.076796286,0.04014323,-0.054427322,0.038249116,-0.02299667,0.051926598,-0.06613304,2.0,-0.19616756,2.0,-2.0,1.3197155,-2.0,-2.0,-1.7350466,-2.0,2.0,-1.7889923,1.0500852,2.0,0.1613721,2.0,-2.0,1.6462497,-2.0,-2.0,-2.0,-2.0,2.0,-1.6951461,-1.6724439
2025-06-05 11:58:11.001,0.04798196,-0.092891775,-0.10063377,-0.056487076,0.046229534,0.040568467,0.0,0.0,0.0,-0.020507947,0.10704337,0.03708604,0.21999232,-0.047240812,0.26730332,-0.055633113,-0.15241732,-0.38000125,-0.050450396,0.049521193,-0.44539198,0.09349417,0.0014464066,-0.02017211,0.028704438,0.0019126589,0.063462764,0.03464466,-0.06815515,-0.07088709,0.025428005,0.06441632,0.008698023,-0.21317475,2.0,0.1613721,2.0,-2.0,1.6462497,-2.0,-2.0,-2.0,-2.0,2.0,-1.6951461,-1.6724439,2.0,1.2840616,0.21576987,-2.0,1.0243242,-2.0,-2.0,-1.5975163,-2.0,2.0,-1.4913423,-2.0
2025-06-05 11:58:11.019,0.04346783,-0.029156225,0.015364241,-0.052624825,0.063144214,-0.021474665,0.0,0.0,0.0,-0.019332385,0.11277432,0.07668958,0.18908717,-0.06451271,0.25960788,-0.07626768,-0.15291089,-0.38994712,-0.054586925,0.061559767,-0.4212369,0.037441526,-0.06858764,0.09355195,-0.10210034,-0.060320627,0.049357943,0.044287868,-0.050425094,0.017170591,-0.07789447,0.065910086,0.03348372,-0.12236131,2.0,1.2840616,0.21576987,-2.0,1.0243242,-2.0,-2.0,-1.5975163,-2.0,2.0,-1.4913423,-2.0,2.0,1.1923366,-2.0,-2.0,1.2519255,1.2909318,-2.0,-2.0,-2.0,2.0,-1.4094965,-2.0
2025-06-05 11:58:11.039,-0.055685338,0.14533302,-0.03506019,-0.037155747,0.027639609,-0.017884033,0.0,0.0,0.0,-0.018579949,0.11557163,0.116107464,0.12132049,-0.05890727,0.27513027,-0.022557326,-0.15068479,-0.39508453,-0.045532063,0.07432552,-0.4149171,-0.030842636,-0.043381628,0.07567629,-0.15649714,-0.017377501,0.0020034334,0.12310983,0.057361048,-0.016404012,-0.051636886,-0.0319142,0.013594681,-0.072311126,2.0,1.1923366,-2.0,-2.0,1.2519255,1.2909318,-2.0,-2.0,-2.0,2.0,-1.4094965,-2.0,2.0,1.6969905,-2.0,-0.086633,1.3361166,2.0,-2.0,-2.0,-2.0,2.0,-2.0,-2.0
2025-06-05 11:58:11.060,-0.0489862,0.3777144,0.022234377,-0.013539628,0.09360147,0.022272985,0.0,0.0,0.0,-0.017713977,0.12180435,0.13879502,0.08485795,-0.042721212,0.26763958,0.01863553,-0.12366448,-0.40030143,-0.048278842,0.07801483,-0.4243023,-0.054136,0.055199742,0.022215948,-0.10527203,0.06509977,0.07980156,0.16488093,0.05649773,-0.08913755,-0.049588047,0.018548112,0.046490107,-0.06936196,2.0,1.6969905,-2.0,-0.086633,1.3361166,2.0,-2.0,-2.0,-2.0,2.0,-2.0,-2.0,2.0,1.0879555,-2.0,2.0,1.1470764,2.0,-2.0,-2.0,0.7487021,2.0,-2.0,-2.0
2025-06-05 11:58:11.082,0.09423574,0.45656732,-0.122585036,-0.026976828,0.03187452,-0.0024404267,0.0,0.0,0.0,-0.016844153,0.13535047,0.15132172,0.05026279,-0.023085108,0.27659944,0.05612317,-0.12210446,-0.41400963,-0.03096721,0.08116791,-0.43421426,-0.10532391,0.09210993,0.013403868,-0.006281425,0.038984876,0.049898684,0.05806391,-0.013226375,0.029951047,-0.0016311643,0.082704805,0.008706383,-0.14034416,2.0,1.0879555,-2.0,2.0,1.1470764,2.0,-2.0,-2.0,0.7487021,2.0,-2.0,-2.0,2.0,1.1687104,-2.0,2.0,-0.39206895,2.0,-2.0,-1.5421546,2.0,2.0,-2.0,-2.0
2025-06-05 11:58:11.100,0.030662945,0.26421037,-0.14645675,-0.065300964,0.016357007,-0.03534688,0.0,0.0,0.0,-0.015620382,0.1424573,0.13787548,0.04720005,-0.012175413,0.21711408,0.09626442,-0.12114431,-0.40162963,0.006916919,0.09291405,-0.4558498,-0.10828584,0.0606674,-0.06688325,-0.04478754,0.00814899,-0.13532576,0.11316349,0.02029826,0.08764092,0.077358745,0.06981051,-0.08931148,0.05381434,2.0,1.1687104,-2.0,2.0,-0.39206895,2.0,-2.0,-1.5421546,2.0,2.0,-2.0,-2.0,2.0,2.0,-2.0,2.0,-1.2842796,2.0,-2.0,-1.2303153,2.0,-1.1740366,-2.0,-2.0
2025-06-05 11:58:11.119,-0.038404133,-0.003898794,0.03313049,-0.098974295,0.0145740025,-0.015154768,0.0,0.0,0.0,-0.013839685,0.13795741,0.15820834,0.036571097,0.0065030744,0.13704541,0.12439567,-0.10910401,-0.392297,0.050653234,0.105493344,-0.47194877,-0.08579352,-0.07368998,0.02802303,0.00081406144,-0.021383202,-0.18387222,0.033263706,0.022682691,-0.007023514,0.052678213,0.0291617,-0.03995216,-0.016772948,2.0,2.0,-2.0,2.0,-1.2842796,2.0,-2.0,-1.2303153,2.0,-1.1740366,-2.0,-2.0,2.0,0.7856058,-2.0,2.0,-0.48257023,2.0,-2.0,-1.3483797,2.0,-2.0,-1.762763,-2.0
2025-06-05 11:58:11.140,-0.032720514,-0.056385525,0.019014353,-0.087743044,-0.03543239,-0.022041017,0.0,0.0,0.0,-0.0132011,0.11060503,0.16348645,0.035717223,0.015695758,0.09715739,0.14852035,-0.112946145,-0.36658236,0.08397666,0.078919135,-0.46404,-0.07196726,-0.111030534,0.04232858,0.0421754,0.051744696,-0.1425859,0.0657967,0.056537926,0.032030433,0.06633596,-0.0016794197,0.07347151,0.03990864,2.0,0.7856058,-2.0,2.0,-0.48257023,2.0,-2.0,-1.3483797,2.0,-2.0,-1.762763,-2.0,2.0,1.3168315,-2.0,2.0,-0.08661735,1.5428958,-2.0,-1.5362691,2.0,-2.0,-1.5671628,-2.0
2025-06-05 11:58:11.160,0.016081514,0.013816594,-0.00327914,-0.022967273,-0.04133506,0.035881326,0.0,0.0,0.0,-0.013229999,0.094345145,0.17860082,0.032726057,0.03251832,0.06159862,0.15206274,-0.10491227,-0.37004292,0.11275989,0.06158148,-0.45233005,-0.082033135,-0.051904712,0.015749637,0.036621146,0.047949348,-0.02196288,-0.031982355,0.05353006,0.028244786,-0.002374079,-0.007338403,0.044218455,-0.05548438,2.0,1.3168315,-2.0,2.0,-0.08661735,1.5428958,-2.0,-1.5362691,2.0,-2.0,-1.5671628,-2.0,2.0,1.3566014,-2.0,2.0,0.26636934,-0.7803463,-2.0,-1.6296589,2.0,-2.0,-1.8525805,-2.0
2025-06-05 11:58:11.184,0.043671984,0.00011574927,0.094909996,-0.03264937,0.020834196,-0.0018372015,0.0,0.0,0.0,-0.013557437,0.09411428,0.2000219,0.018210042,0.033781335,0.07251647,0.11829374,-0.10696587,-0.36017603,0.13603075,0.03782436,-0.4521807,-0.07811036,0.028563278,0.05773842,0.019968875,-0.013281088,-0.057028852,-0.042739153,-0.012856915,-0.029195324,0.13054037,-0.10993165,-0.068295725,0.064157486,2.0,1.3566014,-2.0,2.0,0.26636934,-0.7803463,-2.0,-1.6296589,2.0,-2.0,-1.8525805,-2.0,2.0,-0.21199486,-2.0,1.2372284,2.0,-2.0,-2.0,-1.8601687,-2.0,-2.0,-1.2309393,-2.0
2025-06-05 11:58:11.200,0.040936857,-0.049941882,-0.047903534,-0.052756224,-0.056685057,-0.0072032725,0.0,0.0,0.0,-0.014585815,0.081334576,0.19540782,-0.004130849,0.049814187,0.11797618,0.0555248,-0.09944785,-0.377606,0.079239726,0.023897313,-0.44119692,-0.07995254,-0.048021406,0.0041571287,-0.044232722,0.07371042,0.14193453,-0.1553757,-0.06504934,0.010400433,-0.2366801,-0.04889814,-0.048246536,-0.020007236,2.0,-0.21199486,-2.0,1.2372284,2.0,-2.0,-2.0,-1.8601687,-2.0,-2.0,-1.2309393,-2.0,2.0,1.2476912,-0.17075707,-2.0,1.4391584,-2.0,-2.0,-0.85562694,-2.0,-2.0,-2.0,-2.0
2025-06-05 11:58:11.221,-0.04285701,0.0044001876,0.102531895,-0.10673411,0.011947548,-0.034607578,0.0,0.0,0.0,-0.014420986,0.076628946,0.20872794,-0.0008111349,0.024760576,0.16090691,-0.00091530505,-0.09900841,-0.34988248,0.033684764,0.0028889538,-0.44365323,-0.076926574,0.01340619,-0.028886342,-0.038946453,-0.08960432,0.06424494,-0.11322199,0.056015044,0.07797715,-0.18552005,-0.086980045,-0.027396962,-0.070820205,2.0,1.2476912,-0.17075707,-2.0,1.4391584,-2.0,-2.0,-0.85562694,-2.0,-2.0,-2.0,-2.0,2.0,0.47002938,2.0,-2.0,1.6695247,-2.0,-2.0,-2.0,-2.0,-2.0,-2.0,-0.92202413
2025-06-05 11:58:11.240,0.026428942,-0.21871276,0.018703789,-0.053415533,0.029576015,-0.0063072047,0.0,0.0,0.0,-0.014919727,0.07004645,0.19326316,0.040783007,0.0014468358,0.19462675,-0.04178424,-0.09752835,-0.37084725,-0.016709229,-0.011870236,-0.4572778,-0.088165306,0.04918531,-0.061857034,0.13237895,0.017717583,-0.0062326137,-0.0032245687,-0.030309353,-0.005725703,-0.14636543,-0.046665236,-0.028897703,0.012819105,2.0,0.47002938,2.0,-2.0,1.6695247,-2.0,-2.0,-2.0,-2.0,-2.0,-2.0,-0.92202413,2.0,0.33327857,2.0,-2.0,1.2021357,-2.0,-2.0,-1.7130156,-2.0,-0.46063936,-2.0,2.0
2025-06-05 11:58:11.260,0.056022413,-0.19554769,-0.037249926,-0.0689029,-0.011169884,0.007850368,0.0,0.0,0.0,-0.015530464,0.075468205,0.17779213,0.07621236,-0.01110526,0.20299317,-0.050178114,-0.110286124,-0.38458547,-0.04869121,-0.021378292,-0.46682146,-0.024087956,0.038996276,-0.019432249,0.07802382,-0.075367406,-0.021337662,0.019950898,-0.03008069,0.0018434812,-0.12035091,0.028216232,0.009196066,0.10747589,2.0,0.33327857,2.0,-2.0,1.2021357,-2.0,-2.0,-1.7130156,-2.0,-0.46063936,-2.0,2.0,2.0,-0.099363305,2.0,-2.0,0.5880146,-2.0,-2.0,-0.91053367,-2.0,2.0,-2.0,2.0
2025-06-05 11:58:11.283,-0.084321715,-0.12585658,0.1258273,-0.049851432,0.07607728,0.014493469,0.0,0.0,0.0,-0.01571922,0.08537063,0.14089689,0.10636722,-0.026737904,0.19950266,-0.02991933,-0.11549274,-0.37419418,-0.056936953,-0.0135417385,-0.47669435,0.00949921,-0.04357993,-0.091649614,0.09235152,0.011706855,-0.00081681344,-0.012523319,-0.016755471,0.07918374,-0.07096612,9.4397226e-05,0.07407081,0.13760568,2.0,-0.099363305,2.0,-2.0,0.5880146,-2.0,-2.0,-0.91053367,-2.0,2.0,-2.0,2.0,2.0,-0.48528323,2.0,-2.0,1.6416866,-2.0,-2.0,-2.0,-2.0,2.0,-1.7800066,2.0
2025-06-05 11:58:11.301,-0.028904999,-0.12072406,0.04544683,-0.09407537,0.07323079,0.008094203,0.0,0.0,0.0,-0.017110389,0.106281765,0.10988294,0.14163277,-0.032156717,0.20477998,-0.03297526,-0.14549275,-0.3858487,-0.05509157,0.014621568,-0.4544043,0.050141707,-0.029236084,-0.12042571,0.07969572,-0.07199987,0.073130324,-0.03113311,-0.02925293,0.01575815,0.03402428,0.050899807,0.018333558,0.15686332,2.0,-0.48528323,2.0,-2.0,1.6416866,-2.0,-2.0,-2.0,-2.0,2.0,-1.7800066,2.0,2.0,-0.50292593,2.0,-2.0,1.9962884,-2.0,-2.0,-1.9703646,-2.0,2.0,-2.0,2.0
2025-06-05 11:58:11.321,0.030301746,-0.13633037,-0.07761224,-0.048337568,0.07451419,0.0016471937,0.0,0.0,0.0,-0.017971477,0.10248234,0.06742221,0.16103229,-0.04781672,0.22147107,-0.035174496,-0.15075372,-0.3981919,-0.046230283,0.031024724,-0.46612778,0.08759044,-0.0052853697,-0.12974966,0.05601425,-0.07909331,-0.009284831,0.020218818,0.003927551,-0.091843516,-0.040629797,0.0080332095,0.0014521661,0.105623335,2.0,-0.50292593,2.0,-2.0,1.9962884,-2.0,-2.0,-1.9703646,-2.0,2.0,-2.0,2.0,2.0,-0.39905617,2.0,-2.0,1.1987134,-2.0,-2.0,-1.1144918,-2.0,2.0,-2.0,2.0
2025-06-05 11:58:11.341,-0.070631266,0.0073352656,0.07827543,-0.06330677,0.09183821,0.018662548,0.0,0.0,0.0,-0.017652877,0.10514839,0.038378228,0.17284586,-0.04933428,0.2388482,-0.036879133,-0.14836685,-0.37588903,-0.053659305,0.026580455,-0.4706751,0.1313955,0.009632567,-0.13158283,0.041950963,-0.023536818,-0.00020222276,-0.04950366,-0.06469512,0.0637418,0.06565041,0.048054203,-0.062618524,0.0025127803,2.0,-0.39905617,2.0,-2.0,1.1987134,-2.0,-2.0,-1.1144918,-2.0,2.0,-2.0,2.0,2.0,-0.29439798,2.0,-2.0,1.8056806,-2.0,-2.0,-2.0,-2.0,2.0,-2.0,0.58937514
2025-06-05 11:58:11.361,-0.010906837,-0.05439035,-0.0631168,-0.09082849,0.08171832,0.0031052951,0.0,0.0,0.0,-0.017871706,0.109922156,0.030225521,0.18386291,-0.05210894,0.24026442,-0.045093607,-0.14329089,-0.37774256,-0.039390896,0.048622895,-0.46244147,0.12782255,-0.022481985,0.0119159045,0.00485678,-0.0015046131,0.07161263,-0.08414831,-0.06512767,-0.061638206,0.042573664,-0.012619797,-0.06690191,-0.09189723,2.0,-0.29439798,2.0,-2.0,1.8056806,-2.0,-2.0,-2.0,-2.0,2.0,-2.0,0.58937514,2.0,0.37318543,2.0,-2.0,1.2250074,-2.0,-2.0,-1.4223609,-2.0,2.0,-1.565283,-2.0
2025-06-05 11:58:11.384,-0.014077604,-0.07383785,0.040962625,-0.07911692,0.104398794,0.007764384,0.0,0.0,0.0,-0.01754382,0.110813946,0.027360084,0.1909242,-0.049003042,0.26649636,-0.05317797,-0.14392522,-0.37801707,-0.058057483,0.060465064,-0.44713932,0.06407925,-0.069358625,0.06470618,-0.0011803888,-0.05185149,0.057630204,-0.0597089,-0.05974009,0.056507125,0.005176856,-0.024286272,-0.026570749,-0.13764946,2.0,0.37318543,2.0,-2.0,1.2250074,-2.0,-2.0,-1.4223609,-2.0,2.0,-1.565283,-2.0,2.0,0.76304424,1.2805727,-2.0,1.7804924,-2.0,-2.0,-2.0,-2.0,2.0,-1.5293887,-2.0
2025-06-05 11:58:11.401,0.07156435,-0.042480018,-0.06392031,-0.0011259753,0.10473731,-0.03730153,0.0,0.0,0.0,-0.017230265,0.10790781,0.058511738,0.202566,-0.05628814,0.27679774,-0.06646154,-0.15476377,-0.3752178,-0.04489783,0.065286465,-0.4437877,0.011437378,0.044955164,0.12820838,-0.0152304685,0.019300409,0.0015665358,0.04399339,-0.007255721,0.0506659,0.025863318,0.06834329,-0.001998272,-0.11219416,2.0,0.76304424,1.2805727,-2.0,1.7804924,-2.0,-2.0,-2.0,-2.0,2.0,-1.5293887,-2.0,2.0,1.4585812,-1.164599,-2.0,0.88952166,-2.0,-2.0,-1.946792,-2.0,2.0,-1.6981032,-2.0
2025-06-05 11:58:11.421,0.054693162,0.012249387,-0.07919722,-0.066526845,0.10125763,-0.046429455,0.0,0.0,0.0,-0.01642043,0.11641816,0.10376969,0.13673656,-0.055711016,0.2746773,-0.06037648,-0.14754331,-0.3931825,-0.037011385,0.06812328,-0.42876986,-0.04482346,-0.036387775,0.05858305,-0.08686575,0.02935793,-0.023706011,0.044222448,0.054909255,-0.010020434,-0.040926233,-0.032623813,-0.00037466935,-0.04402825,2.0,1.4585812,-1.164599,-2.0,0.88952166,-2.0,-2.0,-1.946792,-2.0,2.0,-1.6981032,-2.0,2.0,1.7286234,-2.0,-2.0,0.40415373,1.3241035,-2.0,-1.6728286,-2.0,2.0,-2.0,-2.0
2025-06-05 11:58:11.441,0.00059272966,0.20042732,0.02337087,-0.020183511,0.0766781,0.0329442,0.0,0.0,0.0,-0.01576641,0.11586468,0.13768148,0.077781655,-0.070674434,0.24442822,-0.027918113,-0.12956677,-0.39490867,-0.048775353,0.072555065,-0.4271154,-0.07350108,-0.03207902,0.10235468,-0.11373551,0.06075287,-0.049431078,0.18408936,-0.026883882,0.057751793,-0.038619436,0.052835695,-0.06870437,-0.042822715,2.0,1.7286234,-2.0,-2.0,0.40415373,1.3241035,-2.0,-1.6728286,-2.0,2.0,-2.0,-2.0,2.0,1.1553237,-2.0,-1.0393021,1.5900522,2.0,-2.0,-2.0,-1.8495095,2.0,-2.0,-2.0
2025-06-05 11:58:11.461,0.0300001,0.31981382,-0.0890477,-0.06935369,0.0027369405,0.008998402,0.0,0.0,0.0,-0.015741652,0.119501024,0.17066765,0.06454545,-0.052643176,0.247965,0.02352611,-0.12129639,-0.40533835,-0.05466788,0.08043766,-0.43832242,-0.10589004,0.07607421,0.016202085,-0.09960943,0.054110263,0.07890685,0.062307656,0.057856567,-0.0025721565,-0.05715953,0.034414962,0.046826806,-0.1115893,2.0,1.1553237,-2.0,-1.0393021,1.5900522,2.0,-2.0,-2.0,-1.8495095,2.0,-2.0,-2.0,2.0,1.5185531,-2.0,2.0,1.0007087,2.0,-2.0,-2.0,0.11225158,2.0,-2.0,-2.0
2025-06-05 11:58:11.485,0.09321402,0.34065026,-0.111354776,-0.08759549,-0.023773687,0.014581771,0.0,0.0,0.0,-0.014923702,0.13886744,0.18153292,0.027647031,-0.037407756,0.2474372,0.05486228,-0.11861531,-0.41637757,-0.042890906,0.08699683,-0.44256976,-0.12769823,0.042235423,-0.0025617424,-0.03514321,0.062822,0.044208825,0.14931518,0.0057686754,0.0239156,-0.043155838,0.013556771,-0.10741647,-0.004930738,2.0,1.5185531,-2.0,2.0,1.0007087,2.0,-2.0,-2.0,0.11225158,2.0,-2.0,-2.0,2.0,1.1331716,-2.0,2.0,-0.47052974,2.0,-2.0,-1.6613919,2.0,2.0,-2.0,-2.0
2025-06-05 11:58:11.501,0.049455855,0.13712212,-0.08131459,-0.035599355,0.018078348,-0.010634068,0.0,0.0,0.0,-0.013777855,0.13033687,0.17417672,0.025878228,-0.01125649,0.20060706,0.08896122,-0.109528095,-0.41491672,0.0030221688,0.09898237,-0.46122673,-0.13885282,0.001881546,0.008207033,-0.020445917,0.057373077,-0.20653223,0.096159846,0.06720267,0.033592068,0.13672234,0.013243269,-0.081009835,0.0065483553,2.0,1.1331716,-2.0,2.0,-0.47052974,2.0,-2.0,-1.6613919,2.0,2.0,-2.0,-2.0,2.0,1.6411617,-2.0,2.0,-1.1557658,2.0,-2.0,-1.3498262,2.0,1.8503704,-2.0,-2.0
2025-06-05 11:58:11.521,-0.03467584,0.08370282,-0.07455726,-0.0848977,-0.04047547,-0.030438108,0.0,0.0,0.0,-0.012203172,0.13430451,0.18569425,0.016697716,-0.009736387,0.13533753,0.12964535,-0.10340235,-0.4065076,0.048703313,0.10871817,-0.4866815,-0.10775709,-0.0008542711,0.00040176106,0.039914865,0.06624631,-0.23362966,0.04056452,0.024717506,0.09204456,0.16934124,-0.050106753,0.05407005,0.006047132,2.0,1.6411617,-2.0,2.0,-1.1557658,2.0,-2.0,-1.3498262,2.0,1.8503704,-2.0,-2.0,2.0,1.9148942,-2.0,2.0,-1.7613201,2.0,-2.0,-1.5572615,2.0,-0.8615794,-2.0,-2.0
2025-06-05 11:58:11.541,-0.05904642,0.053450033,-0.042137288,-0.06574233,0.015010695,0.02653748,0.0,0.0,0.0,-0.010425277,0.120819554,0.20077085,0.011816957,0.015751347,0.04760727,0.14286624,-0.106905624,-0.38943985,0.08023922,0.09701498,-0.48086545,-0.09600376,-0.054017387,0.112942405,0.0014566228,0.047000628,-0.22506875,0.035845984,0.018936845,0.032220498,0.11150354,0.049362257,-0.0628348,0.032057304,2.0,1.9148942,-2.0,2.0,-1.7613201,2.0,-2.0,-1.5572615,2.0,-0.8615794,-2.0,-2.0,2.0,1.8653855,-2.0,2.0,-0.8626647,2.0,-2.0,-1.8860447,2.0,-2.0,-2.0,-2.0
2025-06-05 11:58:11.562,-0.01006466,-0.010420757,0.08465288,-0.036597624,-0.0670071,-0.027822008,0.0,0.0,0.0,-0.009902634,0.10365045,0.23766008,-0.005378049,0.028566532,-0.0071059153,0.1761537,-0.10462796,-0.390011,0.1202539,0.07560248,-0.48761958,-0.09947099,-0.09411757,0.0060878834,-0.047227155,-0.033456482,-0.10256102,0.08777333,0.034619633,-0.022928644,0.1333475,-0.07072201,-0.025585398,-0.001174472,2.0,1.8653855,-2.0,2.0,-0.8626647,2.0,-2.0,-1.8860447,2.0,-2.0,-2.0,-2.0,1.6538161,0.80943346,-2.0,2.0,0.6823407,0.9079037,-2.0,-1.5441939,2.0,-2.0,-1.5399338,-2.0
2025-06-05 11:58:11.585,-0.00925211,-0.08929897,0.06294358,-0.05435696,0.0146128,-0.038061813,0.0,0.0,0.0,-0.010926602,0.089813665,0.24810398,-0.013240583,0.04472634,0.016351419,0.16874076,-0.10117913,-0.3861198,0.14460714,0.049865067,-0.4801071,-0.09648798,-0.09596212,0.11083843,0.058186494,-0.039721347,0.107347846,0.03405476,-0.043358065,-0.044568576,0.047720354,-0.07372396,-0.0012111099,0.05081888,1.6538161,0.80943346,-2.0,2.0,0.6823407,0.9079037,-2.0,-1.5441939,2.0,-2.0,-1.5399338,-2.0,2.0,0.56704324,-2.0,2.0,1.4710315,-2.0,-2.0,-1.6753684,-0.9851813,-2.0,-1.213248,-2.0
