openverse-orca/OrcaGym/log/simulation_log_20250721_155417.csv
timestamp,sim_time,physics_step,control_step,imu_angle_roll,imu_angle_pitch,imu_angle_yaw,imu_angular_velocity_roll,imu_angular_velocity_pitch,imu_angular_velocity_yaw,imu_acc_x,imu_acc_y,imu_acc_z,fl_joint1_pos,fl_joint1_vel,fl_joint1_torque,fl_joint2_pos,fl_joint2_vel,fl_joint2_torque,fl_joint3_pos,fl_joint3_vel,fl_joint3_torque,fr_joint1_pos,fr_joint1_vel,fr_joint1_torque,fr_joint2_pos,fr_joint2_vel,fr_joint2_torque,fr_joint3_pos,fr_joint3_vel,fr_joint3_torque,hl_joint1_pos,hl_joint1_vel,hl_joint1_torque,hl_joint2_pos,hl_joint2_vel,hl_joint2_torque,hl_joint3_pos,hl_joint3_vel,hl_joint3_torque,hr_joint1_pos,hr_joint1_vel,hr_joint1_torque,hr_joint2_pos,hr_joint2_vel,hr_joint2_torque,hr_joint3_pos,hr_joint3_vel,hr_joint3_torque,fl_force_x,fl_force_y,fl_force_z,fr_force_x,fr_force_y,fr_force_z,hl_force_x,hl_force_y,hl_force_z,hr_force_x,hr_force_y,hr_force_z,fl_hip_action,fl_thigh_action,fl_calf_action,fr_hip_action,fr_thigh_action,fr_calf_action,hl_hip_action,hl_thigh_action,hl_calf_action,hr_hip_action,hr_thigh_action,hr_calf_action
2025-07-21 15:54:17.531,0.0,0,0,-0.108793974,0.077072576,0.10068931,0.01621384,-0.03130315,-0.0324828,-0.03598052,-0.010605551,-0.047271334,2.1040866,0.27212912,0.0,0.0,0.85329676,0.0,0.0,-0.0047087446,-0.006877746,0.0073093735,-0.009147377,-0.0030805925,0.00046143943,-0.0031485057,0.00436432,-0.008600283,-0.0029648344,-0.008250176,-0.008992656,0.052926943,-0.013956861,-0.04413451,-0.03239093,0.062484473,0.06309161,0.031479813,0.009773379,0.0003558705,-0.047789168,0.039641865,0.0041130716,0.0,0.0,0.0,0.0,0.0,0.0,0.0,0.0,0.0,0.0,0.0,0.0,1.0,1.0,-1.0,1.0,-1.0,1.0,-1.0,-1.0,1.0,1.0,1.0,0.18700108
2025-07-21 15:54:17.547,0.02,20,1,-0.19378741,0.18242918,0.18575563,-0.054024134,0.08541233,-0.14464724,-0.028205324,-0.0038509313,-0.021940516,0.0,0.0,0.0,0.0,0.5,0.0,0.0,0.018625818,0.041382086,-0.036784846,0.013728392,-0.016647393,0.027394557,-0.023031514,-0.026827954,0.032911688,0.0286478,0.048739366,-0.0032062123,0.026746888,0.16457094,-0.014527607,0.03619141,-0.027100291,0.12331075,0.017024288,-0.11535196,-0.011357518,0.08406308,0.10315657,0.07028228,1.0,1.0,-1.0,1.0,-1.0,1.0,-1.0,-1.0,1.0,1.0,1.0,0.18700108,1.0,0.23851681,-1.0,1.0,1.0,1.0,-1.0,-1.0,1.0,-0.48981786,1.0,-1.0
2025-07-21 15:54:17.562,0.04,40,2,-0.0059029465,0.10239207,0.20835058,0.07238776,0.07421466,0.021733582,-0.016007638,0.046529666,0.015127832,0.0,0.0,0.0,0.00096713327,0.5,0.0,0.0,0.056781996,0.049979363,-0.058970824,0.02535517,-0.028851034,0.036204603,-0.027739758,-0.0783043,0.057046063,0.02328945,0.11959169,-0.014114523,0.08172977,-0.0041225078,-0.097134344,0.07260428,0.0091372235,-0.019179147,-0.06929068,-0.06392308,0.04586949,-0.006155912,0.18905674,-0.08071194,1.0,0.23851681,-1.0,1.0,1.0,1.0,-1.0,-1.0,1.0,-0.48981786,1.0,-1.0,1.0,0.18366182,-1.0,1.0,1.0,1.0,-1.0,-1.0,1.0,-0.36784768,-1.0,-1.0
2025-07-21 15:54:17.582,0.06,60,3,-0.1626877,0.19214344,-0.0685775,0.071016364,0.091756985,0.07240551,-0.024851818,0.038267568,-0.03357577,0.0,0.0,0.0,0.0024417122,0.5,0.0,0.0,0.05921606,0.062431704,-0.08015594,0.05510563,-0.019571276,0.05245657,-0.04626932,-0.12728089,0.07719357,-0.0028690423,0.09927222,-0.04751795,0.11639922,0.02127151,-0.11078119,-0.023562359,0.06237065,-0.018723095,0.025715336,-0.15008886,0.0586493,-0.024525747,-0.13855265,-0.042894106,1.0,0.18366182,-1.0,1.0,1.0,1.0,-1.0,-1.0,1.0,-0.36784768,-1.0,-1.0,1.0,-0.42791688,-1.0,1.0,1.0,1.0,-1.0,-0.55742884,1.0,-1.0,-0.12483151,-1.0
2025-07-21 15:54:17.602,0.08,80,4,0.09318459,-0.06501667,0.1396685,0.08748304,-0.07570598,0.12683903,-0.023576092,-0.021979142,0.032912016,0.0,0.0,0.0,0.0018008889,0.5,0.0,0.0,0.07806194,0.031305008,-0.09156021,0.06390592,0.021676695,0.05480209,-0.062557966,-0.13781545,0.07662429,-0.020013869,0.08627734,-0.06661944,-0.02824824,-0.13770925,-0.0030679542,0.041478727,0.13703185,0.046742037,-0.07341987,-0.059127975,-0.04192957,-0.009948627,-0.050659657,-0.11597631,1.0,-0.42791688,-1.0,1.0,1.0,1.0,-1.0,-0.55742884,1.0,-1.0,-0.12483151,-1.0,1.0,1.0,-0.3296777,1.0,-1.0,1.0,-1.0,-0.7328726,1.0,0.6059699,-0.70983654,-1.0
2025-07-21 15:54:17.622,0.1,100,5,-0.11930105,0.09770029,0.17020944,0.036479637,0.12695226,-0.007612958,-0.02724627,0.0022659113,-0.04037075,0.0,0.0,0.0,0.00014743807,0.5,0.0,0.0,0.09958021,0.043590005,-0.09070018,0.07468925,0.029312847,0.06717115,-0.06736182,-0.1746567,0.08496705,-0.012919008,0.010575033,-0.07932705,-0.038888402,0.14031878,-0.0049937167,-0.034970045,0.0030044373,0.065777615,-0.07410888,-0.07732399,-0.031639628,0.08801014,-0.12744516,-0.105161004,1.0,1.0,-0.3296777,1.0,-1.0,1.0,-1.0,-0.7328726,1.0,0.6059699,-0.70983654,-1.0,0.45972857,-1.0,-1.0,1.0,1.0,1.0,-1.0,-0.7203835,1.0,-1.0,1.0,-1.0
2025-07-21 15:54:17.646,0.12000000000000001,120,6,-0.11560282,0.17158614,0.16671637,0.04405486,-0.0693649,0.1302446,0.011949174,-0.0053457054,-0.02041438,0.0,0.0,0.0,-0.0005341173,0.5,0.0,0.0,0.095178425,0.041241657,-0.08338035,0.06876718,0.04879449,0.06685931,-0.0750533,-0.18411951,0.10571756,-0.031306393,0.025002431,-0.09872827,-0.00015438958,-0.105358966,-0.069203034,0.06121064,0.06396229,0.080894865,-0.05334835,-0.04128017,0.021795845,-0.012078945,0.1357007,-0.09529394,0.45972857,-1.0,-1.0,1.0,1.0,1.0,-1.0,-0.7203835,1.0,-1.0,1.0,-1.0,1.0,1.0,-0.6513537,1.0,1.0,1.0,-1.0,0.6991149,1.0,-0.65304136,-1.0,-1.0
2025-07-21 15:54:17.663,0.14,140,7,0.3500077,0.11817883,-0.072205395,-0.08669948,-0.15357459,-0.009567932,-0.027912034,0.03307843,-0.049772106,0.0,0.0,0.0,-0.0011421161,0.5,0.0,0.0,0.10968959,0.04304227,-0.0856198,0.084265865,0.09927325,0.07343354,-0.08146092,-0.1634151,0.09712535,-0.041643854,0.0142949615,-0.10265228,0.017650856,0.112759694,0.010013697,0.031184962,0.18771133,-0.03982943,-0.087146394,0.034895275,-0.003431588,-0.040468812,-0.1863123,-0.04855804,1.0,1.0,-0.6513537,1.0,1.0,1.0,-1.0,0.6991149,1.0,-0.65304136,-1.0,-1.0,0.5937451,-1.0,-1.0,1.0,-1.0,1.0,-1.0,-1.0,1.0,-1.0,1.0,-1.0
2025-07-21 15:54:17.683,0.16,160,8,0.13780472,-0.05276811,0.08881382,-0.0016067395,0.08324553,0.035490267,0.015009334,0.028824214,-0.014144722,0.0,0.0,0.0,-0.0017466631,0.5,0.0,0.0,0.10758523,0.036578283,-0.113291286,0.09038807,0.12751359,0.085787974,-0.0839761,-0.16970345,0.10981593,-0.067070805,0.014706395,-0.11357867,0.026081476,-0.17685981,0.044457864,0.02368951,0.043264568,0.06613824,-0.0777193,0.029987257,0.07470077,-0.040428683,0.16072035,-0.07274473,0.5937451,-1.0,-1.0,1.0,-1.0,1.0,-1.0,-1.0,1.0,-1.0,1.0,-1.0,1.0,-0.7674713,-1.0,1.0,-1.0,1.0,-1.0,-0.72634315,1.0,1.0,-1.0,-1.0
2025-07-21 15:54:17.703,0.18,180,9,-0.007843036,0.18195769,0.15930466,0.06158575,0.4067241,-0.07977279,-0.06312344,0.07373269,0.02393169,0.0,0.0,0.0,-0.0021888262,0.5,0.0,0.0,0.12747659,-0.023007033,-0.108583435,0.10246587,0.09622326,0.09719907,-0.10640267,-0.17928307,0.11346516,-0.0233731,-0.011266242,-0.12103627,-0.039682794,-0.21719018,0.019000651,0.08970158,-0.08033772,0.07431223,-0.04834736,0.010038856,0.07456462,0.13667658,-0.13154745,-0.025062524,1.0,-0.7674713,-1.0,1.0,-1.0,1.0,-1.0,-0.72634315,1.0,1.0,-1.0,-1.0,0.84955204,0.6015192,1.0,1.0,0.099342145,1.0,-1.0,-1.0,1.0,-1.0,1.0,-1.0
2025-07-21 15:54:17.723,0.19999999999999998,200,10,-0.100855805,0.18041994,0.15536895,-0.052265305,0.2568721,0.02724824,-0.04308991,0.05801315,0.04238746,0.0,0.0,0.0,-0.0022166865,0.5,0.0,0.0,0.120687366,-0.026789762,-0.080875956,0.110509485,0.08468093,0.098114885,-0.10244091,-0.21351986,0.122659445,-0.044709783,-0.0111898845,-0.12502085,0.06391146,0.09696793,0.15081613,0.06169961,0.01825373,-0.010143013,0.0067026545,-0.044752013,-0.047870815,0.013945626,0.1391713,-0.044589926,0.84955204,0.6015192,1.0,1.0,0.099342145,1.0,-1.0,-1.0,1.0,-1.0,1.0,-1.0,-0.78694946,0.63027585,-1.0,1.0,1.0,1.0,-1.0,1.0,1.0,-1.0,-0.8121225,0.4975097
2025-07-21 15:54:17.746,0.21999999999999997,220,11,0.43133953,0.21512991,-0.16557221,-0.105399236,0.1103795,-0.02826954,-0.047846027,-0.0071804943,-0.012330578,0.0,0.0,0.0,-0.0017957692,0.5,0.0,0.0,0.090909116,0.03407108,-0.07806859,0.11420129,0.10505164,0.11123841,-0.12178347,-0.19549301,0.12587945,-0.059760224,-0.027781492,-0.0909075,-0.1409053,0.07955287,0.02024821,0.08007962,0.17769475,0.003165607,-0.06069795,0.08230345,-0.013553168,-0.0024640094,-0.1458386,0.10520325,-0.78694946,0.63027585,-1.0,1.0,1.0,1.0,-1.0,1.0,1.0,-1.0,-0.8121225,0.4975097,0.17181312,-0.67175895,0.91933644,0.8929547,-1.0,1.0,-1.0,-1.0,1.0,-1.0,0.700637,-1.0
2025-07-21 15:54:17.763,0.23999999999999996,240,12,0.095744275,0.36839566,0.031994905,0.10106599,0.21700345,0.14609614,-0.09568097,0.0424887,0.034138452,0.0,0.0,0.0,-0.0021207803,0.5,0.0,0.0,0.07399551,0.009106708,-0.054877084,0.10889725,0.12701966,0.114060886,-0.11729115,-0.20685577,0.124901675,-0.0766747,-0.027290897,-0.104858615,0.008784835,-0.08457387,0.07730373,-0.07308899,0.007506685,-0.039649393,-0.0005150005,-0.13201186,0.025508113,-0.025846113,0.058971,-0.100074425,0.17181312,-0.67175895,0.91933644,0.8929547,-1.0,1.0,-1.0,-1.0,1.0,-1.0,0.700637,-1.0,-1.0,-1.0,1.0,1.0,1.0,1.0,-1.0,1.0,1.0,-0.7240436,-1.0,1.0
2025-07-21 15:54:17.783,0.25999999999999995,260,13,-0.023841305,0.39637655,0.20572115,0.09109145,-0.052640006,0.15455176,-0.08765123,0.10759558,0.041717827,0.0,0.0,0.0,-0.0031905773,0.5,0.0,0.0,0.050871827,-0.045583848,-0.0030403181,0.11445946,0.15161975,0.10804235,-0.13860264,-0.18447259,0.118860185,-0.09741512,-0.034952123,-0.0690671,-0.1436874,-0.06753191,0.064922765,-0.04815297,0.15709305,0.03702489,-0.024995603,0.07924254,-0.05031196,-0.055491228,-0.19101562,0.101712726,-1.0,-1.0,1.0,1.0,1.0,1.0,-1.0,1.0,1.0,-0.7240436,-1.0,1.0,1.0,0.47195148,1.0,-1.0,-1.0,-1.0,-1.0,-1.0,1.0,1.0,0.57330567,1.0
2025-07-21 15:54:17.803,0.27999999999999997,280,14,0.24226776,0.19628297,0.19881317,0.21571891,0.03794526,0.16995955,-0.063860044,0.033190463,-0.013877584,0.0,0.0,0.0,-0.0059853075,0.5,0.0,0.0,0.051200315,-0.043600008,0.018152554,0.08086392,0.18048307,0.05906904,-0.12884739,-0.17410721,0.12597744,-0.043628402,-0.024746401,-0.033533584,0.11950525,0.09706801,0.08794666,-0.14881983,-0.018860037,-0.16606578,-0.0949381,-0.013067658,0.06562422,0.17033221,0.1571295,0.06690676,1.0,0.47195148,1.0,-1.0,-1.0,-1.0,-1.0,-1.0,1.0,1.0,0.57330567,1.0,-1.0,-1.0,1.0,0.08655703,-1.0,1.0,-1.0,0.6333722,1.0,-0.38153422,-1.0,-1.0
2025-07-21 15:54:17.824,0.3,300,15,0.049812917,0.35599694,0.2288804,0.1910731,-0.08352071,0.10888935,-0.03021205,0.040786944,-0.0019647826,0.0,0.0,0.0,-0.009099385,0.5,0.0,0.0,0.047326945,-0.04848381,0.038857985,0.063119546,0.15295532,0.07021756,-0.15005311,-0.14865993,0.14579447,-0.045194067,-0.048850443,-0.035031352,-0.090039946,-0.10793617,0.1183682,-0.0025398764,-0.04653266,0.048291136,0.05399229,0.18530105,-0.029538749,-0.0173749,-0.12931232,-0.0020517244,-1.0,-1.0,1.0,0.08655703,-1.0,1.0,-1.0,0.6333722,1.0,-0.38153422,-1.0,-1.0,1.0,0.37079978,1.0,1.0,0.89951134,-1.0,-1.0,-1.0,1.0,-0.41511756,1.0,1.0
2025-07-21 15:54:17.846,0.32,320,16,-0.09868117,0.021964082,0.08288359,-0.035793804,-0.12258188,0.09967156,-0.081880815,0.042128924,-0.013410611,0.0,0.0,0.0,-0.011047578,0.5,0.0,0.0,0.05237486,-0.04657748,0.054234806,0.07116725,0.18200335,0.049475446,-0.14127424,-0.14680357,0.14576691,-0.05729283,-0.046015117,-0.017528161,0.03506801,0.0892796,0.03710049,0.108422734,0.17123654,-0.026887063,-0.07697168,-0.11623719,-0.060798872,0.041982785,0.09766068,0.06986307,1.0,0.37079978,1.0,1.0,0.89951134,-1.0,-1.0,-1.0,1.0,-0.41511756,1.0,1.0,-1.0,1.0,0.8927673,-0.33032432,-0.36640975,0.89655465,-1.0,0.19814721,1.0,1.0,-1.0,-0.5625534
2025-07-21 15:54:17.864,0.34,340,17,0.075832106,0.26928112,0.009643769,0.059434388,-0.38318878,-0.009378904,-0.03901637,0.060321447,0.032738373,0.0,0.0,0.0,-0.012356039,0.5,0.0,0.0,0.026263285,0.03344597,0.058589227,0.0550006,0.1918021,0.056745633,-0.15259089,-0.12434985,0.14517426,-0.021783324,-0.03207908,-0.014280795,-0.045922577,0.1838115,0.054713264,-0.12102442,-0.019816108,0.005976667,-0.049381543,0.15137872,0.009576252,0.038187087,-0.18271823,0.036916696,-1.0,1.0,0.8927673,-0.33032432,-0.36640975,0.89655465,-1.0,0.19814721,1.0,1.0,-1.0,-0.5625534,0.33734688,-1.0,-1.0,1.0,-0.010328911,1.0,-1.0,-1.0,1.0,-1.0,1.0,-1.0
2025-07-21 15:54:17.884,0.36000000000000004,360,18,-0.21359544,0.09323094,0.019897608,-0.061130658,0.034662016,0.039514113,0.015932221,0.017431835,-0.045885112,0.0,0.0,0.0,-0.013023312,0.5,0.0,0.0,0.030135266,0.051729046,0.026073983,0.06530898,0.16197371,0.06389744,-0.16039339,-0.11892346,0.15643075,-0.034529828,-0.033999216,-0.038126398,0.005132154,-0.106882304,-0.15616827,0.067081615,-0.00836872,0.057238165,0.04065285,0.021581301,0.07469448,-0.114980705,0.10060541,-0.0113969045,0.33734688,-1.0,-1.0,1.0,-0.010328911,1.0,-1.0,-1.0,1.0,-1.0,1.0,-1.0,1.0,1.0,-1.0,1.0,1.0,1.0,-1.0,-1.0,1.0,-0.9210862,-0.098298,-1.0
2025-07-21 15:54:17.904,0.38000000000000006,380,19,-0.05237107,0.122344606,-0.43081236,-0.08815722,0.114945225,0.039935105,-0.08576588,0.023583492,-0.023739185,0.0,0.0,0.0,-0.012555833,0.5,0.0,0.0,0.06294849,0.07534293,-0.013731693,0.08153655,0.19749208,0.08045685,-0.15177809,-0.13721143,0.15432784,-0.046397828,-0.028793618,-0.07227807,0.094391435,0.1319709,-0.01622301,0.0591032,0.106583335,0.011408626,-0.069401935,-0.048586287,-0.040735543,-0.106593885,0.06407109,-0.03448406,1.0,1.0,-1.0,1.0,1.0,1.0,-1.0,-1.0,1.0,-0.9210862,-0.098298,-1.0,1.0,-1.0,-1.0,1.0,-1.0,1.0,-1.0,-0.41565093,1.0,-0.6301278,0.06422503,-1.0
2025-07-21 15:54:17.926,0.4000000000000001,400,20,-0.2118986,0.22856782,-0.30749375,-0.07784804,0.20541087,0.081733085,-0.019108858,0.08276045,0.045439675,0.0,0.0,0.0,-0.013075815,0.5,0.0,0.0,0.0754953,0.055232204,-0.039421607,0.08092533,0.19506493,0.08826681,-0.16007777,-0.15013598,0.14672935,-0.06206794,-0.033741694,-0.08921652,0.05219547,-0.17774084,-0.08694732,0.031091057,-0.05939132,0.0704368,0.06872091,-0.08352848,0.05426558,-0.08520874,0.08406569,-0.06670776,1.0,-1.0,-1.0,1.0,-1.0,1.0,-1.0,-0.41565093,1.0,-0.6301278,0.06422503,-1.0,0.37667394,1.0,-1.0,1.0,1.0,1.0,-1.0,-0.24939391,1.0,-1.0,-0.34204015,-1.0
2025-07-21 15:54:17.946,0.4200000000000001,420,21,0.32429656,0.27452,-0.43671563,-0.135682,0.024611047,-0.0010387948,-0.07704859,0.07709259,-0.01497035,0.0,0.0,0.0,-0.014337509,0.5,0.0,0.0,0.06649586,0.079990506,-0.059159823,0.10452964,0.21440318,0.101562686,-0.1604038,-0.14889982,0.13317332,-0.0704502,-0.031590108,-0.094587445,0.019799737,0.17277128,0.02064264,0.014723003,0.027987894,0.01445803,0.075661555,0.058713768,-0.08838923,-0.09783212,-0.11011195,-0.054850798,0.37667394,1.0,-1.0,1.0,1.0,1.0,-1.0,-0.24939391,1.0,-1.0,-0.34204015,-1.0,0.49617574,-1.0,0.8649554,1.0,-1.0,1.0,-1.0,-1.0,1.0,-1.0,1.0,-1.0
2025-07-21 15:54:17.964,0.4400000000000001,440,22,-0.05627852,0.24714558,-0.1400572,0.050978452,0.17908749,0.086277485,-0.058574297,0.038739305,-0.030818114,0.0,0.0,0.0,-0.0145122325,0.5,0.0,0.0,0.06980267,0.07274963,-0.02221849,0.092562996,0.21342722,0.1043281,-0.16042858,-0.1625188,0.15433756,-0.09332613,-0.0065200925,-0.10709737,0.033071984,-0.09409503,0.13263752,-0.03898108,-0.09522714,0.074065365,-0.038571388,-0.09416645,0.016245762,-0.048733518,0.17203863,-0.03793874,0.49617574,-1.0,0.8649554,1.0,-1.0,1.0,-1.0,-1.0,1.0,-1.0,1.0,-1.0,-1.0,-0.65938914,1.0,1.0,1.0,1.0,-1.0,1.0,1.0,1.0,-1.0,1.0
2025-07-21 15:54:17.984,0.46000000000000013,460,23,-0.17386825,-0.0060346546,-0.06411625,0.2143078,2.040764e-05,0.23610634,-0.059590228,0.06485181,0.015430791,0.0,0.0,0.0,-0.015411168,0.5,0.0,0.0,0.07059204,0.05361494,0.006874094,0.10148712,0.2505299,0.103355475,-0.15290454,-0.14222322,0.14760222,-0.053977262,-0.018511081,-0.054420978,-0.04172181,-0.07351353,0.04023879,0.07244966,0.05682122,-0.0016968413,0.04450338,0.18559884,-0.06636183,0.16323337,-0.05673804,0.05452916,-1.0,-0.65938914,1.0,1.0,1.0,1.0,-1.0,1.0,1.0,1.0,-1.0,1.0,-0.9298617,1.0,1.0,-0.50338966,-1.0,-1.0,-1.0,0.048324496,1.0,1.0,-1.0,1.0
2025-07-21 15:54:18.004,0.48000000000000015,480,24,-0.018834446,0.028918149,-0.055096336,0.35559693,-0.15890028,0.13740036,-0.03836906,0.09404903,-0.034408677,0.0,0.0,0.0,-0.01794087,0.5,0.0,0.0,0.028437935,0.053486325,0.010320416,0.072018184,0.26985952,0.07448861,-0.16708551,-0.11650885,0.1349622,-0.011459375,-0.071725234,-0.029096358,-0.016586095,0.05600747,0.005959415,-0.12268453,0.03872493,-0.10638021,-0.07042305,0.054235723,-0.02453668,0.047122672,-0.19133726,0.11944214,-0.9298617,1.0,1.0,-0.50338966,-1.0,-1.0,-1.0,0.048324496,1.0,1.0,-1.0,1.0,-1.0,1.0,1.0,-0.29298955,-1.0,-1.0,-1.0,1.0,-1.0,1.0,-1.0,1.0
2025-07-21 15:54:18.030,0.5000000000000001,500,25,0.20141073,-0.032555178,-0.09576995,0.16954096,-0.36579305,-0.086305365,0.015089189,0.0606503,0.015598317,0.0,0.0,0.0,-0.01983241,0.5,0.0,0.0,0.009269361,0.08796839,0.04181602,0.04015396,0.25720337,0.024967518,-0.17018165,-0.043486416,0.0962293,0.0055015036,-0.13325132,0.0009984054,-0.07621399,0.22384048,0.08412972,-0.0980851,-0.049006365,-0.04227251,-0.005683234,0.15064642,-0.048721105,0.11161826,-0.14114974,0.04445923,-1.0,1.0,1.0,-0.29298955,-1.0,-1.0,-1.0,1.0,-1.0,1.0,-1.0,1.0,-1.0,-1.0,1.0,-0.18064299,0.7172403,-1.0,1.0,1.0,-1.0,-1.0,1.0,1.0
2025-07-21 15:54:18.046,0.5200000000000001,520,26,-0.13700536,-0.27883562,-0.25684583,0.23307297,-0.42511588,0.044623695,-0.00041640687,0.053594157,-0.035099152,0.0,0.0,0.0,-0.018640425,0.5,0.0,0.0,-0.033688616,0.13081339,0.0607593,0.025255917,0.28216484,-0.004161611,-0.12770416,0.036378294,0.04333143,-0.015831502,-0.1266061,0.027850734,-0.098547004,-0.026371641,0.06533639,-0.11407737,0.036040343,-0.13793486,0.20743838,0.17165244,-0.122361265,-0.14018905,0.070592806,0.06385269,-1.0,-1.0,1.0,-0.18064299,0.7172403,-1.0,1.0,1.0,-1.0,-1.0,1.0,1.0,-1.0,0.95796895,1.0,-1.0,-1.0,-1.0,1.0,0.769454,-1.0,1.0,-1.0,1.0
2025-07-21 15:54:18.064,0.5400000000000001,540,27,-0.18740763,-0.012956519,-0.14416268,0.003288528,-0.09548594,-0.051486216,0.005210437,0.101795204,0.04468497,0.0,0.0,0.0,-0.016877072,0.5,0.0,0.0,-0.034482233,0.14936495,0.0662023,0.0069714924,0.2751648,-0.02316372,-0.07811181,0.088700056,0.005511963,-0.0024732319,-0.13281876,0.05779119,-0.0476344,0.14887564,-0.005349244,-0.019646537,-0.082434095,-0.035228036,0.07733224,0.043330006,-0.019937798,0.054819524,-0.050659664,0.072802596,-1.0,0.95796895,1.0,-1.0,-1.0,-1.0,1.0,0.769454,-1.0,1.0,-1.0,1.0,-1.0,-1.0,1.0,-0.16363275,-0.5267539,-1.0,1.0,-0.2919214,1.0,0.3950978,1.0,1.0
2025-07-21 15:54:18.084,0.5600000000000002,560,28,-0.2756689,-0.2042885,0.010380991,0.038931414,0.020420073,-0.068762496,0.032499567,0.0600285,0.048717797,0.0,0.0,0.0,-0.015216573,0.5,0.0,0.0,-0.05199788,0.17176722,0.081729434,-0.006639985,0.24614239,-0.045296017,-0.034577616,0.07215302,0.04066057,0.011363584,-0.113796234,0.07257825,-0.026064942,-0.031920478,0.11097247,-0.085597016,-0.072704785,-0.06133731,0.025283275,-0.03633742,0.0937811,-0.0035682074,0.07555709,-0.043723848,-1.0,-1.0,1.0,-0.16363275,-0.5267539,-1.0,1.0,-0.2919214,1.0,0.3950978,1.0,1.0,-1.0,1.0,1.0,-1.0,-0.43426412,-1.0,-1.0,-0.6895815,0.6141678,1.0,-0.47088042,1.0
2025-07-21 15:54:18.105,0.5800000000000002,580,29,-0.2139418,-0.05372569,0.13713494,0.084467255,0.10101852,-0.07915169,0.022993676,0.0756566,0.010984895,0.0,0.0,0.0,-0.013816229,0.5,0.0,0.0,-0.062731184,0.1887325,0.07855309,-0.026568534,0.19655871,-0.05904213,-0.04727094,0.018058313,0.038486682,0.022859313,-0.12953119,0.07403275,-0.081846796,0.053298984,0.07088407,-0.065717205,-0.13052186,-0.020099765,-0.10612955,-0.20017828,0.045534875,0.067907155,-0.004100887,-0.014652814,-1.0,1.0,1.0,-1.0,-0.43426412,-1.0,-1.0,-0.6895815,0.6141678,1.0,-0.47088042,1.0,-1.0,-1.0,1.0,-0.56378317,-0.7663084,0.82215494,-0.57557654,0.9222282,-1.0,1.0,-0.13767315,1.0
2025-07-21 15:54:18.130,0.6000000000000002,600,30,-0.41306996,0.17067783,0.38328692,-0.054650195,0.021367813,0.0695459,0.010165768,0.122084826,-0.004341351,0.0,0.0,0.0,-0.012887986,0.5,0.0,0.0,-0.074237764,0.1985421,0.10105079,-0.044791512,0.15265933,-0.037032347,-0.061300524,0.011180075,0.0066598286,0.04122939,-0.117312394,0.09454883,0.015725615,0.007064788,0.057884533,-0.002548062,-0.18199097,0.1534562,0.0179779,0.06757951,-0.12806539,0.086359076,0.03807731,0.060738266,-1.0,-1.0,1.0,-0.56378317,-0.7663084,0.82215494,-0.57557654,0.9222282,-1.0,1.0,-0.13767315,1.0,-1.0,0.48114258,1.0,0.28470284,1.0,-1.0,1.0,0.70197296,-1.0,-0.6306442,-0.6580928,1.0
2025-07-21 15:54:18.147,0.6200000000000002,620,31,-0.110329136,0.08899602,0.040907502,0.0052460427,-0.042654335,-0.096321516,-0.01857021,0.105017744,0.029467935,0.0,0.0,0.0,-0.013122011,0.5,0.0,0.0,-0.08333309,0.19080107,0.09868584,-0.038344555,0.15402792,-0.06333049,-0.025472032,0.065262556,-0.013372579,0.019817583,-0.1321156,0.101989985,-0.08899353,0.032761432,0.08983997,-0.014032965,0.06610752,-0.115079254,0.15840018,0.07875237,-0.08573716,-0.026595825,-0.105316795,0.093993,-1.0,0.48114258,1.0,0.28470284,1.0,-1.0,1.0,0.70197296,-1.0,-0.6306442,-0.6580928,1.0,-1.0,-1.0,1.0,-1.0,-1.0,-1.0,1.0,-1.0,-1.0,1.0,1.0,1.0
2025-07-21 15:54:18.165,0.6400000000000002,640,32,-0.45156986,-0.002130479,0.16942562,0.06852244,0.09678854,0.09290652,0.020325957,0.1434892,0.01445725,0.0,0.0,0.0,-0.012440355,0.5,0.0,0.0,-0.104014605,0.17145249,0.11879428,-0.043107834,0.15911385,-0.081892654,0.0097791,0.046899468,-0.03773499,0.035879783,-0.11841515,0.09618628,0.00833008,-0.12049806,-0.023458,-0.014862501,-0.0032622314,-0.002162786,0.122764654,-0.1494471,0.0066031297,0.054408126,0.09278535,-0.0109920325,-1.0,-1.0,1.0,-1.0,-1.0,-1.0,1.0,-1.0,-1.0,1.0,1.0,1.0,-1.0,1.0,1.0,-0.29901302,-0.5450258,-1.0,0.9559117,0.4739016,0.9789649,1.0,0.40206733,1.0
2025-07-21 15:54:18.185,0.6600000000000003,660,33,-0.01866408,0.28380153,0.022756664,-0.18511583,0.0141884135,-0.08426949,0.007793459,0.111893535,0.011836283,0.0,0.0,0.0,-0.013494327,0.5,0.0,0.0,-0.10868193,0.19691148,0.123224095,-0.056916732,0.11974025,-0.07988185,0.0413458,0.0416523,-0.0010138757,0.054192472,-0.07144652,0.106747486,-0.07392356,0.12077481,-0.053471018,0.005228084,-0.1461418,-0.0037667223,0.047848105,0.13239308,0.03392296,0.105581924,0.13272439,0.04471229,-1.0,1.0,1.0,-0.29901302,-0.5450258,-1.0,0.9559117,0.4739016,0.9789649,1.0,0.40206733,1.0,-0.5265541,-1.0,1.0,-1.0,-1.0,-1.0,-1.0,-1.0,1.0,1.0,-0.9938838,1.0
2025-07-21 15:54:18.205,0.6800000000000003,680,34,-0.26290885,0.24512085,0.1489618,0.13524006,0.17640163,-0.12378053,-0.043838527,0.07638946,0.04960398,0.0,0.0,0.0,-0.014545879,0.5,0.0,0.0,-0.107226424,0.20302312,0.11645787,-0.07576279,0.08042527,-0.100339025,0.0009191562,0.012625534,0.012660838,0.07431097,-0.09874678,0.11833854,-0.035032813,-0.14416708,0.04165993,-0.025697183,-0.07372543,0.0041925726,-0.044031493,-0.14354983,0.110131375,0.012701391,-0.09381623,0.05311419,-0.5265541,-1.0,1.0,-1.0,-1.0,-1.0,-1.0,-1.0,1.0,1.0,-0.9938838,1.0,-1.0,1.0,1.0,0.019021928,-1.0,-0.4364872,-1.0,-0.4907445,1.0,1.0,1.0,1.0
2025-07-21 15:54:18.230,0.7000000000000003,700,35,-0.24856442,0.34782484,0.23966978,-0.18557437,0.013055621,-0.19137995,0.010887636,0.1322463,-0.010635487,0.0,0.0,0.0,-0.0134694725,0.5,0.0,0.0,-0.12189739,0.2230404,0.12171385,-0.07173465,0.023471195,-0.09378702,-0.025119295,-0.026460024,0.043363888,0.08766605,-0.092808686,0.11733386,-0.027690103,0.09460163,-0.04483357,-0.04705071,-0.05527826,0.08934268,-0.13268188,-0.06862962,-0.012052255,-0.033937227,0.1788225,0.043080434,-1.0,1.0,1.0,0.019021928,-1.0,-0.4364872,-1.0,-0.4907445,1.0,1.0,1.0,1.0,1.0,0.51526165,-1.0,-0.06845361,0.4089745,1.0,-1.0,-1.0,1.0,1.0,1.0,0.010184318
2025-07-21 15:54:18.246,0.7200000000000003,720,36,-0.5268811,0.04772121,-0.26309317,-0.32788312,-0.015710263,-0.067808144,0.0034758917,0.13003093,0.03194868,0.0,0.0,0.0,-0.010912955,0.5,0.0,0.0,-0.06844452,0.2283468,0.08910468,-0.06675224,0.019113889,-0.064307965,-0.04343461,-0.10041813,0.06405515,0.107083455,-0.00012452596,0.11043145,0.11255682,0.018499238,-0.1507185,0.04497277,0.08577997,0.045829456,-0.1185125,-0.13458893,-0.02426172,0.08232425,0.24475133,0.014471787,1.0,0.51526165,-1.0,-0.06845361,0.4089745,1.0,-1.0,-1.0,1.0,1.0,1.0,0.010184318,1.0,-0.1767695,-1.0,1.0,1.0,1.0,-1.0,-0.38661867,1.0,1.0,0.33103225,1.0
2025-07-21 15:54:18.265,0.7400000000000003,740,37,-0.52747566,0.057217676,-0.11607718,-0.37475285,-0.010536893,-0.088688135,-0.082982995,0.036014438,-0.033488326,0.0,0.0,0.0,-0.009669695,0.5,0.0,0.0,-0.041460466,0.22560462,0.05068301,-0.013929696,0.07016876,-0.029955875,-0.061918356,-0.10906205,0.08628168,0.12868541,0.019998424,0.11316157,0.15653776,-0.04515465,-0.15416262,0.12982118,0.11579025,0.023675362,-0.017552583,0.013864876,0.042808723,-0.047846925,0.029725118,-0.049104083,1.0,-0.1767695,-1.0,1.0,1.0,1.0,-1.0,-0.38661867,1.0,1.0,0.33103225,1.0,1.0,0.4777826,-1.0,1.0,1.0,1.0,-1.0,-1.0,1.0,1.0,1.0,1.0
2025-07-21 15:54:18.289,0.7600000000000003,760,38,-0.45200706,0.15409702,-0.26789302,-0.1921577,0.06282913,0.09046666,-0.024996268,0.08220344,0.011878521,0.0,0.0,0.0,-0.009230435,0.5,0.0,0.0,-0.0038596306,0.22937198,0.0018320796,0.003298841,0.13817061,-0.0010435267,-0.079896696,-0.14033891,0.09778375,0.13543068,0.089264885,0.12484188,0.028479412,-0.01796777,-0.012461072,0.05937938,0.09363159,0.083676845,-0.0098397285,-0.11990419,-0.0017278458,-0.0011401804,0.13924186,-0.013344001,1.0,0.4777826,-1.0,1.0,1.0,1.0,-1.0,-1.0,1.0,1.0,1.0,1.0,1.0,-0.5645304,-1.0,1.0,-0.29269144,1.0,-1.0,1.0,1.0,-0.0060037225,-1.0,-1.0
2025-07-21 15:54:18.313,0.7800000000000004,780,39,-0.5631535,0.102470644,0.1809546,-0.16024715,0.13391487,-0.07122313,-0.10591498,0.0008608119,0.01228752,0.0,0.0,0.0,-0.010003258,0.5,0.0,0.0,0.021661922,0.2192069,-0.01656501,0.026375372,0.14322218,0.010089919,-0.082967795,-0.14190982,0.09389818,0.122660674,0.09053182,0.08417411,0.02939244,-0.0114568,-0.05481958,0.09561225,-0.09516529,-0.019371599,-0.07055135,0.118988566,-0.052856896,-0.046385042,-0.11361475,-0.15899646,1.0,-0.5645304,-1.0,1.0,-0.29269144,1.0,-1.0,1.0,1.0,-0.0060037225,-1.0,-1.0,1.0,0.7888596,-1.0,1.0,1.0,1.0,-1.0,-1.0,1.0,-1.0,1.0,-1.0
2025-07-21 15:54:18.329,0.8000000000000004,800,40,-0.24600692,0.12348416,-0.0056708264,-0.09565161,-0.03185481,0.02210687,-0.085805565,-0.011803438,0.025846884,0.0,0.0,0.0,-0.009520612,0.5,0.0,0.0,0.049033895,0.22946668,-0.040541,0.036065444,0.1424325,0.033285394,-0.08991679,-0.15393488,0.09642051,0.07183629,0.10029707,0.040331844,0.09349333,0.019405564,-0.09797576,0.016834555,0.007857431,0.04990604,0.02575286,-0.011713757,-0.013622904,-0.04426899,0.2047181,-0.12842298,1.0,0.7888596,-1.0,1.0,1.0,1.0,-1.0,-1.0,1.0,-1.0,1.0,-1.0,1.0,-1.0,-1.0,1.0,1.0,1.0,-1.0,-0.24011394,1.0,-1.0,-1.0,-1.0
2025-07-21 15:54:18.349,0.8200000000000004,820,41,-0.15500675,0.29009965,0.029207889,0.09119496,0.03326837,-0.043562565,-0.024618836,0.04378526,-0.007358664,0.0,0.0,0.0,-0.008976569,0.5,0.0,0.0,0.066208616,0.18849646,-0.05415607,0.054273166,0.19241121,0.040096216,-0.08680682,-0.155757,0.09878819,0.021234885,0.08131465,-0.0017656323,0.08174187,-0.13003725,-0.0005225425,0.0019375324,0.1709832,0.03837392,-0.054735683,0.05972948,0.0627771,-0.11542883,-0.15034024,-0.12414504,1.0,-1.0,-1.0,1.0,1.0,1.0,-1.0,-0.24011394,1.0,-1.0,-1.0,-1.0,1.0,-1.0,0.44631648,1.0,-1.0,1.0,-1.0,-0.9303793,1.0,-1.0,1.0,-1.0
2025-07-21 15:54:18.369,0.8400000000000004,840,42,-0.45098552,0.19755988,0.19466361,0.018217798,0.22653462,0.028102452,-0.05708276,0.060129527,-0.0013886926,0.0,0.0,0.0,-0.009068745,0.5,0.0,0.0,0.08912949,0.09397184,-0.034074593,0.056412987,0.19317731,0.0571718,-0.11476418,-0.16603912,0.11333931,-0.003002982,0.08104747,-0.033247463,0.03671954,-0.29691464,0.052438233,0.021736385,-0.009624754,0.10512369,0.01342217,-0.020365162,0.04731069,-0.071966,0.10470462,-0.11183829,1.0,-1.0,0.44631648,1.0,-1.0,1.0,-1.0,-0.9303793,1.0,-1.0,1.0,-1.0,1.0,1.0,-1.0,1.0,1.0,1.0,-1.0,1.0,1.0,0.09234907,-1.0,-0.5194644
2025-07-21 15:54:18.389,0.8600000000000004,860,43,-0.08908951,0.19183955,0.09498808,-0.1408914,0.04403695,-0.054264005,-0.11441339,0.059610233,4.5771965e-05,0.0,0.0,0.0,-0.0097112935,0.5,0.0,0.0,0.09461398,0.076086625,-0.06915146,0.067158006,0.21041696,0.074921906,-0.10161489,-0.1502363,0.1041171,-0.0019306528,0.0627524,-0.04160499,-0.024341093,0.12755542,-0.015226578,0.021213379,0.05000755,0.035836987,-0.05915507,0.069078274,-0.04455426,0.07467596,-0.11449223,0.03297919,1.0,1.0,-1.0,1.0,1.0,1.0,-1.0,1.0,1.0,0.09234907,-1.0,-0.5194644,1.0,-1.0,-1.0,1.0,-0.4064685,1.0,-1.0,-1.0,1.0,-1.0,0.53306717,-1.0
2025-07-21 15:54:18.413,0.8800000000000004,880,44,-0.10570556,-0.0020984043,0.144118,0.04527911,0.23748924,0.08376614,-0.10577529,0.02845844,-0.02318291,0.0,0.0,0.0,-0.009685446,0.5,0.0,0.0,0.10315657,0.055718,-0.07901016,0.089180924,0.2130992,0.076145254,-0.12427935,-0.15408723,0.108867265,-0.03363832,0.052187383,-0.065522365,0.040570054,-0.14449066,-0.016367707,0.0022305306,-0.018407745,0.011756795,0.026224686,-0.04593173,0.012826505,0.011069418,0.08628559,0.006744056,1.0,-1.0,-1.0,1.0,-0.4064685,1.0,-1.0,-1.0,1.0,-1.0,0.53306717,-1.0,1.0,-0.11694296,-0.21749467,1.0,-0.62879956,1.0,-1.0,1.0,1.0,1.0,-1.0,-1.0
2025-07-21 15:54:18.430,0.9000000000000005,900,45,-0.18022269,0.035984945,0.3324392,-0.048498925,0.21623792,-0.084614746,-0.1331065,-0.013825822,0.0024899049,0.0,0.0,0.0,-0.009292738,0.5,0.0,0.0,0.13140135,0.020883378,-0.08022628,0.10035845,0.18176557,0.09110192,-0.11953573,-0.13296695,0.12292986,-0.004871649,0.038665526,-0.06256555,-0.022511654,-0.040085092,-0.032154918,-0.025984498,-0.080751,0.0012638778,-0.0064818277,0.075251944,0.05641094,0.031212203,-0.2532535,-0.10060284,1.0,-0.11694296,-0.21749467,1.0,-0.62879956,1.0,-1.0,1.0,1.0,1.0,-1.0,-1.0,-0.64632,1.0,-1.0,1.0,1.0,1.0,-1.0,-1.0,1.0,-1.0,1.0,-1.0
2025-07-21 15:54:18.450,0.9200000000000005,920,46,-0.15085213,0.0767927,0.21436192,0.06926996,-0.098749116,0.072364934,-0.099178255,0.07326246,-0.018256886,0.0,0.0,0.0,-0.007988102,0.5,0.0,0.0,0.09750124,0.050420597,-0.090236425,0.098232746,0.20218918,0.10717817,-0.13486853,-0.12369153,0.11665118,-0.022567304,0.022388306,-0.09359607,-0.081203416,0.21479563,0.04111259,0.048943013,0.10575392,0.071652435,-0.0027525935,0.031852245,0.08630642,-0.08943258,0.15522368,-0.027965305,-0.64632,1.0,-1.0,1.0,1.0,1.0,-1.0,-1.0,1.0,-1.0,1.0,-1.0,1.0,-1.0,-1.0,1.0,-1.0,1.0,-1.0,0.350472,1.0,-0.99572897,-1.0,-1.0
2025-07-21 15:54:18.470,0.9400000000000005,940,47,0.013989741,0.20496112,0.22829047,-0.01682784,0.18575397,-0.031087399,-0.14595553,0.040737227,-0.002285424,0.0,0.0,0.0,-0.0068451273,0.5,0.0,0.0,0.1147711,0.05324835,-0.097378775,0.111362964,0.19400914,0.10763503,-0.1436054,-0.11487871,0.13106231,-0.05387279,0.007052941,-0.087920114,0.08129791,-0.19138852,-0.044464752,-0.013853927,0.030115198,-0.036534894,-0.061138682,0.12854564,-0.042427886,-0.12825124,-0.17075488,-0.04809743,1.0,-1.0,-1.0,1.0,-1.0,1.0,-1.0,0.350472,1.0,-0.99572897,-1.0,-1.0,-0.63592494,-1.0,1.0,1.0,-1.0,1.0,-1.0,-1.0,1.0,-1.0,1.0,-1.0
2025-07-21 15:54:18.490,0.9600000000000005,960,48,-0.34329858,0.28708518,0.34858137,0.16022259,0.14064586,0.14516851,-0.1555915,0.014206742,0.03606467,0.0,0.0,0.0,-0.0061241444,0.5,0.0,0.0,0.083274625,-0.027127236,-0.05724047,0.10878084,0.17585854,0.12529196,-0.14727725,-0.106808506,0.1397036,-0.07387269,0.0023429792,-0.11376149,0.0073812655,-0.21917038,0.04921392,-0.078899674,-0.1194294,-0.023354748,0.052871294,-0.19397375,0.036581133,0.017875755,0.1598566,-0.023854269,-0.63592494,-1.0,1.0,1.0,-1.0,1.0,-1.0,-1.0,1.0,-1.0,1.0,-1.0,-1.0,1.0,1.0,0.55409926,1.0,0.52712435,-1.0,1.0,1.0,1.0,-1.0,1.0
2025-07-21 15:54:18.513,0.9800000000000005,980,49,0.01570817,0.26580742,0.08183093,0.05633998,-0.16841431,-0.027393296,-0.11021251,0.067935966,0.049338844,0.0,0.0,0.0,-0.0066960687,0.5,0.0,0.0,0.05890179,-0.036286328,-0.044377785,0.09961869,0.2039837,0.11747911,-0.15079589,-0.0919499,0.12781876,-0.045709442,-0.0004929284,-0.05768222,-0.07864951,0.035331685,0.1260192,-0.031544615,0.07248853,-0.05480105,-0.03266755,0.10699367,0.022167774,0.13031933,-0.18195675,0.13487898,-1.0,1.0,1.0,0.55409926,1.0,0.52712435,-1.0,1.0,1.0,1.0,-1.0,1.0,-1.0,1.0,1.0,-1.0,-1.0,-1.0,-1.0,-1.0,1.0,1.0,-0.82396716,1.0
2025-07-21 15:54:18.530,1.0000000000000004,1000,50,0.09582544,0.25953025,-0.27691,0.3943896,-0.3291143,0.015269259,-0.058578808,0.06309622,-0.0053442246,0.0,0.0,0.0,-0.007962221,0.5,0.0,0.0,0.01065434,-0.008062037,-0.019148547,0.06702206,0.20410447,0.06679369,-0.15441121,-0.09863757,0.14200199,-0.0053942613,-0.06760939,-0.024019696,-0.030364523,0.10265779,0.06070916,-0.14234206,-0.11851019,-0.08839966,-0.08181958,-0.09277954,0.05926598,0.07128351,-0.13668683,0.14840843,-1.0,1.0,1.0,-1.0,-1.0,-1.0,-1.0,-1.0,1.0,1.0,-0.82396716,1.0,-1.0,-0.60800576,1.0,0.2144765,-0.70762324,-1.0,-1.0,0.91599715,1.0,1.0,-0.46892807,1.0
2025-07-21 15:54:18.571,1.0200000000000005,1020,51,-0.029832438,0.2613258,-0.13304074,0.13972475,-0.30625698,-0.13090853,-0.03731848,0.071424276,-0.038012005,0.0,0.0,0.0,-0.007151814,0.5,0.0,0.0,-0.0023879006,0.0010017141,0.024506368,0.048954275,0.15998383,0.04207405,-0.15852891,-0.07794708,0.13721924,0.03226686,-0.08599431,-0.0021293396,-0.009787497,0.07631899,0.015943553,-0.057832897,-0.12478333,-0.06989955,-0.044734504,0.06581816,0.073414095,0.084453,-0.029123815,0.0764555,-1.0,-0.60800576,1.0,0.2144765,-0.70762324,-1.0,-1.0,0.91599715,1.0,1.0,-0.46892807,1.0,-1.0,-0.57609594,1.0,-0.23368007,0.36911315,-1.0,-1.0,-1.0,-1.0,1.0,-1.0,1.0
2025-07-21 15:54:18.596,1.0400000000000005,1040,52,-0.33639404,0.18777654,-0.39770702,0.30069834,-0.18208891,-0.03543953,-0.020351464,0.06881645,0.027911883,0.0,0.0,0.0,-0.0050267885,0.5,0.0,0.0,-0.03802314,-0.006895265,0.038837966,0.030749971,0.16343452,0.005825001,-0.16808261,-0.08151242,0.09916117,0.044446256,-0.14096391,0.03856966,-0.05633467,-0.03870744,0.12602282,-0.124562316,0.006826956,-0.07129882,-0.03728519,-0.110854395,-0.09971318,0.03591844,-0.17779368,0.002054198,-1.0,-0.57609594,1.0,-0.23368007,0.36911315,-1.0,-1.0,-1.0,-1.0,1.0,-1.0,1.0,-1.0,1.0,1.0,-1.0,1.0,-1.0,1.0,1.0,-1.0,1.0,0.15792905,1.0
2025-07-21 15:54:18.630,1.0600000000000005,1060,53,-0.28913644,-0.022957504,-0.42296413,0.06789572,-0.52396977,-0.026457716,0.022720797,0.1134327,-0.03622557,0.0,0.0,0.0,-0.0033549655,0.5,0.0,0.0,-0.061773676,0.024568005,0.057855256,0.0013231116,0.20852195,-0.025003528,-0.12362474,-0.07490353,0.055552557,0.066168346,-0.14102735,0.058364946,0.00284866,0.19562155,0.084824525,-0.061936438,0.052993312,-0.051050026,0.115814924,0.090974145,-0.08294489,0.08657246,0.17788485,-0.021964638,-1.0,1.0,1.0,-1.0,1.0,-1.0,1.0,1.0,-1.0,1.0,0.15792905,1.0,-1.0,-1.0,1.0,-1.0,-0.5927702,-1.0,1.0,0.9523469,0.50672793,0.72843516,0.09730224,1.0
2025-07-21 15:54:18.657,1.0800000000000005,1080,54,-0.06831558,-0.061202243,-0.4456212,-0.05429449,-0.22478238,0.07411686,0.062121566,0.01393157,0.0041861883,0.0,0.0,0.0,-0.0023443105,0.5,0.0,0.0,-0.07448837,0.03997992,0.069609575,-0.03816584,0.17681475,-0.054089967,-0.07673593,-0.007035862,0.05792563,0.06532847,-0.09784502,0.052907806,0.0032931033,0.06917565,0.07755074,-0.03880339,-0.23130886,-0.04725757,0.1236238,0.121453255,0.028312845,0.058757022,0.08275056,0.043101907,-1.0,-1.0,1.0,-1.0,-0.5927702,-1.0,1.0,0.9523469,0.50672793,0.72843516,0.09730224,1.0,-1.0,-1.0,1.0,0.0056453347,0.1339682,-1.0,1.0,1.0,-1.0,1.0,-1.0,1.0
2025-07-21 15:54:18.689,1.1000000000000005,1100,55,-0.4269156,0.09354583,-0.19209383,0.009837582,0.078188375,0.08702892,0.02102316,0.08420783,-0.04343699,0.0,0.0,0.0,-0.0012031106,0.5,0.0,0.0,-0.06763807,0.035252955,0.08254898,-0.021047562,0.15093337,-0.061870765,-0.023086675,0.06989883,0.0113505805,0.08121062,-0.10443225,0.066320755,-0.026243268,-0.080626495,-0.013720225,0.044520624,-0.04861923,0.019914268,0.08576795,0.19796152,-0.1410974,0.014353663,-0.037266158,0.101656355,-1.0,-1.0,1.0,0.0056453347,0.1339682,-1.0,1.0,1.0,-1.0,1.0,-1.0,1.0,-1.0,1.0,1.0,-0.64301246,0.83707446,-1.0,1.0,1.0,0.75995946,1.0,-1.0,1.0
2025-07-21 15:54:18.722,1.1200000000000006,1120,56,-0.1617066,-0.15512353,0.016532967,0.043406118,0.12745519,-0.025568798,0.040456038,0.00488949,0.029809738,0.0,0.0,0.0,-0.0023000136,0.5,0.0,0.0,-0.079780966,0.0347362,0.07552839,-0.031377267,0.18366887,-0.09145209,0.009520361,0.14249268,0.03351599,0.07424565,-0.13721482,0.089831114,-0.07507669,-0.025630647,0.016013939,0.009183722,0.15538533,-0.0027603607,0.1496587,0.1883497,0.0041241203,0.0047818464,-0.10505463,-0.028971367,-1.0,1.0,1.0,-0.64301246,0.83707446,-1.0,1.0,1.0,0.75995946,1.0,-1.0,1.0,-1.0,1.0,1.0,-0.63843864,-1.0,-0.7059931,1.0,-1.0,-1.0,1.0,1.0,1.0
2025-07-21 15:54:18.753,1.1400000000000006,1140,57,-0.10592689,-0.06699447,-0.017286494,0.14789125,-0.14619699,0.070292704,0.011071823,0.07307192,-0.043398585,0.0,0.0,0.0,-0.0034232254,0.5,0.0,0.0,-0.08541077,0.06668647,0.07986917,-0.050725024,0.16074653,-0.09415632,0.022273121,0.14447328,0.0007580845,0.09616641,-0.11244539,0.07839442,-0.011828021,0.1561883,0.0019816973,0.044390906,-0.11496295,-0.015633123,0.093959406,-0.14654884,-0.0054822853,0.018445574,0.03561786,0.015199139,-1.0,1.0,1.0,-0.63843864,-1.0,-0.7059931,1.0,-1.0,-1.0,1.0,1.0,1.0,-1.0,-1.0,1.0,0.59599376,-1.0,-0.5960911,1.0,-0.96705353,-0.9555718,1.0,-1.0,1.0
2025-07-21 15:54:18.781,1.1600000000000006,1160,58,-0.4111518,-0.22861841,0.5462346,0.092860766,0.26680687,-0.06854468,0.015404531,0.10475787,-0.02353531,0.0,0.0,0.0,-0.0044870684,0.5,0.0,0.0,-0.08721539,0.06447405,0.08111275,-0.035168707,0.076063514,-0.08970695,0.052127965,0.060247943,-0.017157216,0.10068882,-0.13475616,0.10810956,-0.04314968,-0.04640568,-0.01681405,0.095216066,-0.21716863,0.032347932,0.039756924,-0.16745895,-0.07368928,-0.0136583885,-0.058357015,0.044053465,-1.0,-1.0,1.0,0.59599376,-1.0,-0.5960911,1.0,-0.96705353,-0.9555718,1.0,-1.0,1.0,-1.0,1.0,1.0,-1.0,1.0,0.74254566,0.82361513,1.0,0.6563916,1.0,1.0,1.0
2025-07-21 15:54:18.801,1.1800000000000006,1180,59,0.16443734,0.21344467,0.2219807,-0.08359723,-0.26260415,0.07549032,-0.0044971635,0.018577786,-0.04878843,0.0,0.0,0.0,-0.00507453,0.5,0.0,0.0,-0.105064675,0.095171146,0.093739405,-0.044261552,0.047024958,-0.063697875,0.06259671,0.03440366,-0.009191316,0.107285865,-0.11540451,0.10114773,0.016636793,0.11003789,0.07743432,-0.08735366,0.09702822,0.055446345,0.09936699,0.080590524,0.10860405,0.040512968,0.055941693,0.011754031,-1.0,1.0,1.0,-1.0,1.0,0.74254566,0.82361513,1.0,0.6563916,1.0,1.0,1.0,-1.0,-1.0,1.0,-0.5245617,-0.897653,-1.0,1.0,-0.6539496,0.46857643,1.0,-1.0,1.0
2025-07-21 15:54:18.821,1.2000000000000006,1200,60,-0.43085754,-0.019644838,0.4413267,0.114553206,0.12891401,0.005320817,0.0038057417,0.09038539,0.013199954,0.0,0.0,0.0,-0.005903125,0.5,0.0,0.0,-0.099736735,0.10818122,0.10061841,-0.057924308,0.011817012,-0.08063452,0.08979092,0.01550366,0.009403267,0.1081094,-0.09984617,0.11011887,0.0019430509,-0.015330708,0.03163706,0.041303463,-0.18326958,-0.08712061,0.029771639,-0.17028429,0.07679812,0.08895305,-0.023157679,-0.010905645,-1.0,-1.0,1.0,-0.5245617,-0.897653,-1.0,1.0,-0.6539496,0.46857643,1.0,-1.0,1.0,-1.0,1.0,1.0,-1.0,0.37427655,-1.0,-0.73410183,1.0,-1.0,1.0,-0.63191736,1.0
2025-07-21 15:54:18.846,1.2200000000000006,1220,61,0.09620245,-0.037453532,0.28271556,0.008206713,0.07543768,-0.03324067,0.04058014,0.06754481,0.01069376,0.0,0.0,0.0,-0.0067397575,0.5,0.0,0.0,-0.103576265,0.12970614,0.09776432,-0.08515454,0.0070379465,-0.09313431,0.05859693,0.03538291,-0.022547489,0.12236111,-0.13672791,0.11530371,-0.070780925,0.052433506,-5.3568845e-05,-0.060526833,0.11442012,-0.10263936,-0.071916215,0.18903321,-0.13297634,0.020279882,-0.059494756,0.06953544,-1.0,1.0,1.0,-1.0,0.37427655,-1.0,-0.73410183,1.0,-1.0,1.0,-0.63191736,1.0,-1.0,-1.0,1.0,0.079847276,-1.0,1.0,1.0,-0.76403844,-0.85564446,-0.103832826,1.0,1.0
2025-07-21 15:54:18.863,1.2400000000000007,1240,62,-0.021378195,-0.092208914,0.022033341,0.13008071,-0.0025477943,0.022215892,-0.013834244,0.09841849,0.002624466,0.0,0.0,0.0,-0.006512777,0.5,0.0,0.0,-0.12855962,0.13702138,0.12228488,-0.06926437,-0.026469706,-0.053659905,0.075798236,0.02822604,-0.028644502,0.10711563,-0.11342755,0.124650605,-0.07259171,-0.015602814,-0.002969467,0.07913337,-0.22135723,0.13764718,-0.02196319,-0.19246836,-0.07602592,-0.037886698,0.07270641,-0.004200138,-1.0,-1.0,1.0,0.079847276,-1.0,1.0,1.0,-0.76403844,-0.85564446,-0.103832826,1.0,1.0,-1.0,-0.9001825,-1.0,1.0,1.0,1.0,-1.0,-1.0,1.0,1.0,1.0,1.0
2025-07-21 15:54:18.881,1.2600000000000007,1260,63,-0.2334061,-0.25778377,-0.018765874,-0.15435758,0.15595695,0.15019079,0.06864363,0.04545534,0.032696996,0.0,0.0,0.0,-0.0063286275,0.5,0.0,0.0,-0.12164825,0.11149972,0.065571256,-0.02870145,-0.038289763,-0.022149287,0.046527784,-0.057342462,-0.01256279,0.10984503,-0.04774076,0.10889737,-0.022211032,-0.08164741,-0.11539013,0.13290238,0.01867084,0.09335295,-0.16363804,-0.22694215,0.08263135,0.0016555099,0.19427836,-0.017673584,-1.0,-0.9001825,-1.0,1.0,1.0,1.0,-1.0,-1.0,1.0,1.0,1.0,1.0,1.0,1.0,-1.0,0.9363644,0.6400496,1.0,-1.0,1.0,1.0,-0.30616295,-1.0,1.0
2025-07-21 15:54:18.901,1.2800000000000007,1280,64,0.048052106,-0.06845229,-0.16243841,-0.5125168,0.08755167,0.031602576,-0.00052225956,0.017231926,0.014314368,0.0,0.0,0.0,-0.008905433,0.5,0.0,0.0,-0.08850641,0.14017686,0.03344448,0.0054519386,-0.0028423,0.01029237,0.011805529,-0.06070529,0.021961879,0.0782709,-0.0131316865,0.13236639,0.12969717,0.09247337,-0.12645678,0.09091852,0.14638095,0.051228262,-0.07145323,0.20857114,0.03376485,-0.06105559,-0.13852745,0.07994532,1.0,1.0,-1.0,0.9363644,0.6400496,1.0,-1.0,1.0,1.0,-0.30616295,-1.0,1.0,1.0,-0.87910604,-1.0,1.0,-1.0,1.0,-1.0,-1.0,1.0,1.0,-0.49180278,0.8899555
2025-07-21 15:54:18.921,1.3000000000000007,1300,65,-0.0015551203,-0.10127773,-0.21931757,-0.44714424,0.29225647,0.122826494,-0.01187844,0.041232046,0.01047081,0.0,0.0,0.0,-0.011241298,0.5,0.0,0.0,-0.035912383,0.13896336,-0.0035003244,0.038107954,-0.0089801755,0.029229842,-0.022371562,-0.06782121,0.04297616,0.09697027,-0.053408675,0.1277825,0.10908464,-0.15944457,-0.14202385,0.11873955,-0.018799944,0.01515254,-0.112692885,-0.2033015,0.03458636,0.100955434,-0.111678064,-0.045555245,1.0,-0.87910604,-1.0,1.0,-1.0,1.0,-1.0,-1.0,1.0,1.0,-0.49180278,0.8899555,1.0,1.0,-1.0,1.0,-1.0,1.0,-1.0,-0.6150576,1.0,-1.0,0.83465165,-1.0
2025-07-21 15:54:18.943,1.3200000000000007,1320,66,-0.055052716,0.16792114,-0.4098234,-0.33769363,0.03025182,0.039507557,-0.039491855,-0.022160992,0.025906185,0.0,0.0,0.0,-0.014172314,0.5,0.0,0.0,-0.0008618474,0.13352606,-0.03798637,0.046054643,-0.02409995,0.05334427,-0.053671174,-0.103906654,0.064041965,0.054949794,-0.026299687,0.07271855,0.045025613,0.09958407,-0.071190834,0.05054028,-0.009441585,0.0065466766,0.031573232,-0.07589773,-0.026372978,-0.13107882,0.19163544,-0.11016282,1.0,1.0,-1.0,1.0,-1.0,1.0,-1.0,-0.6150576,1.0,-1.0,0.83465165,-1.0,1.0,0.078991175,-1.0,1.0,1.0,1.0,-1.0,-1.0,1.0,-1.0,0.75871813,-1.0
2025-07-21 15:54:18.964,1.3400000000000007,1340,67,-0.15016232,0.11375791,-0.31274313,0.024585146,0.0068666567,0.07330544,-0.027277471,-0.00036103977,0.009440119,0.0,0.0,0.0,-0.015574862,0.5,0.0,0.0,0.018543083,0.15348165,-0.046437472,0.05835039,-0.025169741,0.06822645,-0.04671943,-0.12293562,0.079429455,0.021967078,0.03140189,0.04865071,0.05453296,-0.046191312,-0.07193951,0.095629096,0.010035409,0.05579313,-0.048674643,-0.11480237,0.055911273,-0.112401105,0.10798052,-0.042912766,1.0,0.078991175,-1.0,1.0,1.0,1.0,-1.0,-1.0,1.0,-1.0,0.75871813,-1.0,1.0,-0.09109175,-1.0,1.0,1.0,1.0,-1.0,-0.029547662,1.0,-0.9826106,-0.8916491,-1.0
2025-07-21 15:54:18.987,1.3600000000000008,1360,68,0.107330546,0.17658806,-0.058162443,-0.035782054,-0.16928793,0.036026638,-0.031583115,0.026816674,-0.028625725,0.0,0.0,0.0,-0.016410157,0.5,0.0,0.0,0.05117085,0.10999062,-0.079665676,0.073871285,-0.0033839173,0.06449733,-0.06987319,-0.12431727,0.072228596,-0.01510168,0.030179372,0.0064866883,0.00058615045,-0.1403935,-0.024387013,0.004471724,0.1607362,0.06365032,-0.043427628,-0.012025233,0.06796739,-0.11029015,-0.08289307,-0.01306352,1.0,-0.09109175,-1.0,1.0,1.0,1.0,-1.0,-0.029547662,1.0,-0.9826106,-0.8916491,-1.0,1.0,-1.0,0.66855097,1.0,-1.0,1.0,-1.0,-1.0,1.0,-1.0,1.0,-1.0
2025-07-21 15:54:19.007,1.3800000000000008,1380,69,-0.029909609,-0.031018307,0.055757284,0.12054947,0.041843142,0.00044015265,-0.031974178,-0.008516597,-0.023275755,0.0,0.0,0.0,-0.017441124,0.5,0.0,0.0,0.073663816,0.040881258,-0.0344406,0.07186721,0.002495606,0.08312413,-0.062400196,-0.14244837,0.09135065,-0.035667934,0.04023572,-0.013428639,0.044355925,-0.2116613,0.07058149,-0.014607353,-0.046127625,0.07194435,-0.06355887,0.015743852,0.09071826,-0.10308288,0.06674718,-0.121713564,1.0,-1.0,0.66855097,1.0,-1.0,1.0,-1.0,-1.0,1.0,-1.0,1.0,-1.0,-0.7317534,1.0,-1.0,1.0,1.0,1.0,-1.0,-0.5681112,1.0,1.0,-1.0,-1.0
2025-07-21 15:54:19.031,1.4000000000000008,1400,70,-0.043345638,0.2040624,0.29081783,0.08672241,0.03646825,-0.01206727,-0.03025822,0.033378165,-0.03262551,0.0,0.0,0.0,-0.018159218,0.5,0.0,0.0,0.029782461,0.02720883,-0.05657565,0.07690191,0.0073385383,0.08867329,-0.07111653,-0.14422873,0.10903594,-0.010922703,0.022220623,-0.04032006,-0.1501426,0.13008584,-0.037790425,-0.016573502,0.059194658,-0.023528242,0.022513572,0.016397556,0.049327984,0.13059968,-0.12311767,0.0038817013,-0.7317534,1.0,-1.0,1.0,1.0,1.0,-1.0,-0.5681112,1.0,1.0,-1.0,-1.0,1.0,-0.120741725,-1.0,1.0,1.0,1.0,-1.0,-1.0,1.0,-1.0,1.0,-1.0
2025-07-21 15:54:19.048,1.4200000000000008,1420,71,0.21403071,0.098842844,-0.056142207,0.10196198,-0.038158488,0.13429533,0.004232239,0.01253834,0.0034488486,0.0,0.0,0.0,-0.018423714,0.5,0.0,0.0,0.050454054,0.016412595,-0.073174186,0.086688146,0.052025627,0.076548435,-0.093034886,-0.15911855,0.10138892,-0.017726617,0.031927325,-0.054295175,0.06024706,-0.007357358,-0.009889247,0.006022196,0.15930624,-0.042174317,-0.045897156,-0.022113664,-0.026452115,-0.10252618,0.11129354,-0.0029341658,1.0,-0.120741725,-1.0,1.0,1.0,1.0,-1.0,-1.0,1.0,-1.0,1.0,-1.0,0.6198993,-0.58927685,1.0,1.0,-1.0,1.0,-1.0,0.010640889,1.0,0.34192824,-0.6255421,-1.0
2025-07-21 15:54:19.067,1.4400000000000008,1440,72,0.0443198,-0.10329906,0.1965238,-0.054924965,0.10120295,0.041938476,0.0015555599,0.037318874,-0.033702828,0.0,0.0,0.0,-0.020145727,0.5,0.0,0.0,0.07129511,-0.024113275,-0.036764093,0.090834424,0.06346381,0.088764936,-0.09829216,-0.14399981,0.10054822,-0.02334242,0.0054602725,-0.07061139,0.008077002,-0.07411699,0.04908035,0.056380227,-0.035981793,0.019826232,-0.019877527,0.12084041,0.037710037,0.09189908,-0.11992864,0.02103652,0.6198993,-0.58927685,1.0,1.0,-1.0,1.0,-1.0,0.010640889,1.0,0.34192824,-0.6255421,-1.0,-0.20518328,1.0,-1.0,1.0,-0.4711502,1.0,-1.0,-1.0,1.0,-1.0,-1.0,-1.0
2025-07-21 15:54:19.087,1.4600000000000009,1460,73,-0.17889881,-0.034523588,0.25925535,0.021102116,0.34627855,-0.023012727,-0.009111294,0.0436891,0.042872693,0.0,0.0,0.0,-0.021773614,0.5,0.0,0.0,0.0492798,-0.010477899,-0.052230127,0.09879941,0.050451953,0.10617179,-0.10838907,-0.15983397,0.11711987,-0.033720147,-0.0684925,-0.08773861,-0.07854936,0.189548,0.0044169663,0.0113533195,-0.04712632,0.020952279,-0.09051391,-0.12205139,0.033953868,-0.09927977,-0.11069378,-0.06560737,-0.20518328,1.0,-1.0,1.0,-0.4711502,1.0,-1.0,-1.0,1.0,-1.0,-1.0,-1.0,1.0,-1.0,-1.0,1.0,-0.2736837,1.0,-1.0,1.0,1.0,-1.0,1.0,1.0
2025-07-21 15:54:19.107,1.4800000000000009,1480,74,0.042064905,0.15468141,0.09002448,-0.020711489,0.22460493,-0.05720071,-0.11328373,0.042928472,0.022980712,0.0,0.0,0.0,-0.020896286,0.5,0.0,0.0,0.07252903,-0.004398132,-0.06867441,0.111563966,0.026735816,0.10672698,-0.11370972,-0.13863093,0.11249786,-0.055894367,-0.0675705,-0.049353212,0.11137716,-0.17697893,-0.089265235,0.0565807,-0.12020157,-0.026568409,0.0030381454,0.16853452,-0.06946402,-0.009801929,0.06360456,0.15848938,1.0,-1.0,-1.0,1.0,-0.2736837,1.0,-1.0,1.0,1.0,-1.0,1.0,1.0,1.0,0.8149912,0.72360754,1.0,1.0,1.0,-1.0,-1.0,1.0,-1.0,-0.40263775,-1.0
2025-07-21 15:54:19.131,1.5000000000000009,1500,75,0.21519943,0.0055307164,0.21259974,-0.07032457,0.13382654,-0.036300793,-0.09697641,0.0298608,0.029310677,0.0,0.0,0.0,-0.019871041,0.5,0.0,0.0,0.08826084,-0.012001107,-0.05408375,0.12274631,0.030111745,0.10423711,-0.121941715,-0.14518483,0.12727024,-0.08176949,-0.068274036,-0.07453432,0.07742963,0.085979424,0.08201144,0.0014145703,0.015692372,0.06445675,-0.058018927,-0.013545334,0.007309903,-0.118081294,-0.08071369,-0.054646492,1.0,0.8149912,0.72360754,1.0,1.0,1.0,-1.0,-1.0,1.0,-1.0,-0.40263775,-1.0,-0.92208695,-0.4895208,-1.0,1.0,-1.0,1.0,-1.0,-0.27625188,1.0,-1.0,1.0,-1.0
2025-07-21 15:54:19.148,1.520000000000001,1520,76,-0.20129849,0.10811321,0.30847582,-0.010214267,-0.016593162,-0.016750926,-0.095962204,-0.0023184156,0.038965072,0.0,0.0,0.0,-0.018710418,0.5,0.0,0.0,0.06915299,-0.020757725,-0.0694519,0.11602026,0.045517374,0.12077849,-0.13246687,-0.13101588,0.12907176,-0.08614871,-0.027781177,-0.07722911,-0.048043016,-0.08097686,0.0034795708,-0.052297056,0.047133323,0.07999931,-0.013374785,-0.0058353925,-0.059923247,0.039156266,0.24429624,0.015749604,-0.92208695,-0.4895208,-1.0,1.0,-1.0,1.0,-1.0,-0.27625188,1.0,-1.0,1.0,-1.0,1.0,-1.0,-1.0,1.0,1.0,1.0,-1.0,-1.0,1.0,0.5058448,-1.0,1.0
2025-07-21 15:54:19.168,1.540000000000001,1540,77,-0.28999862,0.3250012,0.08673378,-0.040476955,0.29292086,0.08923885,-0.062295698,0.027794262,-0.0028503307,0.0,0.0,0.0,-0.01863046,0.5,0.0,0.0,0.06950111,-0.05602544,-0.07444735,0.12358138,0.066156134,0.10332845,-0.12135958,-0.1589088,0.1363191,-0.068676926,-0.04199761,-0.038618583,0.042972133,-0.24219383,-0.10196148,0.022792488,0.13978842,-0.019186238,-0.019467277,-0.1731456,-0.03751819,0.123053476,-0.11604198,0.1128661,1.0,-1.0,-1.0,1.0,1.0,1.0,-1.0,-1.0,1.0,0.5058448,-1.0,1.0,0.9083433,1.0,1.0,1.0,-1.0,-0.9804465,-1.0,1.0,1.0,1.0,1.0,-1.0
2025-07-21 15:54:19.188,1.560000000000001,1560,78,0.0037151466,-0.05913673,-0.067057565,-0.12343586,-0.021493653,-0.17223622,-0.13205309,0.033834286,-0.04191702,0.0,0.0,0.0,-0.019124828,0.5,0.0,0.0,0.090285644,-0.0852335,-0.052940696,0.13464831,0.069759496,0.06475028,-0.1294897,-0.16792654,0.12812306,-0.031145375,-0.010140633,-0.0572128,0.029970942,-0.01623122,0.020825848,0.010327929,-0.06521908,-0.1360663,-0.0030021702,0.14399807,-0.07609573,0.035665706,0.22138155,0.015149273,0.9083433,1.0,1.0,1.0,-1.0,-0.9804465,-1.0,1.0,1.0,1.0,1.0,-1.0,-1.0,1.0,-1.0,-0.57337445,1.0,1.0,1.0,-1.0,1.0,1.0,-1.0,1.0
2025-07-21 15:54:19.213,1.580000000000001,1580,79,0.11124029,0.086637735,-0.042941496,-0.037996724,-0.07875129,0.07931976,-0.11301646,0.009098763,0.00981086,0.0,0.0,0.0,-0.018073393,0.5,0.0,0.0,0.06815807,-0.040300753,-0.063933596,0.09244836,0.10377656,0.06735652,-0.10925495,-0.15554212,0.12917034,0.0132831605,-0.011773993,-0.02068722,-0.14088055,0.22871776,-0.034533788,-0.10569079,0.08857508,0.050427005,0.1462961,-0.07427588,0.027823728,0.1385616,-0.13457632,0.1244136,-1.0,1.0,-1.0,-0.57337445,1.0,1.0,1.0,-1.0,1.0,1.0,-1.0,1.0,-1.0,-0.6771802,1.0,0.7015887,-1.0,1.0,-1.0,-1.0,1.0,1.0,1.0,-1.0
2025-07-21 15:54:19.229,1.600000000000001,1600,80,-0.20353705,0.045135245,0.14178143,0.24250363,-0.08620492,0.12721771,-0.06733312,-0.014608688,-0.00158893,0.0,0.0,0.0,-0.018492857,0.5,0.0,0.0,0.012445715,-0.01156156,-0.044689957,0.08756899,0.10717364,0.0886098,-0.118053176,-0.19467391,0.13977273,0.046494767,-0.0040219207,-0.05518631,-0.07181336,-0.027019044,0.14527908,0.023919243,0.013548792,0.011572907,-0.02898298,-0.12833695,-0.03068219,0.08616016,0.18783392,-0.037165746,-1.0,-0.6771802,1.0,0.7015887,-1.0,1.0,-1.0,-1.0,1.0,1.0,1.0,-1.0,0.8714331,1.0,-1.0,1.0,1.0,1.0,-1.0,1.0,1.0,-0.7912419,-1.0,-1.0
2025-07-21 15:54:19.248,1.620000000000001,1620,81,0.08890906,0.21482013,-0.1188673,-0.18895072,-0.05035681,-0.12430536,-0.07942447,0.047646575,-0.024059936,0.0,0.0,0.0,-0.020773886,0.5,0.0,0.0,0.037468206,0.035515,-0.061797712,0.09263982,0.13160767,0.08593127,-0.11891184,-0.18310457,0.13308097,0.021158364,-0.01005412,-0.066115245,0.09348139,0.19025493,-0.09864653,0.026313445,0.15323856,0.037184224,-0.04227196,0.114006124,-0.07094038,-0.08955542,-0.1511776,-0.09459292,0.8714331,1.0,-1.0,1.0,1.0,1.0,-1.0,1.0,1.0,-0.7912419,-1.0,-1.0,0.7199719,-1.0,-1.0,1.0,-1.0,1.0,-1.0,-1.0,1.0,-1.0,1.0,-1.0
2025-07-21 15:54:19.268,1.640000000000001,1640,82,-0.18917489,0.20822544,0.12395006,0.054082554,0.121732876,0.0793785,-0.093293205,0.011025464,0.0396372,0.0,0.0,0.0,-0.020734629,0.5,0.0,0.0,0.048624095,0.024052132,-0.07659039,0.099011295,0.1257651,0.10931332,-0.13347198,-0.1769905,0.14576244,-0.01980058,-0.014097376,-0.08713681,-0.030424228,-0.08496778,0.008462643,0.046607643,0.029082028,0.05151988,0.045378644,-0.017269947,-0.052017104,-0.107284375,0.12513454,-0.061115686,0.7199719,-1.0,-1.0,1.0,-1.0,1.0,-1.0,-1.0,1.0,-1.0,1.0,-1.0,1.0,-0.697048,-1.0,1.0,0.8489442,1.0,-1.0,0.5794567,1.0,1.0,0.19863965,-1.0
2025-07-21 15:54:19.288,1.660000000000001,1660,83,0.19293459,-0.09872465,-0.07705292,-0.107281946,0.07257446,-0.009320322,-0.068897024,-0.0006461775,0.014888187,0.0,0.0,0.0,-0.020633813,0.5,0.0,0.0,0.072595686,-0.03219205,-0.094761714,0.115502484,0.14526485,0.109472185,-0.13367884,-0.1375306,0.13329558,0.009067851,-0.0015334319,-0.09322442,0.1121132,-0.06166118,0.005762714,0.09117242,0.095129035,0.06101035,0.013985149,0.113642395,-0.074171595,0.1074692,0.027751084,-0.032219425,1.0,-0.697048,-1.0,1.0,0.8489442,1.0,-1.0,0.5794567,1.0,1.0,0.19863965,-1.0,1.0,0.82338476,-1.0,1.0,-1.0,1.0,-1.0,-1.0,1.0,-1.0,0.20637779,-1.0
2025-07-21 15:54:19.308,1.680000000000001,1680,84,-0.07108372,0.14141224,-0.04429938,0.009832173,0.20277236,-0.04167053,-0.12473282,-0.005269585,-0.0027068546,0.0,0.0,0.0,-0.02154089,0.5,0.0,0.0,0.0814973,-0.02121432,-0.09273586,0.11276558,0.1476432,0.11818528,-0.13357264,-0.13275325,0.14265725,-0.01647488,0.022752624,-0.105665654,-0.025804201,0.094929025,-0.06636041,0.039942604,0.00075251487,-0.016776903,-0.028564295,-0.09759627,0.044013117,-0.038302638,0.0262576,0.011888727,1.0,0.82338476,-1.0,1.0,-1.0,1.0,-1.0,-1.0,1.0,-1.0,0.20637779,-1.0,1.0,-1.0,-1.0,1.0,-0.8228805,1.0,-1.0,-0.10941139,1.0,-0.77885604,1.0,1.0
2025-07-21 15:54:19.332,1.700000000000001,1700,85,0.2528146,0.17480914,-0.3594187,0.072660096,0.19706239,0.043684028,-0.10573638,-0.006430212,0.014498804,0.0,0.0,0.0,-0.021328796,0.5,0.0,0.0,0.09316754,-0.021990798,-0.11908371,0.121207334,0.13725959,0.13157322,-0.14087525,-0.118771404,0.13639747,-0.022682397,0.060841206,-0.065716624,-0.03976443,-0.16798486,0.00030325557,0.06953878,-0.07805063,0.021219594,0.05463364,-0.01733902,-0.08080629,-0.007550114,0.122757986,0.107516184,1.0,-1.0,-1.0,1.0,-0.8228805,1.0,-1.0,-0.10941139,1.0,-0.77885604,1.0,1.0,-0.88199264,-0.291584,1.0,1.0,-1.0,1.0,-1.0,-1.0,1.0,-1.0,-1.0,-1.0
2025-07-21 15:54:19.349,1.720000000000001,1720,86,0.14950733,0.28074688,0.033534355,0.17758402,0.096113764,-0.14991036,-0.16767943,0.048709948,0.002162487,0.0,0.0,0.0,-0.021216199,0.5,0.0,0.0,0.07641128,-0.05915333,-0.08696483,0.12949926,0.11468377,0.13720682,-0.15245423,-0.1474119,0.15083706,-0.044703268,0.07523931,-0.083751164,-0.07141831,0.026316801,0.098690845,-0.027439192,-0.04195715,0.02534505,0.016218783,-0.19687662,0.016285406,-0.040402066,-0.16748643,-0.05446133,-0.88199264,-0.291584,1.0,1.0,-1.0,1.0,-1.0,-1.0,1.0,-1.0,-1.0,-1.0,-1.0,-1.0,1.0,0.87192374,1.0,1.0,-1.0,1.0,1.0,0.23442997,-0.6426264,1.0
2025-07-21 15:54:19.369,1.740000000000001,1740,87,-0.0838181,0.19841185,0.049510226,0.14319427,-0.22151619,-0.019501057,-0.15672769,0.047247253,0.01391546,0.0,0.0,0.0,-0.019646797,0.5,0.0,0.0,0.045195762,-0.08795926,-0.03182228,0.12752698,0.13440756,0.11879845,-0.14665563,-0.13195875,0.15012306,-0.03577678,0.004740897,-0.043972936,-0.07929517,-0.03358653,0.15505026,0.027567185,0.17009754,-0.011901122,0.0210523,0.16255556,-0.06880502,-0.029015457,-0.069899365,0.07321189,-1.0,-1.0,1.0,0.87192374,1.0,1.0,-1.0,1.0,1.0,0.23442997,-0.6426264,1.0,-1.0,1.0,1.0,-0.8614349,-0.7058655,-1.0,-1.0,-1.0,1.0,1.0,-1.0,1.0
2025-07-21 15:54:19.389,1.7600000000000011,1760,88,0.05644804,0.03706022,0.073282965,0.33846,-0.3097527,-0.021623623,-0.07441924,0.12895884,0.044663627,0.0,0.0,0.0,-0.018408353,0.5,0.0,0.0,0.02515007,-0.09793311,-0.024521776,0.08251674,0.16345881,0.082313076,-0.14963701,-0.15194468,0.14480463,-0.002506358,-0.06837453,-0.0064642997,-0.04244483,0.10101344,-0.01625371,-0.12752607,-0.040908955,-0.053724553,-0.04958126,-0.19362578,0.08076827,0.05501872,-0.11186281,0.11179092,-1.0,1.0,1.0,-0.8614349,-0.7058655,-1.0,-1.0,-1.0,1.0,1.0,-1.0,1.0,-1.0,1.0,1.0,0.21464401,0.8455266,-1.0,-0.33749583,1.0,-1.0,1.0,-1.0,1.0
2025-07-21 15:54:19.413,1.7800000000000011,1780,89,0.22827183,-0.096822076,-0.18568021,0.06578957,-0.5724558,-0.1994842,-0.037713904,0.07457337,0.027169596,0.0,0.0,0.0,-0.017578742,0.5,0.0,0.0,-0.0011726895,-0.038526516,-0.00072873797,0.061686818,0.1959908,0.03450995,-0.14393358,-0.12903896,0.0954341,0.013456752,-0.11782308,0.02631137,-0.10334812,0.15131022,0.06997506,0.02829551,0.105993494,-0.11544662,0.052056484,0.20991957,-0.09590548,0.033994246,-0.07023147,0.13121065,-1.0,1.0,1.0,0.21464401,0.8455266,-1.0,-0.33749583,1.0,-1.0,1.0,-1.0,1.0,-1.0,-1.0,1.0,-1.0,0.5047356,-1.0,1.0,0.818076,-1.0,1.0,-0.18662305,1.0
2025-07-21 15:54:19.429,1.8000000000000012,1800,90,0.043736108,0.13086116,-0.54579043,0.16318223,-0.5892306,-0.108408086,-0.051223744,0.011537134,-0.0029773647,0.0,0.0,0.0,-0.014731244,0.5,0.0,0.0,-0.036167186,-0.008253414,0.035632398,0.022318358,0.2216889,0.002629248,-0.086818755,-0.03818215,0.04343744,0.03919876,-0.13040085,0.04795793,-0.049998447,0.00513197,-0.00054202374,-0.029684171,-0.018582476,-0.137078,0.12603961,0.16877352,-0.12316093,0.13839637,-0.019156475,0.09089193,-1.0,-1.0,1.0,-1.0,0.5047356,-1.0,1.0,0.818076,-1.0,1.0,-0.18662305,1.0,-1.0,-1.0,1.0,-0.6610989,0.30973518,-1.0,1.0,0.5367938,-1.0,1.0,-1.0,1.0
2025-07-21 15:54:19.449,1.8200000000000012,1820,91,-0.40665206,0.04690591,-0.30005538,0.15533306,-0.02336404,-0.09912028,-0.020185553,0.0029016456,0.04295537,0.0,0.0,0.0,-0.011871165,0.5,0.0,0.0,-0.051558465,-0.016061135,0.05514659,0.011787926,0.20582604,-0.024252187,-0.04249461,-0.0047240653,0.009291856,0.05794546,-0.14744247,0.071687534,-0.023516128,-0.10711776,0.0516568,0.030304119,0.02558161,-0.03744054,0.09764983,0.15248047,-0.09166303,-0.02539211,-0.09515929,0.08699036,-1.0,-1.0,1.0,-0.6610989,0.30973518,-1.0,1.0,0.5367938,-1.0,1.0,-1.0,1.0,-1.0,1.0,1.0,-1.0,0.41270193,-1.0,1.0,0.84348214,1.0,1.0,0.6124338,1.0
2025-07-21 15:54:19.469,1.8400000000000012,1840,92,-0.043618597,0.28177032,-0.37054753,-0.05758079,-0.18659613,-0.0062521896,0.035739746,0.0043914467,-0.040409945,0.0,0.0,0.0,-0.009161016,0.5,0.0,0.0,-0.050547555,0.0017975462,0.05656798,-0.020570211,0.19896244,-0.042305622,-0.014343888,0.059045754,0.040179346,0.06182774,-0.13596848,0.07010349,-0.05403483,0.03807935,0.0063206884,-0.019870995,-0.044440027,-0.047360044,0.12344067,0.13308267,0.02216732,0.010577591,0.14108568,0.026026767,-1.0,1.0,1.0,-1.0,0.41270193,-1.0,1.0,0.84348214,1.0,1.0,0.6124338,1.0,-1.0,-1.0,1.0,-0.35216135,-1.0,-1.0,-1.0,-1.0,1.0,1.0,-1.0,1.0
2025-07-21 15:54:19.489,1.8600000000000012,1860,93,-0.6058777,-0.093388416,0.08623403,0.15220717,0.2194139,-0.025893891,-0.02294567,0.049105603,-0.016204458,0.0,0.0,0.0,-0.007434523,0.5,0.0,0.0,-0.05972912,0.0026062222,0.074044235,-0.041453518,0.13612062,-0.06115567,-0.025152272,0.05495552,0.06727468,0.07064453,-0.14276716,0.07745158,-0.058966454,-0.07721542,0.01766161,-0.041694555,-0.30110234,0.01649451,-0.12259789,-0.22382244,0.100597516,0.045154274,-0.10009589,-0.008305222,-1.0,-1.0,1.0,-0.35216135,-1.0,-1.0,-1.0,-1.0,1.0,1.0,-1.0,1.0,-1.0,1.0,1.0,0.50546914,1.0,0.0763917,-0.55758303,1.0,1.0,1.0,-1.0,1.0
2025-07-21 15:54:19.513,1.8800000000000012,1880,94,-0.1160233,-0.03780072,0.25369486,-0.16424586,0.00056380563,-0.120291054,0.022487517,0.08761378,0.03043452,0.0,0.0,0.0,-0.0063119256,0.5,0.0,0.0,-0.08167608,-0.0017696295,0.08023377,-0.024761902,0.09882044,-0.052724663,-0.037735373,0.05663557,0.07364939,0.09059371,-0.18603198,0.09347593,0.005560105,0.09653084,-0.062067006,0.032330666,-0.052389495,-0.027769132,-0.073279195,0.11946145,0.042263538,0.05006962,-0.11184262,0.017127974,-1.0,1.0,1.0,0.50546914,1.0,0.0763917,-0.55758303,1.0,1.0,1.0,-1.0,1.0,-1.0,1.0,1.0,-1.0,-0.9109225,-1.0,0.6967497,-1.0,-1.0,1.0,-0.8619837,1.0
2025-07-21 15:54:19.530,1.9000000000000012,1900,95,-0.27227664,0.2179372,0.31432545,0.017950086,0.03431942,-0.12846424,0.011490491,0.07555381,0.0066607636,0.0,0.0,0.0,-0.0048329127,0.5,0.0,0.0,-0.08150958,0.028553134,0.079502374,-0.027421642,0.07455033,-0.06269034,-0.021014465,0.034877215,0.047327694,0.08141724,-0.21137603,0.10269785,-0.062323067,0.07024169,0.05121723,-0.015247507,-0.24811731,-0.012460503,0.034073666,-0.07233684,-0.11509525,0.011009562,-0.069464855,0.039747942,-1.0,1.0,1.0,-1.0,-0.9109225,-1.0,0.6967497,-1.0,-1.0,1.0,-0.8619837,1.0,-1.0,-1.0,1.0,-0.7028344,0.8116186,-1.0,1.0,-1.0,1.0,1.0,1.0,1.0
2025-07-21 15:54:19.550,1.9200000000000013,1920,96,-0.21057996,-0.10006466,0.12582695,0.04668606,-0.0838216,0.05750893,-0.035225656,0.033092074,-0.042588666,0.0,0.0,0.0,-0.00258737,0.5,0.0,0.0,-0.09685828,0.03434072,0.09939094,-0.053111486,0.053280864,-0.08055965,0.01750851,-0.04169096,0.050733794,0.10439717,-0.19813628,0.09642876,0.0010765388,0.0006280409,0.038098328,0.0099109495,0.15257587,-0.08956052,0.041956395,-0.16092676,0.049111176,0.0937536,0.12503548,0.040118605,-1.0,-1.0,1.0,-0.7028344,0.8116186,-1.0,1.0,-1.0,1.0,1.0,1.0,1.0,-1.0,1.0,1.0,-0.43836236,0.06223265,-0.27536425,-0.75398046,1.0,-1.0,1.0,-1.0,1.0
2025-07-21 15:54:19.570,1.9400000000000013,1940,97,-0.09930299,0.23212075,0.045134135,-0.0011470804,-0.025494823,-0.12631519,0.01747826,0.023091571,-0.042027205,0.0,0.0,0.0,-0.002243173,0.5,0.0,0.0,-0.09057917,0.050986253,0.08307957,-0.063888915,0.06104374,-0.07175442,-0.012676801,-0.044184998,0.01714633,0.10383435,-0.19831997,0.11546413,0.047301013,0.17937195,0.0708595,0.03088042,-0.086816795,0.0067302748,-0.08947906,0.087585695,-0.13561852,-0.0311898,-0.016498221,0.04502053,-1.0,1.0,1.0,-0.43836236,0.06223265,-0.27536425,-0.75398046,1.0,-1.0,1.0,-1.0,1.0,-1.0,-1.0,1.0,-1.0,0.49643973,-1.0,1.0,-0.86698663,-1.0,1.0,0.600034,1.0
2025-07-21 15:54:19.590,1.9600000000000013,1960,98,-0.03699887,0.04069397,0.28114983,0.05796858,-0.010236259,0.08326877,0.056178924,0.01955455,-0.044022504,0.0,0.0,0.0,-0.0010712751,0.5,0.0,0.0,-0.10348947,0.05689101,0.100276075,-0.06493883,0.08044717,-0.100596435,0.009936634,-0.061856296,-0.0085178325,0.11015927,-0.16741408,0.12100331,-0.007498986,-0.072129846,0.010784251,0.0033239606,0.072696514,-0.0022671234,0.08309247,-0.21571875,-0.085453436,0.028611438,0.15094234,-0.010655142,-1.0,-1.0,1.0,-1.0,0.49643973,-1.0,1.0,-0.86698663,-1.0,1.0,0.600034,1.0,-1.0,0.23267174,1.0,-1.0,0.14177418,-1.0,1.0,1.0,-1.0,1.0,-1.0,1.0
2025-07-21 15:54:19.613,1.9800000000000013,1980,99,-0.07486014,0.17828824,-0.062708944,-0.03655539,0.07495316,-0.03592323,0.014801997,0.07968918,-0.03373318,0.0,0.0,0.0,-0.0011783595,0.5,0.0,0.0,-0.116488,0.065333664,0.106410496,-0.09820699,0.07193109,-0.09973749,0.03513609,-0.05401403,-0.03412078,0.11346051,-0.1780573,0.11959678,0.06735992,-0.0073725176,-0.05110008,-0.05867403,0.05977869,-0.013089058,0.065260194,0.18759622,0.006355243,-0.027776536,-0.055147197,-0.03585243,-1.0,0.23267174,1.0,-1.0,0.14177418,-1.0,1.0,1.0,-1.0,1.0,-1.0,1.0,-1.0,-1.0,1.0,-0.8892334,-1.0,-1.0,1.0,0.88956106,1.0,1.0,1.0,1.0
2025-07-21 15:54:19.630,2.0000000000000013,2000,100,-0.1734088,-0.10534212,0.17693458,0.09152761,0.011471262,-0.029776497,-0.015849378,0.08667104,0.03914081,0.0,0.0,0.0,-0.0010028012,0.5,0.0,0.0,-0.11346412,0.047110163,0.10704473,-0.09303212,0.036880374,-0.104791984,0.054221995,0.0080552595,-0.008980444,0.120390825,-0.15073219,0.11361499,-0.08477665,-0.08585739,0.03366728,-0.060752865,-0.15514071,-0.07324136,0.085751675,0.23657094,0.06418928,0.07521858,0.14013305,-0.04969655,-1.0,-1.0,1.0,-0.8892334,-1.0,-1.0,1.0,0.88956106,1.0,1.0,1.0,1.0,-1.0,1.0,1.0,-1.0,0.662678,-1.0,0.182946,-1.0,-1.0,1.0,-1.0,1.0
2025-07-21 15:54:19.650,2.0200000000000014,2020,101,-0.017534334,-0.042143617,-0.060199685,0.13115756,0.14139032,0.00963603,0.035164166,0.08636723,-0.036045175,0.0,0.0,0.0,-0.00017277086,0.5,0.0,0.0,-0.11895361,0.06982395,0.118538715,-0.10998585,0.015796829,-0.11094383,0.057273876,0.022729581,-0.020473938,0.11396425,-0.14708759,0.13372572,0.016140025,0.056420144,-0.04801506,-0.09188637,0.033620976,-0.008963446,-0.047441088,-0.0660858,-0.054412197,-0.005921144,-0.029230107,0.056134723,-1.0,1.0,1.0,-1.0,0.662678,-1.0,0.182946,-1.0,-1.0,1.0,-1.0,1.0,-1.0,-0.9596915,1.0,-0.14547795,-1.0,0.24223,1.0,0.49684754,-1.0,1.0,-1.0,1.0
2025-07-21 15:54:19.672,2.0400000000000014,2040,102,-0.21024586,-0.17101236,0.25113177,0.13754848,0.14075686,-0.041277792,0.0035028136,0.046056908,0.0003598998,0.0,0.0,0.0,-0.0004935588,0.5,0.0,0.0,-0.116627894,0.05922228,0.107498325,-0.09756726,-0.02332904,-0.089898,0.07377135,0.037187696,-0.04380739,0.13440797,-0.18310302,0.14067677,0.06380133,-0.10528007,-0.010851464,0.10606706,-0.1821671,0.06975019,0.019089703,0.10494019,-0.07087081,-0.06215754,-0.07871019,-0.032345068,-1.0,-0.9596915,1.0,-0.14547795,-1.0,0.24223,1.0,0.49684754,-1.0,1.0,-1.0,1.0,-1.0,1.0,1.0,1.0,1.0,0.8034926,1.0,-1.0,0.3993404,1.0,1.0,1.0
2025-07-21 15:54:19.697,2.0600000000000014,2060,103,-0.026552662,-0.1572943,-0.07952257,0.119957745,-0.06380774,0.06771825,-0.012476502,0.047207154,0.004775057,0.0,0.0,0.0,-0.00010450745,0.5,0.0,0.0,-0.12977438,0.08912836,0.10763897,-0.066076756,-0.024743011,-0.048746847,0.08275131,-0.0037491787,-0.02449517,0.1396912,-0.16327067,0.12753758,-0.01873324,0.062898174,0.025678553,0.043240197,0.11617362,0.10339017,0.03190912,-0.21363086,0.0632816,0.033312727,0.13643014,-0.018421937,-1.0,1.0,1.0,1.0,1.0,0.8034926,1.0,-1.0,0.3993404,1.0,1.0,1.0,-1.0,1.0,-0.37628746,1.0,-0.115774535,1.0,-1.0,0.66036856,1.0,1.0,-1.0,1.0
2025-07-21 15:54:19.714,2.0800000000000014,2080,104,-0.09828081,-0.07251047,0.05237559,-0.11509719,0.13687232,-0.15952171,0.027898004,0.107594445,-0.0057445136,0.0,0.0,0.0,-0.00034305628,0.5,0.0,0.0,-0.13232599,0.1388581,0.083804,-0.01743892,-0.016718552,-0.020741008,0.05947068,0.013409878,0.005227011,0.13841227,-0.16389139,0.13670562,-0.023164779,0.065298386,-0.12709208,0.0403979,0.04806136,0.030537054,-0.13448182,0.08797518,0.11850217,-0.029057331,0.016457072,0.03985976,-1.0,1.0,-0.37628746,1.0,-0.115774535,1.0,-1.0,0.66036856,1.0,1.0,-1.0,1.0,1.0,1.0,-1.0,1.0,1.0,1.0,-1.0,-1.0,1.0,1.0,1.0,1.0
2025-07-21 15:54:19.734,2.1000000000000014,2100,105,0.12169182,-0.21153119,-0.036946043,-0.36429387,0.08748647,-0.013562334,-0.034942918,0.024988176,0.032766942,0.0,0.0,0.0,0.0007729923,0.5,0.0,0.0,-0.08000875,0.19673909,0.04957401,0.0063859015,-0.0032851582,-0.010461454,0.0274185,0.0006937064,0.029590942,0.13890056,-0.1354735,0.12794794,0.112265155,0.12815887,-0.13726684,0.11249961,0.05603975,0.1074546,-0.06099789,-0.090256505,0.1025954,0.028006963,0.13338745,-0.036057428,1.0,1.0,-1.0,1.0,1.0,1.0,-1.0,-1.0,1.0,1.0,1.0,1.0,1.0,0.24534142,-1.0,0.9740955,-1.0,1.0,-1.0,-1.0,-0.6198007,0.83935827,0.5952678,1.0
2025-07-21 15:54:19.754,2.1200000000000014,2120,106,0.23486212,0.22878559,-0.24516776,-0.43686908,0.20692141,0.0187899,-0.081985146,0.09529107,0.0025048319,0.0,0.0,0.0,0.0014051435,0.5,0.0,0.0,-0.039017234,0.18445157,0.006757446,0.03699089,-0.0043806015,0.022504287,-0.008179009,-0.070123784,0.0048905127,0.1456949,-0.07496547,0.13793343,0.100638784,-0.085095346,-0.1287412,0.09223219,-0.020645838,0.019532613,-0.08340759,-0.22345582,-0.044313654,0.04390705,0.1423419,0.05732852,1.0,0.24534142,-1.0,0.9740955,-1.0,1.0,-1.0,-1.0,-0.6198007,0.83935827,0.5952678,1.0,1.0,-1.0,-1.0,1.0,0.86336577,1.0,-1.0,-1.0,1.0,-1.0,1.0,-1.0
2025-07-21 15:54:19.776,2.1400000000000015,2140,107,0.029307233,-0.11851673,-0.1774592,-0.37144288,-0.097113855,0.0935273,-0.03538642,0.043324888,0.04291878,0.0,0.0,0.0,0.0005526884,0.5,0.0,0.0,-0.0056720586,0.17257181,-0.024640191,0.059280135,0.017945096,0.031867445,-0.032853376,-0.13112225,0.040615425,0.11143945,0.006750757,0.07638983,0.05626755,-0.051222086,-0.022753637,0.04735241,0.06066814,0.0089401165,-0.09802315,-0.10996386,-0.008679076,-0.10232913,0.26292667,-0.18468323,1.0,-1.0,-1.0,1.0,0.86336577,1.0,-1.0,-1.0,1.0,-1.0,1.0,-1.0,1.0,1.0,-1.0,1.0,-1.0,1.0,-1.0,1.0,1.0,0.595173,-1.0,-1.0
2025-07-21 15:54:19.796,2.1600000000000015,2160,108,-0.1440967,0.20517175,-0.44336417,-0.27240142,0.055786043,-0.08223272,-0.09828089,0.040848155,-0.018033583,0.0,0.0,0.0,-2.2247168e-05,0.5,0.0,0.0,0.017723264,0.20047386,-0.040869545,0.07364598,0.035221566,0.069361314,-0.06402136,-0.14874066,0.043428242,0.10672527,0.024037901,0.034984697,0.06852469,0.13100564,-0.01834578,-0.032637168,-0.09885124,-0.0088562565,-0.06819807,-0.03570559,0.010100377,0.069583684,-0.07248058,-0.14958093,1.0,1.0,-1.0,1.0,-1.0,1.0,-1.0,1.0,1.0,0.595173,-1.0,-1.0,1.0,-1.0,-1.0,1.0,1.0,1.0,-1.0,-1.0,1.0,-1.0,1.0,-1.0
2025-07-21 15:54:19.815,2.1800000000000015,2180,109,0.23850963,0.22778894,-0.38840216,0.046317097,-0.06593943,0.065590926,-0.108423196,0.028804094,0.023189692,0.0,0.0,0.0,0.00011118531,0.5,0.0,0.0,0.044963177,0.18288699,-0.069697745,0.084801875,0.04809734,0.074765526,-0.06765671,-0.14403439,0.06743073,0.051104546,0.02225428,0.0047137938,0.067108475,-0.19939838,-0.03283661,0.00785729,0.11352319,0.07987865,-0.054491404,0.0053611826,-0.026251584,-0.10525223,0.17865132,-0.00889653,1.0,-1.0,-1.0,1.0,1.0,1.0,-1.0,-1.0,1.0,-1.0,1.0,-1.0,1.0,-0.7355573,1.0,1.0,-1.0,1.0,-1.0,-1.0,1.0,-0.59004843,-0.3822643,-1.0
2025-07-21 15:54:19.835,2.2000000000000015,2200,110,-0.115517296,0.23146124,0.2686392,0.08304051,0.28120548,0.06936669,-0.09783786,-0.0367761,-0.033262677,0.0,0.0,0.0,0.00012226298,0.5,0.0,0.0,0.06291699,0.10464685,-0.032121778,0.087613404,0.043744177,0.06790043,-0.07063885,-0.18412325,0.083311945,0.042371623,0.029720705,-0.027751246,0.047772314,-0.1492076,0.023581168,0.0111893015,-0.09297621,0.028240109,-0.027570056,-0.15776055,-0.0084572425,0.011136351,-0.14828584,0.008856981,1.0,-0.7355573,1.0,1.0,-1.0,1.0,-1.0,-1.0,1.0,-0.59004843,-0.3822643,-1.0,-1.0,-0.10854447,-0.6649021,1.0,1.0,1.0,-1.0,1.0,1.0,-1.0,0.81690633,0.590963
2025-07-21 15:54:19.855,2.2200000000000015,2220,111,0.10379233,0.116378516,0.17245217,0.07618216,-0.17001197,0.07062218,-0.03765004,0.038624696,-0.032939203,0.0,0.0,0.0,-0.0009829312,0.5,0.0,0.0,0.038738787,0.06773849,-0.04315502,0.08612213,0.066877924,0.07959035,-0.08109879,-0.16726866,0.08885895,-0.0034963435,0.040242974,-0.00028122947,-0.034285024,-0.043875907,-0.040540982,-0.06653144,0.07711693,-0.04920788,0.022356732,0.08179593,-0.03300987,-0.09285795,0.1489486,0.011667834,-1.0,-0.10854447,-0.6649021,1.0,1.0,1.0,-1.0,1.0,1.0,-1.0,0.81690633,0.590963,1.0,0.26965034,-1.0,1.0,0.9881883,1.0,-1.0,-1.0,1.0,-0.15529738,-1.0,-1.0
2025-07-21 15:54:19.879,2.2400000000000015,2240,112,0.20109329,-0.03404969,0.22910109,0.08107779,0.08389418,0.02920168,-0.068619736,0.01838256,0.028115634,0.0,0.0,0.0,-0.0017546134,0.5,0.0,0.0,0.05941655,0.070660554,-0.06404687,0.08522946,0.12869059,0.09193496,-0.08094369,-0.17408115,0.09918963,-0.00043193833,0.039969582,-0.03541983,0.015396746,0.030240873,-0.11116317,0.083277665,0.0814782,-0.028917292,0.025082981,-0.06619729,-0.0032584853,-0.056077182,-0.21684022,-0.09068339,1.0,0.26965034,-1.0,1.0,0.9881883,1.0,-1.0,-1.0,1.0,-0.15529738,-1.0,-1.0,0.8071693,-1.0,-1.0,1.0,-1.0,1.0,-1.0,0.4250466,1.0,-0.8636558,1.0,-1.0
2025-07-21 15:54:19.896,2.2600000000000016,2260,113,-0.053507898,0.16425364,0.071028195,0.010914341,0.003062754,0.031195862,-0.10945938,0.020306572,-0.014006033,0.0,0.0,0.0,-0.0027205262,0.5,0.0,0.0,0.06683858,0.041321687,-0.08285823,0.10565118,0.14522666,0.091887146,-0.092993155,-0.16187093,0.08917351,-0.02709933,0.044491358,-0.04504893,0.018168032,-0.17753255,-0.08342478,0.014352234,-0.003480768,0.096736744,-0.09138279,0.08281657,0.004388569,-0.1259795,0.11515293,0.009826248,0.8071693,-1.0,-1.0,1.0,-1.0,1.0,-1.0,0.4250466,1.0,-0.8636558,1.0,-1.0,0.5214449,0.6916814,-1.0,1.0,0.012269355,1.0,-1.0,-1.0,1.0,-0.019485876,-0.86683035,-1.0
2025-07-21 15:54:19.916,2.2800000000000016,2280,114,0.1756829,0.24160534,0.015465955,0.06866696,0.35013878,-0.12600566,-0.02429049,-0.006272192,0.023231704,0.0,0.0,0.0,-0.003136037,0.5,0.0,0.0,0.06489441,0.015223144,-0.097741,0.10081781,0.12675275,0.10961536,-0.113202766,-0.16921978,0.11373569,-0.022675378,0.023803452,-0.07467495,-0.060515944,0.036684465,-0.03209502,-0.019257072,-0.11845482,-0.066378176,-0.07851436,-0.0920593,0.06094162,0.033930678,-0.13556765,-0.10221562,0.5214449,0.6916814,-1.0,1.0,0.012269355,1.0,-1.0,-1.0,1.0,-0.019485876,-0.86683035,-1.0,0.8674623,-1.0,-0.48043823,1.0,1.0,1.0,-1.0,-1.0,1.0,-1.0,1.0,-1.0
2025-07-21 15:54:19.939,2.3000000000000016,2300,115,0.04393398,-0.06557109,-0.023813859,0.041016735,0.2121867,0.08967454,-0.11087762,0.040853806,-0.0049329163,0.0,0.0,0.0,-0.0017944883,0.5,0.0,0.0,0.077070795,-0.020313783,-0.088812456,0.11531535,0.14400488,0.10003712,-0.10537955,-0.2070352,0.1123615,-0.051301297,0.023430299,-0.09319317,0.09608508,-0.19330812,0.014486581,0.0021061017,0.16542298,-0.066033825,0.03614084,-0.023461383,-0.016009428,-0.013493459,0.13772145,-0.08975612,0.8674623,-1.0,-0.48043823,1.0,1.0,1.0,-1.0,-1.0,1.0,-1.0,1.0,-1.0,1.0,0.99255896,1.0,1.0,-1.0,1.0,-1.0,1.0,1.0,0.41248417,-1.0,-1.0
2025-07-21 15:54:19.963,2.3200000000000016,2320,116,0.24769765,0.28148976,0.23530316,-0.035854332,0.06981551,-0.17740907,-0.055919982,0.045701187,-0.017876975,0.0,0.0,0.0,-0.0021217242,0.5,0.0,0.0,0.110211425,-0.04919147,-0.060177986,0.12504703,0.14879568,0.10998839,-0.12843916,-0.19445261,0.12437056,-0.03846195,0.012727276,-0.09832632,0.016545616,0.0057920674,0.008391616,0.007654525,-0.069458194,0.079597905,0.0030261031,0.0564486,-0.076307215,-0.026363296,-0.15817922,-0.050483353,1.0,0.99255896,1.0,1.0,-1.0,1.0,-1.0,1.0,1.0,0.41248417,-1.0,-1.0,-1.0,-1.0,-0.11871219,1.0,0.78746355,1.0,-0.8404874,-1.0,1.0,-1.0,1.0,-0.7932973
2025-07-21 15:54:19.980,2.3400000000000016,2340,117,0.10414918,-0.06868712,-0.01182403,0.1595464,-0.0012024151,0.15460253,-0.078502916,0.082029134,-0.027994188,0.0,0.0,0.0,-0.0018631809,0.5,0.0,0.0,0.07805552,-0.07397133,-0.047740776,0.11678003,0.17820628,0.115128,-0.12276576,-0.18812118,0.12847053,-0.048616737,0.019704483,-0.09356362,-0.11302867,-0.05962666,0.010555646,0.010295349,0.14277245,-0.010243268,-0.03591211,-0.06272304,0.03933363,-0.097965814,0.11599309,-0.07695631,-1.0,-1.0,-0.11871219,1.0,0.78746355,1.0,-0.8404874,-1.0,1.0,-1.0,1.0,-0.7932973,0.7850421,1.0,-1.0,1.0,-1.0,1.0,-1.0,1.0,1.0,-1.0,-1.0,-1.0
2025-07-21 15:54:19.999,2.3600000000000017,2360,118,0.3336705,-0.05164971,-0.019967893,-0.04096869,0.10955577,-0.07232521,-0.05271599,0.042640544,-0.043476656,0.0,0.0,0.0,-0.002447679,0.5,0.0,0.0,0.0751961,-0.057678737,-0.07180881,0.12535939,0.18634297,0.12677999,-0.12458735,-0.16247974,0.11594912,-0.06625973,0.0068218876,-0.11466431,0.06561801,0.06765926,-0.019982764,-0.005938449,0.0062949886,0.0040356736,-0.043814432,0.17862803,-0.04285129,-0.022452815,-0.16744491,-0.059135523,0.7850421,1.0,-1.0,1.0,-1.0,1.0,-1.0,1.0,1.0,-1.0,-1.0,-1.0,1.0,-1.0,-0.13960767,1.0,-1.0,1.0,-1.0,-1.0,1.0,-1.0,1.0,-1.0
2025-07-21 15:54:20.019,2.3800000000000017,2380,119,0.07959408,0.11928392,0.24402061,0.14940222,0.21216358,-0.027465718,-0.10070313,0.1037836,0.023294976,0.0,0.0,0.0,-0.0025577082,0.5,0.0,0.0,0.10191854,-0.037022498,-0.06424588,0.13725956,0.16898651,0.14000277,-0.14686607,-0.16244158,0.12548006,-0.09274049,-0.009627188,-0.109909035,-0.01409218,-0.032402072,-0.03863971,-0.009305242,-0.02391911,-0.011165786,0.011227925,-0.02953295,0.0702639,-0.018792823,0.13016525,-0.026680525,1.0,-1.0,-0.13960767,1.0,-1.0,1.0,-1.0,-1.0,1.0,-1.0,1.0,-1.0,-1.0,-1.0,0.6942652,1.0,1.0,1.0,-1.0,1.0,1.0,1.0,-0.38789466,1.0
2025-07-21 15:54:20.039,2.4000000000000017,2400,120,-0.2577691,-0.07910405,0.51275676,0.20628026,-0.20881702,0.1094802,-0.057455108,0.040275134,0.0063849553,0.0,0.0,0.0,-0.0009159187,0.5,0.0,0.0,0.08495989,-0.071954705,-0.05059509,0.13364749,0.18523662,0.13589314,-0.13919665,-0.12620288,0.14237168,-0.046329197,-0.013018924,-0.06961093,-0.11985555,-0.06726322,0.07428142,0.01591127,0.15491538,0.016615853,-0.022530576,0.13285346,0.069109686,0.09462677,-0.0110187875,0.06331116,-1.0,-1.0,0.6942652,1.0,1.0,1.0,-1.0,1.0,1.0,1.0,-0.38789466,1.0,-1.0,1.0,1.0,-0.6430245,-1.0,-1.0,-1.0,-0.6815326,0.0489614,1.0,-1.0,1.0
2025-07-21 15:54:20.063,2.4200000000000017,2420,121,-0.29051954,-0.1397277,0.32646206,0.44690007,-0.27117908,0.057110876,-0.018848514,0.061410055,-0.00066441623,0.0,0.0,0.0,-0.0013288311,0.5,0.0,0.0,0.050214425,-0.08152561,-0.0088437395,0.09838553,0.202717,0.08854017,-0.15861948,-0.10695253,0.11376158,-0.012748696,-0.067904554,-0.029433493,-0.1047302,0.058111917,-0.011029409,-0.031634077,0.03907154,-0.13569528,0.016927501,-0.06625995,-0.053739548,0.05840076,-0.2147753,0.07882461,-1.0,1.0,1.0,-0.6430245,-1.0,-1.0,-1.0,-0.6815326,0.0489614,1.0,-1.0,1.0,-1.0,1.0,1.0,-0.052747637,1.0,-1.0,1.0,1.0,-1.0,1.0,0.26366654,1.0
2025-07-21 15:54:20.079,2.4400000000000017,2440,122,0.090445146,-0.30905154,-0.32584623,0.10279944,-0.5282873,0.042541172,0.013998398,0.115019456,-0.04006373,0.0,0.0,0.0,-0.0016426287,0.5,0.0,0.0,0.00757875,-0.02670426,0.005507264,0.06654076,0.24599923,0.043212146,-0.11150982,-0.07885965,0.062808916,0.008910022,-0.07455553,0.0014259113,-0.08134355,0.14070305,0.09683071,-0.08373682,0.14450318,-0.124397054,0.1720255,0.2603379,-0.13913652,0.10759334,0.018846648,0.10764912,-1.0,1.0,1.0,-0.052747637,1.0,-1.0,1.0,1.0,-1.0,1.0,0.26366654,1.0,-1.0,-0.90553236,1.0,-1.0,-1.0,-1.0,1.0,1.0,-1.0,1.0,-1.0,1.0
2025-07-21 15:54:20.099,2.4600000000000017,2460,123,-0.3503803,0.0406946,-0.45931238,0.2518761,-0.29870537,-0.064828135,0.06441276,0.10009455,0.017389536,0.0,0.0,0.0,-0.0006695679,0.5,0.0,0.0,-0.010776953,-0.015260035,0.027094044,0.03400157,0.22458965,0.018933736,-0.062226493,0.0049572545,0.033282343,0.03303771,-0.098418534,0.023210805,-0.117466174,-0.046064578,0.07109658,-0.07600138,-0.1070918,-0.017382398,0.16687086,0.23714213,-0.12998667,-0.003215694,-0.16161594,0.00056378124,-1.0,-0.90553236,1.0,-1.0,-1.0,-1.0,1.0,1.0,-1.0,1.0,-1.0,1.0,-1.0,1.0,1.0,-0.2630356,-0.8055856,-1.0,1.0,1.0,0.25571406,1.0,0.24464513,1.0
2025-07-21 15:54:20.119,2.4800000000000018,2480,124,-0.24253571,-0.15894534,-0.60435593,0.04125957,-0.37085205,-0.13268302,0.07183892,0.054368492,0.021826131,0.0,0.0,0.0,0.0011826246,0.5,0.0,0.0,-0.045081284,-0.0015350836,0.0494442,0.005304478,0.22080992,-0.016908739,-0.013095208,0.08890276,0.029750088,0.06483416,-0.10717511,0.03984284,-0.0021411255,0.067439236,0.081658185,-0.07731257,-0.0007671203,0.013317809,0.12488581,0.23427826,-0.010872475,0.0022478846,0.12167177,0.03169806,-1.0,1.0,1.0,-0.2630356,-0.8055856,-1.0,1.0,1.0,0.25571406,1.0,0.24464513,1.0,-1.0,1.0,1.0,-0.9866149,-1.0,-1.0,1.0,-1.0,-1.0,1.0,-1.0,1.0
2025-07-21 15:54:20.139,2.5000000000000018,2500,125,-0.38915652,-0.19415267,-0.22183971,0.073062584,-0.11596397,-0.17230158,0.068440326,0.09573807,0.020583373,0.0,0.0,0.0,0.0043289396,0.5,0.0,0.0,-0.05023783,0.037586264,0.046853863,-0.0029838074,0.19872172,-0.043179102,0.011033934,0.07917291,0.0022503205,0.06782252,-0.101642594,0.065922484,0.003345038,0.0943024,0.0401065,-0.05132574,-0.05499622,-0.05355292,-0.0021523233,-0.20356682,-0.0710931,0.05698259,-0.018731788,0.02452628,-1.0,1.0,1.0,-0.9866149,-1.0,-1.0,1.0,-1.0,-1.0,1.0,-1.0,1.0,-1.0,-0.122413605,1.0,-0.20118952,-1.0,-0.28015572,1.0,0.2754275,1.0,1.0,0.8332131,1.0
2025-07-21 15:54:20.163,2.520000000000002,2520,126,-0.35016978,-0.09763821,0.059402503,-0.01978115,-0.18462782,-0.07176323,0.06614802,0.052147504,-0.028119637,0.0,0.0,0.0,0.007786445,0.5,0.0,0.0,-0.058149252,0.03109799,0.06980743,-0.017616138,0.15256093,-0.0457439,0.030075874,0.06742264,0.030495746,0.07805321,-0.088823766,0.07664788,-0.0879851,-0.065574154,0.11733039,0.035081696,-0.13822564,-0.028243838,-0.008990905,-0.020804025,0.042809878,-0.029489253,0.112973325,0.04160979,-1.0,-0.122413605,1.0,-0.20118952,-1.0,-0.28015572,1.0,0.2754275,1.0,1.0,0.8332131,1.0,-1.0,1.0,1.0,-1.0,0.65838915,-1.0,-1.0,-1.0,1.0,1.0,-1.0,1.0
2025-07-21 15:54:20.179,2.540000000000002,2540,127,-0.08666799,0.062660165,0.21812946,0.040846936,0.027306572,-0.033140462,0.10773939,0.10300574,0.0044140774,0.0,0.0,0.0,0.010175438,0.5,0.0,0.0,-0.057356406,0.056987837,0.06870507,-0.049106617,0.16047533,-0.06755992,0.0036465349,0.027908618,0.04358593,0.07958112,-0.08974525,0.08097301,0.021098554,0.06954769,-0.046908606,-0.043371722,0.042290125,-0.119877905,-0.078838535,-0.23204212,0.09642496,0.058945343,-0.023797382,0.018086785,-1.0,1.0,1.0,-1.0,0.65838915,-1.0,-1.0,-1.0,1.0,1.0,-1.0,1.0,-1.0,-0.3710838,1.0,-0.64311236,-1.0,0.56667,-1.0,-0.6073003,-1.0,1.0,-0.8398092,1.0
2025-07-21 15:54:20.199,2.560000000000002,2560,128,-0.25930864,-0.06340207,0.20659149,0.057040818,0.19752496,-0.031745475,0.030295003,0.08666401,-0.04127785,0.0,0.0,0.0,0.011400082,0.5,0.0,0.0,-0.07691286,0.040859003,0.086471915,-0.047006667,0.11854108,-0.043225005,-0.015471526,-0.029214613,0.009819772,0.08760454,-0.1121392,0.09597307,0.048035044,0.0024739131,-0.027000632,-0.043021686,-0.15832803,0.018249983,-0.121439554,-0.11353695,-0.11073098,0.06864038,-0.14796206,0.07586516,-1.0,-0.3710838,1.0,-0.64311236,-1.0,0.56667,-1.0,-0.6073003,-1.0,1.0,-0.8398092,1.0,-1.0,1.0,1.0,0.6821268,1.0,-0.61543816,1.0,1.0,-0.86399317,1.0,1.0,1.0
2025-07-21 15:54:20.219,2.580000000000002,2580,129,-0.024276767,0.10689813,0.2055996,-0.10909775,-0.17854574,0.0125781745,0.07300653,0.10079207,0.015089534,0.0,0.0,0.0,0.011488826,0.5,0.0,0.0,-0.087034404,0.07389797,0.10358827,-0.021626517,0.1348982,-0.059358954,-0.00028398674,-0.018018726,-0.0058691446,0.099059045,-0.09200666,0.0938817,0.029479722,0.1593543,0.09290346,0.111437164,0.18504901,0.047418952,0.121976785,0.19973977,-0.12525788,0.07680082,0.14597316,0.05177056,-1.0,1.0,1.0,0.6821268,1.0,-0.61543816,1.0,1.0,-0.86399317,1.0,1.0,1.0,-1.0,-1.0,1.0,-1.0,-1.0,-1.0,1.0,-0.30217135,-1.0,1.0,-1.0,1.0
2025-07-21 15:54:20.239,2.600000000000002,2600,130,-0.30891007,0.08211084,-0.01731151,0.05906676,0.22656196,-0.011183082,0.07965706,0.09490812,0.03052707,0.0,0.0,0.0,0.010759744,0.5,0.0,0.0,-0.10344591,0.0745364,0.10300406,-0.037335377,0.12543662,-0.07019555,0.020254845,-0.002184247,-0.044786982,0.10321296,-0.10575898,0.10486507,-0.025234336,-0.034258623,0.051958695,-0.027961828,-0.13558838,0.034040563,0.019105744,-0.06766892,-0.112077065,-0.044848252,-0.042159695,0.016961526,-1.0,-1.0,1.0,-1.0,-1.0,-1.0,1.0,-0.30217135,-1.0,1.0,-1.0,1.0,-1.0,0.7449714,1.0,-1.0,-1.0,-1.0,1.0,1.0,0.92818975,1.0,0.94865924,1.0
2025-07-21 15:54:20.264,2.620000000000002,2620,131,0.033148006,-0.00758128,0.05360763,-0.0414539,-0.06956748,0.049102042,0.07788034,0.10931257,-0.049743038,0.0,0.0,0.0,0.009656317,0.5,0.0,0.0,-0.09367046,0.067766,0.1070854,-0.073402315,0.039639052,-0.07962683,0.051335394,0.029632248,-0.0020193066,0.10666155,-0.08554432,0.10505729,-0.06308422,0.14475295,-0.009404676,0.005091503,-0.27835676,0.01862807,0.0047818758,0.21258119,0.012404712,0.0009132361,0.10205125,0.016227126,-1.0,0.7449714,1.0,-1.0,-1.0,-1.0,1.0,1.0,0.92818975,1.0,0.94865924,1.0,-1.0,-1.0,1.0,-0.8755647,-0.8600204,-1.0,-0.5583598,-0.40250823,-0.45578122,1.0,-1.0,1.0
2025-07-21 15:54:20.280,2.640000000000002,2640,132,-0.14980604,-0.18574499,-0.18107328,0.18080623,0.2795805,-0.00035727225,0.03107303,0.06909448,-0.025989538,0.0,0.0,0.0,0.009387939,0.5,0.0,0.0,-0.11116573,0.06902393,0.10451024,-0.0904769,-0.041552324,-0.08961441,0.03176656,0.021632345,-0.007210369,0.12437594,-0.0952861,0.110534824,0.012493994,-0.027201917,0.0023281747,0.01891385,-0.1213025,-0.0026277285,-0.028679583,-0.07600612,-0.047708653,-0.008420675,-0.13116458,-0.0040649506,-1.0,-1.0,1.0,-0.8755647,-0.8600204,-1.0,-0.5583598,-0.40250823,-0.45578122,1.0,-1.0,1.0,-1.0,1.0,1.0,0.030325174,0.71826,1.0,1.0,1.0,-1.0,1.0,-1.0,1.0
2025-07-21 15:54:20.300,2.660000000000002,2660,133,-0.054169826,0.02830543,-0.21928395,-0.084496014,0.11859249,-0.06370425,0.09317449,0.07681503,0.04383859,0.0,0.0,0.0,0.008979419,0.5,0.0,0.0,-0.1152873,0.095482595,0.119482175,-0.06388056,-0.034148566,-0.05313811,0.0407646,0.050199606,-0.051227733,0.122079425,-0.1291465,0.122312225,-0.06875127,0.13080929,-0.058934003,0.0084422,-0.008155927,0.123446174,-0.0037314396,0.15725671,-0.07108863,0.011551274,-0.007727368,-0.0064500356,-1.0,1.0,1.0,0.030325174,0.71826,1.0,1.0,1.0,-1.0,1.0,-1.0,1.0,-1.0,-1.0,1.0,-0.15726021,1.0,-1.0,1.0,-1.0,-1.0,1.0,-1.0,1.0
2025-07-21 15:54:20.320,2.680000000000002,2680,134,0.014567778,-0.1560531,-0.023502596,0.009514764,0.22309698,0.049708813,0.041035462,0.13974074,0.017281044,0.0,0.0,0.0,0.0087399995,0.5,0.0,0.0,-0.12405897,0.09148611,0.11287572,-0.062330887,0.008884576,-0.08495929,0.07560355,0.052131604,-0.059675775,0.12686606,-0.15785472,0.12856944,-0.062223252,-0.04700486,-0.027167955,-0.027225796,0.16639403,-0.030680483,0.040874694,-0.10754733,-0.03771328,0.06453738,-0.13036859,0.08380363,-1.0,-1.0,1.0,-0.15726021,1.0,-1.0,1.0,-1.0,-1.0,1.0,-1.0,1.0,-1.0,0.70370424,1.0,-1.0,-1.0,1.0,1.0,1.0,-1.0,1.0,1.0,1.0
2025-07-21 15:54:20.340,2.700000000000002,2700,135,0.06045226,0.044485446,-0.04991614,-0.11855677,-0.12519467,0.12333456,0.040483758,0.0640068,-0.031667143,0.0,0.0,0.0,0.007761021,0.5,0.0,0.0,-0.119473904,0.11276527,0.12409853,-0.08517403,0.019410506,-0.046211198,0.079497896,0.071264125,-0.07467769,0.13443987,-0.16124426,0.1247113,-0.0720426,0.07454856,-0.05894464,-0.10433378,-0.03570405,0.12382061,0.013132289,0.098869406,-0.06714922,-0.055078443,0.16428399,0.060399167,-1.0,0.70370424,1.0,-1.0,-1.0,1.0,1.0,1.0,-1.0,1.0,1.0,1.0,-1.0,-1.0,-0.98213696,1.0,-0.32777014,0.41301924,0.61086637,-1.0,1.0,-1.0,-0.583651,1.0
2025-07-21 15:54:20.364,2.720000000000002,2720,136,-0.27715802,0.09537588,0.13362841,-0.01675511,0.22327013,-0.119983114,0.009288391,0.090256244,0.0011409343,0.0,0.0,0.0,0.006038547,0.5,0.0,0.0,-0.13440947,0.1185816,0.07068348,-0.083886735,-0.011053526,-0.03865007,0.089775756,0.044988994,-0.03147088,0.110416,-0.16370888,0.13633375,-0.04507689,-0.07332158,-0.16411297,0.046050433,-0.13198154,-0.041938756,0.043932945,-0.115283184,0.15066361,-0.109451756,-0.011316999,-0.040396646,-1.0,-1.0,-0.98213696,1.0,-0.32777014,0.41301924,0.61086637,-1.0,1.0,-1.0,-0.583651,1.0,1.0,1.0,-1.0,0.30623633,1.0,1.0,-1.0,-1.0,1.0,1.0,1.0,-1.0
2025-07-21 15:54:20.380,2.740000000000002,2740,137,-0.16797888,-0.02871756,-0.045768704,-0.37596,0.08154545,0.026055573,-0.035660014,0.09003709,0.004493979,0.0,0.0,0.0,0.0064161844,0.5,0.0,0.0,-0.08371813,0.16240779,0.02703465,-0.061197113,0.0061468068,-0.016421068,0.05699731,-0.030810371,-0.006102831,0.1153171,-0.11918151,0.09113578,0.17598806,0.07902118,-0.05055925,-0.023063553,0.107451074,0.11438246,-0.14393793,-0.18901353,0.14334987,-0.006170885,0.19126415,-0.048472077,1.0,1.0,-1.0,0.30623633,1.0,1.0,-1.0,-1.0,1.0,1.0,1.0,-1.0,1.0,1.0,-1.0,1.0,-1.0,1.0,-1.0,-1.0,1.0,1.0,1.0,-1.0
2025-07-21 15:54:20.400,2.760000000000002,2760,138,-0.01881145,0.32529345,-0.33695555,-0.56298745,0.15816563,-0.13862748,-0.043918826,0.0760437,0.036334027,0.0,0.0,0.0,0.0061629373,0.5,0.0,0.0,-0.034640327,0.19884507,0.0077015427,-0.019822676,-0.008574608,0.012739389,0.013121055,-0.09464133,0.023292169,0.13276178,-0.013007516,0.041163344,0.15449268,0.061384197,-0.028448286,0.02613287,-0.0006252196,0.059080537,-0.04906359,-0.21586528,0.049449265,-0.019208552,0.19621268,-0.1439782,1.0,1.0,-1.0,1.0,-1.0,1.0,-1.0,-1.0,1.0,1.0,1.0,-1.0,1.0,1.0,-1.0,1.0,1.0,1.0,-1.0,-1.0,1.0,-1.0,1.0,-1.0
2025-07-21 15:54:20.420,2.780000000000002,2780,139,0.07391343,0.3155362,-0.6174111,-0.6708003,-0.04492534,-0.12441875,-0.041051842,0.06358416,0.031700514,0.0,0.0,0.0,0.0061930586,0.5,0.0,0.0,0.00068212464,0.23168662,-0.019799722,0.017904816,0.013653627,0.029712243,-0.008744407,-0.15612495,0.05532722,0.09036198,0.06140622,0.009720357,0.1331594,0.03594972,-0.026863907,0.0054587647,0.06205184,0.024658581,-0.044914726,-0.20202455,-0.021060219,-0.07609945,0.1873777,-0.10923657,1.0,1.0,-1.0,1.0,1.0,1.0,-1.0,-1.0,1.0,-1.0,1.0,-1.0,1.0,-1.0,-1.0,1.0,1.0,1.0,-1.0,-1.0,1.0,-1.0,0.8221282,-1.0
2025-07-21 15:54:20.441,2.800000000000002,2800,140,-0.275686,0.22789834,-0.33350176,-0.14245102,-0.04996693,0.11965058,-0.062280353,0.048145022,0.009312069,0.0,0.0,0.0,0.007173205,0.5,0.0,0.0,0.026902456,0.20559399,-0.04562791,0.025673874,0.07811315,0.052141845,-0.032611676,-0.18860741,0.07219322,0.0371995,0.10943928,-0.021012997,0.04773375,-0.19113143,-0.043964222,0.04586194,0.20121041,0.078340515,-0.09064292,-0.046236333,0.043469135,-0.04718617,0.10604209,-0.08838319,1.0,-1.0,-1.0,1.0,1.0,1.0,-1.0,-1.0,1.0,-1.0,0.8221282,-1.0,1.0,1.0,0.7479776,1.0,-1.0,1.0,-1.0,0.8184937,1.0,-0.2626735,-1.0,-1.0
2025-07-21 15:54:20.464,2.820000000000002,2820,141,-0.0035091578,0.10446395,-0.04679752,-0.09227117,-0.067296,-0.2394265,-0.041251283,-0.017354863,-0.018665396,0.0,0.0,0.0,0.006223645,0.5,0.0,0.0,0.03562048,0.19857861,-0.035322618,0.03927389,0.10619968,0.07469505,-0.026579976,-0.1896293,0.0613589,0.018641511,0.09558459,-0.040533174,-0.0072103897,0.11735616,0.04966392,-0.01601656,-0.033951737,0.051245775,-0.0077067167,0.014701234,0.0060638026,-0.024419568,-0.19092213,-0.06332149,1.0,1.0,0.7479776,1.0,-1.0,1.0,-1.0,0.8184937,1.0,-0.2626735,-1.0,-1.0,-0.73028195,-1.0,-1.0,1.0,1.0,1.0,-1.0,-1.0,1.0,-1.0,1.0,-1.0
2025-07-21 15:54:20.481,2.840000000000002,2840,142,-0.10785248,-0.040814675,0.046563007,0.15280738,-0.119342476,0.06332858,-0.03207254,0.025966635,0.04687295,0.0,0.0,0.0,0.008260657,0.5,0.0,0.0,0.021318723,0.19815148,-0.057130042,0.038586617,0.12735398,0.07885491,-0.05407548,-0.18812068,0.083776556,-0.00048227017,0.080708176,-0.056441363,-0.14199309,-0.022479136,0.026784396,0.07122786,0.18874583,-0.0597557,-0.012509104,0.049214274,0.009548832,-0.09192332,0.17888659,-0.0721583,-0.73028195,-1.0,-1.0,1.0,1.0,1.0,-1.0,-1.0,1.0,-1.0,1.0,-1.0,1.0,-1.0,-1.0,1.0,-1.0,1.0,-1.0,-0.11495826,1.0,-0.72440064,-1.0,-1.0
2025-07-21 15:54:20.500,2.860000000000002,2860,143,0.1182359,0.11801164,0.26031527,0.023457661,0.16880143,-0.14003424,-0.085725844,0.018771566,0.024705358,0.0,0.0,0.0,0.009937472,0.5,0.0,0.0,0.04141514,0.12309583,-0.074050084,0.07042601,0.13232374,0.0948422,-0.061998323,-0.17100486,0.08882177,-0.016341789,0.069883496,-0.08531175,0.05311348,-0.24564776,0.02533681,-0.04279887,-0.019238338,-0.038951274,-0.07613173,0.016952448,-0.012357011,-0.0099103525,-0.1951809,-0.047933396,1.0,-1.0,-1.0,1.0,-1.0,1.0,-1.0,-0.11495826,1.0,-0.72440064,-1.0,-1.0,1.0,-1.0,0.8565128,1.0,-1.0,1.0,-0.5906102,-1.0,1.0,-1.0,1.0,-1.0
2025-07-21 15:54:20.520,2.880000000000002,2880,144,-0.46477902,-0.32732704,0.46866685,0.06390013,0.30304697,0.0022445084,-0.02455557,0.027076535,0.040020026,0.0,0.0,0.0,0.010850821,0.5,0.0,0.0,0.06805458,0.04421874,-0.036859207,0.07576,0.10687368,0.09558921,-0.08414467,-0.1968741,0.09571308,-0.04615084,0.04703729,-0.08264462,0.017200598,-0.24041209,0.029656217,0.07357219,-0.12613395,0.03119254,0.043447763,-0.08476072,0.10515451,0.015054727,0.10621351,0.011148616,1.0,-1.0,0.8565128,1.0,-1.0,1.0,-0.5906102,-1.0,1.0,-1.0,1.0,-1.0,0.13463806,1.0,-1.0,-1.0,1.0,1.0,-1.0,1.0,1.0,1.0,-1.0,1.0
2025-07-21 15:54:20.542,2.900000000000002,2900,145,-0.032576747,0.0538115,0.17102592,0.12349771,0.06317366,-0.092818566,-0.09252187,0.0062851924,0.011257794,0.0,0.0,0.0,0.012686777,0.5,0.0,0.0,0.05295728,0.042622983,-0.06203478,0.03856658,0.12850536,0.10891144,-0.08394656,-0.17307517,0.08843405,-0.016564438,0.023632143,-0.041636523,-0.0041218563,0.13345934,-0.095610216,-0.14249958,0.17375655,0.08187888,-0.056342002,0.13651362,0.038268596,0.13834792,-0.16591191,0.12070068,0.13463806,1.0,-1.0,-1.0,1.0,1.0,-1.0,1.0,1.0,1.0,-1.0,1.0,-1.0,-1.0,1.0,0.49587947,-1.0,0.09061283,-1.0,-1.0,1.0,1.0,1.0,1.0
2025-07-21 15:54:20.564,2.920000000000002,2920,146,-0.12821728,-0.30743143,0.21502827,0.39111632,0.0546315,0.05530514,-0.04118933,0.07885342,-0.010164955,0.0,0.0,0.0,0.013462955,0.5,0.0,0.0,0.027852979,0.02405681,-0.034405924,0.027753467,0.13907969,0.08134505,-0.103207655,-0.18656527,0.10531842,0.01984188,0.028189825,-0.022393864,-0.117598504,-0.031925075,0.08482628,-0.07900893,0.015241092,0.043649737,0.028556624,-0.10110339,-0.028141707,0.1366301,0.11946604,0.032724768,-1.0,-1.0,1.0,0.49587947,-1.0,0.09061283,-1.0,-1.0,1.0,1.0,1.0,1.0,-1.0,1.0,-1.0,-0.3822173,-1.0,1.0,-0.95119756,1.0,1.0,1.0,-0.9736747,1.0
2025-07-21 15:54:20.581,2.940000000000002,2940,147,-0.3893771,-0.27717555,0.19340768,0.2551068,0.070252515,-0.07877454,-0.07665132,0.114865005,0.025503477,0.0,0.0,0.0,0.013865894,0.5,0.0,0.0,-0.0059091304,0.050875094,-0.0547828,0.023043415,0.10826932,0.08985009,-0.108523324,-0.17369933,0.11846097,0.037866723,0.0069793435,0.014542897,-0.06385167,0.097621165,-0.05879122,-0.092965394,-0.17557143,0.027639396,-0.006734814,0.14444537,0.035304394,0.08759799,-0.22093621,0.10705525,-1.0,1.0,-1.0,-0.3822173,-1.0,1.0,-0.95119756,1.0,1.0,1.0,-0.9736747,1.0,-0.12200333,-1.0,-1.0,1.0,1.0,1.0,-1.0,-1.0,0.7641256,1.0,1.0,1.0
2025-07-21 15:54:20.601,2.960000000000002,2960,148,-0.12857701,-0.27298367,-0.18671869,-0.08299856,-0.05482764,0.021224026,-0.017155763,0.111302994,0.04413603,0.0,0.0,0.0,0.014406297,0.5,0.0,0.0,-0.0061434787,0.052675027,-0.069267794,0.035916433,0.10191096,0.098700054,-0.11932309,-0.19165005,0.11113289,0.073059104,-0.0034015146,0.040601607,-0.014720294,-0.06929122,-0.025535814,0.09168991,0.04714574,0.03211482,-0.057166178,-0.121906415,-0.023078961,-0.0142372595,0.1891647,0.04960969,-0.12200333,-1.0,-1.0,1.0,1.0,1.0,-1.0,-1.0,0.7641256,1.0,1.0,1.0,1.0,1.0,-1.0,-1.0,-1.0,1.0,-1.0,1.0,1.0,1.0,-1.0,1.0
2025-07-21 15:54:20.621,2.980000000000002,2980,149,-0.19247459,-0.04529612,-0.29574028,-0.047986425,0.05241078,-0.04041443,-0.009224293,0.042140022,-0.025635978,0.0,0.0,0.0,0.014771418,0.5,0.0,0.0,0.02597618,0.05908814,-0.09375575,0.01689222,0.104246944,0.10694492,-0.13242331,-0.18564294,0.122653686,0.07825391,-0.003459423,0.053519145,0.06705975,0.19686271,-0.082892835,0.00065302773,-0.07867081,-0.034930002,0.040693264,0.14681068,-0.0022542214,0.04638276,-0.09797243,0.10895363,1.0,1.0,-1.0,-1.0,-1.0,1.0,-1.0,1.0,1.0,1.0,-1.0,1.0,0.39477202,-1.0,-1.0,1.0,0.5576049,1.0,-1.0,-1.0,1.0,1.0,1.0,0.8187027
2025-07-21 15:54:20.646,3.000000000000002,3000,150,-0.070387386,-0.12653725,0.054487195,-0.02391762,0.16332252,0.0925123,-0.08425365,0.023457732,-0.024961764,0.0,0.0,0.0,0.015145439,0.5,0.0,0.0,0.025850365,0.05924678,-0.087207146,0.027877457,0.1287967,0.11761064,-0.1338721,-0.16012031,0.113692954,0.109929636,0.007904199,0.061093904,-0.025785405,-0.08304352,-0.09595076,0.022885777,-0.0052123778,-0.050788462,0.056127205,-0.027811633,0.07480893,0.041057676,0.08264051,0.066511214,0.39477202,-1.0,-1.0,1.0,0.5576049,1.0,-1.0,-1.0,1.0,1.0,1.0,0.8187027,1.0,1.0,-1.0,1.0,-1.0,1.0,-1.0,0.2626131,1.0,-0.9633559,-1.0,-1.0
2025-07-21 15:54:20.665,3.0200000000000022,3020,151,-0.16084005,0.07311215,-0.41867515,-0.17131865,0.20364702,-0.18970142,-0.103016466,0.08253499,0.01003628,0.0,0.0,0.0,0.014431965,0.5,0.0,0.0,0.051746897,0.05956492,-0.10316496,0.04644632,0.1168618,0.1142189,-0.12665515,-0.13205232,0.13109812,0.06549984,-0.00875341,0.036138907,0.116148494,0.17486498,0.040290546,0.1324042,0.020268613,0.00512581,-0.04386329,0.0917674,0.05653013,-0.15988274,-0.16112567,-0.056772966,1.0,1.0,-1.0,1.0,-1.0,1.0,-1.0,0.2626131,1.0,-0.9633559,-1.0,-1.0,1.0,-1.0,-1.0,1.0,-1.0,1.0,-1.0,-1.0,1.0,-1.0,1.0,-1.0
2025-07-21 15:54:20.681,3.0400000000000023,3040,152,-0.13117442,0.018361712,-0.4284001,-0.01734274,0.2943055,-0.03440588,-0.070014246,0.11721387,0.005090678,0.0,0.0,0.0,0.01585945,0.5,0.0,0.0,0.08042897,0.032938916,-0.12361965,0.06571941,0.087093145,0.115977086,-0.13375436,-0.13429223,0.13377683,0.039862238,-0.02609539,0.008792451,0.050476365,-0.13850947,-0.0062521067,0.0055460334,-0.037393324,-0.01709291,-0.01805244,0.00790586,0.063412294,-0.09740516,0.12985854,-0.005297486,1.0,-1.0,-1.0,1.0,-1.0,1.0,-1.0,-1.0,1.0,-1.0,1.0,-1.0,1.0,1.0,0.33999068,1.0,0.5491522,1.0,-1.0,-1.0,1.0,1.0,0.13764612,-1.0
2025-07-21 15:54:20.701,3.0600000000000023,3060,153,0.13966095,0.20984529,0.11529479,-0.007819668,0.19021586,-0.03625254,-0.06128565,0.06353984,-0.03418785,0.0,0.0,0.0,0.017570067,0.5,0.0,0.0,0.09430497,0.013694443,-0.08848246,0.06789289,0.108569905,0.123941645,-0.1322979,-0.17385757,0.14343968,0.0545305,0.002984711,-0.018246168,0.095676586,0.052684024,-0.006296762,0.07450511,0.10354426,0.004475248,-0.0054850527,-0.0016190173,0.07249565,0.07450866,0.033194393,-0.016076434,1.0,1.0,0.33999068,1.0,0.5491522,1.0,-1.0,-1.0,1.0,1.0,0.13764612,-1.0,-1.0,-1.0,-1.0,1.0,-1.0,1.0,-1.0,-1.0,1.0,-1.0,-0.04159339,-1.0
2025-07-21 15:54:20.721,3.0800000000000023,3080,154,-0.47343752,0.21798545,0.21631263,0.061764404,0.16791344,0.07774536,-0.06870173,0.13349755,0.00023888788,0.0,0.0,0.0,0.017954841,0.5,0.0,0.0,0.08097584,0.0030740686,-0.1119727,0.074212395,0.09183922,0.11461587,-0.14525375,-0.2073448,0.13907366,0.02627027,0.0010700386,-0.037723657,-0.082210995,-0.07474208,-0.04437463,-0.042344883,-0.094992764,-0.04792665,-0.019081729,-0.033147037,0.05255927,-0.11037657,-0.043208145,0.016108977,-1.0,-1.0,-1.0,1.0,-1.0,1.0,-1.0,-1.0,1.0,-1.0,-0.04159339,-1.0,1.0,0.37981573,-1.0,1.0,1.0,1.0,-1.0,0.7296041,1.0,-0.9300053,1.0,-1.0
2025-07-21 15:54:20.747,3.1000000000000023,3100,155,-0.06591349,0.18868217,-0.34077612,-0.3367784,-0.12508376,-0.056288544,-0.12091347,0.1037353,-0.03821638,0.0,0.0,0.0,0.017301407,0.5,0.0,0.0,0.09558372,-0.00073355,-0.11027496,0.07531964,0.11908895,0.1163419,-0.1494961,-0.18656644,0.13388783,-0.01378313,0.049601648,-0.06693975,0.05477535,0.06694565,-0.05847175,-0.033257607,0.1948556,-0.065649405,-0.025016086,0.18546113,0.0392913,-0.017013649,0.12165532,-0.11294091,1.0,0.37981573,-1.0,1.0,1.0,1.0,-1.0,0.7296041,1.0,-0.9300053,1.0,-1.0,1.0,-1.0,-0.20685494,1.0,-1.0,1.0,-1.0,-1.0,1.0,-1.0,-0.92534626,-1.0
2025-07-21 15:54:20.764,3.1200000000000023,3120,156,-0.4518714,0.30710468,0.1043375,-0.068616435,0.19869846,0.014203326,-0.11653225,0.063899614,0.042518787,0.0,0.0,0.0,0.01648588,0.5,0.0,0.0,0.100067906,0.0028958016,-0.11338102,0.10300558,0.12115171,0.13331574,-0.15635051,-0.16545002,0.15022403,-0.027193138,0.04214352,-0.07863959,-0.0069679734,-0.11213514,-0.027145015,-0.014299815,-0.039932393,-0.021796426,-0.06618452,-0.026906317,-0.05501353,0.008485815,-0.09655436,-0.02032474,1.0,-1.0,-0.20685494,1.0,-1.0,1.0,-1.0,-1.0,1.0,-1.0,-0.92534626,-1.0,0.00055472367,0.11424592,-1.0,1.0,1.0,1.0,-1.0,-0.108317465,1.0,-1.0,-0.027455408,-0.29319194
2025-07-21 15:54:20.781,3.1400000000000023,3140,157,0.014348333,0.20493619,0.000111054615,-0.12971479,-0.14127304,0.029842917,-0.17573181,0.085666336,-0.02134215,0.0,0.0,0.0,0.01628898,0.5,0.0,0.0,0.0923345,-0.0032715087,-0.11641549,0.10105671,0.15501045,0.12974018,-0.14812142,-0.16280912,0.15445103,-0.06559023,0.02296505,-0.08165934,0.040848903,0.055061463,0.05282154,0.051737614,0.08471754,0.00707257,-0.06594622,0.007985704,0.015270008,-0.019629072,-0.005405713,0.0339467,0.00055472367,0.11424592,-1.0,1.0,1.0,1.0,-1.0,-0.108317465,1.0,-1.0,-0.027455408,-0.29319194,0.6486932,-1.0,1.0,1.0,-1.0,1.0,-1.0,-1.0,1.0,-1.0,-0.7943037,-1.0
2025-07-21 15:54:20.801,3.1600000000000024,3160,158,-0.39869034,-0.091694154,0.13400523,0.014343504,0.13985786,0.028482117,-0.14872187,0.12403292,-0.0077411663,0.0,0.0,0.0,0.015425041,0.5,0.0,0.0,0.097194366,-0.037751302,-0.073778264,0.110798754,0.16801967,0.13234577,-0.15187952,-0.15571928,0.14489642,-0.06870916,-0.030758243,-0.08064917,0.0041552135,-0.16768251,0.14430569,-0.0015202449,-0.0615851,0.005823709,0.00020928515,-0.06709651,-0.042437684,-0.07723929,-0.22879311,0.011781386,0.6486932,-1.0,1.0,1.0,-1.0,1.0,-1.0,-1.0,1.0,-1.0,-0.7943037,-1.0,-0.25347427,1.0,-1.0,0.20736903,1.0,1.0,-1.0,1.0,1.0,1.0,0.935369,1.0
