openverse-orca/OrcaGym/log/simulation_log_20250606_140959.csv
timestamp,imu_angle_roll,imu_angle_pitch,imu_angle_yaw,imu_angular_velocity_roll,imu_angular_velocity_pitch,imu_angular_velocity_yaw,imu_acc_x,imu_acc_y,imu_acc_z,fl_joint1_pos,fl_joint1_vel,fl_joint1_torque,fl_joint2_pos,fl_joint2_vel,fl_joint2_torque,fl_joint3_pos,fl_joint3_vel,fl_joint3_torque,fr_joint1_pos,fr_joint1_vel,fr_joint1_torque,fr_joint2_pos,fr_joint2_vel,fr_joint2_torque,fr_joint3_pos,fr_joint3_vel,fr_joint3_torque,hl_joint1_pos,hl_joint1_vel,hl_joint1_torque,hl_joint2_pos,hl_joint2_vel,hl_joint2_torque,hl_joint3_pos,hl_joint3_vel,hl_joint3_torque,hr_joint1_pos,hr_joint1_vel,hr_joint1_torque,hr_joint2_pos,hr_joint2_vel,hr_joint2_torque,hr_joint3_pos,hr_joint3_vel,hr_joint3_torque,fl_force_x,fl_force_y,fl_force_z,fr_force_x,fr_force_y,fr_force_z,hl_force_x,hl_force_y,hl_force_z,hr_force_x,hr_force_y,hr_force_z,fl_hip_action,fl_thigh_action,fl_calf_action,fr_hip_action,fr_thigh_action,fr_calf_action,hl_hip_action,hl_thigh_action,hl_calf_action,hr_hip_action,hr_thigh_action,hr_calf_action
2025-06-06 14:09:59.682,0.026030304,0.025643202,-0.02227948,0.037081324,-0.0467178,-0.038502585,-1.8128216,0.5236297,0.0,0.0,0.007603551,0.0020129816,-0.00062839896,0.0020453162,-0.0037551306,0.007089424,0.0020074619,0.007989106,-0.0028530855,0.0065391883,0.009876362,-0.0048582247,0.04917063,0.050722636,-0.042690307,0.03959089,-0.07169503,0.021504827,0.012837883,-0.013908448,0.046628263,0.006501196,-0.015751058,-0.069176316,0.0,0.0,0.0,0.0,0.0,0.0,0.0,0.0,0.0,0.0,0.0,0.0,3.0,2.6233666,-2.571182,2.4662132,1.3424373,-3.0,-3.0,-2.009201,-3.0,3.0,2.4809406,-3.0
2025-06-06 14:09:59.690,0.027213937,0.0018178136,-0.052555665,-0.006773178,-0.02644492,-0.030762604,0.0,0.0,0.0,0.0,0.012428129,0.08893045,-0.06738053,0.01938237,0.048263367,-0.08340315,-0.009904606,-0.06252525,-0.06098716,0.023375519,0.088448174,-0.07684894,0.06095651,0.33130127,-0.23009099,0.11764733,0.14180769,-0.23911215,-0.09305441,-0.1569105,-0.24546699,0.11992615,0.36843255,-0.19457147,3.0,2.6233666,-2.571182,2.4662132,1.3424373,-3.0,-3.0,-2.009201,-3.0,3.0,2.4809406,-3.0,3.0,0.38089785,-3.0,3.0,0.91864145,-2.0330212,-3.0,-2.147849,-3.0,-1.0834279,-1.5114856,-3.0
2025-06-06 14:09:59.708,0.00023222958,-0.32221615,0.06082589,-0.038648542,0.022590365,-0.035306513,0.0,0.0,0.0,0.000466018,0.038902067,0.13443665,-0.110950805,0.036545083,0.08223024,-0.123660944,-0.04333964,-0.17154793,-0.15073529,0.049162287,0.092051364,-0.09793002,0.07359156,0.014804266,-0.09013989,0.040905595,-0.039583776,-0.12188151,-0.118156694,-0.3120043,-0.13063021,0.036299683,-0.15366659,0.09797764,3.0,0.38089785,-3.0,3.0,0.91864145,-2.0330212,-3.0,-2.147849,-3.0,-1.0834279,-1.5114856,-3.0,3.0,1.14098,-3.0,3.0,2.130257,-3.0,-3.0,-3.0,-3.0,-3.0,-0.790022,-3.0
2025-06-06 14:09:59.729,-0.09404501,-0.3164883,0.061255597,-0.032909963,0.004128119,-0.009113497,0.0,0.0,0.0,-3.6134104e-05,0.03449602,0.113048464,-0.11025609,0.054659422,0.08059916,-0.15511853,-0.079779655,-0.27110702,-0.17373554,0.043157324,0.04488532,-0.08058833,-0.052437417,-0.07853626,0.054012965,0.027239695,-0.017182857,-0.111307204,-0.020107012,-0.29841194,-0.090801924,0.020327423,-0.177242,0.057049472,3.0,1.14098,-3.0,3.0,2.130257,-3.0,-3.0,-3.0,-3.0,-3.0,-0.790022,-3.0,3.0,-0.14997777,-3.0,3.0,3.0,-3.0,-3.0,-2.3793588,-3.0,-3.0,-0.3126575,-3.0
2025-06-06 14:09:59.749,-0.34748092,-0.2577854,0.019935882,0.013301488,-0.090862766,-0.03811847,0.0,0.0,0.0,-0.0010638805,0.021465339,0.09007245,-0.11852591,0.046193864,0.08409768,-0.17412111,-0.0941655,-0.34745878,-0.22296041,0.019693412,0.027544748,-0.059223447,-0.023356142,-0.03358599,0.06447327,0.0067132534,0.030236011,0.008224239,-0.10279963,-0.20002703,-0.07348293,-0.08506522,-0.0063754353,0.05635717,3.0,-0.14997777,-3.0,3.0,3.0,-3.0,-3.0,-2.3793588,-3.0,-3.0,-0.3126575,-3.0,3.0,-0.6504487,-3.0,3.0,3.0,-3.0,-3.0,-2.3273826,-3.0,-3.0,-0.4727324,-3.0
2025-06-06 14:09:59.769,-0.27215615,-0.24661274,-0.013541927,-0.08079056,-0.05348995,0.038376626,0.0,0.0,0.0,-0.0013772426,0.0008756199,0.07851015,-0.11653957,0.07068379,0.17124061,-0.22061935,-0.11436247,-0.39945528,-0.22498444,0.009333551,0.018493088,-0.0474062,0.04789763,0.011847402,0.010578293,0.086044036,0.25457242,-0.18238206,-0.027515668,-0.09147575,0.051213324,0.028845847,-0.027504433,-0.044349447,3.0,-0.6504487,-3.0,3.0,3.0,-3.0,-3.0,-2.3273826,-3.0,-3.0,-0.4727324,-3.0,3.0,-0.17436764,-3.0,3.0,3.0,-3.0,-3.0,-2.4809828,-3.0,-3.0,-0.5318637,-3.0
2025-06-06 14:09:59.789,-0.2007328,-0.19548096,0.0038111827,-0.11953263,-0.1061788,-0.015621429,0.0,0.0,0.0,-0.0009947448,0.008326892,0.080303974,-0.11045777,0.09076803,0.28427458,-0.25684184,-0.11316827,-0.4244459,-0.22250642,0.009646864,-0.0054431115,-0.066764876,-0.020548861,0.0414523,-0.066572554,0.04055998,0.277966,-0.041044366,-0.012947603,-0.114136025,0.09113964,0.04267145,0.047473002,0.026158925,3.0,-0.17436764,-3.0,3.0,3.0,-3.0,-3.0,-2.4809828,-3.0,-3.0,-0.5318637,-3.0,2.0337012,-0.7592498,-3.0,3.0,3.0,-3.0,-3.0,-2.7640254,-3.0,-3.0,-0.3429651,-3.0
2025-06-06 14:09:59.809,-0.17172366,-0.1488294,0.045549132,-0.100930534,-0.058648016,-0.018022293,0.0,0.0,0.0,-0.0008057758,0.014365458,0.057739686,-0.112662494,0.1016159,0.38858953,-0.28405133,-0.12155457,-0.45569533,-0.19569996,0.0027607037,-0.013758087,-0.059856586,-0.031463504,-0.012642812,-0.030745069,0.04173795,0.29250684,-0.0086738495,0.0039858115,-0.11072019,0.09538828,0.055243738,0.00840036,-0.0032193614,2.0337012,-0.7592498,-3.0,3.0,3.0,-3.0,-3.0,-2.7640254,-3.0,-3.0,-0.3429651,-3.0,-3.0,-0.83346546,-3.0,3.0,3.0,-3.0,-3.0,-3.0,-3.0,-3.0,0.40736791,-3.0
2025-06-06 14:09:59.829,-0.43341747,-0.118817,-0.094065286,-0.16673145,-0.1442522,0.04414796,0.0,0.0,0.0,-0.00062537566,-0.014034201,0.049885385,-0.1266306,0.08990596,0.47240007,-0.30360055,-0.126175,-0.4882904,-0.18823376,-0.0016200594,-0.010815791,-0.091754206,-0.045575604,-0.011065096,-0.053711675,0.049522813,0.18323465,0.00053111906,-0.06938681,-0.115433164,0.05440002,-0.03510114,-0.016028889,0.007577022,-3.0,-0.83346546,-3.0,3.0,3.0,-3.0,-3.0,-3.0,-3.0,-3.0,0.40736791,-3.0,-3.0,0.5762545,-3.0,3.0,3.0,-3.0,-3.0,-3.0,-3.0,-3.0,-1.5405334,-3.0
2025-06-06 14:09:59.852,-0.2734754,-0.143888,-0.008898103,-0.12243946,-0.09288067,-0.034221932,0.0,0.0,0.0,0.0012742045,-0.038257096,0.026885463,-0.12372256,0.1018801,0.5272995,-0.2982005,-0.1446979,-0.50436723,-0.16677745,-0.027592514,-0.010281533,-0.09304384,-0.020783456,-0.105370544,0.000519919,0.02803099,0.033489313,-0.081327036,-0.08877844,-0.10473382,-0.022148093,0.041684613,-0.14115238,-0.06800006,-3.0,0.5762545,-3.0,3.0,3.0,-3.0,-3.0,-3.0,-3.0,-3.0,-1.5405334,-3.0,-3.0,0.9453074,-3.0,3.0,3.0,-3.0,-3.0,-3.0,-3.0,-3.0,-0.58831155,-3.0
2025-06-06 14:09:59.869,-0.19604623,-0.10355495,-0.027272966,-0.20675966,-0.08152275,0.008661702,0.0,0.0,0.0,0.0032965704,-0.04004875,0.023787959,-0.13386084,0.10435036,0.5543752,-0.3078624,-0.15766372,-0.528897,-0.17356344,-0.025454683,-0.033733264,-0.11026962,-0.10268465,-0.03383128,-0.0657698,0.03462021,-0.0039993054,-0.07862838,-0.07278654,-0.09309994,0.008199058,-0.08180739,-0.031373333,-0.10413692,-3.0,0.9453074,-3.0,3.0,3.0,-3.0,-3.0,-3.0,-3.0,-3.0,-0.58831155,-3.0,-3.0,0.3710743,-3.0,3.0,3.0,-3.0,-3.0,-3.0,-3.0,-3.0,-0.9522569,-3.0
2025-06-06 14:09:59.889,-0.09819951,-0.104020685,-0.018712915,-0.15244354,-0.10732572,0.024948373,0.0,0.0,0.0,0.0047774734,-0.055486668,-0.0046038027,-0.14933354,0.097954415,0.5574235,-0.32183257,-0.14484115,-0.5604009,-0.17947732,-0.03129068,-0.034554496,-0.12660608,-0.035089526,0.02616139,0.0071830433,0.05289692,0.0642319,-0.0063716485,-0.012251978,-0.09164209,-0.012951522,0.031176759,0.046144687,0.038684886,-3.0,0.3710743,-3.0,3.0,3.0,-3.0,-3.0,-3.0,-3.0,-3.0,-0.9522569,-3.0,-3.0,0.20413527,-3.0,3.0,3.0,-3.0,-3.0,-3.0,-3.0,-3.0,-0.5722617,-3.0
2025-06-06 14:09:59.910,-0.17384686,-0.048397854,0.014845032,-0.14592978,-0.10535962,-0.034727946,0.0,0.0,0.0,0.005956224,-0.05481752,-0.018439593,-0.16035402,0.10138523,0.56509525,-0.31271085,-0.15424313,-0.57038873,-0.17624743,-0.038154233,-0.043918412,-0.13993615,-0.04357232,-0.022244418,-0.010419533,-0.059138007,-0.036625907,-0.010127637,0.0029772695,0.021950642,-0.049706236,-0.06714437,0.03145535,0.03329866,-3.0,0.20413527,-3.0,3.0,3.0,-3.0,-3.0,-3.0,-3.0,-3.0,-0.5722617,-3.0,-3.0,-0.13356689,-3.0,3.0,3.0,-3.0,-3.0,-3.0,-3.0,-3.0,-0.45150468,-3.0
2025-06-06 14:09:59.929,-0.13797294,-0.0010619696,-0.030896436,-0.2249867,-0.0796157,-0.011876451,0.0,0.0,0.0,0.00715434,-0.07169124,-0.029203476,-0.15648314,0.10693871,0.5824375,-0.32260716,-0.15732493,-0.57913387,-0.19512309,-0.042059425,-0.04516782,-0.15256175,-0.091448955,-0.011299474,-0.059256237,0.05829603,0.080282114,0.019614799,0.006130905,-0.09402733,-0.037831377,0.02877779,-0.002892655,0.0011972638,-3.0,-0.13356689,-3.0,3.0,3.0,-3.0,-3.0,-3.0,-3.0,-3.0,-0.45150468,-3.0,-3.0,0.1163095,-3.0,3.0,3.0,-3.0,-3.0,-3.0,-3.0,-3.0,-0.7301595,-3.0
2025-06-06 14:09:59.952,-0.09799995,0.052197006,-0.067461185,-0.20804769,-0.1175011,-0.0368594,0.0,0.0,0.0,0.008662746,-0.08837536,-0.036418747,-0.15235338,0.11846135,0.5812871,-0.32356495,-0.15939994,-0.5779641,-0.21291633,-0.048317607,-0.043167766,-0.16469857,-0.00089697697,-0.03404402,-0.0155438995,0.05715536,-0.062098525,-0.030099751,0.0590064,0.051219128,0.011046885,-0.0149729755,-0.040058006,-0.026675578,-3.0,0.1163095,-3.0,3.0,3.0,-3.0,-3.0,-3.0,-3.0,-3.0,-0.7301595,-3.0,-3.0,0.6996231,-3.0,3.0,3.0,-3.0,-3.0,-3.0,-3.0,-3.0,-1.1690389,-3.0
2025-06-06 14:09:59.970,0.002643281,0.059411786,-0.080413,-0.23101996,-0.08220013,0.021529716,0.0,0.0,0.0,0.01016146,-0.0776335,-0.05787681,-0.15679708,0.10160657,0.58354574,-0.31562075,-0.1386693,-0.59705645,-0.22186357,-0.05387309,-0.07277771,-0.1547113,-0.051307835,0.027079064,0.015840368,0.03393498,-0.024338685,-0.037949093,0.05981638,-0.047203127,0.0054122796,0.079454236,-0.110351786,0.0043527135,-3.0,0.6996231,-3.0,3.0,3.0,-3.0,-3.0,-3.0,-3.0,-3.0,-1.1690389,-3.0,-3.0,0.606302,-3.0,3.0,3.0,-3.0,-3.0,-3.0,-3.0,-3.0,-1.1960714,-3.0
2025-06-06 14:09:59.990,0.09742569,-0.01611829,-0.015652686,-0.16000424,-0.11429098,0.0065200934,0.0,0.0,0.0,0.011037945,-0.082746536,-0.063052416,-0.16696759,0.11942178,0.56656027,-0.31538364,-0.14995182,-0.5993838,-0.22694126,-0.036617015,-0.088904716,-0.15724364,-0.00080583,0.0102761155,0.015767066,0.018165894,0.07177516,0.050173145,-0.014947428,0.05348703,0.03495244,-0.016930576,-0.048738685,-0.035173927,-3.0,0.606302,-3.0,3.0,3.0,-3.0,-3.0,-3.0,-3.0,-3.0,-1.1960714,-3.0,-3.0,0.34626707,-3.0,3.0,3.0,-3.0,-3.0,-3.0,-3.0,-3.0,-0.69212055,-3.0
2025-06-06 14:10:00.010,0.04091052,0.052601106,0.026628925,-0.24696128,-0.1422741,-0.037813347,0.0,0.0,0.0,0.011294703,-0.09244532,-0.087072656,-0.17550302,0.11160784,0.58029765,-0.3216692,-0.14850864,-0.58606017,-0.26016244,-0.0384755,-0.09325445,-0.15207033,-0.07712949,-0.020341448,-0.011779435,0.06430662,0.017458582,0.019309666,-0.07324714,0.021908857,-0.06264031,-0.033802163,-0.08833383,-0.02778747,-3.0,0.34626707,-3.0,3.0,3.0,-3.0,-3.0,-3.0,-3.0,-3.0,-0.69212055,-3.0,-3.0,-0.0352818,-3.0,3.0,3.0,-3.0,-3.0,-3.0,-3.0,-3.0,-0.45733938,-3.0
2025-06-06 14:10:00.030,-0.06559457,0.11149853,-0.04845819,-0.17576677,-0.05637009,-0.0044145645,0.0,0.0,0.0,0.011616799,-0.09188644,-0.09662217,-0.16277127,0.11210315,0.5797017,-0.31939057,-0.14769767,-0.58955765,-0.2634562,-0.036103554,-0.0919639,-0.1483632,-0.079352394,-0.06877182,0.057411455,-0.07957185,0.0050837286,-0.011891154,0.03783813,0.047697853,-0.038208265,0.005170813,-0.0644152,-0.0034147305,-3.0,-0.0352818,-3.0,3.0,3.0,-3.0,-3.0,-3.0,-3.0,-3.0,-0.45733938,-3.0,-3.0,0.26925668,-3.0,3.0,3.0,-3.0,-3.0,-3.0,-3.0,-3.0,-1.0601718,-3.0
2025-06-06 14:10:00.053,0.0045299926,0.027269347,-0.03519045,-0.16156413,-0.053457268,-0.027478239,0.0,0.0,0.0,0.01255721,-0.112008706,-0.11027791,-0.15935892,0.103631124,0.5766423,-0.31567094,-0.14509884,-0.59233594,-0.28809083,-0.04659038,-0.10938897,-0.14462918,0.036052343,0.029822445,-0.009805675,0.03791881,-0.0025384095,-0.020955253,-0.006514378,-0.013458888,-0.01170466,0.030340984,0.0031982826,0.026592502,-3.0,0.26925668,-3.0,3.0,3.0,-3.0,-3.0,-3.0,-3.0,-3.0,-1.0601718,-3.0,-3.0,0.36025593,-3.0,3.0,3.0,-3.0,-3.0,-3.0,-3.0,-3.0,-0.9468558,-3.0
2025-06-06 14:10:00.070,0.06792311,0.056283392,-0.05977455,-0.17175648,-0.1386078,0.035146303,0.0,0.0,0.0,0.013657941,-0.10270676,-0.10752203,-0.14366715,0.106675655,0.585887,-0.31705114,-0.1427481,-0.5817532,-0.3003537,-0.0392455,-0.10562407,-0.13509846,-0.071497574,-0.061337292,0.021290118,-0.0738719,0.060832053,0.016995301,0.0074590314,-0.05405639,0.00054653164,0.006641088,-0.019584553,0.08840335,-3.0,0.36025593,-3.0,3.0,3.0,-3.0,-3.0,-3.0,-3.0,-3.0,-0.9468558,-3.0,-3.0,0.30074355,-3.0,3.0,3.0,-3.0,-3.0,-3.0,-3.0,-3.0,-1.0956554,-3.0
2025-06-06 14:10:00.090,0.018413426,0.11635739,-0.08120649,-0.1949623,-0.09151466,0.049836013,0.0,0.0,0.0,0.014688459,-0.11658391,-0.13556375,-0.14319198,0.106372915,0.58545643,-0.32678068,-0.13620962,-0.580303,-0.30137286,-0.0431392,-0.115158655,-0.14391582,-0.0583874,-0.035362303,-0.029108454,-0.019154742,-0.021777486,-0.0065590204,-0.04740944,8.256662e-05,-0.025116082,-0.0026909837,-0.09367167,0.033887323,-3.0,0.30074355,-3.0,3.0,3.0,-3.0,-3.0,-3.0,-3.0,-3.0,-1.0956554,-3.0,-3.0,0.68656874,-3.0,3.0,3.0,-3.0,-3.0,-3.0,-3.0,-3.0,-1.425553,-3.0
2025-06-06 14:10:00.110,0.08361471,0.016676322,-0.035090454,-0.17428303,-0.10997571,0.0039172135,0.0,0.0,0.0,0.015600525,-0.1267287,-0.13837008,-0.15012552,0.109569386,0.57580453,-0.3240329,-0.12211994,-0.5820218,-0.30605692,-0.04943602,-0.14668943,-0.12309295,-0.052614644,0.024600528,-0.018238537,-0.010319707,-0.0553098,-0.056231007,-0.036548354,-0.008068112,0.039297618,-0.009348478,-0.00024236618,-0.011035655,-3.0,0.68656874,-3.0,3.0,3.0,-3.0,-3.0,-3.0,-3.0,-3.0,-1.425553,-3.0,-3.0,0.43023965,-3.0,3.0,3.0,-3.0,-3.0,-3.0,-3.0,-3.0,-0.9897187,-3.0
2025-06-06 14:10:00.130,0.10450618,0.0705156,-0.04009054,-0.16788723,-0.10917907,-0.015069812,0.0,0.0,0.0,0.016053498,-0.11513426,-0.14736582,-0.14487429,0.09259615,0.57634705,-0.33004323,-0.12189637,-0.5809155,-0.31448144,-0.056075353,-0.14904267,-0.113518365,-0.08379633,0.04615669,-0.001221853,0.0041223285,0.07643068,-0.041319184,-0.044374738,0.0745189,-0.06996631,0.060628418,-0.06975326,0.01074967,-3.0,0.43023965,-3.0,3.0,3.0,-3.0,-3.0,-3.0,-3.0,-3.0,-0.9897187,-3.0,-3.0,0.42998978,-3.0,3.0,3.0,-3.0,-3.0,-3.0,-3.0,-3.0,-1.189353,-3.0
2025-06-06 14:10:00.153,0.103842,0.10297053,0.011739462,-0.17854223,-0.12597951,0.021212524,0.0,0.0,0.0,0.016329573,-0.12534672,-0.13529022,-0.16117047,0.10951916,0.5790573,-0.33136442,-0.12171119,-0.56996095,-0.32524794,-0.056093402,-0.14457224,-0.09591147,0.044326678,-0.07072346,-0.048652824,0.045852125,4.850164e-05,0.013796467,-0.019044306,0.052109413,0.07093692,-0.0050387327,-0.007312949,-0.036814746,-3.0,0.42998978,-3.0,3.0,3.0,-3.0,-3.0,-3.0,-3.0,-3.0,-1.189353,-3.0,-3.0,0.3967913,-3.0,3.0,3.0,-3.0,-3.0,-3.0,-3.0,-3.0,-0.48937646,-3.0
2025-06-06 14:10:00.170,0.00504661,0.22462416,-0.055050805,-0.12470389,-0.11503315,-0.021623107,0.0,0.0,0.0,0.01650817,-0.14273407,-0.13898212,-0.15057088,0.11028618,0.5849573,-0.32534128,-0.11509828,-0.55979246,-0.3196678,-0.062447995,-0.1429569,-0.093227245,0.046185475,0.05917597,0.05474222,-0.04120988,0.07861235,0.024975654,0.050567918,-0.040963568,-0.02118477,-0.015718436,0.070428446,-0.07578607,-3.0,0.3967913,-3.0,3.0,3.0,-3.0,-3.0,-3.0,-3.0,-3.0,-0.48937646,-3.0,-3.0,0.23332068,-3.0,3.0,3.0,-3.0,-3.0,-3.0,-3.0,-3.0,-1.0013341,-3.0
2025-06-06 14:10:00.190,0.06841532,0.12985039,0.012393235,-0.14979565,-0.09368005,-0.015970042,0.0,0.0,0.0,0.016945075,-0.14542077,-0.1338535,-0.1511935,0.092590116,0.5724917,-0.32896227,-0.0964136,-0.5658581,-0.3162752,-0.06656994,-0.13892734,-0.102179736,-0.065260306,-0.049596447,0.0018178438,4.3446116e-06,-0.031994786,-0.03301226,0.07991733,0.05935456,0.06932946,-0.006089175,0.05091028,0.017098306,-3.0,0.23332068,-3.0,3.0,3.0,-3.0,-3.0,-3.0,-3.0,-3.0,-1.0013341,-3.0,-3.0,0.017108655,-3.0,3.0,3.0,-3.0,-3.0,-3.0,-3.0,-3.0,-0.33558467,-3.0
2025-06-06 14:10:00.210,0.093647264,0.24888395,-0.05621705,-0.13315475,-0.039343234,-0.00037780954,0.0,0.0,0.0,0.017538195,-0.16095735,-0.14353366,-0.1408763,0.1076807,0.57018733,-0.3250823,-0.090565555,-0.5509861,-0.32014263,-0.06725627,-0.14209504,-0.09932056,-0.05761572,-0.038780198,0.05963555,0.050503206,0.07022622,0.03510431,-0.032098226,0.042360093,1.8614563e-07,0.002754728,-0.002599419,0.016014827,-3.0,0.017108655,-3.0,3.0,3.0,-3.0,-3.0,-3.0,-3.0,-3.0,-0.33558467,-3.0,-3.0,0.36629888,-3.0,3.0,3.0,-3.0,-3.0,-3.0,-3.0,-3.0,-1.284089,-3.0
2025-06-06 14:10:00.230,0.1732517,0.19149008,-0.06808273,-0.13568988,-0.074017085,0.02030972,0.0,0.0,0.0,0.018566463,-0.16824341,-0.14883424,-0.15605827,0.11244646,0.5761633,-0.31567958,-0.10575143,-0.5581636,-0.31157124,-0.065752946,-0.13580954,-0.09113908,0.058572322,-0.05391693,-0.037243485,0.011931361,-0.07405241,-0.03952818,0.025351685,-0.025090119,-0.057510275,-0.017906714,-0.04251424,-0.0062050265,-3.0,0.36629888,-3.0,3.0,3.0,-3.0,-3.0,-3.0,-3.0,-3.0,-1.284089,-3.0,-3.0,0.88597393,-3.0,3.0,3.0,-3.0,-3.0,-3.0,-3.0,-3.0,-1.1052921,-3.0
2025-06-06 14:10:00.253,0.19207844,0.19028655,0.008656352,-0.117047735,-0.009787608,-0.04655269,0.0,0.0,0.0,0.019566003,-0.17126197,-0.13176633,-0.15877107,0.10109619,0.5842621,-0.31830665,-0.10792075,-0.5625261,-0.32299706,-0.062920354,-0.1409241,-0.08802082,0.006416692,0.09049987,0.021226607,-0.044372324,-0.0014080782,0.06727884,-0.036630657,0.05495943,-0.0007637975,-0.036809728,0.06531348,0.06991843,-3.0,0.88597393,-3.0,3.0,3.0,-3.0,-3.0,-3.0,-3.0,-3.0,-1.1052921,-3.0,-3.0,-0.1692523,-3.0,3.0,3.0,-3.0,-3.0,-3.0,-3.0,-3.0,-0.60635316,-3.0
2025-06-06 14:10:00.271,0.11425356,0.2780586,-0.05457568,-0.13000527,-0.038074885,0.009660596,0.0,0.0,0.0,0.02014935,-0.17127904,-0.12095601,-0.16393866,0.112705484,0.5687062,-0.3185528,-0.109568514,-0.54970884,-0.32097256,-0.06524661,-0.12719142,-0.07768092,0.006616971,0.04961014,-0.024417449,-0.02617967,0.031803846,-0.032329552,-0.028695442,-0.07275134,-0.05970373,-0.049957428,0.05946332,-0.024015166,-3.0,-0.1692523,-3.0,3.0,3.0,-3.0,-3.0,-3.0,-3.0,-3.0,-0.60635316,-3.0,-3.0,0.43104312,-3.0,3.0,3.0,-3.0,-3.0,-3.0,-3.0,-3.0,-1.1422186,-3.0
2025-06-06 14:10:00.291,0.14247574,0.2549343,0.021864926,-0.09961373,0.032678667,-0.04631336,0.0,0.0,0.0,0.020896196,-0.18148327,-0.13011661,-0.15205956,0.10032776,0.56609476,-0.32162818,-0.10880528,-0.5567694,-0.3259955,-0.071597435,-0.12760851,-0.08552109,0.055103116,0.053805634,0.0035093029,0.0035555286,-0.041700076,0.11478483,0.0315625,0.024670321,-0.062134683,-0.026779205,-0.031937174,0.016193718,-3.0,0.43104312,-3.0,3.0,3.0,-3.0,-3.0,-3.0,-3.0,-3.0,-1.1422186,-3.0,-3.0,0.068900324,-3.0,3.0,3.0,-3.0,-3.0,-3.0,-3.0,-3.0,-0.30136725,-3.0
2025-06-06 14:10:00.311,0.110142365,0.19160756,-0.037294917,-0.0014516916,0.03778603,-0.010671036,0.0,0.0,0.0,0.021638785,-0.17920049,-0.12410112,-0.17464851,0.097870976,0.56975347,-0.27276635,-0.09814788,-0.55513394,-0.32447362,-0.074623555,-0.120001875,-0.08063529,-0.06202984,0.036712248,-0.074823864,0.056175478,-0.040283255,0.055784766,0.060418792,0.02185054,0.038403608,-0.036428064,-0.021659253,-0.044918906,-3.0,0.068900324,-3.0,3.0,3.0,-3.0,-3.0,-3.0,-3.0,-3.0,-0.30136725,-3.0,-3.0,0.01518867,-3.0,3.0,3.0,-3.0,-3.0,-3.0,-3.0,-3.0,-0.77092254,-3.0
2025-06-06 14:10:00.371,0.04787071,0.086084746,-0.06261861,-0.04323526,0.07108463,-0.025208851,0.0,0.0,0.0,0.02247379,-0.18715529,-0.12112548,-0.17771706,0.10591884,0.5460237,-0.23478398,-0.10281733,-0.54695195,-0.3197414,-0.070061944,-0.113099664,-0.08305427,-0.028539438,0.008229075,0.0072694896,-0.08043893,0.009913858,0.159089,-0.072638065,0.019257164,0.023946619,0.045697894,-0.042965915,-0.064566985,-3.0,0.01518867,-3.0,3.0,3.0,-3.0,-3.0,-3.0,-3.0,-3.0,-0.77092254,-3.0,-3.0,0.21670255,-3.0,3.0,3.0,-3.0,-3.0,-3.0,-3.0,-3.0,-1.0473087,-3.0
2025-06-06 14:10:00.391,0.04243214,0.09947404,0.027663803,-0.05913422,0.0055921357,0.033041514,0.0,0.0,0.0,0.0231541,-0.19404623,-0.116459325,-0.18112151,0.09016769,0.5363382,-0.21892299,-0.11519629,-0.55016327,-0.32401493,-0.07997546,-0.121944614,-0.08676929,-0.012656609,-0.017277192,-0.056824084,0.07179301,-0.08187705,0.059139766,0.053689133,-0.072721295,0.026706327,-0.055533137,-0.049903218,0.041571304,-3.0,0.21670255,-3.0,3.0,3.0,-3.0,-3.0,-3.0,-3.0,-3.0,-1.0473087,-3.0,-3.0,-0.1545991,-3.0,3.0,3.0,-3.0,-3.0,-3.0,-3.0,-3.0,-0.26208618,-3.0
2025-06-06 14:10:00.412,0.049719818,0.11913669,-0.0030371577,-0.0030484875,0.029920418,0.035059046,0.0,0.0,0.0,0.023309523,-0.20053008,-0.09109583,-0.19783235,0.10067059,0.5416085,-0.20298171,-0.09726719,-0.5580855,-0.32177126,-0.08867062,-0.11499851,-0.08974604,0.015055377,-0.034231182,-0.006080035,-0.05615805,-0.005991975,0.012882253,0.04636157,-0.04532119,0.06264337,-0.068820044,0.007097521,-0.0976473,-3.0,-0.1545991,-3.0,3.0,3.0,-3.0,-3.0,-3.0,-3.0,-3.0,-0.26208618,-3.0,-3.0,-0.14972284,-3.0,3.0,3.0,-3.0,-3.0,-3.0,-3.0,-3.0,-0.3373041,-3.0
2025-06-06 14:10:00.431,0.016853647,0.093078725,0.031584483,-0.07070908,0.0792015,0.008431181,0.0,0.0,0.0,0.023305988,-0.21556051,-0.08498983,-0.21986233,0.09820725,0.5312516,-0.18671927,-0.110094905,-0.5651283,-0.32280585,-0.10241613,-0.112615414,-0.10714319,-0.08891125,0.022692759,0.025946852,0.01894093,0.026153425,-0.05134659,0.0052218367,0.03487845,0.011296004,0.018702405,0.040157158,0.033267327,-3.0,-0.14972284,-3.0,3.0,3.0,-3.0,-3.0,-3.0,-3.0,-3.0,-0.3373041,-3.0,-3.0,-0.3259541,-3.0,3.0,3.0,-3.0,-3.0,-3.0,-3.0,-3.0,-0.47438553,-3.0
2025-06-06 14:10:00.453,0.023554763,0.039722834,0.017501151,0.025233263,0.033855505,-0.024470454,0.0,0.0,0.0,0.023279717,-0.2255384,-0.083459824,-0.2152482,0.10379006,0.5448103,-0.18472435,-0.108654864,-0.55786765,-0.31736532,-0.09490283,-0.108750045,-0.107662864,-0.023179071,-0.0041660364,-0.037341557,-0.06904964,0.031363457,-0.010339993,0.06555089,0.06491812,0.025594678,0.034162074,0.03792719,-0.029838972,-3.0,-0.3259541,-3.0,3.0,3.0,-3.0,-3.0,-3.0,-3.0,-3.0,-0.47438553,-3.0,-3.0,-0.19055071,-3.0,3.0,3.0,-3.0,-3.0,-3.0,-3.0,-3.0,-0.21106914,-3.0
2025-06-06 14:10:00.472,-0.0063652163,0.066187836,-0.03846398,-0.061962616,0.053563412,0.016156377,0.0,0.0,0.0,0.023190502,-0.22544216,-0.08363917,-0.2224921,0.10935666,0.5432259,-0.18787773,-0.11163995,-0.5512027,-0.31382793,-0.1079523,-0.09368989,-0.109806456,-0.008360999,0.00068811415,0.017119296,-0.020447522,0.026976109,-0.050996788,0.03854619,0.07468075,0.024833705,0.02814838,-0.01726473,-0.097752824,-3.0,-0.19055071,-3.0,3.0,3.0,-3.0,-3.0,-3.0,-3.0,-3.0,-0.21106914,-3.0,-3.0,-0.017654682,-3.0,3.0,3.0,-3.0,-3.0,-3.0,-3.0,-3.0,-0.8772545,-3.0
2025-06-06 14:10:00.492,0.05697779,-0.02917321,-0.0101531865,-0.053617522,0.05603302,0.014497096,0.0,0.0,0.0,0.023150139,-0.21532883,-0.091203816,-0.22348526,0.10541084,0.5303807,-0.19536309,-0.107153274,-0.5543406,-0.3127185,-0.09507549,-0.09798686,-0.11868862,0.0231289,0.045140166,0.040475775,-0.01605874,-0.03778802,-0.07658192,-0.024781441,-0.078905806,0.033424176,0.048723247,0.031120548,-0.057724845,-3.0,-0.017654682,-3.0,3.0,3.0,-3.0,-3.0,-3.0,-3.0,-3.0,-0.8772545,-3.0,-3.0,-0.1095381,-3.0,3.0,3.0,-3.0,-3.0,-3.0,-3.0,-3.0,-0.5122179,-3.0
2025-06-06 14:10:00.512,0.0013534405,-0.016711496,0.040551554,-0.06936138,0.017063592,-0.032036163,0.0,0.0,0.0,0.022943176,-0.21262453,-0.09449561,-0.21992446,0.10628187,0.52141404,-0.19684859,-0.106711775,-0.55172586,-0.32722127,-0.095275246,-0.108043365,-0.114306435,-0.06627671,-0.07755527,0.008575902,-0.034323372,0.048732903,-0.0153366225,0.03173814,0.045510277,0.06665954,0.016901568,0.013609386,0.06042638,-3.0,-0.1095381,-3.0,3.0,3.0,-3.0,-3.0,-3.0,-3.0,-3.0,-0.5122179,-3.0,-3.0,-0.33579376,-3.0,3.0,3.0,-3.0,-3.0,-3.0,-3.0,-3.0,-0.24880084,-3.0
2025-06-06 14:10:00.532,-0.08406761,-0.006071526,0.006667467,-0.022945376,0.074161954,0.020616133,0.0,0.0,0.0,0.022701548,-0.21613206,-0.09229254,-0.2144935,0.11593846,0.5364206,-0.20232977,-0.09610609,-0.55664176,-0.3256291,-0.09830447,-0.09561964,-0.13538454,-0.045126908,0.008620322,0.062842436,-0.015831303,0.06185055,-0.045261048,-0.0022510185,-0.009489159,-0.0073568793,-0.06462352,0.08261471,-0.0062695076,-3.0,-0.33579376,-3.0,3.0,3.0,-3.0,-3.0,-3.0,-3.0,-3.0,-0.24880084,-3.0,-3.0,-0.27324274,-3.0,3.0,3.0,-3.0,-3.0,-3.0,-3.0,-3.0,-0.5653397,-3.0
2025-06-06 14:10:00.553,-0.084606655,-0.06695295,-0.030507678,-0.07513246,0.09019592,0.045778297,0.0,0.0,0.0,0.022734884,-0.2310306,-0.095446266,-0.21466948,0.10828732,0.52526516,-0.19329931,-0.115455575,-0.5542638,-0.31357574,-0.094026886,-0.08887882,-0.12966122,-0.030767336,-0.018982228,0.033259194,-0.0633249,-0.013536962,-0.014207617,0.04494017,-0.064612985,0.047976814,0.0562848,0.0702342,0.038052984,-3.0,-0.27324274,-3.0,3.0,3.0,-3.0,-3.0,-3.0,-3.0,-3.0,-0.5653397,-3.0,-3.0,-0.19934824,-3.0,3.0,3.0,-3.0,-3.0,-3.0,-3.0,-3.0,-0.68969524,-3.0
2025-06-06 14:10:00.572,-0.0075759604,-0.02496486,-0.032563776,-0.023982296,0.034793757,0.046623092,0.0,0.0,0.0,0.023006631,-0.21775615,-0.10435608,-0.21930364,0.11551095,0.53923297,-0.20120893,-0.10256539,-0.55766386,-0.3242913,-0.10795753,-0.099944,-0.13739587,0.03333182,0.050461728,-0.051227696,-0.00415521,-0.0183886,0.043724272,0.06578776,0.021225184,-0.04592644,0.0085291425,-0.06749289,0.02050202,-3.0,-0.19934824,-3.0,3.0,3.0,-3.0,-3.0,-3.0,-3.0,-3.0,-0.68969524,-3.0,-3.0,-0.046328805,-3.0,3.0,3.0,-3.0,-3.0,-3.0,-3.0,-3.0,-0.8205571,-3.0
2025-06-06 14:10:00.592,-0.07019296,-0.022803081,-0.04814065,-0.079439886,0.044839613,-0.029761875,0.0,0.0,0.0,0.023418115,-0.21695429,-0.12962578,-0.20474121,0.115485504,0.52229595,-0.20918234,-0.10336999,-0.5543992,-0.32011107,-0.10249643,-0.10707712,-0.1196785,0.0390794,0.05056272,0.041290447,-0.0083968025,0.03138573,-0.079942025,0.042042315,0.017936485,0.0516351,-0.053813618,0.042886503,0.04099793,-3.0,-0.046328805,-3.0,3.0,3.0,-3.0,-3.0,-3.0,-3.0,-3.0,-0.8205571,-3.0,-3.0,-0.0047574285,-3.0,3.0,3.0,-3.0,-3.0,-3.0,-3.0,-3.0,-1.1796758,-3.0
2025-06-06 14:10:00.612,-0.030701866,-0.087768584,-0.0147337755,-0.026358059,0.061760057,0.013520148,0.0,0.0,0.0,0.0238912,-0.22665459,-0.12986442,-0.21318117,0.11672345,0.5253076,-0.2224765,-0.103886686,-0.5506903,-0.31730735,-0.09567106,-0.12706575,-0.11603834,-0.019533264,0.041889146,0.021248896,0.043212473,0.03217424,0.011532924,-0.0056800838,-0.039175447,-0.044352207,-0.029650064,-0.072837405,0.0378224,-3.0,-0.0047574285,-3.0,3.0,3.0,-3.0,-3.0,-3.0,-3.0,-3.0,-1.1796758,-3.0,-3.0,-0.012585068,-3.0,3.0,3.0,-3.0,-3.0,-3.0,-3.0,-3.0,-0.8358897,-3.0
2025-06-06 14:10:00.632,-0.08045736,-0.05808249,-0.041338466,-0.03658583,0.047235593,-0.042496867,0.0,0.0,0.0,0.02426978,-0.20773385,-0.13796556,-0.21347655,0.11933632,0.5290182,-0.24056792,-0.1047326,-0.55234396,-0.31616336,-0.089497514,-0.13382503,-0.11220663,-0.02511152,0.031445265,0.06904214,0.04555962,0.026082011,0.035645448,-0.053351283,-0.05791088,-0.035096567,-0.044113055,-0.031936813,-0.023614984,-3.0,-0.012585068,-3.0,3.0,3.0,-3.0,-3.0,-3.0,-3.0,-3.0,-0.8358897,-3.0,-3.0,0.08862803,-3.0,3.0,3.0,-3.0,-3.0,-3.0,-3.0,-3.0,-1.131765,-3.0
2025-06-06 14:10:00.653,-0.07242233,-0.046894565,-0.00026358536,-0.011430587,-0.013061875,0.037550393,0.0,0.0,0.0,0.024705622,-0.21008527,-0.15852356,-0.2026115,0.123885766,0.53010565,-0.25564057,-0.11143182,-0.5642809,-0.3233448,-0.088501655,-0.14529788,-0.11596319,-0.0072326325,0.021928918,0.008113757,0.035592284,0.034657046,-0.014347264,0.008067557,0.02400868,0.01389028,0.06946394,-0.08756706,-0.03139316,-3.0,0.08862803,-3.0,3.0,3.0,-3.0,-3.0,-3.0,-3.0,-3.0,-1.131765,-3.0,-3.0,0.093490936,-3.0,3.0,3.0,-3.0,-3.0,-3.0,-3.0,-3.0,-0.63433635,-3.0
2025-06-06 14:10:00.676,-0.07243741,-0.050467804,-0.01231014,-0.03102064,0.07356656,-0.021445015,0.0,0.0,0.0,0.02515302,-0.22054899,-0.15376218,-0.20448889,0.124529555,0.5236694,-0.2562351,-0.10294439,-0.5497711,-0.3179043,-0.08247611,-0.15450005,-0.1096956,0.0638937,0.021954363,-0.05958389,0.015759539,0.011192166,-0.017932048,0.05375116,-0.03342061,-0.013557658,-0.041954562,0.00439349,0.009836199,-3.0,0.093490936,-3.0,3.0,3.0,-3.0,-3.0,-3.0,-3.0,-3.0,-0.63433635,-3.0,-3.0,-0.08683803,-3.0,3.0,3.0,-3.0,-3.0,-3.0,-3.0,-3.0,-0.7912035,-3.0
2025-06-06 14:10:00.695,-0.016252642,-0.048794456,-0.03766732,-0.045535054,-0.0070811235,-0.049632557,0.0,0.0,0.0,0.025740623,-0.21872836,-0.1634689,-0.19284615,0.12133341,0.5446066,-0.2535194,-0.09480266,-0.5425887,-0.30915198,-0.08338388,-0.14289713,-0.11233709,-0.06710055,-0.087193854,0.04222657,-0.058906242,-0.06173276,-0.076985136,0.032281775,-0.03204617,-0.011221669,0.07348165,0.048019662,-0.045596965,-3.0,-0.08683803,-3.0,3.0,3.0,-3.0,-3.0,-3.0,-3.0,-3.0,-0.7912035,-3.0,-3.0,0.13947317,-3.0,3.0,3.0,-3.0,-3.0,-3.0,-3.0,-3.0,-0.7994932,-3.0
2025-06-06 14:10:00.715,-0.06842237,0.04353764,-0.07735432,-0.05493825,0.074476264,0.043419473,0.0,0.0,0.0,0.026471099,-0.22013243,-0.16925885,-0.18390928,0.12911072,0.53881186,-0.26277882,-0.10338959,-0.54529405,-0.3269423,-0.080253966,-0.14630218,-0.1173281,-0.028041884,-0.013265021,-0.028289855,-0.015652282,-0.02820934,-0.05039608,0.031642683,0.0508063,0.02320329,-0.045079682,-0.056454334,-0.016733125,-3.0,0.13947317,-3.0,3.0,3.0,-3.0,-3.0,-3.0,-3.0,-3.0,-0.7994932,-3.0,-3.0,0.42708322,-3.0,3.0,3.0,-3.0,-3.0,-3.0,-3.0,-3.0,-1.4742509,-3.0
2025-06-06 14:10:00.736,0.043611802,-0.10675101,0.014294034,-0.101939455,0.003621945,0.01019205,0.0,0.0,0.0,0.027215037,-0.20594975,-0.18611442,-0.1847543,0.12360285,0.5388434,-0.27631724,-0.10433683,-0.55318785,-0.31284103,-0.06322022,-0.14758776,-0.11163881,0.012005171,0.014522633,0.03127263,-0.030439667,-0.062060896,-0.018433379,-0.078203395,0.048869576,-0.011211656,-0.048435826,-0.04422623,0.02637989,-3.0,0.42708322,-3.0,3.0,3.0,-3.0,-3.0,-3.0,-3.0,-3.0,-1.4742509,-3.0,-3.0,0.15880594,-3.0,3.0,3.0,-3.0,-3.0,-3.0,-3.0,-3.0,-0.73442686,-3.0
2025-06-06 14:10:00.755,0.018311158,0.0338967,0.028130168,-0.0938977,0.065898195,0.03063115,0.0,0.0,0.0,0.027582899,-0.21113676,-0.18389861,-0.20373796,0.11815575,0.5443143,-0.26533076,-0.09537961,-0.5598985,-0.31183147,-0.05748965,-0.16619568,-0.11386198,-0.026289832,0.06315581,-0.01734873,0.011033913,0.038271233,-0.00163814,0.0749739,-0.024385227,-0.01695141,0.060680736,0.024803588,-0.039521143,-3.0,0.15880594,-3.0,3.0,3.0,-3.0,-3.0,-3.0,-3.0,-3.0,-0.73442686,-3.0,-3.0,-0.26386657,-3.0,3.0,3.0,-3.0,-3.0,-3.0,-3.0,-3.0,-0.24696419,-3.0
2025-06-06 14:10:00.776,-0.049635515,0.046910644,-0.018991487,-0.07782981,0.06568234,-0.006615042,0.0,0.0,0.0,0.027827665,-0.2053712,-0.18774302,-0.18130215,0.11179076,0.54496324,-0.26557723,-0.095083386,-0.55966747,-0.32344198,-0.06780214,-0.14443769,-0.12817234,0.00087382155,0.0049598822,-0.048429444,-0.038532514,-0.058851104,-0.0033817908,0.027548214,0.051337477,0.06917294,-0.02304258,0.057250675,-0.033394307,-3.0,-0.26386657,-3.0,3.0,3.0,-3.0,-3.0,-3.0,-3.0,-3.0,-0.24696419,-3.0,-3.0,-0.08211615,-3.0,3.0,3.0,-3.0,-3.0,-3.0,-3.0,-3.0,-0.8316443,-3.0
2025-06-06 14:10:00.796,-0.030932082,0.04263438,-0.073287845,-0.09837891,0.022887653,-0.009349338,0.0,0.0,0.0,0.028408043,-0.21017864,-0.18852364,-0.18637373,0.12400382,0.5406665,-0.26444405,-0.09702569,-0.550279,-0.31429008,-0.05042453,-0.14511034,-0.12336914,-0.06058171,0.034478907,-0.058724806,-0.0047601564,0.043629203,0.016085831,0.023567587,0.009970733,-0.059933692,0.054614443,0.07474291,0.05416042,-3.0,-0.08211615,-3.0,3.0,3.0,-3.0,-3.0,-3.0,-3.0,-3.0,-0.8316443,-3.0,-3.0,0.15970096,-3.0,3.0,3.0,-3.0,-3.0,-3.0,-3.0,-3.0,-1.3528557,-3.0
2025-06-06 14:10:00.819,0.058383245,-0.07172039,-0.044920832,-0.08355528,0.068855286,0.044230636,0.0,0.0,0.0,0.029052785,-0.21977255,-0.19467126,-0.19340907,0.12944959,0.5553431,-0.27333567,-0.105674505,-0.5535864,-0.31862068,-0.063601024,-0.14110899,-0.11918143,-0.034161936,-0.049746703,0.046099134,-0.014191719,-0.006712264,0.0010572623,-0.08019185,0.012007725,0.0042443825,-0.033754047,-0.07595309,0.019404808,-3.0,0.15970096,-3.0,3.0,3.0,-3.0,-3.0,-3.0,-3.0,-3.0,-1.3528557,-3.0,-3.0,0.449136,-3.0,3.0,3.0,-3.0,-3.0,-3.0,-3.0,-3.0,-1.1768169,-3.0
2025-06-06 14:10:00.837,0.058684986,-0.044069592,0.03230041,-0.042767495,-0.027853897,0.005635752,0.0,0.0,0.0,0.029323228,-0.21330564,-0.18590553,-0.19863947,0.12282835,0.5362911,-0.27181765,-0.10553381,-0.55724317,-0.3211399,-0.050151393,-0.1589789,-0.1152704,0.034704577,0.051659342,-0.06913405,0.015965905,-0.036924873,-0.0070420685,-0.035082467,0.06806734,0.044928905,0.0654682,-0.07513951,-0.05042725,-3.0,0.449136,-3.0,3.0,3.0,-3.0,-3.0,-3.0,-3.0,-3.0,-1.1768169,-3.0,-3.0,-0.03628411,-3.0,3.0,3.0,-3.0,-3.0,-3.0,-3.0,-3.0,-0.29340956,-3.0
2025-06-06 14:10:00.856,-0.049629916,0.014485638,0.01828835,-0.10403275,0.05089863,-0.002659323,0.0,0.0,0.0,0.029169193,-0.20381513,-0.18122922,-0.19004653,0.12328365,0.54597586,-0.2661584,-0.09757128,-0.55567616,-0.3264612,-0.060653977,-0.15981719,-0.13307203,-0.016400501,0.03617636,0.0018215711,-0.061718866,-0.032719247,0.024669541,-0.054706294,-0.041894287,0.002551627,-0.074605614,0.039371826,0.042439364,-3.0,-0.03628411,-3.0,3.0,3.0,-3.0,-3.0,-3.0,-3.0,-3.0,-0.29340956,-3.0,-3.0,-0.33354023,-3.0,3.0,3.0,-3.0,-3.0,-3.0,-3.0,-3.0,-0.71545744,-3.0
2025-06-06 14:10:00.876,-0.0061262874,0.089401856,-0.009255728,-0.10699177,-0.016656678,-0.013971249,0.0,0.0,0.0,0.029143251,-0.21433076,-0.17721048,-0.18787605,0.119325966,0.5511296,-0.256868,-0.09364339,-0.5582184,-0.32004526,-0.06120372,-0.1455736,-0.12047656,-0.055118315,0.022016274,-0.058925804,-0.036728464,0.0028478696,-0.009717092,0.04444304,0.06032459,0.039682083,0.049013954,0.08705103,-0.044435367,-3.0,-0.33354023,-3.0,3.0,3.0,-3.0,-3.0,-3.0,-3.0,-3.0,-0.71545744,-3.0,-3.0,-0.054016136,-3.0,3.0,3.0,-3.0,-3.0,-3.0,-3.0,-3.0,-0.57860136,-3.0
2025-06-06 14:10:00.896,-0.017476587,0.063773684,0.013004162,-0.08759411,-0.004179133,-0.021577809,0.0,0.0,0.0,0.029302938,-0.20966053,-0.19527233,-0.19444239,0.11435651,0.5611651,-0.26464626,-0.09277519,-0.55279326,-0.31446207,-0.061825566,-0.1337156,-0.12978405,0.027576819,-0.024152668,-0.011357087,0.04229341,-0.0075911954,0.05415921,-0.053904988,-0.018865678,-0.035259463,-0.012363825,-0.0232212,-0.036750305,-3.0,-0.054016136,-3.0,3.0,3.0,-3.0,-3.0,-3.0,-3.0,-3.0,-0.57860136,-3.0,-3.0,-0.105050944,-3.0,3.0,3.0,-3.0,-3.0,-3.0,-3.0,-3.0,-0.46377453,-3.0
2025-06-06 14:10:00.919,-0.052161094,0.08139973,-0.020733353,-0.109932944,-0.006967643,0.021600572,0.0,0.0,0.0,0.029542552,-0.20829889,-0.18387891,-0.1939305,0.12585405,0.5503738,-0.25534105,-0.09716978,-0.55063665,-0.32008934,-0.0530209,-0.13222714,-0.14784963,-0.037673917,0.020624753,0.049905565,0.007864352,0.06925101,0.020934027,-0.0122625325,0.070344925,-0.008966029,-0.07045737,0.056904502,0.03912301,-3.0,-0.105050944,-3.0,3.0,3.0,-3.0,-3.0,-3.0,-3.0,-3.0,-0.46377453,-3.0,-3.0,-0.14900771,-3.0,3.0,3.0,-3.0,-3.0,-3.0,-3.0,-3.0,-1.0517051,-3.0
2025-06-06 14:10:00.936,0.03288759,-0.0122401705,0.04598584,-0.105289005,0.071024545,-0.04956112,0.0,0.0,0.0,0.02986406,-0.21990983,-0.19208881,-0.18668003,0.116048016,0.55640286,-0.24742621,-0.10205889,-0.5463942,-0.32248724,-0.069146305,-0.124373645,-0.14039539,-0.014593505,-0.030586118,0.039998326,0.031690508,0.02787123,-0.051483575,-0.072849065,-0.04488441,-0.061784953,0.03438734,-0.037225198,-0.00027692653,-3.0,-0.14900771,-3.0,3.0,3.0,-3.0,-3.0,-3.0,-3.0,-3.0,-1.0517051,-3.0,-3.0,-0.08744433,-3.0,3.0,3.0,-3.0,-3.0,-3.0,-3.0,-3.0,-0.27740315,-3.0
2025-06-06 14:10:00.956,0.01490035,0.061196636,0.011304812,-0.113172404,0.08509561,0.010804729,0.0,0.0,0.0,0.030014059,-0.22810064,-0.17973535,-0.1828931,0.11351341,0.54969466,-0.24457313,-0.095086545,-0.5540858,-0.32720274,-0.069806494,-0.12257328,-0.1499274,-0.009586677,0.061183996,0.041907113,0.019793505,0.0003633595,0.051314484,0.02334365,-0.05158078,-0.047365915,0.05473468,0.011221649,-0.012415869,-3.0,-0.08744433,-3.0,3.0,3.0,-3.0,-3.0,-3.0,-3.0,-3.0,-0.27740315,-3.0,-3.0,-0.25621858,-3.0,3.0,3.0,-3.0,-3.0,-3.0,-3.0,-3.0,-0.48062566,-3.0
2025-06-06 14:10:00.976,-0.047805775,0.040810872,-0.01713466,-0.05685144,0.005536829,-0.006841752,0.0,0.0,0.0,0.03023631,-0.22880778,-0.17356455,-0.19160149,0.11898901,0.550387,-0.24515268,-0.104985766,-0.55850416,-0.3225531,-0.06582879,-0.12769644,-0.13855778,0.037290346,0.037362892,-0.06337546,-0.02420996,-0.040812545,0.045878842,0.027656736,-0.053123057,0.054155298,-0.059932612,-0.041236427,0.0104568545,-3.0,-0.25621858,-3.0,3.0,3.0,-3.0,-3.0,-3.0,-3.0,-3.0,-0.48062566,-3.0,-3.0,-0.14136127,-3.0,3.0,3.0,-3.0,-3.0,-3.0,-3.0,-3.0,-0.65268385,-3.0
2025-06-06 14:10:00.996,0.04449708,0.05660284,-0.01631117,-0.06467544,0.014693809,-0.04092391,0.0,0.0,0.0,0.030584475,-0.23261817,-0.18329608,-0.19966084,0.11803392,0.56051636,-0.25070205,-0.10246225,-0.5535685,-0.31560296,-0.061306097,-0.12688178,-0.14946118,-0.038197324,-0.035020288,-0.045266245,-0.009411086,0.029934775,-0.035728678,0.0173917,-0.008486946,0.04311163,0.07259931,-0.015713843,0.0009266261,-3.0,-0.14136127,-3.0,3.0,3.0,-3.0,-3.0,-3.0,-3.0,-3.0,-0.65268385,-3.0,-3.0,-0.088786505,-3.0,3.0,3.0,-3.0,-3.0,-3.0,-3.0,-3.0,-0.5768062,-3.0
2025-06-06 14:10:01.020,0.021814624,-0.021496037,0.03711125,-0.039898906,0.079556696,-0.046000857,0.0,0.0,0.0,0.030893462,-0.21748997,-0.17930974,-0.18370469,0.11187065,0.56303805,-0.23770863,-0.097117946,-0.5552882,-0.3190633,-0.056228127,-0.12789343,-0.15461911,0.015595825,0.034717593,-0.01380752,0.060056362,0.04125053,-0.0052718474,0.07131835,-0.041901212,-0.002519566,0.0039735464,-0.038451914,-0.011558611,-3.0,-0.088786505,-3.0,3.0,3.0,-3.0,-3.0,-3.0,-3.0,-3.0,-0.5768062,-3.0,-3.0,-0.23720339,-3.0,3.0,3.0,-3.0,-3.0,-3.0,-3.0,-3.0,-0.14696029,-3.0
2025-06-06 14:10:01.038,-0.040122557,0.07003412,0.010929562,-0.07799341,0.013860462,-0.041225307,0.0,0.0,0.0,0.031134035,-0.2273241,-0.1863299,-0.19080193,0.11482888,0.56255597,-0.24389233,-0.099005595,-0.5497023,-0.31903696,-0.057152744,-0.12182373,-0.15528055,-0.020439938,-0.0013379852,-0.053690415,-0.07502995,-0.04150232,0.075828366,0.010642806,-0.0539638,-0.058586232,-0.027683413,0.037534054,0.04371878,-3.0,-0.23720339,-3.0,3.0,3.0,-3.0,-3.0,-3.0,-3.0,-3.0,-0.14696029,-3.0,-3.0,-0.28468254,-3.0,3.0,3.0,-3.0,-3.0,-3.0,-3.0,-3.0,-0.47281137,-3.0
2025-06-06 14:10:01.056,-0.015920576,0.069575116,-0.027758196,-0.045002833,0.026747815,-0.014016668,0.0,0.0,0.0,0.031517874,-0.22962956,-0.18360831,-0.19605088,0.12450496,0.56062955,-0.2435617,-0.10306144,-0.54939103,-0.3122359,-0.06862992,-0.09899631,-0.15672779,-0.038051125,-0.0010958508,0.020616207,0.061372943,0.010070238,-0.0400671,0.023710053,0.049152777,0.011715252,0.0046435553,0.011293261,-0.0033439249,-3.0,-0.28468254,-3.0,3.0,3.0,-3.0,-3.0,-3.0,-3.0,-3.0,-0.47281137,-3.0,-3.0,-0.011085773,-3.0,3.0,3.0,-3.0,-3.0,-3.0,-3.0,-3.0,-0.88155687,-3.0
2025-06-06 14:10:01.138,0.03866917,-0.062259316,0.024689563,-0.079684936,0.058629088,0.011507241,0.0,0.0,0.0,0.03196431,-0.23335586,-0.18139872,-0.19131346,0.112050936,0.57170343,-0.24764523,-0.11153965,-0.56297606,-0.31949276,-0.057272673,-0.1149963,-0.15583226,0.06872472,0.029032372,0.002135861,0.058616247,-0.029311609,-0.04007508,-0.0594015,-0.006297995,0.03201427,-0.04510487,0.01316332,0.085860886,-3.0,-0.011085773,-3.0,3.0,3.0,-3.0,-3.0,-3.0,-3.0,-3.0,-0.88155687,-3.0,-3.0,-0.18507007,-3.0,3.0,3.0,-3.0,-3.0,-3.0,-3.0,-3.0,-0.507311,-3.0
2025-06-06 14:10:01.158,-0.0070831957,-0.022210734,-0.0035181248,-0.056689665,0.036218837,-0.0138286,0.0,0.0,0.0,0.0321676,-0.21996765,-0.17739917,-0.20190202,0.11111263,0.5531929,-0.23655528,-0.10099323,-0.55202323,-0.31323615,-0.055638976,-0.11990919,-0.14235918,-0.075578205,-0.020778738,-0.058205847,-0.039564803,0.0385267,0.02482513,-0.052115325,-0.029225627,0.062107682,0.038066115,0.014703134,0.06680753,-3.0,-0.18507007,-3.0,3.0,3.0,-3.0,-3.0,-3.0,-3.0,-3.0,-0.507311,-3.0,-3.0,-0.2664924,-3.0,3.0,3.0,-3.0,-3.0,-3.0,-3.0,-3.0,-0.6261499,-3.0
2025-06-06 14:10:01.180,-0.038185395,-0.02552203,0.00016051512,-0.033202726,0.07475792,0.010294092,0.0,0.0,0.0,0.032268032,-0.22039105,-0.19605961,-0.19111626,0.112178445,0.5601752,-0.24305615,-0.10400933,-0.5519017,-0.310726,-0.047809396,-0.11944859,-0.13578303,-0.015306215,0.01903899,0.024615726,-0.042961214,0.06385794,-0.05400456,-0.068156935,0.0032126082,0.06596145,0.03629694,-0.003981667,-0.051263686,-3.0,-0.2664924,-3.0,3.0,3.0,-3.0,-3.0,-3.0,-3.0,-3.0,-0.6261499,-3.0,-3.0,-0.10239365,-3.0,3.0,3.0,-3.0,-3.0,-3.0,-3.0,-3.0,-0.5418626,-3.0
2025-06-06 14:10:01.198,-0.03786502,0.036923714,-0.012756294,-0.07084339,0.049436808,0.01153702,0.0,0.0,0.0,0.0323728,-0.22837584,-0.18572167,-0.19419038,0.12025333,0.56359273,-0.2366685,-0.110546164,-0.5542673,-0.3086492,-0.05509804,-0.12053212,-0.14097135,-0.0035289363,-0.041462567,0.06122722,0.013548746,-0.020030221,-0.010223713,0.00443226,-0.020005746,-0.07274835,-0.06304128,-0.055541527,0.06274101,-3.0,-0.10239365,-3.0,3.0,3.0,-3.0,-3.0,-3.0,-3.0,-3.0,-0.5418626,-3.0,-3.0,-0.085497044,-3.0,3.0,3.0,-3.0,-3.0,-3.0,-3.0,-3.0,-0.8522488,-3.0
2025-06-06 14:10:01.220,0.011406689,0.014286392,0.038929045,-0.01707945,0.06253593,0.01936516,0.0,0.0,0.0,0.032483116,-0.23109774,-0.19295186,-0.19670273,0.12433643,0.56252813,-0.24873105,-0.11043598,-0.5646419,-0.3162649,-0.048487797,-0.13336736,-0.13144161,0.064830795,0.011674476,-0.06625301,0.05274652,-0.08076247,0.062260803,-0.0130454935,0.0022440755,-0.033875562,0.0694594,-0.053153012,-0.021081097,-3.0,-0.085497044,-3.0,3.0,3.0,-3.0,-3.0,-3.0,-3.0,-3.0,-0.8522488,-3.0,-3.0,-0.07845976,-3.0,3.0,3.0,-3.0,-3.0,-3.0,-3.0,-3.0,-0.11621204,-3.0
2025-06-06 14:10:01.238,-0.053107686,0.03219198,-0.01637181,-0.082740724,0.03933382,0.0091163535,0.0,0.0,0.0,0.032458987,-0.22163369,-0.19123247,-0.19054277,0.12618478,0.5561118,-0.25086257,-0.10892862,-0.5526688,-0.3111012,-0.064460546,-0.122379206,-0.13438123,0.063442305,-0.00041639592,-0.048793267,0.05626593,0.07966233,0.015249807,-0.035149615,0.072627515,-0.009030094,0.011295496,0.047306165,-0.021930022,-3.0,-0.07845976,-3.0,3.0,3.0,-3.0,-3.0,-3.0,-3.0,-3.0,-0.11621204,-3.0,-3.0,-0.058178686,-3.0,3.0,3.0,-3.0,-3.0,-3.0,-3.0,-3.0,-0.9812583,-3.0
2025-06-06 14:10:01.258,0.0040578344,0.012740642,-0.038221657,-0.027302664,0.0010765829,0.010320294,0.0,0.0,0.0,0.032571115,-0.21965553,-0.18153183,-0.20145698,0.11362381,0.5665426,-0.23642994,-0.09325551,-0.55417097,-0.31017274,-0.06437494,-0.12007195,-0.1346492,-0.028620426,-0.075308114,-0.027010906,-0.01261566,0.064565055,-0.049089607,0.063893914,-0.057936933,0.049274895,0.059957884,-0.029692573,0.023163635,-3.0,-0.058178686,-3.0,3.0,3.0,-3.0,-3.0,-3.0,-3.0,-3.0,-0.9812583,-3.0,-3.0,0.049100615,-3.0,3.0,3.0,-3.0,-3.0,-3.0,-3.0,-3.0,-0.6784115,-3.0
2025-06-06 14:10:01.278,-0.006311217,0.008162154,0.02272641,-0.07739487,0.027400568,-0.018282473,0.0,0.0,0.0,0.03254773,-0.23337598,-0.18512408,-0.1968742,0.12769812,0.56618667,-0.24935791,-0.09330954,-0.5566018,-0.3135386,-0.05134246,-0.13334279,-0.1374859,0.042880777,-0.06757854,0.0072361967,0.04820348,-0.04639352,-0.05656724,0.015012861,0.043869507,0.026833404,-0.02960462,-0.029850103,0.002536029,-3.0,0.049100615,-3.0,3.0,3.0,-3.0,-3.0,-3.0,-3.0,-3.0,-0.6784115,-3.0,-3.0,-0.09845116,-3.0,3.0,3.0,-3.0,-3.0,-3.0,-3.0,-3.0,-0.39266828,-3.0
2025-06-06 14:10:01.298,-0.028131763,0.01856424,-0.010075232,-0.015266096,0.08595447,0.028331736,0.0,0.0,0.0,0.03236094,-0.21878235,-0.19750385,-0.19276059,0.13064058,0.55278635,-0.23537606,-0.102676064,-0.5516543,-0.32380432,-0.048917748,-0.12578431,-0.14433499,0.021028029,0.04672511,-0.0372664,0.009320544,0.0063235676,0.0023687838,-0.024993287,-0.047898546,0.05844404,-0.0035685867,0.051493686,-0.038815025,-3.0,-0.09845116,-3.0,3.0,3.0,-3.0,-3.0,-3.0,-3.0,-3.0,-0.39266828,-3.0,-3.0,-0.19448438,-3.0,3.0,3.0,-3.0,-3.0,-3.0,-3.0,-3.0,-0.6897565,-3.0
2025-06-06 14:10:01.320,0.04801278,0.018267207,-0.035686363,-0.064800665,0.07044834,0.0036963145,0.0,0.0,0.0,0.032235924,-0.22403547,-0.1973653,-0.20709775,0.119405024,0.56100637,-0.24312133,-0.10831488,-0.56068414,-0.3095871,-0.05089367,-0.12591653,-0.14485246,-0.013748152,0.05517815,0.030138664,0.023326408,-0.074865274,-0.030013748,-0.033172898,-0.05434096,-0.0028071122,-0.050145578,0.06549721,-0.013387264,-3.0,-0.19448438,-3.0,3.0,3.0,-3.0,-3.0,-3.0,-3.0,-3.0,-0.6897565,-3.0,-3.0,-0.02356627,-3.0,3.0,3.0,-3.0,-3.0,-3.0,-3.0,-3.0,-0.96846116,-3.0
2025-06-06 14:10:01.338,0.00752631,-0.0678964,0.06420093,-0.07206529,0.004935583,-0.006333304,0.0,0.0,0.0,0.03212426,-0.22552983,-0.19084725,-0.19667597,0.1157547,0.563839,-0.24285762,-0.10634,-0.5600874,-0.30907807,-0.0625561,-0.13324133,-0.14610106,0.002965342,0.012242893,0.0076857773,0.0037048194,0.022385627,-0.0013148048,-0.053085264,-0.028018435,-0.056886923,-0.06772404,0.049316023,-0.009793329,-3.0,-0.02356627,-3.0,3.0,3.0,-3.0,-3.0,-3.0,-3.0,-3.0,-0.96846116,-3.0,-3.0,-0.27391174,-3.0,3.0,3.0,-3.0,-3.0,-3.0,-3.0,-3.0,-0.09345326,-3.0
2025-06-06 14:10:01.358,-0.018868132,0.057672624,0.016816868,-0.076765485,0.088025995,0.040306173,0.0,0.0,0.0,0.031864062,-0.23656547,-0.19261,-0.20692284,0.11705135,0.56270427,-0.24942523,-0.09871581,-0.5530818,-0.32310253,-0.0664124,-0.13373554,-0.13935839,-0.0050888043,-0.057822734,-0.041213654,0.046409756,-0.02830503,0.072818115,0.06271637,-0.052768745,0.07330462,0.060631514,-0.011235438,-0.07162753,-3.0,-0.27391174,-3.0,3.0,3.0,-3.0,-3.0,-3.0,-3.0,-3.0,-0.09345326,-3.0,-3.0,-0.1408805,-3.0,3.0,3.0,-3.0,-3.0,-3.0,-3.0,-3.0,-0.24641863,-3.0
2025-06-06 14:10:01.378,-0.0754721,0.0762706,-0.055814028,-0.069195144,0.0017075012,0.019121919,0.0,0.0,0.0,0.031841613,-0.22431557,-0.18970354,-0.20113878,0.12673539,0.5662598,-0.2361529,-0.10660228,-0.5480498,-0.31478924,-0.063010484,-0.117460854,-0.14928164,-0.049897213,0.022666862,-0.035410948,-0.055740733,0.06038314,0.08090565,-0.032849263,0.074118525,0.027976211,0.070199326,0.08361429,-0.020801488,-3.0,-0.1408805,-3.0,3.0,3.0,-3.0,-3.0,-3.0,-3.0,-3.0,-0.24641863,-3.0,-3.0,-0.12850538,-3.0,3.0,3.0,-3.0,-3.0,-3.0,-3.0,-3.0,-1.1539239,-3.0
2025-06-06 14:10:01.398,0.08171976,-0.049589507,-0.022197302,-0.06635321,0.020043561,-0.030446349,0.0,0.0,0.0,0.03208141,-0.2362157,-0.18909243,-0.19903497,0.12635955,0.55778676,-0.24277137,-0.0931967,-0.5523724,-0.31796286,-0.057836104,-0.11396626,-0.14649999,-0.025121845,-0.037445214,0.06572917,-0.058817945,0.03735826,0.03238904,-0.062444817,-0.072369546,0.07131269,-0.056811225,0.016626254,-0.041386068,-3.0,-0.12850538,-3.0,3.0,3.0,-3.0,-3.0,-3.0,-3.0,-3.0,-1.1539239,-3.0,-3.0,-0.012932325,-3.0,3.0,3.0,-3.0,-3.0,-3.0,-3.0,-3.0,-0.5616367,-3.0
2025-06-06 14:10:01.420,0.041898165,0.037461378,0.045197424,-0.021305026,0.06743804,0.016514048,0.0,0.0,0.0,0.03210331,-0.22020435,-0.1859701,-0.19760932,0.13387121,0.56653464,-0.23530157,-0.103387706,-0.5505496,-0.3209249,-0.053685293,-0.13556422,-0.14941083,-0.0072983443,0.051458195,0.0044362084,-0.008107624,-0.04410671,0.060812518,-0.044039126,-0.044514332,0.037850227,0.031448964,-0.07952106,0.02864287,-3.0,-0.012932325,-3.0,3.0,3.0,-3.0,-3.0,-3.0,-3.0,-3.0,-0.5616367,-3.0,-3.0,-0.31115428,-3.0,3.0,3.0,-3.0,-3.0,-3.0,-3.0,-3.0,-0.27574822,-3.0
2025-06-06 14:10:01.439,-0.002414616,0.06468354,0.032704215,-0.022756862,0.044734456,-0.012270725,0.0,0.0,0.0,0.03202639,-0.2206131,-0.18127435,-0.20270078,0.13237317,0.567529,-0.24027409,-0.105470456,-0.560571,-0.32626322,-0.059809145,-0.11399478,-0.15251292,0.05646859,-0.053874042,0.036747668,0.016179198,-0.06700203,-0.049993295,-0.032307673,0.047500733,0.028935576,-0.06318957,-0.05251225,0.0025741165,-3.0,-0.31115428,-3.0,3.0,3.0,-3.0,-3.0,-3.0,-3.0,-3.0,-0.27574822,-3.0,-3.0,-0.13527468,-3.0,3.0,3.0,-3.0,-3.0,-3.0,-3.0,-3.0,-0.43526015,-3.0
2025-06-06 14:10:01.459,-0.024141876,-0.022723587,-0.057904344,-0.031510126,0.08315601,-0.015217235,0.0,0.0,0.0,0.032144796,-0.23005913,-0.19851163,-0.19460398,0.13109244,0.55255437,-0.23262505,-0.09723758,-0.5462982,-0.31869757,-0.051644422,-0.120297804,-0.15808,0.03737478,0.008329749,-0.05594719,0.020621184,-0.039660025,0.0019583178,0.06289982,-0.005181315,0.016710501,0.07627952,0.035882663,0.044346493,-3.0,-0.13527468,-3.0,3.0,3.0,-3.0,-3.0,-3.0,-3.0,-3.0,-0.43526015,-3.0,-3.0,-0.008052254,-3.0,3.0,3.0,-3.0,-3.0,-3.0,-3.0,-3.0,-1.0851638,-3.0
2025-06-06 14:10:01.479,0.003943065,-0.056235865,0.03129425,-0.09949985,0.08334552,0.031225538,0.0,0.0,0.0,0.032382835,-0.23177856,-0.19062041,-0.19418201,0.12537697,0.56017566,-0.24538232,-0.103543065,-0.55308574,-0.31773213,-0.056374896,-0.1269796,-0.14720018,0.0068654213,0.046102665,-0.04223056,-0.016688893,-0.033684786,-0.0014729757,-0.04713422,-0.07538912,-0.024913715,-0.03291854,-0.051293653,-0.026369719,-3.0,-0.008052254,-3.0,3.0,3.0,-3.0,-3.0,-3.0,-3.0,-3.0,-1.0851638,-3.0,-3.0,-0.15457597,-3.0,3.0,3.0,-3.0,-3.0,-3.0,-3.0,-3.0,-0.30806342,-3.0
2025-06-06 14:10:01.499,-0.03347696,0.054703787,0.020115329,-0.087338515,0.018423274,-0.014276369,0.0,0.0,0.0,0.0323795,-0.23275934,-0.19632578,-0.2044224,0.12510018,0.5534826,-0.23539594,-0.10108319,-0.54731303,-0.3192419,-0.05834866,-0.12760581,-0.14440823,-0.012885923,-0.064524345,0.021285841,0.025166819,0.05807642,0.018246643,-0.020002589,-0.06061337,0.032922376,0.050846096,-0.010702622,-0.019606974,-3.0,-0.15457597,-3.0,3.0,3.0,-3.0,-3.0,-3.0,-3.0,-3.0,-0.30806342,-3.0,-3.0,-0.22162929,-3.0,3.0,3.0,-3.0,-3.0,-3.0,-3.0,-3.0,-0.3630155,-3.0
2025-06-06 14:10:01.519,-0.03282621,-0.011299781,-0.03812217,-0.030297568,0.007782756,0.016207697,0.0,0.0,0.0,0.032402836,-0.22281244,-0.19829026,-0.1870311,0.13271758,0.5534813,-0.24483861,-0.10772443,-0.54530036,-0.32597908,-0.05088527,-0.11460447,-0.1457451,0.01414594,0.06766882,0.002294521,-0.06552298,-0.035211418,-0.06762518,-0.046919577,-0.05800476,0.06708053,0.069328606,0.03373716,-0.05193989,-3.0,-0.22162929,-3.0,3.0,3.0,-3.0,-3.0,-3.0,-3.0,-3.0,-0.3630155,-3.0,-3.0,-0.044178627,-3.0,3.0,3.0,-3.0,-3.0,-3.0,-3.0,-3.0,-0.9108536,-3.0
2025-06-06 14:10:01.539,0.057421755,-0.028136618,-0.03893932,-0.015883915,0.05965087,-0.049026564,0.0,0.0,0.0,0.032588925,-0.22534847,-0.18432966,-0.19512247,0.13057289,0.55978656,-0.2371022,-0.099766396,-0.55640256,-0.3120114,-0.055882894,-0.118871056,-0.14269547,0.061292913,0.06553764,0.020061852,-0.059843954,0.0073330267,0.04770392,0.016294401,0.044688705,0.047013227,-0.03917983,0.045301978,0.032987937,-3.0,-0.044178627,-3.0,3.0,3.0,-3.0,-3.0,-3.0,-3.0,-3.0,-0.9108536,-3.0,-3.0,-0.043361448,-3.0,3.0,3.0,-3.0,-3.0,-3.0,-3.0,-3.0,-0.9101765,-3.0
2025-06-06 14:10:01.559,-0.0054879077,-0.0052332184,0.05702058,-0.07162638,0.03247103,-0.0028669115,0.0,0.0,0.0,0.032634363,-0.22273396,-0.20017967,-0.18944278,0.11707624,0.5660833,-0.24828167,-0.11005052,-0.56366515,-0.32401916,-0.064019255,-0.12235111,-0.13535571,0.06659234,0.055969775,0.066503614,0.039726157,0.024051465,-0.028891997,0.048264816,0.034791786,0.0044444995,-0.06869257,-0.033297382,-0.013423268,-3.0,-0.043361448,-3.0,3.0,3.0,-3.0,-3.0,-3.0,-3.0,-3.0,-0.9101765,-3.0,-3.0,-0.19689408,-3.0,3.0,3.0,-3.0,-3.0,-3.0,-3.0,-3.0,-0.09051779,-3.0
2025-06-06 14:10:01.579,-0.007905172,0.088955626,0.0069486997,-0.07722605,0.0031219965,-0.004671133,0.0,0.0,0.0,0.032471865,-0.224964,-0.19153516,-0.2032881,0.11682677,0.55973095,-0.25118822,-0.110924155,-0.5527442,-0.32326093,-0.0589168,-0.12635778,-0.13885315,-0.047173392,0.06538835,-0.035311606,0.049549095,0.052879788,-0.033823766,-0.0691822,-0.0045737093,0.009691078,0.04231856,-0.04543324,0.007504615,-3.0,-0.19689408,-3.0,3.0,3.0,-3.0,-3.0,-3.0,-3.0,-3.0,-0.09051779,-3.0,-3.0,-0.23779479,-3.0,3.0,3.0,-3.0,-3.0,-3.0,-3.0,-3.0,-0.72230136,-3.0
2025-06-06 14:10:01.599,0.032518636,0.048859622,-0.0020064171,-0.04252877,0.03787464,0.026590517,0.0,0.0,0.0,0.032524448,-0.23375483,-0.19134675,-0.19705041,0.1324615,0.55137014,-0.24834776,-0.106974155,-0.54380095,-0.32095894,-0.06345964,-0.12110493,-0.15672158,0.05759448,-0.040629394,-0.04412388,-0.06277583,-0.038505975,-0.045749493,0.053082597,-0.0056892517,0.06768517,0.06378911,0.028666694,-0.06766836,-3.0,-0.23779479,-3.0,3.0,3.0,-3.0,-3.0,-3.0,-3.0,-3.0,-0.72230136,-3.0,-3.0,0.010698175,-3.0,3.0,3.0,-3.0,-3.0,-3.0,-3.0,-3.0,-0.38306078,-3.0
2025-06-06 14:10:01.619,-0.010034369,0.020602,-0.049136568,-0.08912002,0.019335791,0.037225347,0.0,0.0,0.0,0.03264304,-0.23748764,-0.19095941,-0.19515648,0.12479425,0.55657893,-0.24853458,-0.09842053,-0.54340225,-0.31511948,-0.048733633,-0.11543872,-0.1475015,0.0026311763,0.049807016,-0.04449265,-0.018110907,0.005528054,0.0409838,0.031972922,-0.024129782,0.004574917,-0.0006105978,0.012279756,0.018258866,-3.0,0.010698175,-3.0,3.0,3.0,-3.0,-3.0,-3.0,-3.0,-3.0,-0.38306078,-3.0,-3.0,-0.11973264,-3.0,3.0,3.0,-3.0,-3.0,-3.0,-3.0,-3.0,-0.98052204,-3.0
2025-06-06 14:10:01.639,0.053557828,-0.0831769,0.027072223,-0.10705879,0.07009573,0.041611105,0.0,0.0,0.0,0.032768328,-0.22819875,-0.18634649,-0.18789282,0.13137287,0.55301195,-0.24189192,-0.09979542,-0.56110036,-0.32266748,-0.06480103,-0.12030923,-0.14542186,-0.061795875,-0.037009597,0.054945044,-0.058853064,-0.008741283,-0.044089682,-0.032457426,0.04907461,0.06506832,-0.042576857,-0.059774518,0.055412743,-3.0,-0.11973264,-3.0,3.0,3.0,-3.0,-3.0,-3.0,-3.0,-3.0,-0.98052204,-3.0,-3.0,-0.14661065,-3.0,3.0,3.0,-3.0,-3.0,-3.0,-3.0,-3.0,-0.51900053,-3.0
2025-06-06 14:10:01.659,0.020122332,0.029025167,-0.008426011,-0.06951049,0.025481807,0.043431893,0.0,0.0,0.0,0.03271848,-0.22408074,-0.18269148,-0.20549382,0.12652987,0.56025237,-0.2398502,-0.112663195,-0.54531777,-0.3194136,-0.06309654,-0.12490064,-0.13847265,0.023288598,0.055925608,0.0043510557,-0.025671374,0.055253487,-0.023859937,0.0050027184,-0.054626774,0.06550069,0.07356885,0.06638341,-0.0045298436,-3.0,-0.14661065,-3.0,3.0,3.0,-3.0,-3.0,-3.0,-3.0,-3.0,-0.51900053,-3.0,-3.0,-0.18951538,-3.0,3.0,3.0,-3.0,-3.0,-3.0,-3.0,-3.0,-0.625932,-3.0
2025-06-06 14:10:01.679,-0.032607514,-0.024448497,0.011608007,-0.052220643,0.009203133,-0.028388929,0.0,0.0,0.0,0.032644372,-0.22316922,-0.19485883,-0.18758878,0.12102169,0.55841255,-0.2547982,-0.09406279,-0.5608364,-0.323074,-0.058813047,-0.12727368,-0.14611173,0.020369718,-0.020566441,-0.0046275323,-0.063116245,0.028104927,0.001269506,-0.01868747,-0.051711194,-0.013249033,0.010501984,0.014779715,0.067506924,-3.0,-0.18951538,-3.0,3.0,3.0,-3.0,-3.0,-3.0,-3.0,-3.0,-0.625932,-3.0,-3.0,-0.22368625,-3.0,3.0,3.0,-3.0,-3.0,-3.0,-3.0,-3.0,-0.44559553,-3.0
2025-06-06 14:10:01.702,-0.04994372,0.05402916,0.017573643,-0.05238519,0.02546817,0.049970206,0.0,0.0,0.0,0.03261562,-0.22718903,-0.18545674,-0.19811815,0.12048862,0.5520322,-0.24788116,-0.10487606,-0.55893636,-0.3117087,-0.05001144,-0.116924405,-0.13992152,0.029035684,-0.045287933,-0.023186445,-0.07336799,0.012802663,-0.025415368,-0.04670831,-0.03093163,0.062461052,-0.054132383,-0.013834366,-0.07534039,-3.0,-0.22368625,-3.0,3.0,3.0,-3.0,-3.0,-3.0,-3.0,-3.0,-0.44559553,-3.0,-3.0,-0.14497939,-3.0,3.0,3.0,-3.0,-3.0,-3.0,-3.0,-3.0,-0.31302002,-3.0
2025-06-06 14:10:01.719,0.010031051,0.07280712,-0.025741994,-0.10808199,0.021267127,0.01451686,0.0,0.0,0.0,0.032681685,-0.24035569,-0.18241686,-0.18329301,0.1189349,0.5659052,-0.23493597,-0.09722633,-0.5451699,-0.32197344,-0.06503173,-0.12516095,-0.15226153,0.067830585,0.009181145,0.04381061,0.05788924,0.053134486,-0.06700629,-0.004185796,-0.007087762,0.07499462,0.0013390552,0.050697263,-0.02744373,-3.0,-0.14497939,-3.0,3.0,3.0,-3.0,-3.0,-3.0,-3.0,-3.0,-0.31302002,-3.0,-3.0,-0.030393625,-3.0,3.0,3.0,-3.0,-3.0,-3.0,-3.0,-3.0,-0.91893506,-3.0
2025-06-06 14:10:01.740,0.055852927,0.009376007,-0.008242076,-0.03511878,0.05336313,0.046784986,0.0,0.0,0.0,0.03287874,-0.2337902,-0.1895159,-0.18865024,0.12071032,0.5682007,-0.24782449,-0.11182416,-0.5519202,-0.32254305,-0.051204737,-0.12377737,-0.14789644,-0.06508387,0.06285617,-0.012042139,-0.055044293,0.03858955,-0.05394762,-0.05948879,0.06174694,0.030739624,-0.04189967,-0.027837114,0.047441747,-3.0,-0.030393625,-3.0,3.0,3.0,-3.0,-3.0,-3.0,-3.0,-3.0,-0.91893506,-3.0,-3.0,-0.11896553,-3.0,3.0,3.0,-3.0,-3.0,-3.0,-3.0,-3.0,-0.86743224,-3.0
2025-06-06 14:10:01.760,-0.009168483,-0.022978483,0.047403418,-0.08196429,0.03781494,-0.044490967,0.0,0.0,0.0,0.032913975,-0.22627462,-0.20089297,-0.20264879,0.12965506,0.5568031,-0.24664247,-0.110220246,-0.56344134,-0.3186018,-0.047239237,-0.13410191,-0.1431341,0.011362052,-0.040128622,-0.043894947,-0.048496183,0.029042013,0.013258973,-0.06154589,-0.0150417965,-0.030847924,0.015962843,0.0032135346,0.006876376,-3.0,-0.11896553,-3.0,3.0,3.0,-3.0,-3.0,-3.0,-3.0,-3.0,-0.86743224,-3.0,-3.0,-0.20556846,-3.0,3.0,3.0,-3.0,-3.0,-3.0,-3.0,-3.0,-0.18335357,-3.0
2025-06-06 14:10:01.779,0.0004230509,-0.008822021,-0.042814903,-0.08552094,0.032120954,-0.036160715,0.0,0.0,0.0,0.03275692,-0.23938484,-0.20201351,-0.1976932,0.11796406,0.5590466,-0.24681835,-0.10596559,-0.54733217,-0.3194939,-0.05078972,-0.1287558,-0.13695773,0.044916492,0.008445987,-0.06868643,0.06418604,-0.05620521,0.01482477,0.030319164,0.044576764,0.032447886,0.018989714,-0.019294564,-0.07641542,-3.0,-0.20556846,-3.0,3.0,3.0,-3.0,-3.0,-3.0,-3.0,-3.0,-0.18335357,-3.0,-3.0,0.082786895,-3.0,3.0,3.0,-3.0,-3.0,-3.0,-3.0,-3.0,-0.9365634,-3.0
2025-06-06 14:10:01.802,-0.0018748819,0.022335438,0.00554086,-0.014679108,0.048448462,0.0052687437,0.0,0.0,0.0,0.032783378,-0.22634813,-0.18564281,-0.1978278,0.13454565,0.5596239,-0.23596957,-0.097496,-0.54524875,-0.31008905,-0.053359296,-0.12390215,-0.14007735,0.041111246,-0.042934768,-0.026483787,-0.0559905,-0.0073519093,-0.02525386,0.06565832,0.003541487,-0.013520553,-0.0033268486,-0.0619106,-0.009771666,-3.0,0.082786895,-3.0,3.0,3.0,-3.0,-3.0,-3.0,-3.0,-3.0,-0.9365634,-3.0,-3.0,-0.058276914,-3.0,3.0,3.0,-3.0,-3.0,-3.0,-3.0,-3.0,-0.38470575,-3.0
2025-06-06 14:10:01.820,-0.035969645,0.0331109,-0.021088468,-0.050842926,0.0069204974,0.028394783,0.0,0.0,0.0,0.032716304,-0.23545593,-0.18083303,-0.19105327,0.118800096,0.5514748,-0.24461174,-0.09515838,-0.5594874,-0.3140212,-0.055976514,-0.11952741,-0.1362734,-0.05310145,0.01667136,0.013773203,-0.06057848,-0.028306365,-0.05371117,0.03942229,-0.061325736,-0.028126106,0.036385126,0.07086023,0.05690121,-3.0,-0.058276914,-3.0,3.0,3.0,-3.0,-3.0,-3.0,-3.0,-3.0,-0.38470575,-3.0,-3.0,-0.25144807,-3.0,3.0,3.0,-3.0,-3.0,-3.0,-3.0,-3.0,-0.692801,-3.0
2025-06-06 14:10:01.840,-0.012101745,-0.014122543,-0.034426097,-0.1070626,0.047528688,0.021520672,0.0,0.0,0.0,0.032632902,-0.24002337,-0.19016789,-0.19569564,0.11996602,0.55830103,-0.24406862,-0.09843112,-0.5497269,-0.31218114,-0.052558184,-0.12670952,-0.1500833,0.021133933,-0.057381462,-0.04592859,-0.013541261,-0.03802991,0.018011179,-0.04093299,0.04289207,0.045542806,-0.052671406,-0.071012914,-0.05953285,-3.0,-0.25144807,-3.0,3.0,3.0,-3.0,-3.0,-3.0,-3.0,-3.0,-0.692801,-3.0,-3.0,0.20664749,-3.0,3.0,3.0,-3.0,-3.0,-3.0,-3.0,-3.0,-0.9139627,-3.0
2025-06-06 14:10:01.860,-0.006760422,0.00807358,0.020753907,-0.08867275,0.019937273,-0.010271003,0.0,0.0,0.0,0.03257147,-0.23810197,-0.181147,-0.19866389,0.121638246,0.55369663,-0.25520837,-0.10491267,-0.5646315,-0.31106344,-0.055423297,-0.123400785,-0.1391502,0.050748356,0.0013855975,-0.013152803,-0.027108958,-0.01970099,0.008619254,-0.06806839,0.07256792,0.06713732,-0.07237585,0.0146888355,-0.054970983,-3.0,0.20664749,-3.0,3.0,3.0,-3.0,-3.0,-3.0,-3.0,-3.0,-0.9139627,-3.0,-3.0,-0.14175203,-3.0,3.0,3.0,-3.0,-3.0,-3.0,-3.0,-3.0,-0.41342714,-3.0
2025-06-06 14:10:01.880,0.029723475,-0.03012022,0.0053029987,-0.049281508,0.043369442,-0.0343693,0.0,0.0,0.0,0.032334533,-0.22584185,-0.17915343,-0.20873107,0.13599254,0.5543592,-0.24902497,-0.10259231,-0.55635893,-0.3202018,-0.0502875,-0.12510675,-0.13961649,-0.03905514,0.030002933,-0.041035715,0.059045058,-0.058799542,0.007178287,-0.020105783,0.021677438,0.0130776465,0.06487524,-0.028345523,-0.06954849,-3.0,-0.14175203,-3.0,3.0,3.0,-3.0,-3.0,-3.0,-3.0,-3.0,-0.41342714,-3.0,-3.0,-0.12649193,-3.0,3.0,3.0,-3.0,-3.0,-3.0,-3.0,-3.0,-0.49433902,-3.0
2025-06-06 14:10:01.903,0.027188264,-0.0032796003,0.010999711,-0.046796918,0.018122735,0.043447994,0.0,0.0,0.0,0.032133397,-0.22450285,-0.1808431,-0.1991035,0.13088317,0.5595269,-0.24558789,-0.098733306,-0.56111753,-0.32018527,-0.06103981,-0.13327423,-0.13814273,-0.028952802,-0.03279958,0.07150558,0.068328656,0.043184116,0.039031688,-0.0016668765,0.02361253,-0.013234628,0.044351287,0.07320219,0.021773364,-3.0,-0.12649193,-3.0,3.0,3.0,-3.0,-3.0,-3.0,-3.0,-3.0,-0.49433902,-3.0,-3.0,-0.18740383,-3.0,3.0,3.0,-3.0,-3.0,-3.0,-3.0,-3.0,-0.54668593,-3.0
2025-06-06 14:10:01.920,-0.0020383552,0.050500482,0.016455054,-0.030839564,0.095853746,-0.0068524233,0.0,0.0,0.0,0.032051824,-0.23536699,-0.19435151,-0.19327192,0.12587573,0.5643384,-0.2419465,-0.09715085,-0.563607,-0.32607585,-0.05276971,-0.11689486,-0.13948727,-0.06630593,-0.022349205,0.047971647,-0.000884243,0.028984338,-0.06341826,0.007091004,0.06759639,-0.016041884,-0.038832758,0.062236924,0.029724333,-3.0,-0.18740383,-3.0,3.0,3.0,-3.0,-3.0,-3.0,-3.0,-3.0,-0.54668593,-3.0,-3.0,-0.2088925,-3.0,3.0,3.0,-3.0,-3.0,-3.0,-3.0,-3.0,-0.5209626,-3.0
2025-06-06 14:10:01.940,-0.01558645,0.052953474,0.017959967,-0.04663452,0.021690115,0.01011159,0.0,0.0,0.0,0.03203123,-0.22623597,-0.17562924,-0.20006002,0.12527522,0.56097466,-0.2347657,-0.09701871,-0.5450355,-0.31538823,-0.054984607,-0.11873498,-0.15351927,-0.020226838,-0.012069384,-0.047447495,0.006713103,0.06927287,0.030898394,0.004651855,0.05957729,-0.02569031,0.025853485,0.025561111,-0.007880137,-3.0,-0.2088925,-3.0,3.0,3.0,-3.0,-3.0,-3.0,-3.0,-3.0,-0.5209626,-3.0,-3.0,-0.19082311,-3.0,3.0,3.0,-3.0,-3.0,-3.0,-3.0,-3.0,-0.42402312,-3.0
2025-06-06 14:10:01.960,0.013604558,0.04396681,-0.017701384,-0.056854084,0.014283194,0.026427006,0.0,0.0,0.0,0.03207464,-0.23452224,-0.19343302,-0.18728809,0.13386239,0.5595177,-0.24583715,-0.10623529,-0.55151904,-0.30793807,-0.05951759,-0.12045868,-0.1467636,-0.0062260046,-0.0058864704,0.054581217,0.05415821,-0.059071835,0.023999952,0.020064067,0.073507965,0.06769942,-0.005997814,0.08025501,-0.026064176,-3.0,-0.19082311,-3.0,3.0,3.0,-3.0,-3.0,-3.0,-3.0,-3.0,-0.42402312,-3.0,-3.0,-0.04517045,-3.0,3.0,3.0,-3.0,-3.0,-3.0,-3.0,-3.0,-0.7900609,-3.0
2025-06-06 14:10:01.980,-0.0060512424,0.031046372,-0.009898267,-0.11134746,0.050271135,0.009141069,0.0,0.0,0.0,0.03220839,-0.22325838,-0.19010718,-0.20542692,0.13110067,0.5672001,-0.24384806,-0.09559911,-0.5483843,-0.3113398,-0.052261725,-0.12961113,-0.14773497,0.046216436,0.03483011,-0.0057259975,-0.06780473,-0.04646713,0.013483045,-0.032668017,-0.0057527325,0.016175263,0.0023737913,-0.054315403,0.04225717,-3.0,-0.04517045,-3.0,3.0,3.0,-3.0,-3.0,-3.0,-3.0,-3.0,-0.7900609,-3.0,-3.0,-0.1198956,-3.0,3.0,3.0,-3.0,-3.0,-3.0,-3.0,-3.0,-0.76490045,-3.0
2025-06-06 14:10:02.002,-0.021087153,-0.028512716,-0.037506435,-0.09224286,0.030077515,-0.037191745,0.0,0.0,0.0,0.03225702,-0.22135592,-0.18121861,-0.18845627,0.12653515,0.5543821,-0.25003296,-0.106820785,-0.5583656,-0.31222057,-0.05483825,-0.12986599,-0.14150728,0.034770202,-0.012407102,-0.010753476,0.065510124,0.044317253,0.05159937,-0.057747506,-0.05358424,-0.037130665,0.06310322,-0.07215722,-0.052236047,-3.0,-0.1198956,-3.0,3.0,3.0,-3.0,-3.0,-3.0,-3.0,-3.0,-0.76490045,-3.0,-3.0,0.27165946,-3.0,3.0,3.0,-3.0,-3.0,-3.0,-3.0,-3.0,-0.93735576,-3.0
2025-06-06 14:10:02.020,0.0010470629,-0.0035456144,0.010171218,-0.08191723,0.06537426,-0.012473345,0.0,0.0,0.0,0.03219433,-0.23017278,-0.19359861,-0.19616796,0.13586496,0.56622076,-0.24905832,-0.1097318,-0.56183565,-0.32361138,-0.04973089,-0.1387148,-0.13732925,-0.010315568,0.0052501857,-0.08597165,-0.0324503,-0.06753923,0.042434722,0.05311928,0.012530848,-0.04288029,-0.05482993,0.0125774825,-0.052224003,-3.0,0.27165946,-3.0,3.0,3.0,-3.0,-3.0,-3.0,-3.0,-3.0,-0.93735576,-3.0,-3.0,-0.18381146,-3.0,3.0,3.0,-3.0,-3.0,-3.0,-3.0,-3.0,-0.40094337,-3.0
2025-06-06 14:10:02.040,0.011973652,0.011039387,-0.0019022193,-0.041241318,0.0016278158,-0.02312499,0.0,0.0,0.0,0.03193669,-0.22627856,-0.18429871,-0.19931412,0.12995298,0.5480574,-0.2404512,-0.107618205,-0.5479978,-0.32638693,-0.051401846,-0.1424234,-0.1382539,0.008253776,-0.0042185066,0.040624887,-0.06951434,0.04023563,0.013050546,0.023641286,0.018836267,0.03690841,-0.055132996,-0.050160956,-0.06479,-3.0,-0.18381146,-3.0,3.0,3.0,-3.0,-3.0,-3.0,-3.0,-3.0,-0.40094337,-3.0,-3.0,-0.14587334,-3.0,3.0,3.0,-3.0,-3.0,-3.0,-3.0,-3.0,-0.5435438,-3.0
2025-06-06 14:10:02.061,-0.018483922,0.033356704,-0.03440322,-0.10027809,0.03082196,0.04575475,0.0,0.0,0.0,0.03174702,-0.2318436,-0.19085039,-0.19230264,0.1190206,0.56107575,-0.23791587,-0.10842051,-0.55670404,-0.31849077,-0.060012516,-0.13237417,-0.13377923,-0.051745776,0.028146094,0.057193883,0.07195008,-0.031390514,-0.016932977,0.069979176,0.0025549405,0.0007084777,-0.05091431,0.0078864265,-0.0032568125,-3.0,-0.14587334,-3.0,3.0,3.0,-3.0,-3.0,-3.0,-3.0,-3.0,-0.5435438,-3.0,-3.0,-0.027598286,-3.0,3.0,3.0,-3.0,-3.0,-3.0,-3.0,-3.0,-0.9815885,-3.0
2025-06-06 14:10:02.081,0.06598416,-0.0630221,-0.026135141,-0.0504475,0.035415802,-0.034831535,0.0,0.0,0.0,0.03169555,-0.23484986,-0.18436536,-0.20347442,0.12959874,0.563085,-0.24223377,-0.10852847,-0.549473,-0.31743398,-0.06824804,-0.13246752,-0.14214401,0.07298727,0.06813874,-0.027198311,0.0032776229,0.0029869925,0.0046438836,0.071589366,0.028678432,0.009275307,0.02465742,-0.05481404,-0.04653498,-3.0,-0.027598286,-3.0,3.0,3.0,-3.0,-3.0,-3.0,-3.0,-3.0,-0.9815885,-3.0,-3.0,0.11754034,-3.0,3.0,3.0,-3.0,-3.0,-3.0,-3.0,-3.0,-0.6784282,-3.0
2025-06-06 14:10:02.103,-0.014824884,-0.012279792,-0.015907781,-0.08963183,0.024102647,0.026742259,0.0,0.0,0.0,0.03153605,-0.22549708,-0.19016984,-0.2097672,0.12701479,0.56285596,-0.2447634,-0.094758816,-0.5639545,-0.31335545,-0.058092795,-0.13234857,-0.13770954,-0.008575115,-0.043097798,0.052664552,0.029763827,-0.021339215,-0.060403876,-0.011711573,-0.0030863392,-0.04512616,0.048537623,-0.033027817,0.03641031,-3.0,0.11754034,-3.0,3.0,3.0,-3.0,-3.0,-3.0,-3.0,-3.0,-0.6784282,-3.0,-3.0,-0.051129125,-3.0,3.0,3.0,-3.0,-3.0,-3.0,-3.0,-3.0,-0.8284446,-3.0
2025-06-06 14:10:02.121,0.051019784,0.012867885,0.030980969,-0.028863106,0.08095468,0.030917335,0.0,0.0,0.0,0.031307902,-0.23502544,-0.18557984,-0.1985394,0.13522959,0.5479256,-0.24740379,-0.1039187,-0.5626822,-0.3241752,-0.06661012,-0.14040338,-0.13815561,-0.006100486,0.06579502,0.060124893,-0.008965246,0.021920111,0.0030625213,-0.010744822,-0.07007424,0.07101242,-0.0139368735,-0.06781848,0.03379321,-3.0,-0.051129125,-3.0,3.0,3.0,-3.0,-3.0,-3.0,-3.0,-3.0,-0.8284446,-3.0,-3.0,-0.26372626,-3.0,3.0,3.0,-3.0,-3.0,-3.0,-3.0,-3.0,-0.34533897,-3.0
2025-06-06 14:10:02.141,-0.041036915,0.037984885,-0.037012372,-0.028768398,0.08079724,-0.00917561,0.0,0.0,0.0,0.031046078,-0.22088286,-0.18771711,-0.20511678,0.13693348,0.5506978,-0.25174856,-0.10835131,-0.5584463,-0.32127115,-0.07093437,-0.13481599,-0.143109,0.051435955,-0.0035606865,-0.019669946,-0.03469651,-0.06333464,0.023963345,-0.0217757,0.04676539,0.032899667,-0.062416486,-0.044705134,-0.013014575,-3.0,-0.26372626,-3.0,3.0,3.0,-3.0,-3.0,-3.0,-3.0,-3.0,-0.34533897,-3.0,-3.0,0.07576201,-3.0,3.0,3.0,-3.0,-3.0,-3.0,-3.0,-3.0,-1.1546562,-3.0
2025-06-06 14:10:02.161,0.0641231,-0.03974656,0.02480147,-0.078921065,0.016912714,0.019193606,0.0,0.0,0.0,0.030987078,-0.22157778,-0.17622727,-0.20097664,0.13530195,0.5604131,-0.2442579,-0.10320831,-0.5460166,-0.31581417,-0.06417372,-0.1339863,-0.12906377,-0.031177398,-0.035478845,-0.015914392,0.0602362,0.061336,-0.020927735,0.032701313,0.043087315,0.006131745,-0.05916346,-0.09271843,0.054392762,-3.0,0.07576201,-3.0,3.0,3.0,-3.0,-3.0,-3.0,-3.0,-3.0,-1.1546562,-3.0,-3.0,-0.05415859,-3.0,3.0,3.0,-3.0,-3.0,-3.0,-3.0,-3.0,-0.50798976,-3.0
2025-06-06 14:10:02.181,-0.04514252,0.032674566,0.025411695,-0.08659525,0.012065489,0.02197033,0.0,0.0,0.0,0.030831497,-0.22154143,-0.17269523,-0.21163939,0.1330406,0.5509204,-0.24356872,-0.10474602,-0.55145407,-0.3237399,-0.07181996,-0.1311108,-0.13300131,-0.06936268,-0.006897363,0.013693023,-0.00655427,0.066441,0.04508101,0.022855373,0.017108962,0.07183248,-0.034225084,-0.032031346,0.015472777,-3.0,-0.05415859,-3.0,3.0,3.0,-3.0,-3.0,-3.0,-3.0,-3.0,-0.50798976,-3.0,-3.0,-0.3171821,-3.0,3.0,3.0,-3.0,-3.0,-3.0,-3.0,-3.0,-0.44019458,-3.0
2025-06-06 14:10:02.202,-0.025187502,0.07075352,-0.015648616,-0.026640102,0.058830053,0.045540307,0.0,0.0,0.0,0.030699424,-0.22333504,-0.17786834,-0.2018631,0.13336591,0.5638008,-0.25053525,-0.10069601,-0.5505688,-0.30827555,-0.06527707,-0.14081109,-0.1475835,0.008022093,-0.0053671333,0.009045176,-0.047743432,-0.05313686,0.055034652,-0.029435454,-0.0046119276,0.058172178,0.054996427,-0.03462733,-0.074278004,-3.0,-0.3171821,-3.0,3.0,3.0,-3.0,-3.0,-3.0,-3.0,-3.0,-0.44019458,-3.0,-3.0,-0.013223434,-3.0,3.0,3.0,-3.0,-3.0,-3.0,-3.0,-3.0,-0.68439615,-3.0
2025-06-06 14:10:02.221,-0.018026903,-0.029163403,-0.051546056,-0.05130772,0.055434182,-0.031716157,0.0,0.0,0.0,0.030791478,-0.2355433,-0.18187334,-0.20731594,0.124289334,0.55575925,-0.2360483,-0.10740491,-0.56058145,-0.30966327,-0.07137829,-0.13091421,-0.13996075,-0.011006095,-0.062413264,0.04174188,0.032198943,-0.06427587,-0.0068411883,-0.031212637,0.06305366,0.041806925,-0.06831004,0.06695328,0.02341657,-3.0,-0.013223434,-3.0,3.0,3.0,-3.0,-3.0,-3.0,-3.0,-3.0,-0.68439615,-3.0,-3.0,0.09268103,-3.0,3.0,3.0,-3.0,-3.0,-3.0,-3.0,-3.0,-1.2526935,-3.0
2025-06-06 14:10:02.241,0.09108865,-0.028353143,-0.011071962,-0.028708693,0.033835363,-0.028198456,0.0,0.0,0.0,0.030936012,-0.23454557,-0.17954654,-0.20551611,0.12489472,0.56175697,-0.23827319,-0.11029165,-0.5506698,-0.32164013,-0.07301273,-0.13391182,-0.13909149,-0.026455639,-0.042899683,-0.071843706,-0.05275723,-0.070783176,-0.045108564,-0.0764421,-0.027552703,-0.04559129,0.063311934,0.013481061,0.022359129,-3.0,0.09268103,-3.0,3.0,3.0,-3.0,-3.0,-3.0,-3.0,-3.0,-1.2526935,-3.0,-3.0,0.07025609,-3.0,3.0,3.0,-3.0,-3.0,-3.0,-3.0,-3.0,-0.7294539,-3.0
2025-06-06 14:10:02.261,0.04128985,-0.052138038,-0.023138357,-0.01565979,0.06730883,0.019981386,0.0,0.0,0.0,0.030812886,-0.23520198,-0.17920093,-0.19519852,0.12747677,0.54852927,-0.2423579,-0.101432495,-0.5609766,-0.31950808,-0.06597732,-0.1552492,-0.1387657,0.05110641,-0.022964682,-0.022080814,0.027018236,0.032661073,-0.029156227,0.0048880987,0.050339736,0.030926386,0.023316888,0.025685556,-0.0028648868,-3.0,0.07025609,-3.0,3.0,3.0,-3.0,-3.0,-3.0,-3.0,-3.0,-0.7294539,-3.0,-3.0,0.053545333,-3.0,3.0,3.0,-3.0,-3.0,-3.0,-3.0,-3.0,-0.9066889,-3.0
2025-06-06 14:10:02.281,-0.036576934,0.0010673755,0.022258358,-0.01955113,0.07099078,-0.045748234,0.0,0.0,0.0,0.030594733,-0.2382607,-0.17332429,-0.20099257,0.139614,0.5556358,-0.25067782,-0.10369216,-0.5534626,-0.3254536,-0.06308957,-0.15475316,-0.13033545,-0.036898635,-0.03662597,-0.054931913,0.02579209,0.061361335,-0.046881106,0.04114047,0.025001498,0.031500656,0.013862069,0.0011769572,-0.0068282885,-3.0,0.053545333,-3.0,3.0,3.0,-3.0,-3.0,-3.0,-3.0,-3.0,-0.9066889,-3.0,-3.0,-0.15444401,-3.0,3.0,3.0,-3.0,-3.0,-3.0,-3.0,-3.0,-0.4146606,-3.0
2025-06-06 14:10:02.302,-0.0141000785,0.015112096,-0.005533197,-0.0099638505,0.07273029,0.03854985,0.0,0.0,0.0,0.03034645,-0.22335412,-0.1871961,-0.1977162,0.1386974,0.55034167,-0.24715872,-0.10966425,-0.55260205,-0.31320533,-0.06110453,-0.1396341,-0.1368708,-0.004155805,0.02446371,0.06033667,0.01164498,-0.06397559,0.0511058,-0.036785547,-0.049930718,0.031591143,0.028290737,0.018972846,0.016211908,-3.0,-0.15444401,-3.0,3.0,3.0,-3.0,-3.0,-3.0,-3.0,-3.0,-0.4146606,-3.0,-3.0,-0.17221132,-3.0,3.0,3.0,-3.0,-3.0,-3.0,-3.0,-3.0,-0.7471336,-3.0
2025-06-06 14:10:02.322,-0.033883695,0.04476003,-0.015367569,-0.03378675,0.0014155697,0.038709823,0.0,0.0,0.0,0.03027212,-0.22769105,-0.1696938,-0.20875442,0.13224441,0.56130534,-0.24159811,-0.107749514,-0.5571469,-0.31784695,-0.06347469,-0.14090867,-0.13244545,-0.017251207,0.048514098,0.03860039,0.017899739,0.0027668965,0.028880484,0.05367178,0.00874679,0.040438555,-0.04771065,-0.03224121,0.031625602,-3.0,-0.17221132,-3.0,3.0,3.0,-3.0,-3.0,-3.0,-3.0,-3.0,-0.7471336,-3.0,-3.0,-0.1219671,-3.0,3.0,3.0,-3.0,-3.0,-3.0,-3.0,-3.0,-0.75309217,-3.0
2025-06-06 14:10:02.343,-0.035124846,0.032191254,0.004287047,-0.07637097,0.03465014,-0.017822668,0.0,0.0,0.0,0.030312827,-0.23906033,-0.1780692,-0.19273311,0.13564047,0.5588247,-0.2526816,-0.10842835,-0.5626253,-0.32466236,-0.061157703,-0.14376983,-0.12686476,-0.039298188,0.008509564,0.033057798,0.0704782,-0.07417813,0.018283285,0.0073905513,0.043641474,0.06255944,-0.018699002,-0.021200534,0.01565273,-3.0,-0.1219671,-3.0,3.0,3.0,-3.0,-3.0,-3.0,-3.0,-3.0,-0.75309217,-3.0,-3.0,-0.08675196,-3.0,3.0,3.0,-3.0,-3.0,-3.0,-3.0,-3.0,-0.6586001,-3.0
2025-06-06 14:10:02.362,-0.029706685,0.029209338,-0.03983945,-0.09984745,0.065763175,-0.0029655586,0.0,0.0,0.0,0.030377556,-0.23959027,-0.18211558,-0.20663966,0.12411672,0.5493151,-0.23493665,-0.09346144,-0.56216586,-0.3237548,-0.06591148,-0.14738122,-0.1334085,0.027281336,0.00388237,-0.06258716,0.06811435,-0.0001460967,-0.030243818,-0.037391115,-0.014198392,-0.036348537,0.009379338,0.059790224,-0.017443428,-3.0,-0.08675196,-3.0,3.0,3.0,-3.0,-3.0,-3.0,-3.0,-3.0,-0.6586001,-3.0,-3.0,0.06734202,-3.0,3.0,3.0,-3.0,-3.0,-3.0,-3.0,-3.0,-1.1135645,-3.0
2025-06-06 14:10:02.382,0.005003631,-0.06032374,0.03974292,-0.047006566,0.007160928,0.0063648038,0.0,0.0,0.0,0.03048661,-0.23523274,-0.18043803,-0.2049828,0.1389622,0.56294584,-0.24431331,-0.09988737,-0.5645016,-0.31507182,-0.0692767,-0.1427461,-0.13492696,-0.039868526,-0.01888446,-0.05520338,0.04586048,0.016345367,0.003971047,0.03650982,0.008886863,0.020587806,0.033598393,0.03014785,0.086778894,-3.0,0.06734202,-3.0,3.0,3.0,-3.0,-3.0,-3.0,-3.0,-3.0,-1.1135645,-3.0,-3.0,-0.25020173,-3.0,3.0,3.0,-3.0,-3.0,-3.0,-3.0,-3.0,-0.24896613,-3.0
2025-06-06 14:10:02.402,-0.07433004,0.078254946,-0.056362048,-0.034992523,0.08694745,-0.0014476416,0.0,0.0,0.0,0.030442225,-0.23019136,-0.17452464,-0.20903233,0.12797806,0.55858904,-0.24559867,-0.092799865,-0.5502846,-0.30911484,-0.068863824,-0.14709343,-0.13599972,0.048882216,-0.005864435,-0.004679729,-0.008386051,0.03714949,-0.016064035,-0.059610717,-0.048372593,0.060500868,-0.028810859,-0.019600997,-0.01849399,-3.0,-0.25020173,-3.0,3.0,3.0,-3.0,-3.0,-3.0,-3.0,-3.0,-0.24896613,-3.0,-3.0,0.06028054,-3.0,3.0,3.0,-3.0,-3.0,-3.0,-3.0,-3.0,-1.2473915,-3.0
2025-06-06 14:10:02.422,0.030473871,-0.056749817,-0.0030687167,-0.07741567,0.05476819,-0.0439156,0.0,0.0,0.0,0.030573606,-0.22294796,-0.17411207,-0.20093152,0.1324176,0.54833925,-0.2362662,-0.093429096,-0.5544053,-0.30839318,-0.07013517,-0.1513603,-0.14000002,0.044360086,-0.057811122,0.05568465,0.017885711,-0.06165284,-0.06612013,0.024630276,-0.05601686,-0.057064757,0.058285583,0.008811441,0.045350302,-3.0,0.06028054,-3.0,3.0,3.0,-3.0,-3.0,-3.0,-3.0,-3.0,-1.2473915,-3.0,-3.0,0.09871099,-3.0,3.0,3.0,-3.0,-3.0,-3.0,-3.0,-3.0,-0.67691696,-3.0
2025-06-06 14:10:02.442,-0.0294707,0.025852617,0.013302078,-0.0697313,0.083958134,0.0063930037,0.0,0.0,0.0,0.03059008,-0.22960757,-0.17813367,-0.2062801,0.13136217,0.5572623,-0.24405639,-0.09590643,-0.5562702,-0.32674372,-0.06442243,-0.14277683,-0.13297746,0.03324552,0.008455881,-0.014772065,0.049438387,0.060798522,0.017469194,0.050191943,-0.03399836,0.024531884,0.021115605,0.041965768,-0.06210019,-3.0,0.09871099,-3.0,3.0,3.0,-3.0,-3.0,-3.0,-3.0,-3.0,-0.67691696,-3.0,-3.0,-0.20976439,-3.0,3.0,3.0,-3.0,-3.0,-3.0,-3.0,-3.0,-0.3586518,-3.0
2025-06-06 14:10:02.462,-0.0013509254,-0.006371788,0.029439667,-0.05733485,0.08597575,-0.0073680803,0.0,0.0,0.0,0.03051303,-0.22546467,-0.18039878,-0.20653518,0.13219073,0.5593047,-0.24918051,-0.11018945,-0.5599574,-0.31996402,-0.076599784,-0.1482549,-0.13145968,0.040061098,-0.038601156,-0.062202577,0.044061482,0.013539389,-0.01479455,0.008398196,0.036820002,0.036784314,-0.05224852,0.09405303,0.02676334,-3.0,-0.20976439,-3.0,3.0,3.0,-3.0,-3.0,-3.0,-3.0,-3.0,-0.3586518,-3.0,-3.0,-0.20532063,-3.0,3.0,3.0,-3.0,-3.0,-3.0,-3.0,-3.0,-0.53928983,-3.0
2025-06-06 14:10:02.482,-0.028767485,0.01662169,0.004659474,-0.08724883,0.082406364,0.04822991,0.0,0.0,0.0,0.030629223,-0.23374131,-0.18324487,-0.20242624,0.12734112,0.5593248,-0.24776585,-0.103315726,-0.55797833,-0.30929032,-0.0724758,-0.14107715,-0.1436826,0.03423513,-0.008676186,-0.053523146,0.06948777,0.019084943,0.07032644,-0.023829997,-0.07576142,0.014185453,-0.041817058,0.07803506,-0.08393336,-3.0,-0.20532063,-3.0,3.0,3.0,-3.0,-3.0,-3.0,-3.0,-3.0,-0.53928983,-3.0,-3.0,-0.11520793,-3.0,3.0,3.0,-3.0,-3.0,-3.0,-3.0,-3.0,-0.51813006,-3.0
2025-06-06 14:10:02.502,-0.030911796,-0.019002823,0.030779468,-0.029017756,0.086802036,-0.03505003,0.0,0.0,0.0,0.030889038,-0.22345082,-0.17885104,-0.20286006,0.121706955,0.56124693,-0.23839611,-0.10377145,-0.55915004,-0.31208745,-0.06690125,-0.12815376,-0.14956008,-0.0015854912,-0.03456467,0.004692231,-0.026586112,0.0425379,0.0070960047,-0.07039663,-0.046642628,0.05695809,0.0015434179,-0.04620596,-0.054775063,-3.0,-0.11520793,-3.0,3.0,3.0,-3.0,-3.0,-3.0,-3.0,-3.0,-0.51813006,-3.0,-3.0,-0.22985807,-3.0,3.0,3.0,-3.0,-3.0,-3.0,-3.0,-3.0,-0.2795376,-3.0
2025-06-06 14:10:02.522,-0.00880756,0.00013094292,-0.021400724,-0.06327381,0.011722833,0.03215611,0.0,0.0,0.0,0.031197248,-0.22739838,-0.18870585,-0.1947855,0.13098885,0.55741775,-0.23168047,-0.10344261,-0.5517931,-0.31799126,-0.05631837,-0.1323887,-0.15686996,0.06890421,0.06053763,0.0597331,0.04144026,0.07901791,-0.031590257,0.0017222879,0.041325144,0.019012671,-0.029620195,-0.00404667,0.0062536504,-3.0,-0.22985807,-3.0,3.0,3.0,-3.0,-3.0,-3.0,-3.0,-3.0,-0.2795376,-3.0,-3.0,-0.086297296,-3.0,3.0,3.0,-3.0,-3.0,-3.0,-3.0,-3.0,-0.971709,-3.0
2025-06-06 14:10:02.542,0.059915464,0.01485841,0.016395148,-0.049315114,0.05338397,0.01242784,0.0,0.0,0.0,0.031621292,-0.23760122,-0.18543236,-0.20350637,0.12300699,0.55562055,-0.23950607,-0.096192,-0.5498568,-0.31038514,-0.056021888,-0.13008113,-0.14859672,0.024969857,-0.07635568,0.009339502,0.0054410314,0.005163988,0.029695645,-0.017720161,0.021531455,-0.03587129,0.050269667,-0.045140486,0.0012263675,-3.0,-0.086297296,-3.0,3.0,3.0,-3.0,-3.0,-3.0,-3.0,-3.0,-0.971709,-3.0,-3.0,-0.021655345,-3.0,3.0,3.0,-3.0,-3.0,-3.0,-3.0,-3.0,-0.34392032,-3.0
2025-06-06 14:10:02.562,0.018271126,-0.029011607,0.011271849,-0.06180076,0.035677243,0.042839408,0.0,0.0,0.0,0.031886138,-0.22402634,-0.18000378,-0.20133658,0.119317025,0.5716074,-0.23323506,-0.09397878,-0.55183357,-0.32074788,-0.056770083,-0.11667882,-0.15876612,0.04161455,-0.0042838976,-0.05990581,-0.011243128,0.046637658,-0.06999134,-0.06791225,0.063045576,0.039999694,0.042413026,0.060340457,0.044021964,-3.0,-0.021655345,-3.0,3.0,3.0,-3.0,-3.0,-3.0,-3.0,-3.0,-0.34392032,-3.0,-3.0,-0.25485352,-3.0,3.0,3.0,-3.0,-3.0,-3.0,-3.0,-3.0,-0.6306398,-3.0
2025-06-06 14:10:02.582,-0.048647027,0.020110887,0.016580032,-0.022321079,0.03068067,0.0056013158,0.0,0.0,0.0,0.032112334,-0.23078121,-0.18981327,-0.18949704,0.13177758,0.55842835,-0.23699267,-0.0944341,-0.5539571,-0.3147855,-0.05875014,-0.124995776,-0.15760021,-0.019267181,-0.0056834067,0.026035031,0.07283927,0.053770993,0.00946624,0.04655222,-0.058182444,0.0702868,-0.026079653,0.06834651,0.020798234,-3.0,-0.25485352,-3.0,3.0,3.0,-3.0,-3.0,-3.0,-3.0,-3.0,-0.6306398,-3.0,-3.0,-0.23111084,-3.0,3.0,3.0,-3.0,-3.0,-3.0,-3.0,-3.0,-0.37241152,-3.0
2025-06-06 14:10:02.602,-0.019119697,-0.030304916,-0.04519938,-0.07388572,0.0057001235,0.03264991,0.0,0.0,0.0,0.0323343,-0.23435022,-0.18907776,-0.18456163,0.12616003,0.57303494,-0.2405358,-0.106303394,-0.56485224,-0.326468,-0.05414907,-0.12768598,-0.1510252,-0.05619356,0.0037645856,-0.023945425,-0.06381102,0.007229679,0.07584113,0.051863916,0.018116655,0.009465872,-0.044880204,-0.060320906,0.04045874,-3.0,-0.23111084,-3.0,3.0,3.0,-3.0,-3.0,-3.0,-3.0,-3.0,-0.37241152,-3.0,-3.0,-0.12581268,-3.0,3.0,3.0,-3.0,-3.0,-3.0,-3.0,-3.0,-0.9463415,-3.0
2025-06-06 14:10:02.622,0.045452055,-0.035022315,-0.03038961,-0.020647347,0.009581311,0.011227712,0.0,0.0,0.0,0.032620046,-0.24124536,-0.19397108,-0.19579133,0.12794615,0.5650396,-0.23305437,-0.110403165,-0.54671395,-0.32143232,-0.0659395,-0.12308238,-0.15057626,-0.046097063,0.041176822,0.061512683,0.0058790655,0.023335764,0.038153496,0.05944458,-0.03629486,-0.053957194,0.0023754463,0.055662822,-0.014119411,-3.0,-0.12581268,-3.0,3.0,3.0,-3.0,-3.0,-3.0,-3.0,-3.0,-0.9463415,-3.0,-3.0,-0.06891277,-3.0,3.0,3.0,-3.0,-3.0,-3.0,-3.0,-3.0,-0.7116759,-3.0
2025-06-06 14:10:02.642,-0.032929663,-0.050452687,0.014272024,-0.10631977,0.00037248895,0.019383946,0.0,0.0,0.0,0.032762125,-0.23398624,-0.19065538,-0.20076714,0.123027205,0.5557349,-0.24072339,-0.09908774,-0.5534663,-0.32222363,-0.048682116,-0.13571148,-0.14393778,0.030227318,0.05793848,-0.040021922,-0.049712986,-0.010930219,0.013754847,-0.048653007,-0.034232743,-0.013347206,0.036030382,0.009063071,0.0579654,-3.0,-0.06891277,-3.0,3.0,3.0,-3.0,-3.0,-3.0,-3.0,-3.0,-0.7116759,-3.0,-3.0,-0.27328852,-3.0,3.0,3.0,-3.0,-3.0,-3.0,-3.0,-3.0,-0.50635004,-3.0
2025-06-06 14:10:02.662,-0.0402189,0.007419713,0.007847526,-0.02294493,0.08426695,0.048979256,0.0,0.0,0.0,0.032776445,-0.232439,-0.18186057,-0.19008589,0.117530115,0.56667805,-0.2511847,-0.10525142,-0.56114924,-0.32476714,-0.06552633,-0.13972676,-0.14692418,0.006589411,0.0038917349,-0.024308413,0.06806359,-0.07409623,0.025224276,0.02957773,-0.0019295589,0.015264489,0.04599479,0.027566371,-0.036692183,-3.0,-0.27328852,-3.0,3.0,3.0,-3.0,-3.0,-3.0,-3.0,-3.0,-0.50635004,-3.0,-3.0,-0.06984689,-3.0,3.0,3.0,-3.0,-3.0,-3.0,-3.0,-3.0,-0.49429122,-3.0
2025-06-06 14:10:02.685,-0.032431684,-0.0100077195,0.03399783,-0.07741101,0.078646794,0.037905917,0.0,0.0,0.0,0.032860033,-0.22892033,-0.1844516,-0.18976118,0.12656371,0.5601618,-0.24990979,-0.111387886,-0.5522188,-0.3212161,-0.051579967,-0.13022605,-0.1397748,0.026884422,0.062154055,0.04947273,0.03641592,-0.035440058,0.009887114,-0.026607323,-0.04875173,0.06934064,0.01866151,0.06188145,-0.05358885,-3.0,-0.06984689,-3.0,3.0,3.0,-3.0,-3.0,-3.0,-3.0,-3.0,-0.49429122,-3.0,-3.0,-0.2496784,-3.0,3.0,3.0,-3.0,-3.0,-3.0,-3.0,-3.0,-0.31189403,-3.0
2025-06-06 14:10:02.703,-0.017224832,0.0753323,0.019697238,-0.06376123,0.06421049,0.037013542,0.0,0.0,0.0,0.033014208,-0.24301782,-0.19966254,-0.18544407,0.13146392,0.56483567,-0.23264198,-0.09368449,-0.5551716,-0.31238997,-0.048378862,-0.12123901,-0.14740923,-0.039207827,-0.0252922,-0.004320589,-0.046550773,-0.058918267,0.019827433,0.0313589,-0.06538303,0.01735457,-0.05453191,-0.00020946481,-0.08449372,-3.0,-0.2496784,-3.0,3.0,3.0,-3.0,-3.0,-3.0,-3.0,-3.0,-0.31189403,-3.0,-3.0,-0.17368141,-3.0,3.0,3.0,-3.0,-3.0,-3.0,-3.0,-3.0,-0.23102686,-3.0
2025-06-06 14:10:02.723,-0.045221385,0.044354077,-0.007212743,-0.08172295,0.09981679,0.031166112,0.0,0.0,0.0,0.033279516,-0.23067303,-0.19627063,-0.19702116,0.12400769,0.5647248,-0.24410675,-0.095464155,-0.5437709,-0.3155945,-0.05867309,-0.11079788,-0.15996657,-0.029435873,0.021670328,-0.06730638,-0.005950175,0.0036240467,0.021223206,0.011752628,-0.036024664,0.031442206,-0.009869737,-0.03806712,0.015527724,-3.0,-0.17368141,-3.0,3.0,3.0,-3.0,-3.0,-3.0,-3.0,-3.0,-0.23102686,-3.0,-3.0,-0.23259059,-3.0,3.0,3.0,-3.0,-3.0,-3.0,-3.0,-3.0,-0.6775359,-3.0
2025-06-06 14:10:02.743,-0.03188423,-0.05146454,-0.025253963,-0.034622885,0.04913335,-0.016374089,0.0,0.0,0.0,0.033669703,-0.22699068,-0.18633291,-0.18343057,0.12523973,0.55924255,-0.23301382,-0.10520363,-0.5554937,-0.3119808,-0.04718996,-0.11146786,-0.16466852,-0.029392658,-0.02030343,-0.004540133,0.040879637,-0.038844634,-0.02853182,-0.057595152,0.04854794,-0.0018986122,-0.0021546402,-0.007626641,0.028247043,-3.0,-0.23259059,-3.0,3.0,3.0,-3.0,-3.0,-3.0,-3.0,-3.0,-0.6775359,-3.0,-3.0,0.047891356,-3.0,3.0,3.0,-3.0,-3.0,-3.0,-3.0,-3.0,-1.0126674,-3.0
2025-06-06 14:10:02.763,0.06673059,-0.013823341,-0.030613493,-0.10621239,0.082212135,-0.04511659,0.0,0.0,0.0,0.033964124,-0.22250196,-0.19885911,-0.19881488,0.11792513,0.5566459,-0.2467622,-0.10825195,-0.5527431,-0.31990674,-0.04654466,-0.12489614,-0.15686493,-0.016937902,0.04935676,-0.033260975,-0.014258818,0.048403017,-0.010102242,0.008191815,0.046860844,-0.0714777,0.026440866,-0.01421436,-0.0066796127,-3.0,0.047891356,-3.0,3.0,3.0,-3.0,-3.0,-3.0,-3.0,-3.0,-1.0126674,-3.0,-3.0,0.048540927,-3.0,3.0,3.0,-3.0,-3.0,-3.0,-3.0,-3.0,-0.9401305,-3.0
2025-06-06 14:10:02.786,0.060441993,-0.09720071,0.03497209,-0.091798805,0.0787293,0.035318583,0.0,0.0,0.0,0.033938643,-0.22928065,-0.19523633,-0.20587692,0.12237994,0.5518293,-0.24657717,-0.10127551,-0.5670723,-0.32548997,-0.04101457,-0.12795234,-0.15198563,-0.038577225,-0.019937612,0.016527439,-0.069729485,-0.01208029,-0.059357762,0.0663804,0.06609579,-0.058220834,-0.07252009,-0.07342532,0.032414533,-3.0,0.048540927,-3.0,3.0,3.0,-3.0,-3.0,-3.0,-3.0,-3.0,-0.9401305,-3.0,-3.0,-0.20655146,-3.0,3.0,3.0,-3.0,-3.0,-3.0,-3.0,-3.0,-0.28375652,-3.0
2025-06-06 14:10:02.803,-0.03258233,0.030042494,0.044317286,-0.08954424,-0.0026090515,-0.047276635,0.0,0.0,0.0,0.033630323,-0.22027947,-0.19711973,-0.19482741,0.12513265,0.5561557,-0.25731573,-0.097975485,-0.5464768,-0.31468615,-0.046388187,-0.12847885,-0.15019915,-0.06696307,0.0323692,0.021120751,0.012911043,0.023545247,0.047624473,-0.05720054,-0.054375228,-0.030329796,-0.01975647,0.05496862,0.048933893,-3.0,-0.20655146,-3.0,3.0,3.0,-3.0,-3.0,-3.0,-3.0,-3.0,-0.28375652,-3.0,-3.0,-0.35485652,-3.0,3.0,3.0,-3.0,-3.0,-3.0,-3.0,-3.0,-0.3709394,-3.0
2025-06-06 14:10:02.823,-0.008631917,0.039599244,0.02165385,-0.029941002,0.0836358,-0.00843208,0.0,0.0,0.0,0.03345231,-0.23053497,-0.20530018,-0.1845741,0.12756947,0.5565089,-0.25410262,-0.10256007,-0.55516016,-0.31289536,-0.05185159,-0.1346412,-0.14974427,0.03985775,0.053018156,0.053635977,-0.021486808,0.021311859,0.015365289,0.010775373,-0.047326144,-0.001441039,-0.03561495,-0.048749533,-0.061131746,-3.0,-0.35485652,-3.0,3.0,3.0,-3.0,-3.0,-3.0,-3.0,-3.0,-0.3709394,-3.0,-3.0,-0.13998511,-3.0,3.0,3.0,-3.0,-3.0,-3.0,-3.0,-3.0,-0.3472289,-3.0
2025-06-06 14:10:02.843,-0.016528215,0.07080109,-0.022327077,-0.064725414,0.08162564,-0.025514899,0.0,0.0,0.0,0.03351679,-0.23386864,-0.18722515,-0.18698344,0.117617354,0.5661454,-0.25351858,-0.10038684,-0.5510093,-0.31524143,-0.04869431,-0.12133775,-0.16126658,-0.03463109,-0.038293093,-0.020495433,-0.05980784,0.0793282,-0.06573184,0.047888353,0.018530179,-0.043817464,-0.05427854,0.0019958394,-0.06432723,-3.0,-0.13998511,-3.0,3.0,3.0,-3.0,-3.0,-3.0,-3.0,-3.0,-0.3472289,-3.0,-3.0,-0.07886722,-3.0,3.0,3.0,-3.0,-3.0,-3.0,-3.0,-3.0,-0.7263082,-3.0
2025-06-06 14:10:02.863,0.047171466,8.016539e-05,0.009642918,-0.106557846,0.06724141,-0.015898226,0.0,0.0,0.0,0.033711616,-0.23454578,-0.20069149,-0.19410872,0.11744113,0.5607986,-0.23722231,-0.11071842,-0.56209445,-0.3236009,-0.052842733,-0.12008854,-0.15699452,-0.0020794158,0.0023380434,0.022782825,-0.003272966,0.008777347,0.024442874,0.059052013,-0.02127054,-0.011568261,-0.0345393,-0.069238916,-0.068011984,-3.0,-0.07886722,-3.0,3.0,3.0,-3.0,-3.0,-3.0,-3.0,-3.0,-0.7263082,-3.0,-3.0,-0.13997403,-3.0,3.0,3.0,-3.0,-3.0,-3.0,-3.0,-3.0,-0.31142232,-3.0
2025-06-06 14:10:02.886,-0.013904882,-0.01725354,-0.0025098107,-0.023346102,0.00955585,0.027403096,0.0,0.0,0.0,0.033798415,-0.23517227,-0.2052519,-0.18233909,0.1159083,0.56612986,-0.24364628,-0.09634224,-0.54730517,-0.32268447,-0.04557468,-0.11624698,-0.16673839,0.06829466,-0.031813838,0.0026898477,0.04027093,-0.017963957,0.03630317,-0.04727492,0.05894786,-0.00089200947,0.024652036,0.001302199,-0.037571095,-3.0,-0.13997403,-3.0,3.0,3.0,-3.0,-3.0,-3.0,-3.0,-3.0,-0.31142232,-3.0,-3.0,-0.06391337,-3.0,3.0,3.0,-3.0,-3.0,-3.0,-3.0,-3.0,-0.61207056,-3.0
2025-06-06 14:10:02.904,0.014255481,-0.03221042,0.025536824,-0.058385603,0.016015267,0.031008923,0.0,0.0,0.0,0.03388926,-0.23100434,-0.18674132,-0.18531244,0.12982188,0.5599007,-0.23731647,-0.09558883,-0.56075466,-0.32161912,-0.05190786,-0.119918324,-0.15470801,0.016531512,-0.028163001,0.0118560335,-0.034621034,-0.056100365,0.041287653,0.042128775,0.06576337,0.057256516,0.057182316,0.034635384,0.0015633792,-3.0,-0.06391337,-3.0,3.0,3.0,-3.0,-3.0,-3.0,-3.0,-3.0,-0.61207056,-3.0,-3.0,-0.21834293,-3.0,3.0,3.0,-3.0,-3.0,-3.0,-3.0,-3.0,-0.22911295,-3.0
2025-06-06 14:10:02.924,0.028059697,0.06091841,-0.0035232024,-0.025835149,0.069862954,-0.024272535,0.0,0.0,0.0,0.033919614,-0.23078917,-0.19310959,-0.19599725,0.13057885,0.5658911,-0.24084574,-0.111018114,-0.5601267,-0.31823975,-0.050614078,-0.118954845,-0.16954172,0.047474306,-0.044134185,0.06750043,0.06883607,-0.0016146655,-0.06604198,-0.012204213,0.06070024,0.025341744,0.009637893,0.027333727,-0.019005522,-3.0,-0.21834293,-3.0,3.0,3.0,-3.0,-3.0,-3.0,-3.0,-3.0,-0.22911295,-3.0,-3.0,-0.058130763,-3.0,3.0,3.0,-3.0,-3.0,-3.0,-3.0,-3.0,-0.76131976,-3.0
2025-06-06 14:10:02.944,-0.0050770226,0.024146615,0.0039205216,-0.09912013,0.038450737,0.038533986,0.0,0.0,0.0,0.03400177,-0.22799057,-0.18951198,-0.19034493,0.13218763,0.5558142,-0.24166054,-0.10553606,-0.5521432,-0.32244805,-0.057493,-0.122181915,-0.1708157,-0.011904019,0.05004131,-0.034117818,-0.04499823,0.047364507,0.073463805,-0.060414735,-0.07634956,-0.030136762,-0.0054791486,-0.05472999,0.07426728,-3.0,-0.058130763,-3.0,3.0,3.0,-3.0,-3.0,-3.0,-3.0,-3.0,-0.76131976,-3.0,-3.0,-0.2647622,-3.0,3.0,3.0,-3.0,-3.0,-3.0,-3.0,-3.0,-0.6956413,-3.0
2025-06-06 14:10:02.964,0.017228233,0.0045628794,0.03686733,-0.0972046,0.074715175,-0.029920092,0.0,0.0,0.0,0.033968166,-0.23953868,-0.1964146,-0.18558393,0.13250515,0.553652,-0.23696317,-0.10767577,-0.5517546,-0.31064475,-0.056969978,-0.12807928,-0.1583118,0.026877351,-0.056318626,0.06267486,0.042336386,0.052175265,-0.020089224,-0.068050794,-0.0018915726,0.004426772,0.039051034,-0.090175584,0.05063649,-3.0,-0.2647622,-3.0,3.0,3.0,-3.0,-3.0,-3.0,-3.0,-3.0,-0.6956413,-3.0,-3.0,-0.11307778,-3.0,3.0,3.0,-3.0,-3.0,-3.0,-3.0,-3.0,-0.4543917,-3.0
2025-06-06 14:10:02.986,0.013944706,0.001869064,0.050247435,-0.077175505,0.071097165,0.04957328,0.0,0.0,0.0,0.03381261,-0.23199406,-0.18873116,-0.19373606,0.12595353,0.55402654,-0.2335058,-0.09945769,-0.5578323,-0.31772047,-0.05101985,-0.12697484,-0.14869277,-0.051853072,-0.013510855,-0.060757175,0.039276905,-0.04111756,-0.0131251905,-0.047075275,0.033843324,0.041547827,-0.07613201,0.007418655,0.015415109,-3.0,-0.11307778,-3.0,3.0,3.0,-3.0,-3.0,-3.0,-3.0,-3.0,-0.4543917,-3.0,-3.0,-0.27745584,-3.0,3.0,3.0,-3.0,-3.0,-3.0,-3.0,-3.0,-0.3639969,-3.0
2025-06-06 14:10:03.004,-0.015797392,0.06508126,0.008702576,-0.07600717,0.019754946,-0.0062524225,0.0,0.0,0.0,0.0336953,-0.22952141,-0.18694589,-0.20064402,0.118572004,0.5542787,-0.24432242,-0.10126618,-0.54624647,-0.3239513,-0.0485951,-0.12338676,-0.15413901,0.038708296,-0.07493942,0.0024880257,-0.07597837,-0.028156107,-0.046556626,0.07385002,-0.05214082,-0.041384038,-0.0527305,0.07533023,-0.012450367,-3.0,-0.27745584,-3.0,3.0,3.0,-3.0,-3.0,-3.0,-3.0,-3.0,-0.3639969,-3.0,-3.0,-0.14007106,-3.0,3.0,3.0,-3.0,-3.0,-3.0,-3.0,-3.0,-0.38698795,-3.0
2025-06-06 14:10:03.024,-0.01635696,-0.027347455,0.0010634831,-0.043637313,0.056793444,0.0011364328,0.0,0.0,0.0,0.03370006,-0.24176016,-0.19008523,-0.18843469,0.12475288,0.56188166,-0.24838121,-0.10511794,-0.55921054,-0.3245483,-0.0500761,-0.12709609,-0.16505772,0.006012158,-0.04623749,0.035852898,0.008485278,0.045421444,0.023308117,-0.05865964,-0.0022011523,-0.034213968,0.056667764,-0.048871297,-0.02511928,-3.0,-0.14007106,-3.0,3.0,3.0,-3.0,-3.0,-3.0,-3.0,-3.0,-0.38698795,-3.0,-3.0,-0.10855963,-3.0,3.0,3.0,-3.0,-3.0,-3.0,-3.0,-3.0,-0.59147334,-3.0
2025-06-06 14:10:03.044,-0.021843007,-0.039272893,0.014539853,-0.07743994,0.055063922,-0.048932344,0.0,0.0,0.0,0.033787146,-0.23065482,-0.19430749,-0.19118136,0.12724213,0.5675558,-0.23408127,-0.0964623,-0.559264,-0.31492716,-0.060369793,-0.12049221,-0.16000447,-0.019370703,0.029035274,-0.032046493,-0.06363205,0.032245126,0.07394135,-0.054993324,0.04636771,0.027835792,0.012876177,-0.04030035,0.0015775727,-3.0,-0.10855963,-3.0,3.0,3.0,-3.0,-3.0,-3.0,-3.0,-3.0,-0.59147334,-3.0,-3.0,-0.27667966,-3.0,3.0,3.0,-3.0,-3.0,-3.0,-3.0,-3.0,-0.48377523,-3.0
2025-06-06 14:10:03.064,0.005599547,-0.0059276675,-0.015431882,-0.06787079,0.016841378,0.042120602,0.0,0.0,0.0,0.033818115,-0.24232064,-0.19443864,-0.20119071,0.12769356,0.5598338,-0.24362361,-0.097923435,-0.55651724,-0.30836946,-0.05717671,-0.10886324,-0.15208648,0.018684503,-0.038325228,0.057992484,0.0071719224,0.03921203,0.06578319,-0.04880316,-0.020374745,0.05787236,0.01434854,0.06817733,0.065614454,-3.0,-0.27667966,-3.0,3.0,3.0,-3.0,-3.0,-3.0,-3.0,-3.0,-0.48377523,-3.0,-3.0,-0.16450372,-3.0,3.0,3.0,-3.0,-3.0,-3.0,-3.0,-3.0,-0.69122064,-3.0
2025-06-06 14:10:03.087,0.05057473,0.009962681,0.034351245,-0.066016965,0.046836387,0.008190775,0.0,0.0,0.0,0.033841692,-0.23088285,-0.20096102,-0.19174302,0.12929486,0.5700931,-0.23773049,-0.094136745,-0.5465363,-0.3238253,-0.046213567,-0.118617184,-0.15145062,0.06181867,0.07299611,0.021673748,0.05333995,-0.02943235,0.06195756,0.058100257,-0.027238054,0.0059353034,0.06847891,-0.08107987,0.05708005,-3.0,-0.16450372,-3.0,3.0,3.0,-3.0,-3.0,-3.0,-3.0,-3.0,-0.69122064,-3.0,-3.0,-0.19789782,-3.0,3.0,3.0,-3.0,-3.0,-3.0,-3.0,-3.0,-0.17509767,-3.0
2025-06-06 14:10:03.104,0.00036674715,0.05752205,-0.041992895,-0.070305504,0.0153798945,-0.0047903284,0.0,0.0,0.0,0.03381449,-0.2248396,-0.19908991,-0.19425337,0.12660484,0.55784816,-0.23650314,-0.102813,-0.5532668,-0.31107262,-0.06175089,-0.12793826,-0.16476345,0.027922215,0.038592942,0.059089765,-0.039142363,0.060971674,-0.05097412,0.039124925,0.06566515,0.012235112,-0.052454244,0.05761139,-0.0008180217,-3.0,-0.19789782,-3.0,3.0,3.0,-3.0,-3.0,-3.0,-3.0,-3.0,-0.17509767,-3.0,-3.0,-0.08891382,-3.0,3.0,3.0,-3.0,-3.0,-3.0,-3.0,-3.0,-1.1513596,-3.0
2025-06-06 14:10:03.124,0.0037985712,-0.064809,0.004528399,-0.10602242,0.087605014,-0.0025882972,0.0,0.0,0.0,0.033913694,-0.24168098,-0.19254209,-0.1986325,0.13448742,0.5615589,-0.23514597,-0.11151328,-0.55596113,-0.32376805,-0.057514843,-0.12503605,-0.1507059,-0.034229584,0.07126233,0.013732593,0.041487634,-0.03372902,0.020640325,0.00047300186,0.00334342,0.051083636,0.044673204,-0.0050407248,0.007179911,-3.0,-0.08891382,-3.0,3.0,3.0,-3.0,-3.0,-3.0,-3.0,-3.0,-1.1513596,-3.0,-3.0,-0.11411812,-3.0,3.0,3.0,-3.0,-3.0,-3.0,-3.0,-3.0,-0.5911815,-3.0
2025-06-06 14:10:03.144,0.008298051,-0.0355749,0.03074517,-0.048351243,0.06942864,-0.040184986,0.0,0.0,0.0,0.033807427,-0.22993484,-0.19936648,-0.19939211,0.1356341,0.5654502,-0.23900548,-0.10300434,-0.5625378,-0.3102474,-0.048630506,-0.13230267,-0.15259185,0.055599965,-0.053309128,-0.030724924,-0.021383077,-0.06738424,0.041669045,-0.03324717,0.010167461,-0.02581039,-0.063741915,-0.05687146,0.022396235,-3.0,-0.11411812,-3.0,3.0,3.0,-3.0,-3.0,-3.0,-3.0,-3.0,-0.5911815,-3.0,-3.0,-0.18228856,-3.0,3.0,3.0,-3.0,-3.0,-3.0,-3.0,-3.0,-0.37362674,-3.0
2025-06-06 14:10:03.164,-0.028425165,-0.012289142,0.0087503735,-0.09893007,0.029484542,-0.041934725,0.0,0.0,0.0,0.03360162,-0.23419565,-0.20193997,-0.2039596,0.121570684,0.5573366,-0.24492325,-0.11038283,-0.5460835,-0.31651926,-0.059985038,-0.14138122,-0.15126906,0.046477504,0.027999135,0.032189745,0.012716141,0.02440588,0.041689362,-0.034461826,-0.046406105,-0.0686345,0.045549918,-0.02055001,0.00023575553,-3.0,-0.18228856,-3.0,3.0,3.0,-3.0,-3.0,-3.0,-3.0,-3.0,-0.37362674,-3.0,-3.0,-0.17976418,-3.0,3.0,3.0,-3.0,-3.0,-3.0,-3.0,-3.0,-0.61361,-3.0
2025-06-06 14:10:03.187,0.0037390075,0.038147267,-0.03873849,-0.09136095,0.071683094,0.015666129,0.0,0.0,0.0,0.033538785,-0.23855513,-0.18835206,-0.2003211,0.122521415,0.5683338,-0.24581945,-0.09685412,-0.5571309,-0.31605116,-0.058543026,-0.1287773,-0.14888401,0.053569403,0.013795874,0.0015786573,-0.014237843,0.070210665,-0.015100722,-0.04153973,-0.0061712065,0.05213054,0.05091903,0.07012553,-0.06535809,-3.0,-0.17976418,-3.0,3.0,3.0,-3.0,-3.0,-3.0,-3.0,-3.0,-0.61361,-3.0,-3.0,0.04485617,-3.0,3.0,3.0,-3.0,-3.0,-3.0,-3.0,-3.0,-0.8952098,-3.0
2025-06-06 14:10:03.204,-0.020345414,-0.0433307,0.026945017,-0.035280894,-0.0003119688,-0.0065582274,0.0,0.0,0.0,0.033524502,-0.22938734,-0.20413858,-0.19055364,0.12975265,0.5603545,-0.2436603,-0.11068147,-0.5567152,-0.3209037,-0.048878744,-0.13651952,-0.14620075,-0.022718197,-0.00999028,0.0070717563,-0.047261536,0.03267692,-0.07756073,0.016877655,-0.0027065321,-0.04205292,0.036872275,-0.051695153,-0.012024937,-3.0,0.04485617,-3.0,3.0,3.0,-3.0,-3.0,-3.0,-3.0,-3.0,-0.8952098,-3.0,-3.0,-0.16948465,-3.0,3.0,3.0,-3.0,-3.0,-3.0,-3.0,-3.0,-0.30794623,-3.0
2025-06-06 14:10:03.224,-0.032663003,0.05246168,0.04241869,-0.049410377,0.09242479,-0.04404998,0.0,0.0,0.0,0.033354804,-0.24120261,-0.20437127,-0.1907634,0.13582298,0.55532354,-0.24547504,-0.09207729,-0.55778664,-0.31221846,-0.059993718,-0.14002246,-0.1539956,0.024590066,-0.050087277,-0.06299404,0.068555385,-0.011324338,-0.02427143,-0.06416734,0.013563308,0.026371349,-0.026950622,-0.041690238,0.02188387,-3.0,-0.16948465,-3.0,3.0,3.0,-3.0,-3.0,-3.0,-3.0,-3.0,-0.30794623,-3.0,-3.0,-0.21542814,-3.0,3.0,3.0,-3.0,-3.0,-3.0,-3.0,-3.0,-0.4426407,-3.0
2025-06-06 14:10:03.244,-0.021928083,0.058161005,0.044147674,-0.08028771,0.019411007,0.024013575,0.0,0.0,0.0,0.03326034,-0.23091438,-0.19980715,-0.19508335,0.12608233,0.5660039,-0.25120547,-0.09837173,-0.54519624,-0.31524152,-0.059664514,-0.1325365,-0.16024446,0.030679462,-0.015506971,0.07953146,0.036649376,0.04767833,0.06777114,0.03728276,-0.052133124,0.030472988,0.0008729221,0.079584494,-0.05726706,-3.0,-0.21542814,-3.0,3.0,3.0,-3.0,-3.0,-3.0,-3.0,-3.0,-0.4426407,-3.0,-3.0,-0.23181096,-3.0,3.0,3.0,-3.0,-3.0,-3.0,-3.0,-3.0,-0.109971374,-3.0
2025-06-06 14:10:03.264,0.0111518195,0.045732867,0.0042963377,-0.10502286,0.08338078,0.031809878,0.0,0.0,0.0,0.03329682,-0.22575948,-0.1918413,-0.18920211,0.11974292,0.56791043,-0.23855051,-0.10340365,-0.5429295,-0.30894217,-0.053293932,-0.11958649,-0.15127762,-0.06100209,-0.033279397,-0.012602112,0.014999269,-0.037220187,0.021102844,-0.0049941815,0.013108838,-0.03133379,0.033266723,0.062391784,0.014130934,-3.0,-0.23181096,-3.0,3.0,3.0,-3.0,-3.0,-3.0,-3.0,-3.0,-0.109971374,-3.0,-3.0,-0.18873945,-3.0,3.0,3.0,-3.0,-3.0,-3.0,-3.0,-3.0,-0.69269896,-3.0
2025-06-06 14:10:03.287,-0.02608405,-0.045593914,-0.010476363,-0.07885768,0.09413685,-0.0027862983,0.0,0.0,0.0,0.033521336,-0.22846213,-0.19526859,-0.18087597,0.12315227,0.5703296,-0.24103934,-0.09982755,-0.5631235,-0.32631367,-0.052456275,-0.11590627,-0.1685269,0.05218646,0.05000579,-0.02269734,0.06478921,0.0060218293,0.06273906,-0.056777462,0.014026354,-0.06404619,-0.0064610504,0.06416646,-0.034483094,-3.0,-0.18873945,-3.0,3.0,3.0,-3.0,-3.0,-3.0,-3.0,-3.0,-0.69269896,-3.0,-3.0,-0.045112275,-3.0,3.0,3.0,-3.0,-3.0,-3.0,-3.0,-3.0,-0.7729093,-3.0
2025-06-06 14:10:03.305,0.031895775,0.0030887704,0.044105057,-0.040868033,0.042374115,-0.01749042,0.0,0.0,0.0,0.03369608,-0.23393951,-0.19269258,-0.19558908,0.12964785,0.5559618,-0.24479721,-0.10122598,-0.5628134,-0.318655,-0.058911823,-0.12264228,-0.15255322,0.015593562,0.042903356,-0.032175012,-0.026882278,0.005385288,0.010693717,-0.017811684,0.027278114,-0.0370423,0.071555786,0.04137178,-0.02944255,-3.0,-0.045112275,-3.0,3.0,3.0,-3.0,-3.0,-3.0,-3.0,-3.0,-0.7729093,-3.0,-3.0,-0.2379494,-3.0,3.0,3.0,-3.0,-3.0,-3.0,-3.0,-3.0,-0.13980392,-3.0
2025-06-06 14:10:03.325,0.008263503,0.07594236,-0.03578921,-0.09759769,0.012986468,-0.009201481,0.0,0.0,0.0,0.033672277,-0.23531339,-0.19230253,-0.1924025,0.12827885,0.56683296,-0.23135094,-0.10564148,-0.5463412,-0.3174648,-0.044305094,-0.116681874,-0.16039939,0.047125462,-0.030610083,-0.068828665,0.06552667,0.023306716,0.03267343,0.04024169,-0.040634442,0.073857754,-0.025587207,0.08185686,0.016096693,-3.0,-0.2379494,-3.0,3.0,3.0,-3.0,-3.0,-3.0,-3.0,-3.0,-0.13980392,-3.0,-3.0,-0.12983873,-3.0,3.0,3.0,-3.0,-3.0,-3.0,-3.0,-3.0,-0.85107493,-3.0
2025-06-06 14:10:03.345,0.02884704,-0.028105497,0.0171494,-0.07855793,0.065553956,0.014962815,0.0,0.0,0.0,0.033753127,-0.22833157,-0.18733057,-0.20027147,0.12302704,0.56830984,-0.2327263,-0.09582841,-0.54910207,-0.3231103,-0.05430452,-0.12231228,-0.16448343,-0.03469445,-0.059486583,0.03505616,0.029765366,-0.045430645,0.032904502,-0.0028178603,0.06761102,-0.07273782,0.0526232,0.021066293,-0.02649379,-3.0,-0.12983873,-3.0,3.0,3.0,-3.0,-3.0,-3.0,-3.0,-3.0,-0.85107493,-3.0,-3.0,-0.06913116,-3.0,3.0,3.0,-3.0,-3.0,-3.0,-3.0,-3.0,-0.4450445,-3.0
