openverse-orca/OrcaGym/log/simulation_log_20250609_091948.csv
timestamp,imu_angle_roll,imu_angle_pitch,imu_angle_yaw,imu_angular_velocity_roll,imu_angular_velocity_pitch,imu_angular_velocity_yaw,imu_acc_x,imu_acc_y,imu_acc_z,fl_joint1_pos,fl_joint1_vel,fl_joint1_torque,fl_joint2_pos,fl_joint2_vel,fl_joint2_torque,fl_joint3_pos,fl_joint3_vel,fl_joint3_torque,fr_joint1_pos,fr_joint1_vel,fr_joint1_torque,fr_joint2_pos,fr_joint2_vel,fr_joint2_torque,fr_joint3_pos,fr_joint3_vel,fr_joint3_torque,hl_joint1_pos,hl_joint1_vel,hl_joint1_torque,hl_joint2_pos,hl_joint2_vel,hl_joint2_torque,hl_joint3_pos,hl_joint3_vel,hl_joint3_torque,hr_joint1_pos,hr_joint1_vel,hr_joint1_torque,hr_joint2_pos,hr_joint2_vel,hr_joint2_torque,hr_joint3_pos,hr_joint3_vel,hr_joint3_torque,fl_force_x,fl_force_y,fl_force_z,fr_force_x,fr_force_y,fr_force_z,hl_force_x,hl_force_y,hl_force_z,hr_force_x,hr_force_y,hr_force_z,fl_hip_action,fl_thigh_action,fl_calf_action,fr_hip_action,fr_thigh_action,fr_calf_action,hl_hip_action,hl_thigh_action,hl_calf_action,hr_hip_action,hr_thigh_action,hr_calf_action
2025-06-09 09:19:48.996,0.033979136,0.0046424572,0.008199901,0.032248843,0.033158295,0.026053563,1.5107653,0.2950005,0.0,0.0,-0.007013061,0.008360149,0.00393468,-0.004081117,-0.0077163377,0.008981703,0.00983804,0.004906298,0.009315225,0.002082216,-0.0033854223,-0.0025513263,-0.018651836,-0.068906516,-0.0632947,0.04882053,0.00928929,-0.02643138,0.035321515,0.057857227,-0.06207459,0.057254255,-0.02200895,0.06870201,0.0,0.0,0.0,0.0,0.0,0.0,0.0,0.0,0.0,0.0,0.0,0.0,-2.0,0.6506929,-2.0,2.0,2.0,-2.0,2.0,-1.4982951,-2.0,-2.0,-2.0,1.5753214
2025-06-09 09:19:49.000,-0.07138667,0.049077995,0.0189819,0.025338015,0.00543529,0.008346757,0.0,0.0,0.0,0.0,-0.016109953,0.029760094,-0.047036856,0.012341327,0.071870245,-0.06386168,0.015092001,-0.05379667,-0.04048875,-0.012866046,-0.0704568,0.04666434,0.019537842,0.11427599,-0.16127944,0.12513801,0.1661748,-0.19241677,0.10398845,-0.18706308,-0.1969424,-0.056300964,-0.23868442,0.079077125,-2.0,0.6506929,-2.0,2.0,2.0,-2.0,2.0,-1.4982951,-2.0,-2.0,-2.0,1.5753214,-2.0,2.0,2.0,2.0,2.0,-2.0,2.0,-2.0,-2.0,-2.0,-2.0,2.0
2025-06-09 09:19:49.020,-0.097636566,0.016649434,-0.020392189,-0.022988524,0.030243546,-0.00088106294,0.0,0.0,0.0,0.0002919186,-0.034544006,0.106830694,-0.01276078,0.03228969,0.15284719,-0.108342506,0.035633415,-0.1323467,-0.080853544,-0.04179367,-0.17247768,0.10542036,-0.047459975,0.29233912,0.2333408,0.039406784,0.051715575,-0.06853715,0.015169353,-0.15612061,0.021307977,-0.11421045,-0.30215853,0.17801517,-2.0,2.0,2.0,2.0,2.0,-2.0,2.0,-2.0,-2.0,-2.0,-2.0,2.0,-2.0,2.0,-2.0,2.0,2.0,-2.0,2.0,-2.0,-2.0,-2.0,-2.0,2.0
2025-06-09 09:19:49.040,-0.05488309,0.0049407035,-0.080089964,-0.02856641,0.006137193,0.04943245,0.0,0.0,0.0,0.0005925755,-0.04856274,0.20762774,-0.03884916,0.047901735,0.16036412,-0.0833018,0.04946874,-0.1941078,-0.03905471,-0.06591381,-0.25840682,0.13735309,-0.08580146,0.25268176,-0.08820521,0.09481535,-0.054078296,0.12427704,-0.031096965,-0.09596856,0.13369489,-0.012150305,-0.17303473,0.023086809,-2.0,2.0,-2.0,2.0,2.0,-2.0,2.0,-2.0,-2.0,-2.0,-2.0,2.0,-2.0,2.0,-2.0,2.0,2.0,-2.0,2.0,-2.0,-2.0,-2.0,-2.0,-2.0
2025-06-09 09:19:49.063,-0.08440272,0.011899558,0.004629656,0.06548194,0.023671772,0.00973085,0.0,0.0,0.0,0.0014311346,-0.048337456,0.27359328,-0.080753714,0.058067266,0.16160853,-0.058782693,0.051871847,-0.21950345,-0.0027148402,-0.08272522,-0.29961386,0.07105903,0.011101974,0.15076226,-0.017502233,0.011090937,0.042146318,0.079543866,-0.023004172,-0.09314874,0.16951068,0.047038995,-0.10019101,-0.2168611,-2.0,2.0,-2.0,2.0,2.0,-2.0,2.0,-2.0,-2.0,-2.0,-2.0,-2.0,-2.0,2.0,-2.0,2.0,2.0,-2.0,2.0,-2.0,-2.0,-2.0,-2.0,-2.0
2025-06-09 09:19:49.080,-0.054914687,-0.01192943,-0.088709734,-0.010645198,0.05880726,0.0136849815,0.0,0.0,0.0,0.0024479646,-0.049764127,0.2660867,-0.08141887,0.0744239,0.1616956,-0.03844967,0.07513262,-0.26163426,0.051777862,-0.076943316,-0.316042,-0.013381203,0.03867258,-0.013521688,0.0728086,-0.009500887,0.0853954,0.058387578,-0.04336055,-0.044067375,0.040510688,0.05611217,-0.028328931,-0.08281128,-2.0,2.0,-2.0,2.0,2.0,-2.0,2.0,-2.0,-2.0,-2.0,-2.0,-2.0,-2.0,2.0,-2.0,2.0,2.0,-2.0,2.0,-2.0,-2.0,-2.0,-2.0,-2.0
2025-06-09 09:19:49.100,-0.053525228,0.026990034,-0.00088556245,0.001994243,0.063329086,-0.005705927,0.0,0.0,0.0,0.0033426879,-0.061129626,0.277339,-0.091051385,0.06255575,0.17467338,-0.040987696,0.06621799,-0.26800078,0.06499723,-0.072041586,-0.3255852,-0.014615031,0.03292725,-0.0009443119,-0.07115117,-0.04768197,0.016410077,-0.07592992,0.07939989,-0.006175211,-0.03448021,0.06534809,0.022964295,-0.02576763,-2.0,2.0,-2.0,2.0,2.0,-2.0,2.0,-2.0,-2.0,-2.0,-2.0,-2.0,-2.0,2.0,-2.0,2.0,2.0,-2.0,2.0,-2.0,-2.0,-2.0,-2.0,-2.0
2025-06-09 09:19:49.120,-0.027458765,0.07042174,-0.017989656,0.015470818,-0.022144511,-0.0051135425,0.0,0.0,0.0,0.00417328,-0.060346235,0.28088242,-0.09517097,0.079107374,0.211119,-0.048846334,0.078194216,-0.26412535,0.056343693,-0.07804018,-0.3365411,-0.0047945683,-0.06518017,-0.024010621,-0.08849933,0.029330615,0.030327113,-0.0681316,-0.012978045,-0.07178878,-0.035908733,0.059431177,-0.048998393,-0.0012212587,-2.0,2.0,-2.0,2.0,2.0,-2.0,2.0,-2.0,-2.0,-2.0,-2.0,-2.0,-2.0,2.0,-2.0,2.0,2.0,-2.0,2.0,-2.0,-2.0,-2.0,-2.0,-2.0
2025-06-09 09:19:49.140,0.018331528,0.035610057,-0.08246423,0.022954712,0.015188621,-0.041843247,0.0,0.0,0.0,0.0050245044,-0.07166009,0.2939962,-0.10524811,0.06624494,0.22223583,-0.0625483,0.075748146,-0.25692645,0.061499473,-0.07115115,-0.32036185,-0.0006268836,-0.046703197,-0.008048722,0.0007893625,0.022118723,0.09711691,-0.018133523,0.043218963,-0.006134066,0.024816012,0.07227739,-0.03542076,0.033303916,-2.0,2.0,-2.0,2.0,2.0,-2.0,2.0,-2.0,-2.0,-2.0,-2.0,-2.0,-2.0,2.0,-2.0,2.0,2.0,-2.0,2.0,-2.0,-2.0,-2.0,-2.0,-2.0
2025-06-09 09:19:49.163,-0.011008624,0.015162167,-0.058578283,0.02906969,-0.022868788,0.007576968,0.0,0.0,0.0,0.005877622,-0.07202536,0.31167075,-0.11514084,0.06624654,0.25846368,-0.090654366,0.07019688,-0.26131326,0.047378894,-0.07495676,-0.30681574,-0.013599364,0.02385289,0.010012361,-0.07031282,-0.07426742,0.10406982,-0.0013727379,0.032611616,0.06684947,-0.040471528,0.0061691157,0.031425204,-0.08246608,-2.0,2.0,-2.0,2.0,2.0,-2.0,2.0,-2.0,-2.0,-2.0,-2.0,-2.0,-2.0,2.0,-2.0,2.0,2.0,-2.0,2.0,-2.0,-2.0,-2.0,-2.0,-2.0
2025-06-09 09:19:49.180,-0.05796074,-0.016673373,-0.0790434,0.045577895,0.03254829,-0.013150163,0.0,0.0,0.0,0.006669926,-0.08310462,0.30684474,-0.12096783,0.063720524,0.27440056,-0.10562666,0.069508776,-0.27116683,0.040348653,-0.068053566,-0.31671107,-0.026812814,0.046745647,0.053411257,-0.08459405,0.006215373,0.08244559,-0.0036286172,0.06466189,0.06227421,-0.024364669,-0.025701685,0.0015025585,0.05657885,-2.0,2.0,-2.0,2.0,2.0,-2.0,2.0,-2.0,-2.0,-2.0,-2.0,-2.0,-2.0,2.0,-2.0,2.0,2.0,-2.0,2.0,-2.0,-2.0,-2.0,-2.0,-2.0
2025-06-09 09:19:49.200,-0.054326843,0.008676896,-0.04060176,0.06790723,0.0005925756,0.042974684,0.0,0.0,0.0,0.0073390077,-0.07061867,0.30507687,-0.13892992,0.0635218,0.28653327,-0.14129263,0.08505188,-0.26264194,0.031127922,-0.070659675,-0.30382904,-0.024615452,-0.05961742,0.010849629,-0.07522866,0.041286297,0.05076063,-0.011078113,0.010559173,0.03836919,-0.06858189,0.038991783,-0.014148709,0.0046662306,-2.0,2.0,-2.0,2.0,2.0,-2.0,2.0,-2.0,-2.0,-2.0,-2.0,-2.0,-2.0,2.0,-2.0,2.0,2.0,-2.0,2.0,-2.0,-2.0,-2.0,-2.0,-2.0
2025-06-09 09:19:49.221,-0.0057523586,0.02214866,0.016323842,0.047807775,-0.0027785446,-0.033186097,0.0,0.0,0.0,0.007850639,-0.07427231,0.3098934,-0.13740662,0.07784985,0.2891531,-0.15008546,0.07296382,-0.2745831,0.029123822,-0.06175932,-0.3002296,-0.033400025,-0.027187465,-0.04379611,0.043387774,-0.003917033,-0.03143017,0.034380205,0.051406477,-0.06256385,0.04787908,0.057517845,-0.060297575,-0.072710074,-2.0,2.0,-2.0,2.0,2.0,-2.0,2.0,-2.0,-2.0,-2.0,-2.0,-2.0,-2.0,2.0,-2.0,2.0,2.0,-2.0,2.0,-2.0,-2.0,-2.0,-2.0,-2.0
2025-06-09 09:19:49.240,-0.03600567,0.02511326,-0.04281501,0.061214704,0.037599493,-0.011900877,0.0,0.0,0.0,0.008200746,-0.08724163,0.3241266,-0.14981885,0.081791885,0.29575837,-0.13907939,0.08007606,-0.27504814,0.030498346,-0.05679159,-0.3049939,-0.037967477,-0.054465946,0.022634212,-0.06414209,0.019474594,0.07463732,-0.010356084,0.022313174,-0.00667483,0.0028361727,0.023959164,-0.058236342,0.025499044,-2.0,2.0,-2.0,2.0,2.0,-2.0,2.0,-2.0,-2.0,-2.0,-2.0,-2.0,-2.0,2.0,-2.0,2.0,2.0,-2.0,2.0,-2.0,-2.0,-2.0,-2.0,-2.0
2025-06-09 09:19:49.264,0.021072999,0.02862073,-0.02512732,0.055407368,-0.040199757,0.044940885,0.0,0.0,0.0,0.008408606,-0.0815498,0.31578463,-0.14459015,0.0853833,0.3057689,-0.14716472,0.08631621,-0.27529198,0.028871667,-0.06151731,-0.3080782,-0.036225267,-0.07321938,-0.06118533,-0.069800645,-0.0106737595,0.034031037,-0.047603574,-0.0030228854,0.012502779,0.029128397,0.06349013,0.03985159,-0.07474086,-2.0,2.0,-2.0,2.0,2.0,-2.0,2.0,-2.0,-2.0,-2.0,-2.0,-2.0,-2.0,2.0,-2.0,2.0,2.0,-2.0,2.0,-2.0,-2.0,-2.0,-2.0,-2.0
2025-06-09 09:19:49.280,0.021818753,0.013212324,-0.05030663,0.026450636,0.034281343,0.028745672,0.0,0.0,0.0,0.008507543,-0.06997812,0.3132704,-0.13635802,0.08418481,0.31862304,-0.15353908,0.0733905,-0.2792679,0.012300235,-0.06367585,-0.31943253,-0.044071015,0.033249084,0.0494755,0.06952778,0.018276902,0.03208876,-0.0072354,0.013417577,-0.0032577221,0.04926389,0.05056748,0.05947683,0.026359998,-2.0,2.0,-2.0,2.0,2.0,-2.0,2.0,-2.0,-2.0,-2.0,-2.0,-2.0,-2.0,2.0,-2.0,2.0,2.0,-2.0,2.0,-2.0,-2.0,-2.0,-2.0,-2.0
2025-06-09 09:19:49.301,0.01884527,-0.046573646,0.037031032,0.019893529,-0.028702684,-0.03055977,0.0,0.0,0.0,0.008536135,-0.07406801,0.31387672,-0.1275043,0.07905833,0.32102042,-0.15631062,0.06543911,-0.28256473,0.012555803,-0.05484175,-0.30951035,-0.04335369,0.041833024,0.005297848,0.08385561,0.04179681,0.035140526,-0.061414767,-0.020363765,-0.05737483,0.054502804,-0.018534714,0.016570082,-0.0009961529,-2.0,2.0,-2.0,2.0,2.0,-2.0,2.0,-2.0,-2.0,-2.0,-2.0,-2.0,-2.0,2.0,-2.0,2.0,2.0,-2.0,2.0,-2.0,-2.0,-2.0,-2.0,-2.0
2025-06-09 09:19:49.321,0.015954029,-0.03593424,0.016934048,0.071872994,-0.039648496,-0.03744918,0.0,0.0,0.0,0.008531397,-0.08205453,0.2987379,-0.12584828,0.07983301,0.31720215,-0.14619449,0.080672346,-0.29525182,0.007785747,-0.055049032,-0.32711515,-0.037833236,0.032431893,0.0314725,-0.02908421,0.06223003,-0.019642578,-0.012960698,0.028612778,0.04990686,0.047806855,-0.0742332,0.033623926,-0.040763658,-2.0,2.0,-2.0,2.0,2.0,-2.0,2.0,-2.0,-2.0,-2.0,-2.0,-2.0,-2.0,2.0,-2.0,2.0,2.0,-2.0,2.0,-2.0,-2.0,-2.0,-2.0,-2.0
2025-06-09 09:19:49.341,0.046175458,-0.02377358,-0.04425944,0.033170722,0.03770853,0.010108849,0.0,0.0,0.0,0.008524425,-0.08387969,0.29788902,-0.13529092,0.094402485,0.30554998,-0.14171933,0.073663674,-0.29713133,-0.00701216,-0.07074247,-0.32167438,-0.051414974,-0.0038005186,0.0218346,0.06754763,-0.013730822,0.0021165446,0.026195474,-0.002975433,0.02343385,-0.05382536,-0.030877918,0.010658575,-0.03480947,-2.0,2.0,-2.0,2.0,2.0,-2.0,2.0,-2.0,-2.0,-2.0,-2.0,-2.0,-2.0,2.0,-2.0,2.0,2.0,-2.0,2.0,-2.0,-2.0,-2.0,-2.0,-2.0
2025-06-09 09:19:49.364,-0.0312446,-0.04185428,0.030722389,0.050854106,0.0251404,0.037192307,0.0,0.0,0.0,0.008537147,-0.0786417,0.29729035,-0.12796433,0.08171671,0.30344486,-0.13817696,0.06995217,-0.2986034,0.00315131,-0.06411624,-0.32650372,-0.055218697,-0.003340009,-0.018447813,0.0005248506,-0.011059725,-0.03565606,-0.038203776,0.012604253,0.021302398,-0.015906574,-0.053858314,0.029300526,-0.051009186,-2.0,2.0,-2.0,2.0,2.0,-2.0,2.0,-2.0,-2.0,-2.0,-2.0,-2.0,-2.0,2.0,-2.0,2.0,2.0,-2.0,2.0,-2.0,-2.0,-2.0,-2.0,-2.0
2025-06-09 09:19:49.381,0.020950397,0.016196717,-0.04936257,0.059851926,0.03936372,-0.048780646,0.0,0.0,0.0,0.00857292,-0.080821335,0.2859869,-0.1191966,0.093056716,0.31595495,-0.12328753,0.06433883,-0.30170137,-0.0062983586,-0.06344359,-0.32368705,-0.05616471,-0.057953555,0.056203056,0.005350684,0.010719967,-0.019459497,-0.03215663,-0.061137967,0.018420706,-0.041690778,-0.058940627,0.035731573,0.06589567,-2.0,2.0,-2.0,2.0,2.0,-2.0,2.0,-2.0,-2.0,-2.0,-2.0,-2.0,-2.0,2.0,-2.0,2.0,2.0,-2.0,2.0,-2.0,-2.0,-2.0,-2.0,-2.0
2025-06-09 09:19:49.401,-0.016608268,-0.07268131,-0.021243978,0.0011259536,0.0017152217,0.036227286,0.0,0.0,0.0,0.008628274,-0.073289,0.30210015,-0.1263342,0.08706556,0.3232802,-0.12187561,0.0651131,-0.2985866,-0.02016576,-0.061993867,-0.32754594,-0.05223561,-0.0016974318,0.029519916,-0.031963725,-0.06997885,0.0337538,-0.027130734,-0.022802874,-0.03620128,0.013725123,-0.022859525,0.019172916,-0.011219545,-2.0,2.0,-2.0,2.0,2.0,-2.0,2.0,-2.0,-2.0,-2.0,-2.0,-2.0,-2.0,2.0,-2.0,2.0,2.0,-2.0,2.0,-2.0,-2.0,-2.0,-2.0,-2.0
2025-06-09 09:19:49.421,-0.0100617325,-0.016677933,0.012761746,-0.0027674658,0.004129297,0.027398996,0.0,0.0,0.0,0.008708081,-0.0830973,0.28077802,-0.12764521,0.09047253,0.3154118,-0.1307535,0.060377706,-0.3079981,-0.0206285,-0.06949984,-0.3246297,-0.052817993,-0.07235088,-0.014736868,0.05075433,0.06163191,-0.013784088,0.04374902,-0.052159473,-0.07291784,-0.048229367,-0.0023224568,-0.059350684,0.0582471,-2.0,2.0,-2.0,2.0,2.0,-2.0,2.0,-2.0,-2.0,-2.0,-2.0,-2.0,-2.0,2.0,-2.0,2.0,2.0,-2.0,2.0,-2.0,-2.0,-2.0,-2.0,-2.0
2025-06-09 09:19:49.441,-0.0009838719,-0.053205162,0.0027538857,-0.009137996,-0.011742741,0.02482871,0.0,0.0,0.0,0.008814751,-0.09102822,0.2882304,-0.1260904,0.10016643,0.3185888,-0.12880827,0.054079417,-0.30873638,-0.02628225,-0.061159704,-0.34149113,-0.043724988,0.045969725,-0.06349348,-0.06450765,0.006965911,0.018900905,-0.055734284,0.02020638,-0.07550597,0.013657539,0.03554774,-0.032382596,-0.012425863,-2.0,2.0,-2.0,2.0,2.0,-2.0,2.0,-2.0,-2.0,-2.0,-2.0,-2.0,-2.0,2.0,-2.0,2.0,2.0,-2.0,2.0,-2.0,-2.0,-2.0,-2.0,-2.0
2025-06-09 09:19:49.464,-0.046098977,-0.0051704184,-0.038016763,0.057338748,-0.03450828,-0.035665803,0.0,0.0,0.0,0.008947386,-0.09008264,0.27889663,-0.11396323,0.103096195,0.30923623,-0.120018795,0.06049931,-0.31749988,-0.02703215,-0.06099729,-0.3474216,-0.06059601,-0.026793923,0.057447307,0.064105526,0.036430046,-0.05401182,-0.005371001,-0.039743043,0.0072340183,-0.058220327,0.038514487,-0.004389405,0.060067434,-2.0,2.0,-2.0,2.0,2.0,-2.0,2.0,-2.0,-2.0,-2.0,-2.0,-2.0,-2.0,2.0,-2.0,2.0,2.0,-2.0,2.0,-2.0,-2.0,-2.0,-2.0,-2.0
2025-06-09 09:19:49.481,0.047261223,-0.011101426,-0.04593135,0.008159013,-0.013753512,0.029778948,0.0,0.0,0.0,0.009102762,-0.09066952,0.28232086,-0.11544549,0.09235109,0.31764495,-0.11775449,0.05263795,-0.31420508,-0.03890403,-0.056915034,-0.3444522,-0.048102546,0.006936206,0.044890895,0.051975064,0.029966041,0.02495941,0.05021233,0.036977746,-0.0678017,0.054459002,-0.070839144,-0.009333879,-0.041858867,-2.0,2.0,-2.0,2.0,2.0,-2.0,2.0,-2.0,-2.0,-2.0,-2.0,-2.0,-2.0,2.0,-2.0,2.0,2.0,-2.0,2.0,-2.0,-2.0,-2.0,-2.0,-2.0
2025-06-09 09:19:49.501,0.0083707,-0.036021557,-0.046517443,-0.011869544,0.047558397,-0.04790937,0.0,0.0,0.0,0.009276139,-0.08044621,0.27858338,-0.1136397,0.10321259,0.32164252,-0.107557684,0.05664732,-0.31889987,-0.055628266,-0.07172593,-0.33816832,-0.04685674,0.024634078,0.060370564,0.011920604,0.06078875,0.018057914,0.036144245,-0.049901936,0.015288796,-0.06483094,-0.0060581043,-0.040000957,-0.027184878,-2.0,2.0,-2.0,2.0,2.0,-2.0,2.0,-2.0,-2.0,-2.0,-2.0,-2.0,-2.0,2.0,-2.0,2.0,2.0,-2.0,2.0,-2.0,-2.0,-2.0,-2.0,-2.0
2025-06-09 09:19:49.521,0.030532682,-0.06185289,-0.043821104,0.010883236,0.024861598,-0.043558415,0.0,0.0,0.0,0.009460806,-0.09584768,0.27845874,-0.12532939,0.09935461,0.31439576,-0.10957565,0.055009373,-0.3177742,-0.056281704,-0.05665559,-0.33929464,-0.048114922,0.0071029384,-0.01657307,0.0044330577,0.04487721,0.007719023,-0.043144356,0.04848229,-0.010714524,-0.019992227,0.04637682,-0.021090502,0.0051799645,-2.0,2.0,-2.0,2.0,2.0,-2.0,2.0,-2.0,-2.0,-2.0,-2.0,-2.0,-2.0,2.0,-2.0,2.0,2.0,-2.0,2.0,-2.0,-2.0,-2.0,-2.0,-2.0
2025-06-09 09:19:49.541,-0.04889866,-0.027985934,-0.035373114,0.010424997,0.0061102207,0.033343118,0.0,0.0,0.0,0.0096493345,-0.09882867,0.28220478,-0.11486212,0.1022743,0.31383422,-0.115242414,0.052336697,-0.32141826,-0.06460311,-0.06193892,-0.35044622,-0.048265748,0.001695625,-0.06815853,0.017761685,-0.023429116,-0.03072732,-0.054166883,-0.0008371618,0.060978875,0.062895045,0.030299664,0.04364246,0.04408725,-2.0,2.0,-2.0,2.0,2.0,-2.0,2.0,-2.0,-2.0,-2.0,-2.0,-2.0,-2.0,2.0,-2.0,2.0,2.0,-2.0,2.0,-2.0,-2.0,-2.0,-2.0,-2.0
2025-06-09 09:19:49.564,0.021925168,-0.044639323,0.030029751,0.011916207,0.03215056,0.036983795,0.0,0.0,0.0,0.009835196,-0.08838637,0.27971604,-0.12817743,0.09666575,0.316463,-0.10733051,0.045717753,-0.3144594,-0.058180276,-0.06408867,-0.3392779,-0.0471469,0.064678356,0.06010482,-0.03210765,-0.049862042,0.011500987,0.053544372,-0.021031,-0.028101914,0.006677921,-0.06384736,-0.06361733,-0.017479222,-2.0,2.0,-2.0,2.0,2.0,-2.0,2.0,-2.0,-2.0,-2.0,-2.0,-2.0,-2.0,2.0,-2.0,2.0,2.0,-2.0,2.0,-2.0,-2.0,-2.0,-2.0,-2.0
2025-06-09 09:19:49.582,0.04385985,-0.028402073,-0.04066702,-0.01776096,0.068636164,0.010357863,0.0,0.0,0.0,0.010012964,-0.09654103,0.28611192,-0.11557873,0.10472077,0.31919542,-0.1181912,0.05806965,-0.32560116,-0.07222581,-0.06455259,-0.3560859,-0.04154824,-0.025243176,-0.06786265,-0.0715651,-0.018501772,-0.058706347,-0.018241039,-0.010209516,-0.06697787,-0.005937797,0.0077846767,0.047147002,0.047951214,-2.0,2.0,-2.0,2.0,2.0,-2.0,2.0,-2.0,-2.0,-2.0,-2.0,-2.0,-2.0,2.0,-2.0,2.0,2.0,-2.0,2.0,-2.0,-2.0,-2.0,-2.0,-2.0
2025-06-09 09:19:49.602,-0.028974785,-0.058951423,-0.022848718,0.05372476,-0.0040022535,-0.024295056,0.0,0.0,0.0,0.010178542,-0.099550016,0.27493185,-0.13314569,0.091219075,0.32616946,-0.10885945,0.051986106,-0.32012555,-0.07185687,-0.06282158,-0.34877405,-0.039822422,0.017353835,0.01880086,-0.019819822,-0.019757712,0.052268587,0.0014852736,0.05753388,0.0044653113,0.017522108,-0.024228659,-0.050225344,0.062061988,-2.0,2.0,-2.0,2.0,2.0,-2.0,2.0,-2.0,-2.0,-2.0,-2.0,-2.0,-2.0,2.0,-2.0,2.0,2.0,-2.0,2.0,-2.0,-2.0,-2.0,-2.0,-2.0
2025-06-09 09:19:49.622,0.019949226,0.023744836,-0.027300416,0.047084436,-0.0018150666,-0.025292782,0.0,0.0,0.0,0.010329424,-0.09968184,0.27684152,-0.13007149,0.092172265,0.33402753,-0.10370365,0.0447917,-0.3168831,-0.068824485,-0.06421044,-0.35576147,-0.04417027,-0.050701384,0.039187454,0.067663684,-0.06608889,0.06778041,-0.010385106,-0.049340606,0.07127383,0.03162657,-0.0012070257,0.025307707,-0.009214091,-2.0,2.0,-2.0,2.0,2.0,-2.0,2.0,-2.0,-2.0,-2.0,-2.0,-2.0,-2.0,2.0,-2.0,2.0,2.0,-2.0,2.0,-2.0,-2.0,-2.0,-2.0,-2.0
2025-06-09 09:19:49.642,-0.010230313,-0.048993696,0.0021079942,0.051216565,0.06445449,0.033670247,0.0,0.0,0.0,0.010465638,-0.100901164,0.2700561,-0.12134565,0.10018056,0.32890084,-0.11243777,0.059262827,-0.32802242,-0.06198749,-0.060995795,-0.3531284,-0.035747927,0.04875252,0.022097196,0.0025783416,-0.037532985,0.0005537735,-0.03612292,0.0010074641,-0.003000085,-0.07476986,-0.04741466,0.011116522,0.05335038,-2.0,2.0,-2.0,2.0,2.0,-2.0,2.0,-2.0,-2.0,-2.0,-2.0,-2.0,-2.0,2.0,-2.0,2.0,2.0,-2.0,2.0,-2.0,-2.0,-2.0,-2.0,-2.0
2025-06-09 09:19:49.664,0.04337168,-0.018874418,0.03773082,-0.030789671,0.05255367,-0.02065288,0.0,0.0,0.0,0.010587971,-0.09836163,0.27563173,-0.13150118,0.10223307,0.3378467,-0.09641799,0.057768833,-0.32219395,-0.06953351,-0.07092248,-0.34156835,-0.052016,0.0380554,0.03531825,0.05422911,-0.06259466,0.011471959,0.052262504,0.047515944,-0.02622377,0.057888027,-0.019133758,-0.017323913,0.05636121,-2.0,2.0,-2.0,2.0,2.0,-2.0,2.0,-2.0,-2.0,-2.0,-2.0,-2.0,-2.0,2.0,-2.0,2.0,2.0,-2.0,2.0,-2.0,-2.0,-2.0,-2.0,-2.0
2025-06-09 09:19:49.682,0.035360567,-0.0034636206,0.03895118,-0.02392993,-0.0026242991,-0.04243168,0.0,0.0,0.0,0.010696395,-0.09611812,0.28036705,-0.1193262,0.090515524,0.34050858,-0.10447275,0.04116596,-0.32152903,-0.07703465,-0.06334713,-0.34055004,-0.042675093,0.013459038,-0.046234015,0.057675686,0.021118019,0.018869882,0.06991059,0.005349444,0.064733736,0.04749109,0.019659836,-0.017310772,0.046285495,-2.0,2.0,-2.0,2.0,2.0,-2.0,2.0,-2.0,-2.0,-2.0,-2.0,-2.0,-2.0,2.0,-2.0,2.0,2.0,-2.0,2.0,-2.0,-2.0,-2.0,-2.0,-2.0
2025-06-09 09:19:49.703,-0.00038930005,-0.041082896,-0.020311825,0.050601363,0.018454477,0.017652748,0.0,0.0,0.0,0.010789494,-0.08551058,0.28441536,-0.12690909,0.09082283,0.33609605,-0.09661768,0.047558952,-0.3368916,-0.06640283,-0.06005195,-0.3509422,-0.03783973,0.024157798,0.054122206,0.06502181,0.00027182014,-0.02634605,-0.028173905,-0.06464205,0.06298781,-0.049046624,0.0691099,-0.06098534,-0.033039823,-2.0,2.0,-2.0,2.0,2.0,-2.0,2.0,-2.0,-2.0,-2.0,-2.0,-2.0,-2.0,2.0,-2.0,2.0,2.0,-2.0,2.0,-2.0,-2.0,-2.0,-2.0,-2.0
2025-06-09 09:19:49.722,0.032850415,-0.017401401,-0.05052107,0.059073046,-0.020433718,-0.033201296,0.0,0.0,0.0,0.010864904,-0.09657147,0.2704262,-0.114332356,0.09922478,0.33780333,-0.108328395,0.05336138,-0.33575827,-0.08474972,-0.06714546,-0.3419226,-0.028647572,-0.03964015,0.0070749633,0.058504887,-0.016346913,0.053813543,-0.04260719,-0.07631854,-0.04015079,-0.039418492,-0.025833448,0.028792255,0.03720115,-2.0,2.0,-2.0,2.0,2.0,-2.0,2.0,-2.0,-2.0,-2.0,-2.0,-2.0,-2.0,2.0,-2.0,2.0,2.0,-2.0,2.0,-2.0,-2.0,-2.0,-2.0,-2.0
2025-06-09 09:19:49.744,0.007311332,-0.0051981383,0.031225896,0.009068626,0.03125561,-0.02106776,0.0,0.0,0.0,0.010921514,-0.09185642,0.27133816,-0.1229743,0.08926046,0.34051898,-0.0975977,0.055582035,-0.32312256,-0.071464285,-0.05597656,-0.33961785,-0.039240107,0.030127665,0.010404401,-0.04294371,0.024329297,-0.039378874,0.03172379,-0.024812508,0.02845018,0.07072459,0.053588983,-0.036773674,-0.0038990204,-2.0,2.0,-2.0,2.0,2.0,-2.0,2.0,-2.0,-2.0,-2.0,-2.0,-2.0,-2.0,2.0,-2.0,2.0,2.0,-2.0,2.0,-2.0,-2.0,-2.0,-2.0,-2.0
2025-06-09 09:19:49.764,-0.0092803985,0.037074868,0.029460082,0.03962243,0.027156187,0.013598872,0.0,0.0,0.0,0.010959819,-0.09826275,0.28641313,-0.111766696,0.10158101,0.34407863,-0.10987126,0.050226014,-0.33146247,-0.079623766,-0.050442554,-0.34339583,-0.042928476,-0.010742159,-0.05580248,0.011769914,-0.05976961,0.006387401,-0.035989802,0.013084977,-0.04247487,-0.053438615,-0.06362382,-0.052583534,-0.06386533,-2.0,2.0,-2.0,2.0,2.0,-2.0,2.0,-2.0,-2.0,-2.0,-2.0,-2.0,-2.0,2.0,-2.0,2.0,2.0,-2.0,2.0,-2.0,-2.0,-2.0,-2.0,-2.0
2025-06-09 09:19:49.782,0.02681441,-0.025127567,0.025197601,0.0074449377,0.034843937,0.033226423,0.0,0.0,0.0,0.010981572,-0.08519024,0.27769202,-0.11832731,0.0890451,0.34246138,-0.10880882,0.03680045,-0.33623618,-0.07026197,-0.05899009,-0.3361525,-0.04141736,0.046994064,0.0019666378,-0.051663563,0.067546085,0.0478525,-0.048813105,-0.037562136,-0.02945365,-0.050153546,0.022218395,-0.05788664,0.052921277,-2.0,2.0,-2.0,2.0,2.0,-2.0,2.0,-2.0,-2.0,-2.0,-2.0,-2.0,-2.0,2.0,-2.0,2.0,2.0,-2.0,2.0,-2.0,-2.0,-2.0,-2.0,-2.0
2025-06-09 09:19:49.803,0.042848565,0.04352812,0.02050409,0.013316647,-0.0074100816,-0.0273551,0.0,0.0,0.0,0.010989337,-0.08771516,0.2927708,-0.11795266,0.102104895,0.35233754,-0.11037208,0.042894248,-0.32711238,-0.068564996,-0.06356729,-0.3436552,-0.033694543,-0.055483337,-0.02202507,-0.030971732,-0.010670491,-0.038659133,-0.003063566,-0.03748258,0.061410196,-0.023983639,-0.019319816,0.033011824,0.006249042,-2.0,2.0,-2.0,2.0,2.0,-2.0,2.0,-2.0,-2.0,-2.0,-2.0,-2.0,-2.0,2.0,-2.0,2.0,2.0,-2.0,2.0,-2.0,-2.0,-2.0,-2.0,-2.0
2025-06-09 09:19:49.823,-0.005045295,0.017878022,-0.022026911,0.00034979114,0.050647516,0.04860819,0.0,0.0,0.0,0.010986109,-0.09020724,0.2861815,-0.12179513,0.10364134,0.34845534,-0.10550028,0.040601242,-0.3436353,-0.076641135,-0.053513438,-0.3539402,-0.039267458,-0.056974784,-0.0111596845,0.025357075,-0.065601125,-0.037602134,0.0009192875,0.04271805,-0.023968205,-0.047035363,-0.023689881,-0.0073664696,0.026808588,-2.0,2.0,-2.0,2.0,2.0,-2.0,2.0,-2.0,-2.0,-2.0,-2.0,-2.0,-2.0,2.0,-2.0,2.0,2.0,-2.0,2.0,-2.0,-2.0,-2.0,-2.0,-2.0
2025-06-09 09:19:49.846,0.03380056,-0.038260113,0.001219267,0.03587661,0.05499795,0.0010947214,0.0,0.0,0.0,0.010975007,-0.09847915,0.2759038,-0.122189686,0.10125284,0.35911125,-0.11333533,0.044741098,-0.3324328,-0.07909524,-0.061215572,-0.34384856,-0.021652598,-0.014082712,0.014834752,-0.040031217,0.070991114,-0.06542685,0.0055540446,0.023813907,0.030353893,-0.0029274826,0.024549535,0.041183062,0.033088114,-2.0,2.0,-2.0,2.0,2.0,-2.0,2.0,-2.0,-2.0,-2.0,-2.0,-2.0,-2.0,2.0,-2.0,2.0,2.0,-2.0,2.0,-2.0,-2.0,-2.0,-2.0,-2.0
2025-06-09 09:19:49.864,-0.03157381,-0.034638833,-0.04032539,0.047287054,0.04544463,-0.04384643,0.0,0.0,0.0,0.010959038,-0.09757547,0.29203844,-0.11217258,0.107075155,0.3533313,-0.10343754,0.035342596,-0.33358356,-0.08693409,-0.06504241,-0.35254043,-0.03483545,-0.027232364,-0.0064992397,-0.012329402,0.014526321,-0.015639495,-0.030444326,-0.060805626,0.0427656,0.016526388,0.03673357,0.01855274,-0.030557575,-2.0,2.0,-2.0,2.0,2.0,-2.0,2.0,-2.0,-2.0,-2.0,-2.0,-2.0,-2.0,2.0,-2.0,2.0,2.0,-2.0,2.0,-2.0,-2.0,-2.0,-2.0,-2.0
2025-06-09 09:19:49.883,0.038333587,0.039766923,0.046058822,0.031288017,0.037428062,-0.028566869,0.0,0.0,0.0,0.01094094,-0.08965361,0.29270896,-0.11556285,0.10077079,0.34991723,-0.113897406,0.042550407,-0.34439823,-0.081163414,-0.056215618,-0.33732563,-0.025397407,-0.043082193,0.05140056,-0.07185589,0.07082816,-0.044120766,0.053478565,-0.013730279,-0.070582785,-0.074328326,-0.06280343,0.016843842,-0.0199969,-2.0,2.0,-2.0,2.0,2.0,-2.0,2.0,-2.0,-2.0,-2.0,-2.0,-2.0,-2.0,2.0,-2.0,2.0,2.0,-2.0,2.0,-2.0,-2.0,-2.0,-2.0,-2.0
2025-06-09 09:19:49.903,-0.0048345714,0.020354783,0.033745475,-0.018401993,0.044925038,0.024752611,0.0,0.0,0.0,0.010923078,-0.08974274,0.2893264,-0.109299466,0.09363558,0.3622865,-0.10526867,0.045674056,-0.33797857,-0.07999872,-0.059500255,-0.33619905,-0.021035867,-0.048197173,-0.04975452,0.06870933,-0.07269587,0.0037507436,0.02229731,0.0037694192,0.042850934,-0.06803208,0.038197324,-0.02153501,0.05587637,-2.0,2.0,-2.0,2.0,2.0,-2.0,2.0,-2.0,-2.0,-2.0,-2.0,-2.0,-2.0,2.0,-2.0,2.0,2.0,-2.0,2.0,-2.0,-2.0,-2.0,-2.0,-2.0
2025-06-09 09:19:49.923,0.025992177,-0.024505025,-0.04774851,-0.022750555,0.034383293,-0.0019763927,0.0,0.0,0.0,0.010907381,-0.08897569,0.2966172,-0.1041169,0.107140735,0.36077926,-0.11558721,0.05178074,-0.35005385,-0.08518556,-0.055649504,-0.34894487,-0.031368908,-0.057002615,0.0019453994,0.026524857,-0.006781699,-0.06203478,0.00826432,0.03047599,-0.018092204,-0.012389055,-0.008609403,0.060796123,-0.004697796,-2.0,2.0,-2.0,2.0,2.0,-2.0,2.0,-2.0,-2.0,-2.0,-2.0,-2.0,-2.0,2.0,-2.0,2.0,2.0,-2.0,2.0,-2.0,-2.0,-2.0,-2.0,-2.0
2025-06-09 09:19:49.947,-0.034386672,-0.045084964,0.042248845,-0.00052355963,-0.0037887932,0.015917385,0.0,0.0,0.0,0.010895327,-0.09305676,0.28668314,-0.11673847,0.1093507,0.3524489,-0.10673604,0.05063154,-0.3424881,-0.088871896,-0.0478695,-0.3440592,-0.020075377,-0.05382314,0.06506945,0.029684972,-0.043308213,-0.009611896,0.0101814745,-0.038364556,-0.014144406,-0.072622895,-0.06489648,-0.010198247,-0.047865056,-2.0,2.0,-2.0,2.0,2.0,-2.0,2.0,-2.0,-2.0,-2.0,-2.0,-2.0,-2.0,2.0,-2.0,2.0,2.0,-2.0,2.0,-2.0,-2.0,-2.0,-2.0,-2.0
2025-06-09 09:19:49.964,-0.021943303,0.05182417,0.03987972,-0.02702415,-0.0020826848,0.04016952,0.0,0.0,0.0,0.010887926,-0.10053297,0.29732606,-0.10419245,0.0952959,0.36622432,-0.102941476,0.03461413,-0.33521247,-0.08601615,-0.050253186,-0.33482534,-0.03290517,0.07100619,0.034497406,0.02185091,-0.06656315,-0.072468355,0.0077318638,-0.048020598,-0.06434457,-0.061385933,0.06804336,-0.07029384,-0.065487385,-2.0,2.0,-2.0,2.0,2.0,-2.0,2.0,-2.0,-2.0,-2.0,-2.0,-2.0,-2.0,2.0,-2.0,2.0,2.0,-2.0,2.0,-2.0,-2.0,-2.0,-2.0,-2.0
2025-06-09 09:19:49.983,0.041237444,0.010373388,-0.01891636,0.039562535,0.022648726,-0.04736365,0.0,0.0,0.0,0.010884994,-0.09830977,0.2980052,-0.11122582,0.092065826,0.34884667,-0.11270302,0.04007417,-0.33951256,-0.08824555,-0.059727564,-0.33960474,-0.031566348,-0.03462818,0.06971778,-0.006591165,-0.06067777,-0.008753643,0.027949614,0.070960954,-0.03777618,-0.06600568,0.04180542,-0.057181727,0.045688327,-2.0,2.0,-2.0,2.0,2.0,-2.0,2.0,-2.0,-2.0,-2.0,-2.0,-2.0,-2.0,2.0,-2.0,2.0,2.0,-2.0,2.0,-2.0,-2.0,-2.0,-2.0,-2.0
2025-06-09 09:19:50.003,-0.011137847,0.030428072,0.049209546,0.030225137,-0.017976133,0.019562652,0.0,0.0,0.0,0.010885045,-0.09850635,0.2793178,-0.106873326,0.10692464,0.3520556,-0.103616916,0.04011679,-0.34391177,-0.07793054,-0.064977944,-0.34173703,-0.024184236,0.015542072,0.07492087,0.06989832,-0.039674778,0.04433816,0.012074666,0.061959535,0.034980316,0.0048428914,0.011834103,-0.018542286,-0.07394227,-2.0,2.0,-2.0,2.0,2.0,-2.0,2.0,-2.0,-2.0,-2.0,-2.0,-2.0,-2.0,2.0,-2.0,2.0,2.0,-2.0,2.0,-2.0,-2.0,-2.0,-2.0,-2.0
2025-06-09 09:19:50.023,0.0066551687,0.03551534,0.049443338,-0.031196665,-0.024478357,-0.031487335,0.0,0.0,0.0,0.0108865695,-0.091256976,0.28809214,-0.11397147,0.108358115,0.36702928,-0.11224147,0.032419253,-0.35418946,-0.089839816,-0.048318025,-0.33972543,-0.026687456,-0.025314905,-0.063113555,-0.06537314,-0.05099334,-0.06838688,0.07246742,-0.032999422,0.040409416,-0.004963022,0.075019605,-0.0639177,-0.07300748,-2.0,2.0,-2.0,2.0,2.0,-2.0,2.0,-2.0,-2.0,-2.0,-2.0,-2.0,-2.0,2.0,-2.0,2.0,2.0,-2.0,2.0,-2.0,-2.0,-2.0,-2.0,-2.0
2025-06-09 09:19:50.047,0.043824643,0.030694121,-0.007210097,0.05504884,0.032184348,0.006204238,0.0,0.0,0.0,0.010888579,-0.09417018,0.2873226,-0.115657836,0.102630295,0.36685345,-0.100717604,0.049781088,-0.34546918,-0.07616845,-0.06347785,-0.34712437,-0.021139042,-0.059913598,0.044092536,-0.01147358,-0.041044336,-0.05824855,0.015399456,-0.047347866,-0.06912788,-0.05202174,0.07517107,-0.016875144,-0.043293625,-2.0,2.0,-2.0,2.0,2.0,-2.0,2.0,-2.0,-2.0,-2.0,-2.0,-2.0,-2.0,2.0,-2.0,2.0,2.0,-2.0,2.0,-2.0,-2.0,-2.0,-2.0,-2.0
2025-06-09 09:19:50.064,-0.036198024,-0.031316623,-0.048001762,0.002010429,0.06830542,0.031098355,0.0,0.0,0.0,0.010890763,-0.093004204,0.28480634,-0.10940617,0.10007255,0.3617458,-0.10326784,0.045434143,-0.34298828,-0.088343084,-0.046204846,-0.34605017,-0.018705627,-0.0143114645,-0.023541996,0.0033460765,0.015249124,0.016466454,-0.03922219,0.028553026,-0.0014430813,0.066689275,-0.022086253,0.0025777575,0.018649273,-2.0,2.0,-2.0,2.0,2.0,-2.0,2.0,-2.0,-2.0,-2.0,-2.0,-2.0,-2.0,2.0,-2.0,2.0,2.0,-2.0,2.0,-2.0,-2.0,-2.0,-2.0,-2.0
2025-06-09 09:19:50.084,-0.010771119,0.0034032702,-0.037088633,0.023250557,0.03130297,-0.013216702,0.0,0.0,0.0,0.0108933775,-0.0999485,0.28628078,-0.10661757,0.096666984,0.35006464,-0.114996225,0.03518838,-0.35343876,-0.085346386,-0.059919868,-0.33945817,-0.034594238,0.025168577,0.051736224,-0.045830816,-0.030871745,-0.016735027,-0.004039811,0.035053343,-0.04321394,-0.07116418,-0.039411347,0.028677998,0.051358975,-2.0,2.0,-2.0,2.0,2.0,-2.0,2.0,-2.0,-2.0,-2.0,-2.0,-2.0,-2.0,2.0,-2.0,2.0,2.0,-2.0,2.0,-2.0,-2.0,-2.0,-2.0,-2.0
2025-06-09 09:19:50.104,0.04838719,-0.023582311,-0.04384342,0.03985744,0.055135213,-0.027528396,0.0,0.0,0.0,0.010897003,-0.08239504,0.291348,-0.109652355,0.103718415,0.366389,-0.109484665,0.036904078,-0.34732175,-0.07551449,-0.062462147,-0.33583483,-0.024781805,0.05754059,0.026280856,-0.04096484,0.061462697,-0.0029164236,0.037717745,0.0098706,-0.074064694,-0.031419642,0.061691303,0.0112415375,0.015516918,-2.0,2.0,-2.0,2.0,2.0,-2.0,2.0,-2.0,-2.0,-2.0,-2.0,-2.0,-2.0,2.0,-2.0,2.0,2.0,-2.0,2.0,-2.0,-2.0,-2.0,-2.0,-2.0
2025-06-09 09:19:50.124,-0.009632498,-0.05061709,-0.0002275232,0.03643149,0.033715088,-0.023568965,0.0,0.0,0.0,0.010902292,-0.097640865,0.28656447,-0.105337866,0.10602515,0.3635025,-0.113342494,0.047764637,-0.34659404,-0.08692228,-0.046202585,-0.3486823,-0.03580543,0.0050742947,-0.007630774,0.0508258,0.026444698,0.04669634,-0.04735713,0.047798295,0.023964088,-0.01111226,-0.03277475,0.06267067,-0.058813684,-2.0,2.0,-2.0,2.0,2.0,-2.0,2.0,-2.0,-2.0,-2.0,-2.0,-2.0,-2.0,2.0,-2.0,2.0,2.0,-2.0,2.0,-2.0,-2.0,-2.0,-2.0,-2.0
2025-06-09 09:19:50.147,-0.03695543,-0.012172923,-0.024087481,0.035731163,0.05360472,-0.023418983,0.0,0.0,0.0,0.0109097585,-0.09422792,0.28803515,-0.11071926,0.10050543,0.35489678,-0.119537756,0.039613575,-0.35502693,-0.0867606,-0.046937414,-0.33207527,-0.03461779,0.05298015,0.06422301,-0.046398412,0.071072996,-0.054593988,0.0620478,-0.01652301,0.05095641,-0.04458801,-0.013710797,-0.057096016,-0.06804136,-2.0,2.0,-2.0,2.0,2.0,-2.0,2.0,-2.0,-2.0,-2.0,-2.0,-2.0,-2.0,2.0,-2.0,2.0,2.0,-2.0,2.0,-2.0,-2.0,-2.0,-2.0,-2.0
2025-06-09 09:19:50.164,0.012679454,-0.020403925,0.031281907,0.044327434,-0.00985301,-0.0081707295,0.0,0.0,0.0,0.010919649,-0.08441984,0.28823823,-0.10383935,0.099411435,0.36448273,-0.11652643,0.041599516,-0.34506008,-0.08605216,-0.06318944,-0.33058676,-0.029579984,0.04027392,-0.075125955,-0.0138567295,0.00015039163,0.03936645,-0.0440044,-0.06469845,0.026663134,0.04342765,-0.056461204,0.044061795,-0.031404894,-2.0,2.0,-2.0,2.0,2.0,-2.0,2.0,-2.0,-2.0,-2.0,-2.0,-2.0,-2.0,2.0,-2.0,2.0,2.0,-2.0,2.0,-2.0,-2.0,-2.0,-2.0,-2.0
2025-06-09 09:19:50.184,0.018633964,0.02525446,-0.022067914,-0.010291811,0.020110983,-7.717334e-05,0.0,0.0,0.0,0.01093189,-0.09709959,0.28896996,-0.11898185,0.10768173,0.35706094,-0.10460386,0.04242369,-0.3448083,-0.085855395,-0.049230848,-0.3451968,-0.03184157,-0.03931115,0.017225249,0.034707215,0.03957853,0.016285682,0.04296012,0.035266336,0.03322718,0.039343435,0.0014769996,0.006575541,0.049763523,-2.0,2.0,-2.0,2.0,2.0,-2.0,2.0,-2.0,-2.0,-2.0,-2.0,-2.0,-2.0,2.0,-2.0,2.0,2.0,-2.0,2.0,-2.0,-2.0,-2.0,-2.0,-2.0
2025-06-09 09:19:50.204,-0.025034808,0.03963505,-0.029217245,0.0061222427,0.039753944,0.0030743608,0.0,0.0,0.0,0.010946116,-0.0830394,0.28026685,-0.11527642,0.106109634,0.3489225,-0.11274336,0.03802003,-0.34723452,-0.079203576,-0.056349576,-0.34232372,-0.020523276,-0.048329543,-0.0069599696,0.010218584,0.049422957,0.045896217,0.051279318,0.061581306,-0.06990445,0.06541515,-0.062449094,0.007087141,-0.03273076,-2.0,2.0,-2.0,2.0,2.0,-2.0,2.0,-2.0,-2.0,-2.0,-2.0,-2.0,-2.0,2.0,-2.0,2.0,2.0,-2.0,2.0,-2.0,-2.0,-2.0,-2.0,-2.0
2025-06-09 09:19:50.224,-0.027676132,-0.03463789,0.033242255,0.058005873,0.05787696,0.044531,0.0,0.0,0.0,0.010961724,-0.090409584,0.28109145,-0.10891589,0.105962336,0.3495015,-0.10461631,0.041340042,-0.33916417,-0.08025203,-0.06475657,-0.34128064,-0.02177059,0.022572115,0.0014402873,0.023020722,-0.038695224,0.0281668,-0.06492119,0.0056697233,0.059613757,-0.054907035,0.058264352,0.058114983,0.057491023,-2.0,2.0,-2.0,2.0,2.0,-2.0,2.0,-2.0,-2.0,-2.0,-2.0,-2.0,-2.0,2.0,-2.0,2.0,2.0,-2.0,2.0,-2.0,-2.0,-2.0,-2.0,-2.0
2025-06-09 09:19:50.247,0.0022469019,-0.050497666,0.03948389,0.01956615,-0.02822506,0.019607019,0.0,0.0,0.0,0.010977975,-0.09591652,0.27855182,-0.11559643,0.102666065,0.347185,-0.10714294,0.044209376,-0.35465333,-0.08659476,-0.05445958,-0.3380786,-0.02862914,0.06761431,0.056432184,0.017529633,-0.016389819,-0.039484985,-0.054239377,0.06808414,-0.047342774,-0.06289305,-0.06635087,-0.04315437,0.044956405,-2.0,2.0,-2.0,2.0,2.0,-2.0,2.0,-2.0,-2.0,-2.0,-2.0,-2.0,-2.0,2.0,-2.0,2.0,2.0,-2.0,2.0,-2.0,-2.0,-2.0,-2.0,-2.0
2025-06-09 09:19:50.264,0.046410054,0.04010061,-0.03349783,0.054226197,-0.02814073,-0.00196448,0.0,0.0,0.0,0.010994079,-0.09329656,0.27895853,-0.12162722,0.109925814,0.34631738,-0.10916953,0.041021835,-0.33858824,-0.0953155,-0.04725366,-0.3340165,-0.035003636,0.048320338,0.07396375,-0.04578456,0.019014101,0.042820424,-0.008577421,-0.034353025,-0.040153075,-0.011526544,0.0066193887,-0.03298464,0.014462148,-2.0,2.0,-2.0,2.0,2.0,-2.0,2.0,-2.0,-2.0,-2.0,-2.0,-2.0,-2.0,2.0,-2.0,2.0,2.0,-2.0,2.0,-2.0,-2.0,-2.0,-2.0,-2.0
2025-06-09 09:19:50.284,0.027549425,0.038764738,-0.03839908,0.034184188,0.06421343,0.019606657,0.0,0.0,0.0,0.011009283,-0.08277009,0.2871768,-0.10189822,0.09629387,0.35892892,-0.110145345,0.03883373,-0.34149778,-0.08154811,-0.054999392,-0.33877885,-0.020424582,-0.07073215,0.05306598,0.043910716,0.014600417,0.07300127,-0.03891891,0.0062314984,0.07126823,-0.01312433,0.006299817,0.05402839,0.015503218,-2.0,2.0,-2.0,2.0,2.0,-2.0,2.0,-2.0,-2.0,-2.0,-2.0,-2.0,-2.0,2.0,-2.0,2.0,2.0,-2.0,2.0,-2.0,-2.0,-2.0,-2.0,-2.0
2025-06-09 09:19:50.304,-0.025789734,-0.031120164,-0.019456424,0.05746045,-0.0072298893,-0.04122144,0.0,0.0,0.0,0.011022943,-0.09079422,0.29164824,-0.1070806,0.10094392,0.35707688,-0.114090666,0.0351131,-0.34829062,-0.08723725,-0.05405196,-0.33439997,-0.033421982,-0.07210065,0.027172249,-0.056477245,0.042074338,0.0630608,-0.019401856,-0.017064558,-0.07177624,-0.04568915,0.038352113,0.068386205,0.07284415,-2.0,2.0,-2.0,2.0,2.0,-2.0,2.0,-2.0,-2.0,-2.0,-2.0,-2.0,-2.0,2.0,-2.0,2.0,2.0,-2.0,2.0,-2.0,-2.0,-2.0,-2.0,-2.0
2025-06-09 09:19:50.324,0.04426898,-0.021413349,-0.023038285,0.065031365,0.05939251,0.039532788,0.0,0.0,0.0,0.01103456,-0.092541315,0.29247886,-0.117321126,0.10179503,0.353604,-0.10071326,0.039084263,-0.33957046,-0.08575029,-0.062303133,-0.34779686,-0.023846809,0.023529435,0.073162,-0.0402891,-0.040787503,0.01173109,0.049753115,0.03154279,0.02150158,-0.0724009,0.006043833,-0.04993294,0.045728117,-2.0,2.0,-2.0,2.0,2.0,-2.0,2.0,-2.0,-2.0,-2.0,-2.0,-2.0,-2.0,2.0,-2.0,2.0,2.0,-2.0,2.0,-2.0,-2.0,-2.0,-2.0,-2.0
2025-06-09 09:19:50.347,-0.026283132,-0.0069815977,0.043269183,0.03271866,-0.0015006617,-0.013928483,0.0,0.0,0.0,0.011043807,-0.10165273,0.28942642,-0.109725036,0.09359045,0.35040247,-0.104672,0.034598194,-0.3388293,-0.09302528,-0.056851584,-0.3464349,-0.035404373,-0.04651203,-0.004434765,0.04530906,-0.029563623,-0.065256834,-0.04419719,-0.049084906,-0.068686046,0.004065737,-0.051737864,0.039884284,0.043739885,-2.0,2.0,-2.0,2.0,2.0,-2.0,2.0,-2.0,-2.0,-2.0,-2.0,-2.0,-2.0,2.0,-2.0,2.0,2.0,-2.0,2.0,-2.0,-2.0,-2.0,-2.0,-2.0
2025-06-09 09:19:50.365,0.03631685,-0.040637113,0.010251541,0.016525343,0.051996432,0.026007853,0.0,0.0,0.0,0.01105053,-0.092674784,0.28112137,-0.11475983,0.1024518,0.35889733,-0.10886738,0.044609644,-0.34731144,-0.095268466,-0.06053389,-0.33151457,-0.026108254,-0.022662789,0.053160354,0.025917795,-0.030525286,0.06475755,-0.054059874,0.0262124,0.03830197,-0.05209974,-0.07447349,-0.017022302,0.07405402,-2.0,2.0,-2.0,2.0,2.0,-2.0,2.0,-2.0,-2.0,-2.0,-2.0,-2.0,-2.0,2.0,-2.0,2.0,2.0,-2.0,2.0,-2.0,-2.0,-2.0,-2.0,-2.0
2025-06-09 09:19:50.385,-0.000734336,0.034446895,-0.024580823,0.018243525,0.029195793,0.012979414,0.0,0.0,0.0,0.011054736,-0.09487045,0.29466054,-0.109768,0.09924847,0.3574956,-0.114650816,0.045640733,-0.34282783,-0.0859415,-0.057339627,-0.35066134,-0.023857519,-0.024968125,-0.035977684,0.027118117,0.043324105,-0.018203767,0.0031976742,-0.032067098,0.008601314,-0.035326388,0.010092916,-0.061577324,0.02519988,-2.0,2.0,-2.0,2.0,2.0,-2.0,2.0,-2.0,-2.0,-2.0,-2.0,-2.0,-2.0,2.0,-2.0,2.0,2.0,-2.0,2.0,-2.0,-2.0,-2.0,-2.0,-2.0
2025-06-09 09:19:50.405,0.019814922,-0.023543032,-0.041981507,0.055777404,0.05234033,0.04123849,0.0,0.0,0.0,0.01105657,-0.09265723,0.28595093,-0.12149962,0.09840114,0.35735515,-0.11098598,0.045220517,-0.35226628,-0.08074756,-0.050338533,-0.3384797,-0.025236899,-0.04002619,0.0007948041,0.045693804,-0.042991024,-0.020008579,0.034858868,0.05333347,-0.07460348,0.054303464,-0.031833597,-0.063199565,0.045280658,-2.0,2.0,-2.0,2.0,2.0,-2.0,2.0,-2.0,-2.0,-2.0,-2.0,-2.0,-2.0,2.0,-2.0,2.0,2.0,-2.0,2.0,-2.0,-2.0,-2.0,-2.0,-2.0
2025-06-09 09:19:50.425,0.0024048209,-0.03150702,0.028925726,-0.021414261,0.06020418,0.008582324,0.0,0.0,0.0,0.011056285,-0.0858801,0.2777476,-0.12139599,0.09548682,0.3539103,-0.10271396,0.037284676,-0.34789258,-0.08530895,-0.0597965,-0.35023367,-0.020321786,0.06724911,-0.011927319,-0.0033614736,-0.024722597,-0.020335458,-0.06505675,-0.02203694,0.00169939,0.05927745,0.051143605,-0.024129106,0.0050033736,-2.0,2.0,-2.0,2.0,2.0,-2.0,2.0,-2.0,-2.0,-2.0,-2.0,-2.0,-2.0,2.0,-2.0,2.0,2.0,-2.0,2.0,-2.0,-2.0,-2.0,-2.0,-2.0
2025-06-09 09:19:50.448,0.011456675,-0.0018119385,-0.04142036,-0.026158493,0.018618645,0.012863159,0.0,0.0,0.0,0.011054208,-0.09424154,0.29598233,-0.119787514,0.096429005,0.3562724,-0.10806862,0.049106732,-0.34114006,-0.07971277,-0.057362724,-0.34448078,-0.031499024,0.062409956,0.05337924,-0.011334355,0.06339208,0.02115613,0.024858896,0.074446976,-0.06307568,-0.03105248,0.054531366,-0.049816765,0.02244034,-2.0,2.0,-2.0,2.0,2.0,-2.0,2.0,-2.0,-2.0,-2.0,-2.0,-2.0,-2.0,2.0,-2.0,2.0,2.0,-2.0,2.0,-2.0,-2.0,-2.0,-2.0,-2.0
2025-06-09 09:19:50.465,0.03793136,0.017159833,0.01527266,-0.004183886,0.04619062,-0.007378821,0.0,0.0,0.0,0.01105071,-0.09959309,0.2862031,-0.12144784,0.110611305,0.35787475,-0.10301804,0.04360515,-0.34125814,-0.08551022,-0.05650265,-0.33924723,-0.02312868,-0.038291153,-0.031365596,-0.05429799,0.027707888,0.042841937,0.031413995,0.02635573,-0.0057216436,-0.003349777,0.0113061,-0.023484606,0.058874507,-2.0,2.0,-2.0,2.0,2.0,-2.0,2.0,-2.0,-2.0,-2.0,-2.0,-2.0,-2.0,2.0,-2.0,2.0,2.0,-2.0,2.0,-2.0,-2.0,-2.0,-2.0,-2.0
2025-06-09 09:19:50.485,0.00757449,0.027232192,0.04983348,0.0376901,0.048600722,0.012261573,0.0,0.0,0.0,0.011046181,-0.100287676,0.29526863,-0.11862496,0.09245195,0.3487119,-0.105793454,0.033984814,-0.34409636,-0.08216021,-0.060471434,-0.3496478,-0.027645055,-0.016038334,-0.0704121,0.06770476,0.0054406635,-0.014691008,-0.040173903,0.024476929,-0.05510064,0.005868473,-0.040111322,-0.039623078,-0.06277994,-2.0,2.0,-2.0,2.0,2.0,-2.0,2.0,-2.0,-2.0,-2.0,-2.0,-2.0,-2.0,2.0,-2.0,2.0,2.0,-2.0,2.0,-2.0,-2.0,-2.0,-2.0,-2.0
2025-06-09 09:19:50.505,0.007697456,0.03270527,0.049675763,-0.014772326,-0.027078493,0.009431781,0.0,0.0,0.0,0.011041002,-0.08206509,0.2778495,-0.12153283,0.100896426,0.3663152,-0.10298673,0.035036743,-0.3505318,-0.094406456,-0.05288677,-0.33841002,-0.03241569,0.0554188,0.043258462,0.0018176311,-0.034261737,-0.032106843,0.015092674,0.046381425,-0.07361009,0.004636848,0.03128048,0.041596577,0.04927207,-2.0,2.0,-2.0,2.0,2.0,-2.0,2.0,-2.0,-2.0,-2.0,-2.0,-2.0,-2.0,2.0,-2.0,2.0,2.0,-2.0,2.0,-2.0,-2.0,-2.0,-2.0,-2.0
2025-06-09 09:19:50.525,-0.006957261,0.01931864,-0.044018604,0.0557772,0.048667148,-0.043233708,0.0,0.0,0.0,0.011035529,-0.08381934,0.28804517,-0.11507342,0.09358206,0.35011598,-0.10522208,0.040030494,-0.336826,-0.08425124,-0.045338027,-0.33990428,-0.036494672,-0.026978912,0.013710124,0.043709274,-0.045562543,0.071128815,0.06888739,-0.06906064,0.035607476,0.044690847,-0.072827764,-0.058188304,-0.038147878,-2.0,2.0,-2.0,2.0,2.0,-2.0,2.0,-2.0,-2.0,-2.0,-2.0,-2.0,-2.0,2.0,-2.0,2.0,2.0,-2.0,2.0,-2.0,-2.0,-2.0,-2.0,-2.0
2025-06-09 09:19:50.547,-0.048690874,0.04806109,-0.026736148,-0.016904948,-0.0039995094,0.04006365,0.0,0.0,0.0,0.011030097,-0.09631243,0.27969506,-0.10986923,0.10320976,0.35125318,-0.10330929,0.03518126,-0.3523933,-0.076561175,-0.057366405,-0.34999365,-0.027116103,-0.029941881,-0.026621288,-0.06703791,-0.021662962,-0.07181497,0.06098044,0.019753927,-0.029551996,0.060337912,-0.014656336,-0.023235725,-0.06271364,-2.0,2.0,-2.0,2.0,2.0,-2.0,2.0,-2.0,-2.0,-2.0,-2.0,-2.0,-2.0,2.0,-2.0,2.0,2.0,-2.0,2.0,-2.0,-2.0,-2.0,-2.0,-2.0
2025-06-09 09:19:50.565,-0.042554513,0.0038945728,0.014467478,0.0005730165,0.06403868,-0.0042486284,0.0,0.0,0.0,0.011024993,-0.089119665,0.27899364,-0.11836261,0.092522494,0.36383334,-0.1099679,0.03597857,-0.3486158,-0.08644623,-0.058958158,-0.33140337,-0.018583262,0.030063914,0.009252893,-0.023944756,0.008772789,0.06277446,-0.050035637,0.050847173,-0.021493105,-0.0021090554,-0.026470313,-0.05373306,-0.03488631,-2.0,2.0,-2.0,2.0,2.0,-2.0,2.0,-2.0,-2.0,-2.0,-2.0,-2.0,-2.0,2.0,-2.0,2.0,2.0,-2.0,2.0,-2.0,-2.0,-2.0,-2.0,-2.0
2025-06-09 09:19:50.585,-0.048391413,-0.03326106,0.040417355,0.0486971,0.06964677,0.024556285,0.0,0.0,0.0,0.01102044,-0.08297224,0.29210973,-0.10549274,0.10903519,0.36336753,-0.11385243,0.038209807,-0.34589592,-0.07594408,-0.05066823,-0.33263436,-0.030977745,0.05270301,-0.009083796,-0.05120454,-0.07266783,0.028678799,-0.040949833,0.007129671,-0.06078239,0.06894562,0.039589353,0.06863496,0.06244936,-2.0,2.0,-2.0,2.0,2.0,-2.0,2.0,-2.0,-2.0,-2.0,-2.0,-2.0,-2.0,2.0,-2.0,2.0,2.0,-2.0,2.0,-2.0,-2.0,-2.0,-2.0,-2.0
2025-06-09 09:19:50.605,0.023351783,0.0455022,-0.012191822,0.035213593,0.040970314,0.004761744,0.0,0.0,0.0,0.011016592,-0.0926008,0.27968925,-0.11067497,0.097822495,0.36116385,-0.1162602,0.043498784,-0.34946308,-0.07789907,-0.06430911,-0.3492313,-0.031471193,-0.070784636,0.02256328,0.058719415,0.0076471367,-0.010334455,-0.025387907,0.0073911534,0.061839517,0.017228382,0.03617602,-0.034100942,-0.046380214,-2.0,2.0,-2.0,2.0,2.0,-2.0,2.0,-2.0,-2.0,-2.0,-2.0,-2.0,-2.0,2.0,-2.0,2.0,2.0,-2.0,2.0,-2.0,-2.0,-2.0,-2.0,-2.0
2025-06-09 09:19:50.625,0.013003208,0.046427738,0.00045364667,0.0008027761,0.03761858,0.022979347,0.0,0.0,0.0,0.01101354,-0.082871355,0.27920574,-0.10152209,0.098848134,0.35611925,-0.10004884,0.043214172,-0.35079473,-0.084442616,-0.051872797,-0.3495254,-0.019671254,0.05998105,0.014754382,0.024453249,-0.004225984,0.034198977,0.029584011,-0.021408308,0.001875412,-0.05605942,-0.00075312547,0.014278807,-0.0013591967,-2.0,2.0,-2.0,2.0,2.0,-2.0,2.0,-2.0,-2.0,-2.0,-2.0,-2.0,-2.0,2.0,-2.0,2.0,2.0,-2.0,2.0,-2.0,-2.0,-2.0,-2.0,-2.0
2025-06-09 09:19:50.647,-0.031091616,0.043256223,-0.0011914371,0.0074411314,0.024571018,-0.011861077,0.0,0.0,0.0,0.011011314,-0.09456181,0.28772053,-0.10484617,0.09751303,0.36376724,-0.116482325,0.035810314,-0.34269848,-0.08519706,-0.060581163,-0.34919286,-0.032489132,0.054093365,-0.0387053,-0.061500862,-0.025101984,0.0029802592,0.046894077,-0.027464896,0.0042593037,0.0103470925,0.04452697,-0.069762416,0.04993177,-2.0,2.0,-2.0,2.0,2.0,-2.0,2.0,-2.0,-2.0,-2.0,-2.0,-2.0,-2.0,2.0,-2.0,2.0,2.0,-2.0,2.0,-2.0,-2.0,-2.0,-2.0,-2.0
2025-06-09 09:19:50.666,0.02901091,0.030574922,-0.0154447695,0.042544406,-0.025787568,-0.04399499,0.0,0.0,0.0,0.011009891,-0.0816803,0.292814,-0.114248075,0.1001028,0.36538443,-0.119109444,0.04499689,-0.35523173,-0.0834989,-0.048561554,-0.3421281,-0.02127541,0.014302381,0.05875078,-0.059226952,-0.021344185,0.05174439,0.036063354,0.04462174,0.066648535,-0.0650738,-0.06793525,0.0024329165,0.021946996,-2.0,2.0,-2.0,2.0,2.0,-2.0,2.0,-2.0,-2.0,-2.0,-2.0,-2.0,-2.0,2.0,-2.0,2.0,2.0,-2.0,2.0,-2.0,-2.0,-2.0,-2.0,-2.0
2025-06-09 09:19:50.686,0.036618806,0.0019539106,0.015448733,0.05543436,0.014603821,0.013392103,0.0,0.0,0.0,0.011009213,-0.09428915,0.29004988,-0.11589352,0.09618679,0.35685432,-0.109138586,0.040192503,-0.34344715,-0.084458224,-0.054544028,-0.34056163,-0.033487555,0.041106585,-0.0493431,0.013000375,-0.067159325,-0.005041403,-0.012730469,0.012051702,-0.029387128,-0.039457627,0.06643288,0.07289585,0.00015061199,-2.0,2.0,-2.0,2.0,2.0,-2.0,2.0,-2.0,-2.0,-2.0,-2.0,-2.0,-2.0,2.0,-2.0,2.0,2.0,-2.0,2.0,-2.0,-2.0,-2.0,-2.0,-2.0
2025-06-09 09:19:50.706,-0.028298542,-0.028802441,-0.0067226985,0.06431663,0.009667484,-0.035606902,0.0,0.0,0.0,0.011009191,-0.08726805,0.2905667,-0.12052705,0.0971464,0.353624,-0.11110524,0.0395371,-0.34070897,-0.08727932,-0.05469868,-0.3323712,-0.031204598,-0.055603296,-0.06572662,0.009316761,0.026929589,-0.0415066,-0.010418799,0.0014567919,0.054109193,-0.010269716,0.009763766,0.028251916,-0.0581368,-2.0,2.0,-2.0,2.0,2.0,-2.0,2.0,-2.0,-2.0,-2.0,-2.0,-2.0,-2.0,2.0,-2.0,2.0,2.0,-2.0,2.0,-2.0,-2.0,-2.0,-2.0,-2.0
2025-06-09 09:19:50.727,-0.025604386,-0.0017616375,0.0039913245,0.052848194,0.05059038,0.023876864,0.0,0.0,0.0,0.011009721,-0.08940126,0.28177226,-0.108089395,0.09396679,0.3543414,-0.11596659,0.04568095,-0.34702376,-0.09101522,-0.054755762,-0.3396766,-0.023659302,-0.054561034,0.07105013,0.051686503,0.052229278,-0.033616256,0.022529121,0.047356732,-0.070412345,-0.029715702,0.057254303,-0.065729186,-0.051322363,-2.0,2.0,-2.0,2.0,2.0,-2.0,2.0,-2.0,-2.0,-2.0,-2.0,-2.0,-2.0,2.0,-2.0,2.0,2.0,-2.0,2.0,-2.0,-2.0,-2.0,-2.0,-2.0
2025-06-09 09:19:50.746,0.012760987,0.037894923,0.024331713,0.06565386,-0.019340113,-0.0053274,0.0,0.0,0.0,0.011010688,-0.08811507,0.28845966,-0.11462619,0.09766263,0.3619812,-0.10126124,0.038833696,-0.35180423,-0.08212829,-0.060557835,-0.3458803,-0.027035281,-0.024328906,0.07224874,0.039769627,-0.057328604,0.02395578,0.0056834356,-0.002922683,0.012953199,-0.0032208906,0.037347756,-0.034375034,0.0038684243,-2.0,2.0,-2.0,2.0,2.0,-2.0,2.0,-2.0,-2.0,-2.0,-2.0,-2.0,-2.0,2.0,-2.0,2.0,2.0,-2.0,2.0,-2.0,-2.0,-2.0,-2.0,-2.0
2025-06-09 09:19:50.766,-0.041450016,-0.02518023,-0.028743632,-0.0067895176,0.015204538,0.020398969,0.0,0.0,0.0,0.011011973,-0.09565902,0.28048083,-0.116632484,0.09713091,0.35474402,-0.09926392,0.048208512,-0.35373303,-0.08132354,-0.056086853,-0.3393212,-0.02382863,-0.009826232,0.07356331,-0.052841656,0.017727876,0.058008485,0.067611545,0.06756979,-0.03626079,0.056036264,-0.07419259,0.022817181,0.071324065,-2.0,2.0,-2.0,2.0,2.0,-2.0,2.0,-2.0,-2.0,-2.0,-2.0,-2.0,-2.0,2.0,-2.0,2.0,2.0,-2.0,2.0,-2.0,-2.0,-2.0,-2.0,-2.0
2025-06-09 09:19:50.786,0.037933666,-0.036478944,0.030142147,0.050255954,-0.018753622,-0.022068137,0.0,0.0,0.0,0.011013466,-0.08830877,0.2874076,-0.10270636,0.10860687,0.3491522,-0.106352374,0.043367136,-0.33834067,-0.08480423,-0.05891207,-0.33356622,-0.02925903,0.050411448,-0.041863967,0.05618464,-0.030059654,-0.056572966,-0.04230175,-0.034752045,-0.059424408,-0.01438911,-0.027061233,0.07049636,-0.018611623,-2.0,2.0,-2.0,2.0,2.0,-2.0,2.0,-2.0,-2.0,-2.0,-2.0,-2.0,-2.0,2.0,-2.0,2.0,2.0,-2.0,2.0,-2.0,-2.0,-2.0,-2.0,-2.0
2025-06-09 09:19:50.806,0.04128074,-0.010162805,-0.0024613054,0.04827153,0.059463196,-0.04865946,0.0,0.0,0.0,0.011015062,-0.09225688,0.2790977,-0.11541255,0.105130464,0.35728106,-0.10240161,0.042797558,-0.3427555,-0.095042266,-0.05195733,-0.34394762,-0.036590267,0.060370553,0.06468002,0.010664831,0.043139968,-0.012248278,-0.046949543,0.015392103,-0.032594055,0.015895573,0.053629503,-0.061048128,-0.032726727,-2.0,2.0,-2.0,2.0,2.0,-2.0,2.0,-2.0,-2.0,-2.0,-2.0,-2.0,-2.0,2.0,-2.0,2.0,2.0,-2.0,2.0,-2.0,-2.0,-2.0,-2.0,-2.0
2025-06-09 09:19:50.829,-0.0016749214,0.0016948064,-0.030300392,0.05543449,0.027311448,-0.0056946147,0.0,0.0,0.0,0.011016672,-0.09078603,0.29569554,-0.10295208,0.10543606,0.35516134,-0.10900276,0.04060804,-0.35036758,-0.092068404,-0.06009869,-0.33803028,-0.032730225,-0.051121823,-0.056341283,0.005054178,0.009421078,0.016538594,0.0030779433,-0.06599641,0.053248364,0.013752007,-0.0309576,-0.033743855,0.03886491,-2.0,2.0,-2.0,2.0,2.0,-2.0,2.0,-2.0,-2.0,-2.0,-2.0,-2.0,-2.0,2.0,-2.0,2.0,2.0,-2.0,2.0,-2.0,-2.0,-2.0,-2.0,-2.0
2025-06-09 09:19:50.846,-0.03446751,0.031814147,0.041201122,-0.027247181,-0.0025820625,0.007064778,0.0,0.0,0.0,0.011018218,-0.083697386,0.28081596,-0.120353885,0.090928964,0.3663411,-0.10615621,0.034552075,-0.3387801,-0.095562264,-0.04858071,-0.3405,-0.026034072,-0.058313727,0.012432725,0.067092784,0.05848616,-0.034699332,0.04913593,0.034768056,-0.053012297,-0.06648785,-0.015671765,-0.039956417,0.051924113,-2.0,2.0,-2.0,2.0,2.0,-2.0,2.0,-2.0,-2.0,-2.0,-2.0,-2.0,-2.0,2.0,-2.0,2.0,2.0,-2.0,2.0,-2.0,-2.0,-2.0,-2.0,-2.0
2025-06-09 09:19:50.866,-0.04828558,-0.01619637,0.015649907,0.018333582,0.06946987,-0.015009667,0.0,0.0,0.0,0.011019639,-0.08617383,0.28753418,-0.105549835,0.10044571,0.35839114,-0.10227191,0.03732589,-0.35386562,-0.0850805,-0.055238914,-0.33195952,-0.022026869,-0.071173415,0.038381614,0.008971758,-0.042482182,0.062544785,-0.06889496,-0.0002810271,0.0446722,-0.024394846,-0.064067334,0.050519064,-0.029793397,-2.0,2.0,-2.0,2.0,2.0,-2.0,2.0,-2.0,-2.0,-2.0,-2.0,-2.0,-2.0,2.0,-2.0,2.0,2.0,-2.0,2.0,-2.0,-2.0,-2.0,-2.0,-2.0
2025-06-09 09:19:50.886,-0.039716404,0.005606983,-0.0020253381,0.01344035,-0.0062474073,0.0021128647,0.0,0.0,0.0,0.0110208895,-0.098818116,0.2906918,-0.11631894,0.10986608,0.36551717,-0.11299002,0.04848002,-0.34153137,-0.0766696,-0.06439494,-0.3391827,-0.025931735,0.022504807,0.025579933,0.050945997,-0.051250257,-0.03916647,-0.036088955,-0.03533109,0.0701964,0.049378496,-0.006602929,0.060483903,-0.015013247,-2.0,2.0,-2.0,2.0,2.0,-2.0,2.0,-2.0,-2.0,-2.0,-2.0,-2.0,-2.0,2.0,-2.0,2.0,2.0,-2.0,2.0,-2.0,-2.0,-2.0,-2.0,-2.0
2025-06-09 09:19:50.906,-0.03637769,-0.04116368,-0.041869186,0.059867397,0.0636271,0.025771435,0.0,0.0,0.0,0.01102194,-0.09532987,0.29362467,-0.1082131,0.10084132,0.35978076,-0.109917,0.04690989,-0.33937952,-0.08257807,-0.052585788,-0.33522153,-0.035367653,0.021687957,-0.038570713,0.070865825,0.031263847,-0.03258431,0.020845057,-0.05582937,-0.0636016,-0.0743645,0.030501729,-0.056808002,-0.063079186,-2.0,2.0,-2.0,2.0,2.0,-2.0,2.0,-2.0,-2.0,-2.0,-2.0,-2.0,-2.0,2.0,-2.0,2.0,2.0,-2.0,2.0,-2.0,-2.0,-2.0,-2.0,-2.0
2025-06-09 09:19:50.930,-0.046316627,0.023253426,0.026528144,0.028058592,-0.0131659405,-0.009049623,0.0,0.0,0.0,0.011022774,-0.086819485,0.29245034,-0.12067418,0.11043771,0.358947,-0.11811264,0.050509855,-0.34650826,-0.08662347,-0.048897665,-0.34781006,-0.030001359,-0.0720923,-0.03023419,-0.053353842,-0.074659295,-0.048812844,0.04161864,-0.0557922,0.03736364,-0.043382764,-0.024717843,-0.034565657,-0.029282266,-2.0,2.0,-2.0,2.0,2.0,-2.0,2.0,-2.0,-2.0,-2.0,-2.0,-2.0,-2.0,2.0,-2.0,2.0,2.0,-2.0,2.0,-2.0,-2.0,-2.0,-2.0,-2.0
2025-06-09 09:19:50.947,-0.011093171,-0.0019842486,-0.032752153,-0.028218685,0.027341267,0.03910237,0.0,0.0,0.0,0.011023386,-0.08916333,0.28744859,-0.11134137,0.10437961,0.3596167,-0.11166498,0.049990132,-0.33868685,-0.09095464,-0.050116714,-0.3412413,-0.021735365,-0.045974184,-0.07163812,-0.06659824,0.061849263,-0.01438315,0.012619587,-0.015367969,-0.056435812,0.04849685,0.0047168075,0.029188342,-0.024788257,-2.0,2.0,-2.0,2.0,2.0,-2.0,2.0,-2.0,-2.0,-2.0,-2.0,-2.0,-2.0,2.0,-2.0,2.0,2.0,-2.0,2.0,-2.0,-2.0,-2.0,-2.0,-2.0
2025-06-09 09:19:50.967,0.010310729,0.0031676583,-0.016583353,-0.030586142,0.05261238,0.041776028,0.0,0.0,0.0,0.011023785,-0.08328902,0.28094557,-0.11242572,0.10363626,0.35678297,-0.10916064,0.03485107,-0.3388435,-0.08450215,-0.061872873,-0.33804134,-0.035353206,-0.01581306,-0.06661144,0.050572924,-0.029634465,0.0567472,0.063853554,-0.073441565,0.0038486153,-0.030160166,0.06801346,-0.026585309,-0.016782815,-2.0,2.0,-2.0,2.0,2.0,-2.0,2.0,-2.0,-2.0,-2.0,-2.0,-2.0,-2.0,2.0,-2.0,2.0,2.0,-2.0,2.0,-2.0,-2.0,-2.0,-2.0,-2.0
2025-06-09 09:19:50.987,-0.006593262,0.010929814,-0.009630073,0.014763187,0.008246865,-0.0017723067,0.0,0.0,0.0,0.011023984,-0.09363666,0.27793047,-0.11447101,0.09477514,0.35252282,-0.11288673,0.042431463,-0.33794644,-0.07938687,-0.06255637,-0.3447837,-0.027602285,-0.046222106,-0.011660501,0.073805556,-0.001882875,0.032778338,0.06720044,0.00074634294,0.042439837,0.048133828,-0.052664123,-0.061184034,0.07140279,-2.0,2.0,-2.0,2.0,2.0,-2.0,2.0,-2.0,-2.0,-2.0,-2.0,-2.0,-2.0,2.0,-2.0,2.0,2.0,-2.0,2.0,-2.0,-2.0,-2.0,-2.0,-2.0
2025-06-09 09:19:51.006,0.011740904,-0.044848625,-0.03614499,0.031912994,0.029597647,-0.01917563,0.0,0.0,0.0,0.011024008,-0.090346456,0.2942272,-0.12042567,0.1034185,0.3586167,-0.1109195,0.041039668,-0.3557333,-0.09102942,-0.05620668,-0.33911154,-0.02163591,0.014213781,0.05130248,0.025496222,-0.016105833,-0.008835483,-0.050515305,0.0052460954,-0.0149344,0.044366747,-0.018343994,-0.058157574,0.0029883194,-2.0,2.0,-2.0,2.0,2.0,-2.0,2.0,-2.0,-2.0,-2.0,-2.0,-2.0,-2.0,2.0,-2.0,2.0,2.0,-2.0,2.0,-2.0,-2.0,-2.0,-2.0,-2.0
2025-06-09 09:19:51.026,0.049588773,0.02903898,0.04115639,-0.020697244,0.060201265,-0.002249857,0.0,0.0,0.0,0.011023881,-0.09543498,0.28779268,-0.11378382,0.092986524,0.34695232,-0.11355147,0.0342629,-0.33955532,-0.08358596,-0.0540414,-0.35020754,-0.030440573,0.057056114,0.06297416,0.013634329,0.030170154,-0.05845827,-0.00030811096,0.067619815,-0.03974009,0.058702692,-0.014005339,0.016317615,0.0012985548,-2.0,2.0,-2.0,2.0,2.0,-2.0,2.0,-2.0,-2.0,-2.0,-2.0,-2.0,-2.0,2.0,-2.0,2.0,2.0,-2.0,2.0,-2.0,-2.0,-2.0,-2.0,-2.0
2025-06-09 09:19:51.046,0.004886663,-0.0070135854,0.04553479,0.0359179,0.015629077,0.013152115,0.0,0.0,0.0,0.011023633,-0.08635411,0.28110063,-0.11664948,0.11066422,0.36381704,-0.10674477,0.03761868,-0.34255973,-0.08263932,-0.05859797,-0.33945256,-0.022242228,0.038705334,-0.025218789,-0.037155695,-0.04396384,-0.034562696,-0.06989816,-0.0067986706,0.0143652065,-0.050405778,0.0369019,0.069432594,-0.0066299094,-2.0,2.0,-2.0,2.0,2.0,-2.0,2.0,-2.0,-2.0,-2.0,-2.0,-2.0,-2.0,2.0,-2.0,2.0,2.0,-2.0,2.0,-2.0,-2.0,-2.0,-2.0,-2.0
2025-06-09 09:19:51.070,-0.03125429,0.018510377,0.011568035,0.008320049,0.033663128,0.0364028,0.0,0.0,0.0,0.011023294,-0.09518954,0.2925745,-0.11581684,0.10683574,0.35507187,-0.11762578,0.03420607,-0.34559083,-0.08012375,-0.053581312,-0.34385756,-0.021067541,-0.03840334,-0.032702945,0.00974042,-0.006131827,-0.055577237,0.010876869,0.05294605,0.02682723,0.048896056,0.03875803,0.033074707,-0.059579786,-2.0,2.0,-2.0,2.0,2.0,-2.0,2.0,-2.0,-2.0,-2.0,-2.0,-2.0,-2.0,2.0,-2.0,2.0,2.0,-2.0,2.0,-2.0,-2.0,-2.0,-2.0,-2.0
2025-06-09 09:19:51.089,-0.015968448,-0.016885534,-0.014996224,0.04773019,-0.013784161,0.027504552,0.0,0.0,0.0,0.011022894,-0.083316505,0.29547954,-0.11235302,0.09572241,0.3633194,-0.10638531,0.04217177,-0.34352508,-0.0801231,-0.04559439,-0.3349533,-0.0296717,0.071116015,-0.0054849493,0.061778147,-0.012477871,-0.054792624,-0.01798,-0.026709678,-0.014828164,0.046981916,-0.050906185,0.005094658,-0.028383736,-2.0,2.0,-2.0,2.0,2.0,-2.0,2.0,-2.0,-2.0,-2.0,-2.0,-2.0,-2.0,2.0,-2.0,2.0,2.0,-2.0,2.0,-2.0,-2.0,-2.0,-2.0,-2.0
2025-06-09 09:19:51.107,0.003290488,-0.042513512,-0.046902124,0.057828054,0.043449637,0.0036800595,0.0,0.0,0.0,0.011022461,-0.08600323,0.2966988,-0.113349855,0.101723194,0.35423404,-0.10678404,0.040088773,-0.3419008,-0.07891164,-0.046516348,-0.35020894,-0.029646154,-0.0063967323,-0.060039625,0.020942334,-0.0338504,0.0033797226,-0.044681314,-0.014646416,-0.04676596,-0.034478858,-0.0563677,-0.05850487,-0.047979835,-2.0,2.0,-2.0,2.0,2.0,-2.0,2.0,-2.0,-2.0,-2.0,-2.0,-2.0,-2.0,2.0,-2.0,2.0,2.0,-2.0,2.0,-2.0,-2.0,-2.0,-2.0,-2.0
2025-06-09 09:19:51.130,-0.04654919,-0.033099633,-0.04580179,-0.02022333,0.049194373,0.033713758,0.0,0.0,0.0,0.011022019,-0.09577864,0.29103506,-0.11607688,0.10070705,0.35108674,-0.10973601,0.050332274,-0.35211515,-0.07707279,-0.06042509,-0.34391904,-0.03257923,-0.048389126,-0.05119215,-0.06683978,0.04451407,-0.049488638,0.04629705,0.010166502,-0.062334247,-0.058740463,0.029371293,0.026993657,0.020544047,-2.0,2.0,-2.0,2.0,2.0,-2.0,2.0,-2.0,-2.0,-2.0,-2.0,-2.0,-2.0,2.0,-2.0,2.0,2.0,-2.0,2.0,-2.0,-2.0,-2.0,-2.0,-2.0
2025-06-09 09:19:51.147,-0.025958037,0.031987846,0.029610457,0.03151922,0.048092596,0.029509688,0.0,0.0,0.0,0.011021592,-0.09800513,0.28579918,-0.12131421,0.095157415,0.3568368,-0.11629174,0.033151273,-0.35634503,-0.094049945,-0.05012724,-0.3396118,-0.022449845,-0.046569977,0.0035503157,0.004657778,0.027688269,0.032240104,-0.060002536,-0.07204768,0.028969487,-0.01826034,-0.07083545,-0.0038167336,0.040745277,-2.0,2.0,-2.0,2.0,2.0,-2.0,2.0,-2.0,-2.0,-2.0,-2.0,-2.0,-2.0,2.0,-2.0,2.0,2.0,-2.0,2.0,-2.0,-2.0,-2.0,-2.0,-2.0
2025-06-09 09:19:51.167,-0.0056567974,0.021974133,-0.006636221,0.01876997,0.06318906,-0.045562442,0.0,0.0,0.0,0.011021194,-0.08902614,0.28915793,-0.11152599,0.09238611,0.34814045,-0.10102415,0.0451699,-0.35103723,-0.09050278,-0.05469193,-0.34426486,-0.02626243,0.06256964,0.04490155,-0.06760915,-0.07180612,0.0748428,0.03287172,0.049552564,0.019446677,0.035433527,-0.02470563,-0.07403007,-0.010840019,-2.0,2.0,-2.0,2.0,2.0,-2.0,2.0,-2.0,-2.0,-2.0,-2.0,-2.0,-2.0,2.0,-2.0,2.0,2.0,-2.0,2.0,-2.0,-2.0,-2.0,-2.0,-2.0
2025-06-09 09:19:51.187,-0.020273423,-0.03472951,0.025702484,0.0411344,0.020234514,-0.014144348,0.0,0.0,0.0,0.011020841,-0.09201955,0.2926456,-0.11467174,0.10763573,0.34908962,-0.117570445,0.041902903,-0.3371965,-0.07670894,-0.046284687,-0.33299023,-0.032343592,0.006867371,0.04888486,-0.06921917,0.011036355,0.0148303015,0.053122222,-0.004045664,-0.01942586,0.058296375,-0.0138538005,0.054161876,-0.013671986,-2.0,2.0,-2.0,2.0,2.0,-2.0,2.0,-2.0,-2.0,-2.0,-2.0,-2.0,-2.0,2.0,-2.0,2.0,2.0,-2.0,2.0,-2.0,-2.0,-2.0,-2.0,-2.0
2025-06-09 09:19:51.208,-0.029701196,-0.04535747,-0.018339662,0.03592366,-0.0065660523,0.01701082,0.0,0.0,0.0,0.011020542,-0.094916955,0.28840703,-0.11071834,0.09137064,0.35819826,-0.11687607,0.046463802,-0.35330844,-0.09323208,-0.062546864,-0.34227538,-0.021275612,0.00089754444,0.040894117,0.002829605,-0.008722032,-0.009172744,-0.06977329,-0.00021449884,0.024776572,-0.020935541,0.033282433,-0.02073698,0.03723683,-2.0,2.0,-2.0,2.0,2.0,-2.0,2.0,-2.0,-2.0,-2.0,-2.0,-2.0,-2.0,2.0,-2.0,2.0,2.0,-2.0,2.0,-2.0,-2.0,-2.0,-2.0,-2.0
2025-06-09 09:19:51.230,0.030333875,0.0048274747,-0.04758272,-0.0019182052,-0.028357347,-0.009853261,0.0,0.0,0.0,0.011020302,-0.08892797,0.28860947,-0.10556318,0.093223274,0.35143825,-0.11096369,0.047584686,-0.34969136,-0.09477174,-0.04630707,-0.34709883,-0.028533025,-0.05000079,0.0027628057,-0.07196263,0.07332542,0.028389556,0.032473374,-0.06636461,0.031641252,0.04105414,-0.05352377,0.0070818365,-0.038670547,-2.0,2.0,-2.0,2.0,2.0,-2.0,2.0,-2.0,-2.0,-2.0,-2.0,-2.0,-2.0,2.0,-2.0,2.0,2.0,-2.0,2.0,-2.0,-2.0,-2.0,-2.0,-2.0
2025-06-09 09:19:51.248,0.0053391857,-0.0045321886,-0.004348903,-0.012563631,0.033568207,-0.038385887,0.0,0.0,0.0,0.011020123,-0.082793854,0.28155088,-0.1212999,0.10942418,0.3572593,-0.113600336,0.044589035,-0.34365773,-0.082436055,-0.059437543,-0.34380734,-0.03728585,-0.073246405,-0.04475529,-0.052504253,0.02117885,0.013642573,-0.060684785,0.055606827,0.050435387,0.029051108,0.06618559,0.044795256,0.058918875,-2.0,2.0,-2.0,2.0,2.0,-2.0,2.0,-2.0,-2.0,-2.0,-2.0,-2.0,-2.0,2.0,-2.0,2.0,2.0,-2.0,2.0,-2.0,-2.0,-2.0,-2.0,-2.0
2025-06-09 09:19:51.268,0.03732032,0.018307582,0.012347369,-0.020386914,0.05571425,-0.026825622,0.0,0.0,0.0,0.011020004,-0.10103711,0.29046062,-0.10820889,0.10835598,0.35090244,-0.11527348,0.03779657,-0.3387574,-0.08099129,-0.062037494,-0.34957296,-0.03562428,-0.03890101,-0.07362037,0.03764559,-0.071618296,-0.05447162,0.04144193,0.06842648,-0.013790698,0.05369502,0.051567283,0.01334251,0.00524423,-2.0,2.0,-2.0,2.0,2.0,-2.0,2.0,-2.0,-2.0,-2.0,-2.0,-2.0,-2.0,2.0,-2.0,2.0,2.0,-2.0,2.0,-2.0,-2.0,-2.0,-2.0,-2.0
2025-06-09 09:19:51.288,-0.047369014,0.007377837,-0.0023275453,0.046625637,0.060156446,-0.033284876,0.0,0.0,0.0,0.0110199405,-0.09945665,0.29142702,-0.11900536,0.10032203,0.35625684,-0.11548503,0.047961913,-0.3413839,-0.09280581,-0.05574407,-0.33474824,-0.0377267,-0.03321825,0.071880236,0.027597431,0.035200246,0.052816197,0.0149287395,-0.07122289,-0.001500296,-0.058233757,0.06971938,0.03204659,0.017342992,-2.0,2.0,-2.0,2.0,2.0,-2.0,2.0,-2.0,-2.0,-2.0,-2.0,-2.0,-2.0,2.0,-2.0,2.0,2.0,-2.0,2.0,-2.0,-2.0,-2.0,-2.0,-2.0
2025-06-09 09:19:51.308,0.039234605,0.04492632,0.04813848,0.029972648,0.019040123,0.034192394,0.0,0.0,0.0,0.011019927,-0.08336676,0.27732587,-0.10366035,0.10409038,0.35923323,-0.111350805,0.04858752,-0.33993697,-0.09122381,-0.05196299,-0.34259734,-0.023900706,-0.0061248317,0.03416039,-0.04852376,-0.034558985,-0.014084253,-0.009349031,-0.04190834,0.0014366164,-0.055357862,0.026753552,-0.007317356,0.05916013,-2.0,2.0,-2.0,2.0,2.0,-2.0,2.0,-2.0,-2.0,-2.0,-2.0,-2.0,-2.0,2.0,-2.0,2.0,2.0,-2.0,2.0,-2.0,-2.0,-2.0,-2.0,-2.0
2025-06-09 09:19:51.330,0.0371887,0.047093507,0.027308507,0.037653625,0.058233224,-0.02352688,0.0,0.0,0.0,0.011019957,-0.09976786,0.28308472,-0.102068916,0.09937312,0.35971892,-0.11891982,0.037069276,-0.3463748,-0.09200591,-0.05230904,-0.34893233,-0.018973248,-0.008130115,-0.013396502,0.0060333377,0.048125435,-0.032138385,-0.047673915,-0.0537046,-0.021569356,-0.045987155,0.0014897502,-0.026206331,-0.024162866,-2.0,2.0,-2.0,2.0,2.0,-2.0,2.0,-2.0,-2.0,-2.0,-2.0,-2.0,-2.0,2.0,-2.0,2.0,2.0,-2.0,2.0,-2.0,-2.0,-2.0,-2.0,-2.0
2025-06-09 09:19:51.349,0.029785175,0.027952138,-0.025656702,0.044374928,-0.0057752817,0.044504013,0.0,0.0,0.0,0.0110200215,-0.08863259,0.2928914,-0.10989878,0.10920673,0.3553699,-0.10289316,0.034705933,-0.34609282,-0.094339155,-0.045265395,-0.34419343,-0.030891523,0.05429176,0.060349982,0.043800432,-0.044787306,-0.06595455,-0.05970635,0.069312096,-0.029795894,0.04747462,-0.061568018,-0.011982411,-0.071027026,-2.0,2.0,-2.0,2.0,2.0,-2.0,2.0,-2.0,-2.0,-2.0,-2.0,-2.0,-2.0,2.0,-2.0,2.0,2.0,-2.0,2.0,-2.0,-2.0,-2.0,-2.0,-2.0
2025-06-09 09:19:51.368,0.04153571,-0.018017033,0.003558372,0.040290397,-0.01145438,0.011755697,0.0,0.0,0.0,0.011020113,-0.089508794,0.2930065,-0.11410415,0.097583465,0.34750742,-0.10738485,0.04916914,-0.3398392,-0.09051102,-0.05579414,-0.34358528,-0.035155527,-0.055180993,0.06746096,-0.042080875,0.059095655,-0.056118738,-0.052692737,-0.017909585,-0.03298698,0.003090515,0.05405453,-0.029543523,-0.06464212,-2.0,2.0,-2.0,2.0,2.0,-2.0,2.0,-2.0,-2.0,-2.0,-2.0,-2.0,-2.0,2.0,-2.0,2.0,2.0,-2.0,2.0,-2.0,-2.0,-2.0,-2.0,-2.0
2025-06-09 09:19:51.388,-0.029244116,0.0047591156,0.011948408,-0.022454867,0.06366015,0.037888058,0.0,0.0,0.0,0.011020223,-0.09754346,0.29317072,-0.11431285,0.099455886,0.35833776,-0.10838183,0.04426723,-0.35528398,-0.07893452,-0.04596885,-0.33175072,-0.024945827,0.03323823,-0.03846599,-0.05608615,-0.029592501,-0.023205215,-0.0374857,0.06158219,-0.0152011,0.071974605,0.025457785,-0.008497829,-0.010373695,-2.0,2.0,-2.0,2.0,2.0,-2.0,2.0,-2.0,-2.0,-2.0,-2.0,-2.0,-2.0,2.0,-2.0,2.0,2.0,-2.0,2.0,-2.0,-2.0,-2.0,-2.0,-2.0
2025-06-09 09:19:51.409,-0.008077424,0.012005587,-0.031265784,-0.004901816,0.021123346,0.03238513,0.0,0.0,0.0,0.011020342,-0.091756865,0.29048356,-0.114115365,0.106671765,0.36392412,-0.114212185,0.045059156,-0.34692788,-0.08795788,-0.05402256,-0.33167633,-0.018445617,-0.030207368,-0.022807771,-0.062950514,-0.05244909,0.053583454,-0.017828226,-0.048415974,0.06631212,0.04470652,0.0018208639,0.044204846,0.057974674,-2.0,2.0,-2.0,2.0,2.0,-2.0,2.0,-2.0,-2.0,-2.0,-2.0,-2.0,-2.0,2.0,-2.0,2.0,2.0,-2.0,2.0,-2.0,-2.0,-2.0,-2.0,-2.0
2025-06-09 09:19:51.430,-0.034232162,-0.00048032362,0.020552678,-0.02715207,0.041044455,0.013445141,0.0,0.0,0.0,0.011020465,-0.09941786,0.27973038,-0.108316064,0.10905259,0.36538336,-0.11396983,0.045490857,-0.33875868,-0.0881586,-0.061937217,-0.33362767,-0.032870613,0.032665007,0.04807379,-0.07031033,0.039127033,0.03134622,-0.046579804,-0.024270143,-0.024165904,0.07063605,-0.011160585,0.043804746,-0.07305974,-2.0,2.0,-2.0,2.0,2.0,-2.0,2.0,-2.0,-2.0,-2.0,-2.0,-2.0,-2.0,2.0,-2.0,2.0,2.0,-2.0,2.0,-2.0,-2.0,-2.0,-2.0,-2.0
2025-06-09 09:19:51.449,-0.048849497,0.01775934,-0.015624849,0.034418054,0.04645099,0.017085588,0.0,0.0,0.0,0.011020584,-0.09238952,0.2849435,-0.11831852,0.10128038,0.35955122,-0.11131868,0.038611352,-0.34390455,-0.090950295,-0.061220046,-0.3450226,-0.022290558,0.054182008,0.02377772,0.0075570312,-0.060419686,0.043721694,0.06868782,0.018457176,0.071923435,-0.06323184,0.044449463,0.04708878,0.07458062,-2.0,2.0,-2.0,2.0,2.0,-2.0,2.0,-2.0,-2.0,-2.0,-2.0,-2.0,-2.0,2.0,-2.0,2.0,2.0,-2.0,2.0,-2.0,-2.0,-2.0,-2.0,-2.0
2025-06-09 09:19:51.469,-0.0028668724,-0.01982651,0.04127594,-0.018109588,-0.009197989,-0.004706117,0.0,0.0,0.0,0.011020696,-0.08315273,0.29491758,-0.109532185,0.09139412,0.35720742,-0.10931919,0.040919997,-0.33695617,-0.082715236,-0.045313407,-0.33816132,-0.031269155,0.06388397,-0.0646397,0.059308197,0.034975752,-0.064135306,-0.07399977,0.05687917,0.044522017,0.07227263,-0.027932834,-0.025801392,0.023548383,-2.0,2.0,-2.0,2.0,2.0,-2.0,2.0,-2.0,-2.0,-2.0,-2.0,-2.0,-2.0,2.0,-2.0,2.0,2.0,-2.0,2.0,-2.0,-2.0,-2.0,-2.0,-2.0
2025-06-09 09:19:51.489,-0.045764744,0.01547472,0.03304934,0.033117075,0.02343111,-0.048596762,0.0,0.0,0.0,0.011020795,-0.09926889,0.27854678,-0.11005294,0.10717546,0.34967583,-0.10819577,0.048313588,-0.33903757,-0.09356441,-0.057669327,-0.3394731,-0.020323135,0.026252992,-0.027337186,-0.053763043,-0.022861132,0.054070573,-0.011040201,-0.07270927,0.035519097,0.050918628,-0.0408985,0.048062664,-0.056146547,-2.0,2.0,-2.0,2.0,2.0,-2.0,2.0,-2.0,-2.0,-2.0,-2.0,-2.0,-2.0,2.0,-2.0,2.0,2.0,-2.0,2.0,-2.0,-2.0,-2.0,-2.0,-2.0
2025-06-09 09:19:51.509,-0.001278946,0.012478489,0.022281611,0.034200393,-0.028492162,0.049087387,0.0,0.0,0.0,0.011020879,-0.08165369,0.29027098,-0.10275062,0.102453396,0.3570353,-0.10706287,0.036453232,-0.35611954,-0.07617102,-0.04745978,-0.34426117,-0.022435034,-0.039701372,-0.04015341,-0.01443672,-0.046330944,0.0015783668,-0.068219796,0.030374335,0.028717797,0.018054795,-0.039456606,-0.06145825,0.014524924,-2.0,2.0,-2.0,2.0,2.0,-2.0,2.0,-2.0,-2.0,-2.0,-2.0,-2.0,-2.0,2.0,-2.0,2.0,2.0,-2.0,2.0,-2.0,-2.0,-2.0,-2.0,-2.0
2025-06-09 09:19:51.531,0.018594736,0.021459136,0.013560383,0.026588328,0.06815407,0.025290685,0.0,0.0,0.0,0.011020947,-0.086333364,0.2929158,-0.102390066,0.09736059,0.3652487,-0.11605235,0.048512872,-0.34702277,-0.09024229,-0.052008472,-0.34404197,-0.020774795,0.06062772,0.026189383,-0.058287457,0.037082933,0.04884648,0.044256646,0.05504303,0.032642648,-0.01335202,-0.03640765,-0.045474235,0.0649083,-2.0,2.0,-2.0,2.0,2.0,-2.0,2.0,-2.0,-2.0,-2.0,-2.0,-2.0,-2.0,2.0,-2.0,2.0,2.0,-2.0,2.0,-2.0,-2.0,-2.0,-2.0,-2.0
2025-06-09 09:19:51.549,0.021826683,-0.048892178,-0.028273515,-0.008735438,0.007311163,-0.038567577,0.0,0.0,0.0,0.0110209985,-0.0879191,0.29538384,-0.11954591,0.09592096,0.35685027,-0.11074832,0.048928104,-0.35562125,-0.08239653,-0.05378642,-0.34125084,-0.0325075,-0.0054388056,-0.039077163,0.036044996,0.033426672,-0.019661134,0.04425046,-0.02116169,0.045425348,0.05557344,-0.0578441,0.072137766,0.0052416287,-2.0,2.0,-2.0,2.0,2.0,-2.0,2.0,-2.0,-2.0,-2.0,-2.0,-2.0,-2.0,2.0,-2.0,2.0,2.0,-2.0,2.0,-2.0,-2.0,-2.0,-2.0,-2.0
2025-06-09 09:19:51.569,-0.011359937,0.028920658,0.035761826,0.05386696,0.06132106,0.029431885,0.0,0.0,0.0,0.011021033,-0.088581726,0.28797245,-0.11996131,0.09289321,0.3547298,-0.11580747,0.048018888,-0.3500034,-0.07603447,-0.04862429,-0.33904645,-0.033417046,0.04065085,0.006934627,0.061171632,-0.025206586,0.046052393,0.037869677,0.05626959,-0.03885556,0.010755936,0.057788327,0.07374469,0.023847148,-2.0,2.0,-2.0,2.0,2.0,-2.0,2.0,-2.0,-2.0,-2.0,-2.0,-2.0,-2.0,2.0,-2.0,2.0,2.0,-2.0,2.0,-2.0,-2.0,-2.0,-2.0,-2.0
2025-06-09 09:19:51.589,0.048161983,0.0054418887,-0.019383792,0.06729484,-0.010608894,0.03529849,0.0,0.0,0.0,0.011021051,-0.09201309,0.28809768,-0.12070188,0.11062824,0.36550662,-0.105293244,0.048888132,-0.3516573,-0.08988381,-0.044860404,-0.33887196,-0.023553656,0.06277081,0.061842322,0.050069112,0.037602764,0.074715115,0.00708539,-0.073309116,0.044861335,0.008070598,-0.009661229,-0.0547833,-0.05057189,-2.0,2.0,-2.0,2.0,2.0,-2.0,2.0,-2.0,-2.0,-2.0,-2.0,-2.0,-2.0,2.0,-2.0,2.0,2.0,-2.0,2.0,-2.0,-2.0,-2.0,-2.0,-2.0
2025-06-09 09:19:51.611,0.031643018,0.020996371,0.045588076,0.025676962,-0.009549738,0.0022387784,0.0,0.0,0.0,0.011021055,-0.08421216,0.27844927,-0.117999695,0.1102644,0.35506484,-0.10251346,0.04330155,-0.34227625,-0.077851884,-0.057678286,-0.35061958,-0.031673737,-0.06739427,-0.005248181,0.0726827,0.05536757,0.015458129,-0.068745784,0.018429851,0.06179063,-0.016982138,0.017819624,0.0304415,-0.015662545,-2.0,2.0,-2.0,2.0,2.0,-2.0,2.0,-2.0,-2.0,-2.0,-2.0,-2.0,-2.0,2.0,-2.0,2.0,2.0,-2.0,2.0,-2.0,-2.0,-2.0,-2.0,-2.0
2025-06-09 09:19:51.630,-0.009786953,0.034392066,0.03668092,0.00803134,0.04568224,-0.0038228724,0.0,0.0,0.0,0.011021047,-0.09846113,0.28679743,-0.11224755,0.10903131,0.35601512,-0.103670895,0.04309194,-0.35532206,-0.084500715,-0.049856916,-0.34474978,-0.029940553,0.049541153,0.042243578,-0.050199825,-0.001659613,-0.044850737,-0.06630294,0.07184504,0.01371019,-0.05987569,-0.07468113,-0.06625,0.056208957,-2.0,2.0,-2.0,2.0,2.0,-2.0,2.0,-2.0,-2.0,-2.0,-2.0,-2.0,-2.0,2.0,-2.0,2.0,2.0,-2.0,2.0,-2.0,-2.0,-2.0,-2.0,-2.0
2025-06-09 09:19:51.649,0.0058868267,0.030229673,-0.022861214,0.040130362,-0.004640795,0.021572853,0.0,0.0,0.0,0.011021029,-0.09612965,0.28448454,-0.10516909,0.10849875,0.35533863,-0.10915116,0.035057995,-0.3471431,-0.09122308,-0.05439523,-0.3369654,-0.034395147,-0.02787012,-0.012744508,0.04027006,-0.053762797,0.024162183,-0.02529158,-0.072772704,-0.06837783,0.014322146,-0.015149809,0.037983768,-0.024936678,-2.0,2.0,-2.0,2.0,2.0,-2.0,2.0,-2.0,-2.0,-2.0,-2.0,-2.0,-2.0,2.0,-2.0,2.0,2.0,-2.0,2.0,-2.0,-2.0,-2.0,-2.0,-2.0
2025-06-09 09:19:51.669,0.034811452,0.016603455,0.009912261,0.02856162,-0.022769513,0.018624863,0.0,0.0,0.0,0.011021004,-0.09848049,0.28828755,-0.119767256,0.097807184,0.35731995,-0.103640474,0.03688288,-0.34912905,-0.08973123,-0.06280012,-0.33313695,-0.019119592,0.06585337,-0.021305382,-0.0049704686,-0.053818516,-0.07006564,0.028927432,-0.040364187,-0.024428593,0.04785037,-0.011854894,-0.020592235,-0.06869736,-2.0,2.0,-2.0,2.0,2.0,-2.0,2.0,-2.0,-2.0,-2.0,-2.0,-2.0,-2.0,2.0,-2.0,2.0,2.0,-2.0,2.0,-2.0,-2.0,-2.0,-2.0,-2.0
2025-06-09 09:19:51.689,-0.03622663,0.03262386,-0.0438707,-0.02449854,-0.015184923,0.016160171,0.0,0.0,0.0,0.011020973,-0.084014386,0.2844239,-0.11583989,0.094955705,0.35331315,-0.100764886,0.047076546,-0.34045228,-0.078680076,-0.04731832,-0.3467699,-0.037127808,0.05385546,0.018994406,0.04978269,-0.05587824,0.005087537,-0.008877772,-0.022962661,-0.022018705,-0.017478742,0.07269629,0.04514876,-0.06844545,-2.0,2.0,-2.0,2.0,2.0,-2.0,2.0,-2.0,-2.0,-2.0,-2.0,-2.0,-2.0,2.0,-2.0,2.0,2.0,-2.0,2.0,-2.0,-2.0,-2.0,-2.0,-2.0
2025-06-09 09:19:51.712,-0.041548338,-0.005651521,0.005478105,0.033184536,0.03850767,-0.00955463,0.0,0.0,0.0,0.01102094,-0.08517861,0.28503892,-0.11739024,0.09186039,0.355011,-0.10992126,0.04740622,-0.35054752,-0.08198921,-0.05898492,-0.33657217,-0.03575888,0.028134953,-0.016710818,-0.03448003,0.027768591,0.018873548,0.044650722,0.063679375,-0.050320532,0.04303857,-0.044293586,-0.067809425,-0.070407815,-2.0,2.0,-2.0,2.0,2.0,-2.0,2.0,-2.0,-2.0,-2.0,-2.0,-2.0,-2.0,2.0,-2.0,2.0,2.0,-2.0,2.0,-2.0,-2.0,-2.0,-2.0,-2.0
2025-06-09 09:19:51.730,-0.02092143,-0.01715205,0.041232415,0.023243327,-0.023221374,-0.038646467,0.0,0.0,0.0,0.011020906,-0.086971365,0.27889365,-0.11681617,0.108419396,0.34885636,-0.11447099,0.04621198,-0.3395553,-0.09136282,-0.056579113,-0.34847575,-0.03420408,0.029025013,0.040832613,-0.01827572,-0.019522855,0.040894188,0.0402061,0.040584195,-0.04981828,0.008523711,-0.001331643,0.040800486,-0.072927274,-2.0,2.0,-2.0,2.0,2.0,-2.0,2.0,-2.0,-2.0,-2.0,-2.0,-2.0,-2.0,2.0,-2.0,2.0,2.0,-2.0,2.0,-2.0,-2.0,-2.0,-2.0,-2.0
2025-06-09 09:19:51.750,-0.02022128,-0.028477963,0.03387138,0.015997589,-0.0060767005,-0.048442017,0.0,0.0,0.0,0.011020873,-0.08310523,0.28713426,-0.10168181,0.09438009,0.35260797,-0.11866281,0.038883217,-0.3408222,-0.07638848,-0.0507139,-0.34647968,-0.031046329,-0.06684802,0.011346356,0.03997183,0.03583684,-0.068794645,0.042485688,-0.038086023,0.054079037,-0.049438685,-0.055500392,-0.005328637,0.055704862,-2.0,2.0,-2.0,2.0,2.0,-2.0,2.0,-2.0,-2.0,-2.0,-2.0,-2.0,-2.0,2.0,-2.0,2.0,2.0,-2.0,2.0,-2.0,-2.0,-2.0,-2.0,-2.0
2025-06-09 09:19:51.770,-0.028045142,-0.015099294,-0.018060282,0.04120619,0.021766456,0.024423927,0.0,0.0,0.0,0.011020841,-0.09085873,0.28839356,-0.102724314,0.10927283,0.34862414,-0.111503825,0.035052747,-0.34185013,-0.09227617,-0.053842112,-0.33161607,-0.024491485,0.02908627,-0.008856509,0.012459579,4.7349586e-05,-0.054542623,-0.017001415,-0.05257723,0.026255611,-0.02045723,-0.051591326,-0.026823241,-0.072826244,-2.0,2.0,-2.0,2.0,2.0,-2.0,2.0,-2.0,-2.0,-2.0,-2.0,-2.0,-2.0,2.0,-2.0,2.0,2.0,-2.0,2.0,-2.0,-2.0,-2.0,-2.0,-2.0
2025-06-09 09:19:51.790,0.01778135,-7.684968e-05,-0.047604542,-0.0044366424,-0.01842588,0.013592658,0.0,0.0,0.0,0.011020813,-0.08365106,0.29360163,-0.1093816,0.10255297,0.35152334,-0.10636732,0.045641333,-0.35566688,-0.076607145,-0.052606385,-0.33383635,-0.020913314,0.064439654,-0.069638275,-0.0050709047,0.039993387,0.048435647,0.015775884,-0.018742554,0.01315273,-0.04088296,0.014418609,0.05501238,0.037895687,-2.0,2.0,-2.0,2.0,2.0,-2.0,2.0,-2.0,-2.0,-2.0,-2.0,-2.0,-2.0,2.0,-2.0,2.0,2.0,-2.0,2.0,-2.0,-2.0,-2.0,-2.0,-2.0
2025-06-09 09:19:51.813,-0.023340503,-0.040031042,0.041638553,0.04109025,0.019307656,0.005415136,0.0,0.0,0.0,0.01102079,-0.09613928,0.2932027,-0.11598307,0.11056312,0.36465985,-0.103405185,0.04930497,-0.34596962,-0.093432285,-0.045098618,-0.34872717,-0.037269015,-0.003666885,-0.059988573,0.046915237,0.06923377,-0.062004708,-0.04756921,0.06494005,-0.020583509,-0.004393213,0.04889615,0.074531674,-0.0060084765,-2.0,2.0,-2.0,2.0,2.0,-2.0,2.0,-2.0,-2.0,-2.0,-2.0,-2.0,-2.0,2.0,-2.0,2.0,2.0,-2.0,2.0,-2.0,-2.0,-2.0,-2.0,-2.0
2025-06-09 09:19:51.830,-0.012947649,-0.0347818,0.035045423,-0.0014841979,-0.026999094,-0.02564762,0.0,0.0,0.0,0.011020771,-0.08258502,0.28293306,-0.119420774,0.10437261,0.35497633,-0.10667388,0.036056764,-0.34137607,-0.08912968,-0.047039263,-0.33118686,-0.02766812,0.04209599,0.028140718,-0.06765223,-0.053310458,-0.058175534,0.008343022,-0.06745896,-0.05597304,-0.014528751,-0.062966265,0.01745542,-0.008120949,-2.0,2.0,-2.0,2.0,2.0,-2.0,2.0,-2.0,-2.0,-2.0,-2.0,-2.0,-2.0,2.0,-2.0,2.0,2.0,-2.0,2.0,-2.0,-2.0,-2.0,-2.0,-2.0
2025-06-09 09:19:51.850,0.0036857727,-0.021789065,-0.038432915,-0.024574514,0.047945734,-0.002309756,0.0,0.0,0.0,0.011020757,-0.09635604,0.2896665,-0.117321886,0.091318235,0.35093284,-0.1053922,0.0474717,-0.33800572,-0.08103866,-0.061910536,-0.33301735,-0.027883334,-0.06393295,0.011087707,0.061338548,-0.028597364,-0.03299561,-0.0733499,0.044766746,0.03554425,-0.04271831,-0.067966945,0.06434039,-0.027254382,-2.0,2.0,-2.0,2.0,2.0,-2.0,2.0,-2.0,-2.0,-2.0,-2.0,-2.0,-2.0,2.0,-2.0,2.0,2.0,-2.0,2.0,-2.0,-2.0,-2.0,-2.0,-2.0
2025-06-09 09:19:51.870,-0.027693627,-0.047874272,-0.049493805,0.032268245,0.020637846,-0.030663526,0.0,0.0,0.0,0.011020748,-0.08662593,0.28583002,-0.120583996,0.09834433,0.3625309,-0.11078739,0.041853923,-0.3491082,-0.08775978,-0.05463477,-0.3326965,-0.029099219,-0.034430522,0.05881327,0.060157068,0.013525437,0.038698494,0.0002763463,-0.06251527,-0.020663729,-0.064004324,0.019822711,-0.043656282,0.0007631398,-2.0,2.0,-2.0,2.0,2.0,-2.0,2.0,-2.0,-2.0,-2.0,-2.0,-2.0,-2.0,2.0,-2.0,2.0,2.0,-2.0,2.0,-2.0,-2.0,-2.0,-2.0,-2.0
2025-06-09 09:19:51.890,-0.0202135,-0.026966667,-0.013279405,-0.021893483,0.039023124,-0.016455,0.0,0.0,0.0,0.011020742,-0.09990942,0.29124534,-0.109980956,0.09532522,0.35856733,-0.10589135,0.04055909,-0.35599408,-0.07704023,-0.053243916,-0.34282196,-0.020681592,0.053077858,0.04566783,-0.071437165,0.06277356,0.05599078,-0.014723258,-0.007073223,-0.014531741,-0.04506773,0.04477194,0.015661923,0.04606211,-2.0,2.0,-2.0,2.0,2.0,-2.0,2.0,-2.0,-2.0,-2.0,-2.0,-2.0,-2.0,2.0,-2.0,2.0,2.0,-2.0,2.0,-2.0,-2.0,-2.0,-2.0,-2.0
2025-06-09 09:19:51.913,-0.01631043,-0.04253572,0.023919497,0.061136026,-0.000540209,-0.031687774,0.0,0.0,0.0,0.011020741,-0.08748406,0.28667283,-0.115198776,0.10281265,0.34841815,-0.10078158,0.041839488,-0.34880114,-0.088608265,-0.051411018,-0.3450609,-0.031658452,0.027785681,0.051996797,-0.0006294249,-0.014153003,0.029285975,0.05082387,-0.024497736,-0.039060526,0.0459155,-0.010183856,-0.036749702,0.026706638,-2.0,2.0,-2.0,2.0,2.0,-2.0,2.0,-2.0,-2.0,-2.0,-2.0,-2.0,-2.0,2.0,-2.0,2.0,2.0,-2.0,2.0,-2.0,-2.0,-2.0,-2.0,-2.0
2025-06-09 09:19:51.931,0.012024865,-0.033400346,-0.020550922,0.031111676,0.06754748,-0.032768577,0.0,0.0,0.0,0.011020744,-0.09502048,0.29485548,-0.11409277,0.106170505,0.3609581,-0.118331224,0.04219302,-0.35302714,-0.08277846,-0.056689706,-0.3475994,-0.029555203,0.035524808,0.05016645,-0.0013180744,-0.021158034,-0.035007164,-0.051673856,-0.016282113,0.010716615,-0.059433237,0.039844442,-0.049135514,0.072486706,-2.0,2.0,-2.0,2.0,2.0,-2.0,2.0,-2.0,-2.0,-2.0,-2.0,-2.0,-2.0,2.0,-2.0,2.0,2.0,-2.0,2.0,-2.0,-2.0,-2.0,-2.0,-2.0
2025-06-09 09:19:51.952,-0.002066818,0.0003215653,-0.043883275,0.0056660296,0.050988317,-0.033666946,0.0,0.0,0.0,0.01102075,-0.099025466,0.28792194,-0.10709664,0.095355876,0.36578673,-0.10869615,0.046112742,-0.35080773,-0.08015842,-0.064639516,-0.3390114,-0.031609517,0.07090612,-0.046751756,0.0013838372,0.03551718,-0.06086559,0.042121455,0.071470104,0.0652008,-0.0059824707,-0.068421125,0.036670726,0.04451967,-2.0,2.0,-2.0,2.0,2.0,-2.0,2.0,-2.0,-2.0,-2.0,-2.0,-2.0,-2.0,2.0,-2.0,2.0,2.0,-2.0,2.0,-2.0,-2.0,-2.0,-2.0,-2.0
2025-06-09 09:19:51.972,0.037938163,0.029411241,0.025184596,-0.011370875,-0.007469733,0.026410768,0.0,0.0,0.0,0.011020757,-0.08830217,0.28912428,-0.11904788,0.10400491,0.35625637,-0.09995896,0.03255782,-0.35503864,-0.083682515,-0.04556774,-0.33505064,-0.019003851,-0.067837596,-0.0126660615,0.0071087796,-0.021202773,0.017671335,-0.033707783,0.07364246,0.0003954794,-0.068736315,0.018008009,0.06775265,0.013004039,-2.0,2.0,-2.0,2.0,2.0,-2.0,2.0,-2.0,-2.0,-2.0,-2.0,-2.0,-2.0,2.0,-2.0,2.0,2.0,-2.0,2.0,-2.0,-2.0,-2.0,-2.0,-2.0
2025-06-09 09:19:51.992,0.02428667,0.038356565,0.031165045,-0.02781756,-0.008398677,-0.035495754,0.0,0.0,0.0,0.011020766,-0.09761579,0.2862437,-0.118800595,0.10424694,0.3516919,-0.103905335,0.040476624,-0.35396236,-0.07823746,-0.049648028,-0.34614193,-0.017882854,0.06470693,-0.010526556,0.009019888,-0.044671793,-0.06852864,0.04975764,-0.0025363846,-0.049444728,-0.024761068,-0.01320731,-0.063605174,0.05741816,-2.0,2.0,-2.0,2.0,2.0,-2.0,2.0,-2.0,-2.0,-2.0,-2.0,-2.0,-2.0,2.0,-2.0,2.0,2.0,-2.0,2.0,-2.0,-2.0,-2.0,-2.0,-2.0
2025-06-09 09:19:52.013,0.030542046,-0.04375186,-0.048548225,0.06713238,0.06345671,-0.0028467511,0.0,0.0,0.0,0.011020775,-0.09970032,0.29466277,-0.1196633,0.10848074,0.35185125,-0.104805216,0.049619127,-0.3474062,-0.086614914,-0.06473326,-0.35037047,-0.024788177,-0.046466094,-0.05326685,-0.061320577,-0.057718,-0.072981305,0.01794952,-0.067885324,-0.057059087,-0.0047419937,0.019367363,-0.05735329,-0.014539432,-2.0,2.0,-2.0,2.0,2.0,-2.0,2.0,-2.0,-2.0,-2.0,-2.0,-2.0,-2.0,2.0,-2.0,2.0,2.0,-2.0,2.0,-2.0,-2.0,-2.0,-2.0,-2.0
2025-06-09 09:19:52.032,0.012171844,-0.00016678419,-0.022476917,0.06499231,0.069430046,-0.015292517,0.0,0.0,0.0,0.011020785,-0.0842695,0.27686757,-0.11712986,0.091519825,0.3598511,-0.11355698,0.0459321,-0.35293406,-0.08820747,-0.058592815,-0.34234852,-0.018673433,-0.03362787,-0.06539427,0.042266373,0.049611647,0.0738842,-0.0066628945,-0.000999586,0.009293206,0.0027045247,0.008592396,0.031799756,-0.0040093223,-2.0,2.0,-2.0,2.0,2.0,-2.0,2.0,-2.0,-2.0,-2.0,-2.0,-2.0,-2.0,2.0,-2.0,2.0,2.0,-2.0,2.0,-2.0,-2.0,-2.0,-2.0,-2.0
2025-06-09 09:19:52.053,-0.0065310746,0.04788323,-0.029416282,0.01596271,0.057791892,-0.020686518,0.0,0.0,0.0,0.0110207945,-0.09519249,0.2790007,-0.10250491,0.10386742,0.3552253,-0.11123231,0.031738833,-0.3381558,-0.09488744,-0.048891284,-0.33658355,-0.029142005,0.06255725,0.020102767,0.0031516748,-0.06563125,-0.037738398,0.06845356,0.0017343774,-0.03404213,0.032360893,-0.018745491,0.031332176,0.01165334,-2.0,2.0,-2.0,2.0,2.0,-2.0,2.0,-2.0,-2.0,-2.0,-2.0,-2.0,-2.0,2.0,-2.0,2.0,2.0,-2.0,2.0,-2.0,-2.0,-2.0,-2.0,-2.0
2025-06-09 09:19:52.073,0.0066632754,-0.018011201,-0.029082311,0.064628646,0.040532693,-0.03272771,0.0,0.0,0.0,0.011020803,-0.099852405,0.29118112,-0.10388562,0.10150893,0.3582722,-0.10761286,0.03203297,-0.3421841,-0.09210422,-0.046629366,-0.33176377,-0.027607862,0.019520331,-0.004937696,0.0026636047,-0.004615924,0.04922482,-0.066735454,-0.04743302,-0.027970048,-0.03358075,-0.05419644,0.0060013356,0.038158134,-2.0,2.0,-2.0,2.0,2.0,-2.0,2.0,-2.0,-2.0,-2.0,-2.0,-2.0,-2.0,2.0,-2.0,2.0,2.0,-2.0,2.0,-2.0,-2.0,-2.0,-2.0,-2.0
2025-06-09 09:19:52.096,0.010231598,-0.0059697563,-0.013375817,0.053331487,-0.008897667,0.008783675,0.0,0.0,0.0,0.011020811,-0.09420866,0.2819586,-0.11324776,0.10434683,0.35482895,-0.10104949,0.044813875,-0.34091574,-0.09475082,-0.06238995,-0.3410623,-0.03055477,-0.06885955,-0.05159244,-0.046291325,0.022076953,0.031670015,0.001969192,0.054402903,-0.015071869,-0.0397945,-0.02482053,0.035751823,0.00072904123,-2.0,2.0,-2.0,2.0,2.0,-2.0,2.0,-2.0,-2.0,-2.0,-2.0,-2.0,-2.0,2.0,-2.0,2.0,2.0,-2.0,2.0,-2.0,-2.0,-2.0,-2.0,-2.0
2025-06-09 09:19:52.113,0.003613165,0.019230569,0.037242714,0.040167633,-0.027497109,-0.017758528,0.0,0.0,0.0,0.011020817,-0.09280592,0.28633898,-0.11706497,0.109095,0.34795126,-0.09913878,0.038564153,-0.34645188,-0.09137768,-0.056942005,-0.34486157,-0.02277996,0.031475935,0.008560326,-0.063040994,-0.06845816,0.061820682,-0.005083473,-0.050786573,-0.058117297,0.06259395,0.055957202,0.06976012,0.07490975,-2.0,2.0,-2.0,2.0,2.0,-2.0,2.0,-2.0,-2.0,-2.0,-2.0,-2.0,-2.0,2.0,-2.0,2.0,2.0,-2.0,2.0,-2.0,-2.0,-2.0,-2.0,-2.0
2025-06-09 09:19:52.135,-0.011113964,0.04017688,-0.040616367,0.0562376,-0.003983127,-0.0045263115,0.0,0.0,0.0,0.011020822,-0.08344758,0.27814466,-0.11121935,0.10427943,0.3512532,-0.1163949,0.040845275,-0.35356542,-0.07870507,-0.051003005,-0.3410534,-0.034775473,0.052564915,-0.06400701,0.062395196,-0.035912998,0.004626892,-0.046144485,0.0006640121,0.06803689,0.034124807,-0.07006526,0.055832904,0.037300408,-2.0,2.0,-2.0,2.0,2.0,-2.0,2.0,-2.0,-2.0,-2.0,-2.0,-2.0,-2.0,2.0,-2.0,2.0,2.0,-2.0,2.0,-2.0,-2.0,-2.0,-2.0,-2.0
2025-06-09 09:19:52.153,0.004464721,0.0111102965,0.016201887,0.006332492,0.00768004,-0.02250294,0.0,0.0,0.0,0.011020826,-0.091884404,0.28654405,-0.116032206,0.105429046,0.34800515,-0.10856471,0.04777858,-0.35464415,-0.08048098,-0.058398847,-0.33355787,-0.025348607,-0.0067626657,0.058614343,0.051958833,0.00033629691,0.010177717,0.058916718,-0.07148023,-0.029435681,0.069334336,-0.064077966,0.052928906,-0.050038077,-2.0,2.0,-2.0,2.0,2.0,-2.0,2.0,-2.0,-2.0,-2.0,-2.0,-2.0,-2.0,2.0,-2.0,2.0,2.0,-2.0,2.0,-2.0,-2.0,-2.0,-2.0,-2.0
2025-06-09 09:19:52.173,-0.020259095,0.045555465,0.045697607,0.051677782,-0.0069768745,0.0076992437,0.0,0.0,0.0,0.011020829,-0.084655866,0.28976372,-0.11485174,0.09397503,0.3534816,-0.111692786,0.045710795,-0.34424675,-0.09515088,-0.055445526,-0.33114284,-0.036414173,-0.012301143,-0.026945397,-0.06175566,0.027813498,-0.05794172,0.060370136,-0.03206724,-0.04778279,0.030121151,0.061428152,-0.061513476,0.009844877,-2.0,2.0,-2.0,2.0,2.0,-2.0,2.0,-2.0,-2.0,-2.0,-2.0,-2.0,-2.0,2.0,-2.0,2.0,2.0,-2.0,2.0,-2.0,-2.0,-2.0,-2.0,-2.0
2025-06-09 09:19:52.196,0.031352323,0.0051238076,-0.014815263,-0.017855404,0.030891716,0.048422806,0.0,0.0,0.0,0.01102083,-0.0856393,0.28040418,-0.12090054,0.09907057,0.35148942,-0.11031151,0.04123438,-0.3540446,-0.07735707,-0.045367416,-0.34521893,-0.02842632,-0.01081748,-0.011720474,-0.02665937,-0.051892053,-0.02897825,-0.073801406,0.022365058,0.0036961874,-0.039467987,0.032788243,-0.045746442,-0.024298118,-2.0,2.0,-2.0,2.0,2.0,-2.0,2.0,-2.0,-2.0,-2.0,-2.0,-2.0,-2.0,2.0,-2.0,2.0,2.0,-2.0,2.0,-2.0,-2.0,-2.0,-2.0,-2.0
2025-06-09 09:19:52.213,0.017001435,-0.012303609,0.0022970065,0.0071504256,0.0139087,-0.0145915635,0.0,0.0,0.0,0.01102083,-0.09472997,0.27903146,-0.101672806,0.10098169,0.36126888,-0.10001548,0.035682525,-0.3440043,-0.081016265,-0.047203265,-0.3382798,-0.030346042,-0.02392838,-0.06408472,-0.01175028,0.049344923,-0.06539535,0.033307694,0.07146233,-0.019786637,-0.01849629,-0.03447775,0.030092241,0.007658596,-2.0,2.0,-2.0,2.0,2.0,-2.0,2.0,-2.0,-2.0,-2.0,-2.0,-2.0,-2.0,2.0,-2.0,2.0,2.0,-2.0,2.0,-2.0,-2.0,-2.0,-2.0,-2.0
2025-06-09 09:19:52.234,-0.04990507,-0.02821577,-0.001986194,-0.008769662,-0.029491201,-0.0033415738,0.0,0.0,0.0,0.011020829,-0.09002569,0.2947188,-0.10192416,0.09968669,0.3550122,-0.10825536,0.04432072,-0.3444649,-0.093061075,-0.04530375,-0.3499481,-0.033129424,-0.052194856,0.021446208,-0.018883575,0.0004872131,0.07447815,-0.045019053,0.04683387,-0.027291073,0.027383998,0.0681201,-0.030921297,-0.059253454,-2.0,2.0,-2.0,2.0,2.0,-2.0,2.0,-2.0,-2.0,-2.0,-2.0,-2.0,-2.0,2.0,-2.0,2.0,2.0,-2.0,2.0,-2.0,-2.0,-2.0,-2.0,-2.0
2025-06-09 09:19:52.254,0.0288454,0.042768527,0.039817154,0.032144576,0.036356777,-0.012182932,0.0,0.0,0.0,0.011020827,-0.09567811,0.27865398,-0.12056404,0.10102273,0.36611453,-0.1115062,0.050655082,-0.34529138,-0.084702164,-0.049625486,-0.33580765,-0.024302391,-0.012986593,0.034419112,0.021525823,0.06748761,-0.05186524,0.021935122,0.07484681,-0.067782015,-0.0033432425,0.06739754,0.050494906,0.047405466,-2.0,2.0,-2.0,2.0,2.0,-2.0,2.0,-2.0,-2.0,-2.0,-2.0,-2.0,-2.0,2.0,-2.0,2.0,2.0,-2.0,2.0,-2.0,-2.0,-2.0,-2.0,-2.0
2025-06-09 09:19:52.274,0.035435606,-0.046251833,0.020486379,0.0035819008,0.018930694,0.046912093,0.0,0.0,0.0,0.011020825,-0.08847678,0.27914196,-0.11555048,0.105574295,0.35504702,-0.103850655,0.044338625,-0.34110522,-0.081469886,-0.06141935,-0.33518398,-0.024824498,0.010510767,-0.024904406,-0.06589749,-0.030507052,0.038531993,-0.022005627,0.06505315,-0.072641745,0.05058603,-0.058219057,0.04954302,-0.058979835,-2.0,2.0,-2.0,2.0,2.0,-2.0,2.0,-2.0,-2.0,-2.0,-2.0,-2.0,-2.0,2.0,-2.0,2.0,2.0,-2.0,2.0,-2.0,-2.0,-2.0,-2.0,-2.0
2025-06-09 09:19:52.296,0.013855136,0.0049187173,-0.010698613,0.06720225,-0.019738557,-0.025938423,0.0,0.0,0.0,0.011020822,-0.087334625,0.27718857,-0.103836566,0.10979147,0.36211815,-0.11272254,0.04272836,-0.3498325,-0.09240186,-0.058517497,-0.33591306,-0.03140097,0.07288804,0.033926442,-0.010222146,-0.070879005,0.031040922,-0.04082529,-0.048780784,-0.04660052,-0.053247124,0.06208097,0.05158726,-0.010712837,-2.0,2.0,-2.0,2.0,2.0,-2.0,2.0,-2.0,-2.0,-2.0,-2.0,-2.0,-2.0,2.0,-2.0,2.0,2.0,-2.0,2.0,-2.0,-2.0,-2.0,-2.0,-2.0
2025-06-09 09:19:52.314,-0.024590196,-0.002530493,0.022040894,0.0040883115,0.02681013,-0.0063837306,0.0,0.0,0.0,0.01102082,-0.09123056,0.29153398,-0.10232412,0.09931485,0.35501307,-0.11019501,0.041054748,-0.3411298,-0.089533776,-0.058439996,-0.3400751,-0.0259856,-0.044746798,0.025593055,0.05399003,-0.022239719,0.049960893,-0.037357584,0.016500765,-0.008669819,-0.038995758,0.0085923625,0.04277297,-0.066361874,-2.0,2.0,-2.0,2.0,2.0,-2.0,2.0,-2.0,-2.0,-2.0,-2.0,-2.0,-2.0,2.0,-2.0,2.0,2.0,-2.0,2.0,-2.0,-2.0,-2.0,-2.0,-2.0
2025-06-09 09:19:52.334,-0.0227138,-0.03442977,-0.028714499,-0.014967744,0.050860584,0.0356146,0.0,0.0,0.0,0.011020817,-0.084865,0.27844357,-0.11824634,0.092184216,0.35178286,-0.109058544,0.03227728,-0.3456186,-0.07574619,-0.04789142,-0.33695796,-0.019405164,0.03147656,0.014067367,0.055028208,0.060167182,-0.0033241983,-0.06047163,0.057854045,0.012308366,-0.048906285,0.037389476,0.053659827,-0.059144825,-2.0,2.0,-2.0,2.0,2.0,-2.0,2.0,-2.0,-2.0,-2.0,-2.0,-2.0,-2.0,2.0,-2.0,2.0,2.0,-2.0,2.0,-2.0,-2.0,-2.0,-2.0,-2.0
2025-06-09 09:19:52.354,-0.042143207,-0.014449777,0.0067575644,0.024923788,-0.006718979,-0.046410136,0.0,0.0,0.0,0.011020814,-0.08992598,0.29270408,-0.11145749,0.10187566,0.35551992,-0.112364076,0.033388197,-0.34036547,-0.077191174,-0.055270977,-0.3464663,-0.022569938,0.044850916,0.053869996,-0.03130676,0.050306097,-0.040778242,0.014794563,0.046140667,-0.052004747,0.07169803,-0.060792476,-0.05061474,0.0153766535,-2.0,2.0,-2.0,2.0,2.0,-2.0,2.0,-2.0,-2.0,-2.0,-2.0,-2.0,-2.0,2.0,-2.0,2.0,2.0,-2.0,2.0,-2.0,-2.0,-2.0,-2.0,-2.0
2025-06-09 09:19:52.374,-0.041022662,0.00212628,-0.011167058,0.039169,-0.009977336,-0.04941841,0.0,0.0,0.0,0.011020811,-0.09875004,0.29636496,-0.103052765,0.10654867,0.3551369,-0.11036799,0.042472523,-0.34744185,-0.08475258,-0.062823325,-0.34504518,-0.02950835,-0.003960951,-0.04932154,0.0064439685,-0.051546413,-0.058674723,-0.0022391612,-0.0013975828,0.04016872,-0.07039592,0.06575954,0.0075336113,0.012303312,-2.0,2.0,-2.0,2.0,2.0,-2.0,2.0,-2.0,-2.0,-2.0,-2.0,-2.0,-2.0,2.0,-2.0,2.0,2.0,-2.0,2.0,-2.0,-2.0,-2.0,-2.0,-2.0
2025-06-09 09:19:52.396,-0.040267747,0.02443331,0.028215457,0.028380325,0.017911363,0.045333285,0.0,0.0,0.0,0.011020809,-0.09652847,0.28533497,-0.11190406,0.10582619,0.3606897,-0.11186102,0.050341155,-0.35058978,-0.076792546,-0.05156942,-0.33386064,-0.018211547,0.012776612,0.055912085,-0.030457824,-0.052748375,-0.00020272155,0.014294071,-0.054298252,-0.03460234,-0.034914676,-0.041190438,0.039637335,-0.04591612,-2.0,2.0,-2.0,2.0,2.0,-2.0,2.0,-2.0,-2.0,-2.0,-2.0,-2.0,-2.0,2.0,-2.0,2.0,2.0,-2.0,2.0,-2.0,-2.0,-2.0,-2.0,-2.0
2025-06-09 09:19:52.418,-0.006187839,0.028778529,0.014933786,0.046241745,-0.0041573644,-0.039504007,0.0,0.0,0.0,0.011020808,-0.08512796,0.2808758,-0.10698319,0.09506867,0.35813752,-0.11270385,0.044891816,-0.3421799,-0.08962594,-0.06189195,-0.33401793,-0.022635633,-0.053116024,-0.036696516,-0.014710485,0.06299495,0.06301955,0.05826796,-0.052979928,-0.07416452,0.054711875,-0.056841668,0.072605096,-0.07151115,-2.0,2.0,-2.0,2.0,2.0,-2.0,2.0,-2.0,-2.0,-2.0,-2.0,-2.0,-2.0,2.0,-2.0,2.0,2.0,-2.0,2.0,-2.0,-2.0,-2.0,-2.0,-2.0
2025-06-09 09:19:52.436,0.0021055343,-0.029519493,0.025124593,-0.017185196,0.036923196,0.034009308,0.0,0.0,0.0,0.011020807,-0.09915091,0.27828154,-0.11121768,0.11015488,0.35290802,-0.107659765,0.049187206,-0.34238514,-0.08943493,-0.055220358,-0.33563578,-0.028800545,-0.017471006,-0.033870213,-0.0016617457,0.01962749,-0.03331248,0.026557846,-0.023362242,-0.050626665,0.04044896,-0.06716528,0.026872676,-0.007350218,-2.0,2.0,-2.0,2.0,2.0,-2.0,2.0,-2.0,-2.0,-2.0,-2.0,-2.0,-2.0,2.0,-2.0,2.0,2.0,-2.0,2.0,-2.0,-2.0,-2.0,-2.0,-2.0
2025-06-09 09:19:52.456,0.0037808223,-0.030153368,0.0075427997,0.06765341,0.054819375,-0.018673465,0.0,0.0,0.0,0.011020806,-0.09641854,0.28671288,-0.112988785,0.10915569,0.36402708,-0.10214717,0.04812422,-0.3509154,-0.07878031,-0.056496996,-0.33624732,-0.028836401,0.07430642,-0.031721614,-0.03846457,-0.002124597,0.018166753,0.004911048,-0.057064775,0.027044984,-0.030875273,0.07248636,0.0562813,0.002594258,-2.0,2.0,-2.0,2.0,2.0,-2.0,2.0,-2.0,-2.0,-2.0,-2.0,-2.0,-2.0,2.0,-2.0,2.0,2.0,-2.0,2.0,-2.0,-2.0,-2.0,-2.0,-2.0
2025-06-09 09:19:52.479,-0.015442229,0.049146283,-0.02195164,0.029891165,0.010857838,0.01570509,0.0,0.0,0.0,0.011020805,-0.086072646,0.28025192,-0.109270394,0.10697803,0.3489989,-0.101530656,0.045390185,-0.3459929,-0.0817291,-0.053381383,-0.34291625,-0.022617552,0.03258546,0.008776343,0.0008800294,-0.01340439,-0.032553397,-0.01146457,-0.07279058,-0.05619944,0.014012709,-0.057610944,-0.047428843,0.0043266416,-2.0,2.0,-2.0,2.0,2.0,-2.0,2.0,-2.0,-2.0,-2.0,-2.0,-2.0,-2.0,2.0,-2.0,2.0,2.0,-2.0,2.0,-2.0,-2.0,-2.0,-2.0,-2.0
2025-06-09 09:19:52.496,-0.008519169,0.017026747,0.008337723,-0.018073538,-0.027742798,-0.023339922,0.0,0.0,0.0,0.011020805,-0.08802199,0.29504055,-0.1083743,0.09349586,0.36495063,-0.10451408,0.034044538,-0.3375097,-0.08861866,-0.054827407,-0.34844983,-0.019172903,-0.009505806,0.06689944,0.031765927,-0.066828966,-0.028204322,0.061199598,0.01605389,0.048552863,-0.063397266,0.0593546,0.04473186,0.045575347,-2.0,2.0,-2.0,2.0,2.0,-2.0,2.0,-2.0,-2.0,-2.0,-2.0,-2.0,-2.0,2.0,-2.0,2.0,2.0,-2.0,2.0,-2.0,-2.0,-2.0,-2.0,-2.0
2025-06-09 09:19:52.516,-0.0365293,-0.008261962,-0.010636218,0.061785832,-0.01942546,-0.019833237,0.0,0.0,0.0,0.011020805,-0.100249834,0.28832936,-0.11666277,0.09347333,0.35522044,-0.099470004,0.041657057,-0.34160766,-0.0857919,-0.045638952,-0.3473729,-0.026696647,-0.04687878,-0.024019489,-0.04998222,0.014447571,0.015008216,-0.060079936,-0.051037263,0.0003601672,0.0411524,0.0072713615,0.017448267,0.062227737,-2.0,2.0,-2.0,2.0,2.0,-2.0,2.0,-2.0,-2.0,-2.0,-2.0,-2.0,-2.0,2.0,-2.0,2.0,2.0,-2.0,2.0,-2.0,-2.0,-2.0,-2.0,-2.0
2025-06-09 09:19:52.584,0.020460185,0.023074353,0.021587314,0.0228628,-0.027948037,-0.0010826677,0.0,0.0,0.0,0.011020805,-0.087491974,0.28143406,-0.11230777,0.09511641,0.3654364,-0.10255249,0.047315646,-0.33928496,-0.08928055,-0.052053027,-0.34957933,-0.030803122,0.031411994,0.038443193,0.026687019,-0.05462289,-0.07470408,0.04974988,-0.047785286,0.0066668815,-0.05747105,-0.03911789,-0.02327802,0.028882146,-2.0,2.0,-2.0,2.0,2.0,-2.0,2.0,-2.0,-2.0,-2.0,-2.0,-2.0,-2.0,2.0,-2.0,2.0,2.0,-2.0,2.0,-2.0,-2.0,-2.0,-2.0,-2.0
2025-06-09 09:19:52.602,0.03958692,-0.04336059,0.005496883,0.03964889,0.018476512,0.009369656,0.0,0.0,0.0,0.011020806,-0.0885072,0.28780144,-0.11131058,0.09953049,0.36097395,-0.112214714,0.04102032,-0.34402412,-0.09165851,-0.055665273,-0.3313212,-0.02237116,0.031449553,-0.02009426,-0.07478467,-0.0012148835,0.009012322,0.0037797783,0.037647825,-0.050259154,-0.024447829,0.022279829,-0.059695438,-0.04012944,-2.0,2.0,-2.0,2.0,2.0,-2.0,2.0,-2.0,-2.0,-2.0,-2.0,-2.0,-2.0,2.0,-2.0,2.0,2.0,-2.0,2.0,-2.0,-2.0,-2.0,-2.0,-2.0
2025-06-09 09:19:52.622,-0.009978689,0.047204897,0.043030478,-0.02132721,-0.0007144842,-0.0036310859,0.0,0.0,0.0,0.011020807,-0.09887754,0.28546855,-0.121448286,0.0938992,0.35427144,-0.11252358,0.03397552,-0.3519359,-0.080747515,-0.04917842,-0.3494855,-0.025758414,-0.028219413,-0.06526855,-0.03546858,-0.051073264,-0.016388282,-0.037613537,0.05985257,0.029491397,-0.069947824,-0.01074848,0.011580858,-0.04327584,-2.0,2.0,-2.0,2.0,2.0,-2.0,2.0,-2.0,-2.0,-2.0,-2.0,-2.0,-2.0,2.0,-2.0,2.0,2.0,-2.0,2.0,-2.0,-2.0,-2.0,-2.0,-2.0
2025-06-09 09:19:52.642,0.029991554,0.033076588,-0.002797476,-0.015127806,0.021876302,0.026254289,0.0,0.0,0.0,0.011020808,-0.10024012,0.2804365,-0.112744704,0.11001339,0.3589606,-0.11101882,0.044132896,-0.3545978,-0.09568233,-0.056739174,-0.33494633,-0.024843004,0.03677852,0.040277172,-0.050757285,0.07015524,-0.04129983,-0.05265018,-0.07384153,-0.013878339,0.06437852,-0.004358377,0.027837781,-0.071607165,-2.0,2.0,-2.0,2.0,2.0,-2.0,2.0,-2.0,-2.0,-2.0,-2.0,-2.0,-2.0,2.0,-2.0,2.0,2.0,-2.0,2.0,-2.0,-2.0,-2.0,-2.0,-2.0
2025-06-09 09:19:52.664,-0.018373957,0.034995463,-0.03196849,0.06412832,0.05890901,-0.029792976,0.0,0.0,0.0,0.011020808,-0.0994659,0.28254682,-0.11704442,0.104858615,0.36203787,-0.1037281,0.036918122,-0.34248257,-0.078667656,-0.04573601,-0.34474158,-0.021031037,-0.020244433,0.015113401,-0.07268646,0.050084762,-0.043003872,0.03463794,0.05158362,-0.021370789,0.061276987,0.0004412603,-0.041871816,-0.0020957796,-2.0,2.0,-2.0,2.0,2.0,-2.0,2.0,-2.0,-2.0,-2.0,-2.0,-2.0,-2.0,2.0,-2.0,2.0,2.0,-2.0,2.0,-2.0,-2.0,-2.0,-2.0,-2.0
2025-06-09 09:19:52.682,0.04109249,-0.008986782,-0.028786356,0.028840292,0.047952034,-0.03466666,0.0,0.0,0.0,0.0110208085,-0.09216422,0.2868607,-0.10309295,0.09196481,0.35246247,-0.10442461,0.048047975,-0.34971723,-0.090562746,-0.05690712,-0.33165392,-0.029026838,0.0051216595,0.06813199,-0.008240141,0.017869828,-0.063950054,-0.014942683,0.002690193,-0.021681702,-0.050561126,0.03747006,0.027839774,0.0051177847,-2.0,2.0,-2.0,2.0,2.0,-2.0,2.0,-2.0,-2.0,-2.0,-2.0,-2.0,-2.0,2.0,-2.0,2.0,2.0,-2.0,2.0,-2.0,-2.0,-2.0,-2.0,-2.0
2025-06-09 09:19:52.702,-7.37772e-05,0.008139724,0.00010889717,0.050024204,-0.0029854646,-0.030512206,0.0,0.0,0.0,0.011020809,-0.0978456,0.2805118,-0.11538678,0.096156016,0.35509723,-0.11733097,0.03393044,-0.34842357,-0.085463084,-0.046877075,-0.3357005,-0.026512615,0.011334453,-0.041062843,-0.07496255,0.020289158,-0.026553495,-0.028811365,0.024685983,-0.047480002,-0.033280578,-0.009538994,-0.030160418,0.0018247492,-2.0,2.0,-2.0,2.0,2.0,-2.0,2.0,-2.0,-2.0,-2.0,-2.0,-2.0,-2.0,2.0,-2.0,2.0,2.0,-2.0,2.0,-2.0,-2.0,-2.0,-2.0,-2.0
2025-06-09 09:19:52.722,0.0055113025,-0.019574711,-0.010004877,-0.0048861136,0.029837234,0.018575553,0.0,0.0,0.0,0.01102081,-0.099208,0.29247767,-0.10327611,0.101586595,0.3590534,-0.09928641,0.034571324,-0.35669494,-0.080884986,-0.06439969,-0.34855372,-0.028844096,0.018859588,0.010426356,0.023583708,-0.06601253,0.048737768,-0.035408057,-0.05050586,-0.07427145,0.015372356,-0.026599605,0.042762794,0.011121157,-2.0,2.0,-2.0,2.0,2.0,-2.0,2.0,-2.0,-2.0,-2.0,-2.0,-2.0,-2.0,2.0,-2.0,2.0,2.0,-2.0,2.0,-2.0,-2.0,-2.0,-2.0,-2.0
2025-06-09 09:19:52.742,-0.02027139,-0.026267113,0.00053587183,0.036280327,0.06722711,-0.008495898,0.0,0.0,0.0,0.011020811,-0.0884837,0.2831908,-0.10164093,0.09638916,0.36045164,-0.108829245,0.034925807,-0.34628195,-0.07771326,-0.049846444,-0.34955236,-0.024408946,-0.055528596,0.06469733,-0.043446068,0.021052923,0.04904335,0.00981364,0.05184523,0.06376055,-0.038922083,0.0644472,0.00030880756,0.0031780226,-2.0,2.0,-2.0,2.0,2.0,-2.0,2.0,-2.0,-2.0,-2.0,-2.0,-2.0,-2.0,2.0,-2.0,2.0,2.0,-2.0,2.0,-2.0,-2.0,-2.0,-2.0,-2.0
2025-06-09 09:19:52.763,-0.02219562,-0.01883328,-0.009882766,0.059086118,-0.0028551682,0.03229561,0.0,0.0,0.0,0.011020811,-0.08347807,0.2832822,-0.120263726,0.09496001,0.3643631,-0.10237988,0.044750288,-0.35378617,-0.09234192,-0.050218035,-0.3448555,-0.028915742,-0.070446685,-0.071426265,0.00023851612,-0.068845175,0.05580555,-0.052910365,0.061954755,-0.06633545,-0.01129864,-0.036973584,-0.052253883,0.036819156,-2.0,2.0,-2.0,2.0,2.0,-2.0,2.0,-2.0,-2.0,-2.0,-2.0,-2.0,-2.0,2.0,-2.0,2.0,2.0,-2.0,2.0,-2.0,-2.0,-2.0,-2.0,-2.0
2025-06-09 09:19:52.782,0.035628837,0.03542775,0.0066974848,-0.0051330947,0.0049095876,-0.037344687,0.0,0.0,0.0,0.011020812,-0.0895131,0.2815595,-0.11530808,0.11047247,0.36452645,-0.10515201,0.039881416,-0.35410395,-0.08515254,-0.05108161,-0.3397973,-0.027825134,0.06744007,-0.040986802,0.0014028745,0.06940119,-0.01658736,0.037049014,-0.006716826,0.063236125,-0.05554597,-0.036982957,0.073613726,0.014465788,-2.0,2.0,-2.0,2.0,2.0,-2.0,2.0,-2.0,-2.0,-2.0,-2.0,-2.0,-2.0,2.0,-2.0,2.0,2.0,-2.0,2.0,-2.0,-2.0,-2.0,-2.0,-2.0
2025-06-09 09:19:52.802,-0.0082538035,0.014743262,-0.009410248,-0.00048893574,0.020755745,0.019417588,0.0,0.0,0.0,0.011020812,-0.09479386,0.27915978,-0.11816762,0.0927584,0.35687652,-0.11160639,0.032138806,-0.3428019,-0.0773999,-0.045145657,-0.3492935,-0.02012357,0.04969575,-0.06485136,-0.008525235,-0.015091694,0.021054344,0.0018204065,-0.03573111,0.04434763,-0.063623786,-0.053567402,-0.050789878,-0.05743803,-2.0,2.0,-2.0,2.0,2.0,-2.0,2.0,-2.0,-2.0,-2.0,-2.0,-2.0,-2.0,2.0,-2.0,2.0,2.0,-2.0,2.0,-2.0,-2.0,-2.0,-2.0,-2.0
