openverse-orca/OrcaGym/log/simulation_log_20250721_142823.csv
timestamp,sim_time,physics_step,control_step,imu_angle_roll,imu_angle_pitch,imu_angle_yaw,imu_angular_velocity_roll,imu_angular_velocity_pitch,imu_angular_velocity_yaw,imu_acc_x,imu_acc_y,imu_acc_z,fl_joint1_pos,fl_joint1_vel,fl_joint1_torque,fl_joint2_pos,fl_joint2_vel,fl_joint2_torque,fl_joint3_pos,fl_joint3_vel,fl_joint3_torque,fr_joint1_pos,fr_joint1_vel,fr_joint1_torque,fr_joint2_pos,fr_joint2_vel,fr_joint2_torque,fr_joint3_pos,fr_joint3_vel,fr_joint3_torque,hl_joint1_pos,hl_joint1_vel,hl_joint1_torque,hl_joint2_pos,hl_joint2_vel,hl_joint2_torque,hl_joint3_pos,hl_joint3_vel,hl_joint3_torque,hr_joint1_pos,hr_joint1_vel,hr_joint1_torque,hr_joint2_pos,hr_joint2_vel,hr_joint2_torque,hr_joint3_pos,hr_joint3_vel,hr_joint3_torque,fl_force_x,fl_force_y,fl_force_z,fr_force_x,fr_force_y,fr_force_z,hl_force_x,hl_force_y,hl_force_z,hr_force_x,hr_force_y,hr_force_z,fl_hip_action,fl_thigh_action,fl_calf_action,fr_hip_action,fr_thigh_action,fr_calf_action,hl_hip_action,hl_thigh_action,hl_calf_action,hr_hip_action,hr_thigh_action,hr_calf_action
2025-07-21 14:28:23.896,0.0,0,0,-0.026886301,0.00088485854,-0.037307117,-0.014292503,0.008883749,-0.048368506,1.7801785,-0.24132693,0.0,0.0,-0.0063503915,-0.0028932346,0.006493672,-0.0020562948,-0.0091460515,-0.0016408301,0.0045461524,-0.007064183,0.0084114345,-0.0021375176,0.009962804,-0.0072539574,-0.035242006,0.0038232577,-0.024474671,-0.046593994,-0.040085644,-0.073758245,0.07030329,-0.013637659,0.003984885,0.037933033,0.03763657,0.05937499,0.0,0.0,0.0,0.0,0.0,0.0,0.0,0.0,0.0,0.0,0.0,0.0,2.0,1.9245114,-2.0,2.0,-0.26010358,-2.0,-2.0,-0.9366352,-2.0,-2.0,0.6141141,-2.0
2025-07-21 14:28:23.906,0.02,20,1,0.060862005,0.0037514707,0.061708678,0.004492274,-0.029334622,-0.045896072,0.0,0.0,0.0,0.0,0.0096793715,0.05555666,-0.047713283,0.014002048,-0.0033394664,-0.04057303,-0.0035009177,-0.010152454,-0.029615397,-0.0006975631,0.008972362,-0.043500554,-0.046042472,0.2529698,-0.102428116,0.11985275,-0.05842859,-0.12267854,-0.099213995,-0.008691903,-0.17204164,-0.066072844,0.12078169,-0.17787826,2.0,1.9245114,-2.0,2.0,-0.26010358,-2.0,-2.0,-0.9366352,-2.0,-2.0,0.6141141,-2.0,2.0,0.572114,-2.0,2.0,2.0,-2.0,-2.0,-1.2759945,-2.0,-2.0,-1.0692798,-2.0
2025-07-21 14:28:23.927,0.04,40,2,0.12408568,0.01122729,0.03943894,0.026805252,0.0075875814,-0.002325237,0.0,0.0,0.0,-0.00033170567,0.02512825,0.09425869,-0.077632375,0.031704504,0.04361683,-0.113020554,-0.023988388,-0.06896022,-0.10223538,-0.0246105,0.0002005128,-0.060444463,-0.038012832,0.050351635,0.09281167,-0.037200198,0.13154027,-0.1139651,-0.027695792,-0.06989656,-0.1187456,0.0363126,-0.020019101,-0.018344935,2.0,0.572114,-2.0,2.0,2.0,-2.0,-2.0,-1.2759945,-2.0,-2.0,-1.0692798,-2.0,2.0,0.77283394,-2.0,2.0,2.0,-2.0,-2.0,-0.38508928,-2.0,-2.0,-0.36966455,-2.0
2025-07-21 14:28:23.946,0.06,60,3,0.009496389,-0.08884412,0.03318651,0.03635639,-0.018292626,0.028014144,0.0,0.0,0.0,-0.00078163843,0.010388643,0.08644484,-0.055413034,0.04030851,0.034808464,-0.10266448,-0.034924097,-0.10475857,-0.08779165,-0.029411448,-0.007877093,-0.037811115,-0.008537128,-0.0137988655,0.12260738,0.077325806,-0.019221405,0.04559073,-0.060590293,-0.10427795,0.11380282,0.009184372,-0.024483992,0.07788903,2.0,0.77283394,-2.0,2.0,2.0,-2.0,-2.0,-0.38508928,-2.0,-2.0,-0.36966455,-2.0,2.0,-0.30097649,-2.0,2.0,2.0,-2.0,-2.0,-0.8224419,-2.0,-2.0,-0.56041324,-2.0
2025-07-21 14:28:23.972,0.08,80,4,0.011595059,-0.041666005,0.044359393,0.036840238,0.037781198,-0.014294706,0.0,0.0,0.0,-0.0015128,0.010174234,0.06764099,-0.03175341,0.030198494,0.036227994,-0.10856345,-0.048252888,-0.10311055,-0.07435672,-0.024927974,-0.026951572,-0.015545259,0.03890313,-0.05619812,0.036311224,0.04683428,0.056964546,-0.01254448,-0.056095622,-0.07095917,0.11686072,-0.03873498,-0.006097919,-0.015416457,2.0,-0.30097649,-2.0,2.0,2.0,-2.0,-2.0,-0.8224419,-2.0,-2.0,-0.56041324,-2.0,2.0,1.4960375,-2.0,2.0,1.8272033,-2.0,-2.0,-1.2948242,-2.0,-2.0,-0.11370012,-2.0
2025-07-21 14:28:23.990,0.1,100,5,-0.00835565,-0.020785986,0.01376901,-0.029362919,-0.010359362,0.026849683,0.0,0.0,0.0,-0.0024132126,0.013726034,0.07543339,-0.0064993515,0.027815444,0.05102414,-0.103473194,-0.0565038,-0.115657315,-0.043536272,-0.0289859,-0.027451258,-0.00019700629,-0.06619226,0.06411284,-0.025013417,-0.057083234,0.049604625,0.008602171,-0.021249449,-0.0483975,0.04547077,-0.007825371,-0.029091086,-0.009674861,2.0,1.4960375,-2.0,2.0,1.8272033,-2.0,-2.0,-1.2948242,-2.0,-2.0,-0.11370012,-2.0,2.0,0.71736574,-2.0,2.0,1.4227697,-2.0,-2.0,-0.61460483,-2.0,-2.0,-0.38519436,-2.0
2025-07-21 14:28:24.006,0.12000000000000001,120,6,-0.014871175,-0.021104358,0.028210893,-0.0017335425,0.06467591,-0.013524797,0.0,0.0,0.0,-0.0031847754,0.017027894,0.07053949,-0.0040349574,0.041619673,0.05390267,-0.09482826,-0.05450813,-0.11312998,-0.036246527,-0.044802055,-0.027739305,-0.0041941297,0.008130793,0.0924952,-0.03208312,-0.0011507736,0.08136239,-0.07368552,0.046800222,0.056288056,-0.054600034,-0.0069696456,0.081304014,0.066490136,2.0,0.71736574,-2.0,2.0,1.4227697,-2.0,-2.0,-0.61460483,-2.0,-2.0,-0.38519436,-2.0,2.0,0.72142845,-2.0,2.0,1.3391312,-2.0,-2.0,-1.0916401,-2.0,-2.0,-0.34083617,-2.0
2025-07-21 14:28:24.026,0.14,140,7,0.034730148,-0.035313517,0.050623477,0.0054629426,-0.017100442,0.019387139,0.0,0.0,0.0,-0.00417077,0.03635025,0.09091978,-0.0070111756,0.042348597,0.056791507,-0.09842792,-0.04822519,-0.10555422,-0.029331839,-0.040246416,-0.012996294,0.00075876125,0.02970862,0.07150595,0.03151036,0.064034425,0.08480427,-0.024972469,-0.06820742,-0.02122214,0.024835978,-0.010505848,-0.043685626,0.075704254,2.0,0.72142845,-2.0,2.0,1.3391312,-2.0,-2.0,-1.0916401,-2.0,-2.0,-0.34083617,-2.0,2.0,1.0098256,-2.0,2.0,1.2048401,-2.0,-2.0,-1.0396276,-2.0,-2.0,-0.035442803,-2.0
2025-07-21 14:28:24.052,0.16,160,8,0.0963717,-0.047137666,0.06027445,7.9914105e-05,0.03668291,-0.0036913494,0.0,0.0,0.0,-0.005356659,0.039894488,0.089434646,-0.00588701,0.044448175,0.06564209,-0.11126706,-0.051963843,-0.10621575,-0.027363561,-0.03868244,-0.015637264,0.0011838605,0.05505888,0.016912919,-0.05913209,0.018265931,0.07977342,-0.06615299,0.03321578,-0.007090905,0.050844457,-0.039918773,-0.050639287,-0.059390936,2.0,1.0098256,-2.0,2.0,1.2048401,-2.0,-2.0,-1.0396276,-2.0,-2.0,-0.035442803,-2.0,2.0,1.5467576,-2.0,2.0,1.3894835,-2.0,-2.0,-0.79737353,-2.0,-2.0,0.1925078,-2.0
2025-07-21 14:28:24.074,0.18,180,9,-0.03093647,-0.06515251,0.08814301,0.026501575,0.059493568,-0.01079449,0.0,0.0,0.0,-0.0064653666,0.03975709,0.10649876,-0.0023328322,0.054437734,0.08189723,-0.13271058,-0.049564783,-0.10732176,-0.02527688,-0.043234106,-0.00039597365,-0.0027413676,0.050327785,0.022608114,-0.021037936,0.044555765,0.052516922,-0.075018525,0.042629413,0.10476835,0.05194478,-0.0229243,-0.020152533,0.024807923,2.0,1.5467576,-2.0,2.0,1.3894835,-2.0,-2.0,-0.79737353,-2.0,-2.0,0.1925078,-2.0,2.0,0.93793,-2.0,2.0,1.7909276,0.33071613,-2.0,-0.58106714,-2.0,-2.0,-0.17101818,-2.0
2025-07-21 14:28:24.091,0.19999999999999998,200,10,-0.03883956,0.023986997,0.03662666,0.008869825,0.008377846,0.0004531465,0.0,0.0,0.0,-0.0075364895,0.047879253,0.13392274,-0.0068333573,0.060336523,0.11242339,-0.113750145,-0.053923145,-0.09245977,-0.011593012,-0.0401833,0.0071840705,-0.010524056,0.043079626,0.078088515,-0.045486186,-0.020845225,0.08326834,0.15483902,0.055834442,-0.019103365,0.025507824,-0.053169202,0.08727921,-0.058550056,2.0,0.93793,-2.0,2.0,1.7909276,0.33071613,-2.0,-0.58106714,-2.0,-2.0,-0.17101818,-2.0,2.0,0.77065307,-2.0,2.0,1.2265116,-2.0,-2.0,-0.91186124,-2.0,-2.0,-0.18486457,-2.0
2025-07-21 14:28:24.109,0.21999999999999997,220,11,0.031274263,-0.030235652,0.0058376924,0.021647576,0.04238967,0.0067473287,0.0,0.0,0.0,-0.008354649,0.044193216,0.1337354,-0.0077064196,0.080237776,0.16097683,-0.12494029,-0.056730583,-0.081879824,-0.013949648,-0.04283465,0.031451084,-2.0045614e-05,0.07351496,-0.02847062,-0.043180898,0.012280451,0.09031945,-0.04239081,0.05929774,0.009022082,0.036514502,0.060959216,-0.0013786767,0.005848166,2.0,0.77065307,-2.0,2.0,1.2265116,-2.0,-2.0,-0.91186124,-2.0,-2.0,-0.18486457,-2.0,2.0,2.0,-2.0,2.0,0.54168016,-2.0,-2.0,-0.831733,-2.0,-2.0,0.5576211,-2.0
2025-07-21 14:28:24.128,0.23999999999999996,240,12,-0.010747002,0.063993424,0.023048224,-0.040431403,0.00056975137,-0.0039295494,0.0,0.0,0.0,-0.009076,0.048620023,0.16510037,0.00986046,0.08850362,0.19362184,-0.1479806,-0.05275234,-0.06101353,-0.0068972623,-0.030521378,0.025024513,-0.0045119263,0.03888964,0.058383774,0.026221052,-0.050699566,0.014756185,-0.085590266,-0.009853376,-0.039285738,-0.01623202,-0.0010205993,0.0044722855,-0.037685227,2.0,2.0,-2.0,2.0,0.54168016,-2.0,-2.0,-0.831733,-2.0,-2.0,0.5576211,-2.0,2.0,1.7876582,-2.0,2.0,1.0486611,-2.0,-2.0,-0.44194818,-2.0,-2.0,0.12742269,-2.0
2025-07-21 14:28:24.148,0.25999999999999995,260,13,0.029010843,0.046183944,0.03763638,-0.012913956,0.0151704,-0.027535118,0.0,0.0,0.0,-0.009846607,0.067366205,0.17208542,0.009387793,0.07992472,0.19394316,-0.15556695,-0.0597744,-0.036055464,0.0010661428,-0.045622606,0.03921291,0.012395416,0.05075172,0.090340555,0.025754467,0.030646164,0.014792741,-0.054271817,-0.0371132,0.11041523,0.010875026,0.00084951584,0.09157671,0.053967115,2.0,1.7876582,-2.0,2.0,1.0486611,-2.0,-2.0,-0.44194818,-2.0,-2.0,0.12742269,-2.0,2.0,2.0,-2.0,2.0,0.19945972,-2.0,-2.0,-1.3149141,-2.0,-2.0,0.21076214,-2.0
2025-07-21 14:28:24.174,0.27999999999999997,280,14,0.097746335,-0.022623664,0.041756347,-0.04463029,0.032319684,0.048622362,0.0,0.0,0.0,-0.01090724,0.063451886,0.18721555,0.0033260584,0.09183447,0.21324666,-0.1443149,-0.06508513,-0.03865051,0.006903432,-0.044019155,0.04645669,0.012388074,0.057949223,0.07613201,0.029972639,-0.04243564,0.04852342,-0.05831521,-0.04540956,-0.061808668,-0.066202566,-0.034716655,-0.061378106,0.016748901,2.0,2.0,-2.0,2.0,0.19945972,-2.0,-2.0,-1.3149141,-2.0,-2.0,0.21076214,-2.0,2.0,1.9486718,-2.0,2.0,0.34707445,-2.0,-2.0,-0.3946176,-2.0,-2.0,0.7930054,-2.0
2025-07-21 14:28:24.189,0.3,300,15,-0.014248057,0.031858273,0.048887677,-0.07543901,0.058880236,0.02911519,0.0,0.0,0.0,-0.01221091,0.06205267,0.21508968,0.013912491,0.100486055,0.21582912,-0.14755805,-0.05943411,-0.040518798,0.00257888,-0.04195823,0.053879693,0.013520699,0.038869295,0.11640396,-0.039791655,0.05268678,-0.016459053,-0.0008427832,-0.046847634,0.0022784548,0.06996844,-0.03488337,0.011462451,0.009342421,2.0,1.9486718,-2.0,2.0,0.34707445,-2.0,-2.0,-0.3946176,-2.0,-2.0,0.7930054,-2.0,2.0,2.0,-2.0,2.0,0.21227871,-2.0,-2.0,-0.9059286,-2.0,-2.0,0.25844297,-2.0
2025-07-21 14:28:24.209,0.32,320,16,0.088641144,-0.015348924,0.05940748,-0.011081614,-0.0048450525,0.029387338,0.0,0.0,0.0,-0.013529924,0.07450421,0.2383548,0.0119501315,0.10766148,0.21815555,-0.12784748,-0.070689596,-0.008666834,0.012714218,-0.044807937,0.06050331,0.022636333,-0.033740632,0.08278233,-0.06766176,-0.067190945,-0.004244939,0.0045687,0.03095107,0.03020272,0.05649422,-0.0039706994,-0.05406081,0.10245639,2.0,2.0,-2.0,2.0,0.21227871,-2.0,-2.0,-0.9059286,-2.0,-2.0,0.25844297,-2.0,2.0,2.0,-2.0,2.0,-0.097164586,-2.0,-2.0,-1.1868767,-2.0,-2.0,0.53305393,-2.0
2025-07-21 14:28:24.229,0.34,340,17,0.0599256,0.02709222,0.08528986,-0.00551974,0.008130427,0.031074122,0.0,0.0,0.0,-0.014915461,0.08390774,0.25933483,0.00071240077,0.10792733,0.20269687,-0.1388425,-0.077349216,-0.019622823,0.03301149,-0.043322656,0.063892476,0.0394391,-0.013208008,-0.011295613,0.02591355,0.065552555,-0.056979127,0.039534453,0.029957518,-0.05518941,-0.011408579,0.05770329,0.07712836,0.0043080896,2.0,2.0,-2.0,2.0,-0.097164586,-2.0,-2.0,-1.1868767,-2.0,-2.0,0.53305393,-2.0,2.0,2.0,-2.0,2.0,0.42225128,-2.0,-2.0,-0.76195985,-2.0,-2.0,0.6888152,-2.0
2025-07-21 14:28:24.255,0.36000000000000004,360,18,0.012132437,-0.010840981,0.013233698,-0.0113755725,-0.0094088,-0.040778488,0.0,0.0,0.0,-0.016110905,0.070373215,0.2701625,0.0024917996,0.103329815,0.18821682,-0.12217584,-0.08147366,-0.007408559,0.037887063,-0.053804897,0.088788316,0.052952133,0.05808552,0.110369824,0.048848115,0.020572575,-0.06385795,-0.01304524,0.031305302,0.037497714,-0.0068470337,0.010199389,0.0978478,-0.023136148,2.0,2.0,-2.0,2.0,0.42225128,-2.0,-2.0,-0.76195985,-2.0,-2.0,0.6888152,-2.0,2.0,2.0,-2.0,2.0,0.24562947,-2.0,-2.0,-0.6229815,-2.0,-2.0,0.2477993,-2.0
2025-07-21 14:28:24.274,0.38000000000000006,380,19,0.093110055,0.06918089,0.079914756,-0.030804116,0.0044267233,-0.012235563,0.0,0.0,0.0,-0.016860306,0.071959525,0.29385108,-0.0070784055,0.09877285,0.19274771,-0.121105894,-0.09503013,0.012882176,0.041385196,-0.058292825,0.09087075,0.066430874,-0.0014770995,-0.011723515,0.04427761,0.027272718,0.009769888,-0.013530667,-0.037160743,0.070128344,0.028225157,0.059225023,-0.030864911,-0.035438094,2.0,2.0,-2.0,2.0,0.24562947,-2.0,-2.0,-0.6229815,-2.0,-2.0,0.2477993,-2.0,2.0,2.0,-2.0,2.0,0.005044151,-2.0,-2.0,-1.1434529,-2.0,-2.0,0.6708943,-2.0
2025-07-21 14:28:24.290,0.4000000000000001,400,20,0.10436393,0.009276056,0.037354518,0.00034161523,0.04782162,-0.039578445,0.0,0.0,0.0,-0.017556876,0.08378769,0.29431883,-0.022852942,0.09927158,0.19753592,-0.13329694,-0.08373887,0.017855275,0.048453815,-0.06744367,0.08677379,0.07065017,0.020670941,0.029553134,0.044770192,0.02504601,0.044829942,-0.03568372,-0.045583364,-0.044409618,-0.0024897552,-0.073920704,0.07554352,-6.0301725e-05,2.0,2.0,-2.0,2.0,0.005044151,-2.0,-2.0,-1.1434529,-2.0,-2.0,0.6708943,-2.0,2.0,2.0,-2.0,2.0,-0.24210675,-2.0,-2.0,-0.5246947,-2.0,-2.0,0.69102687,-2.0
2025-07-21 14:28:24.310,0.4200000000000001,420,21,-0.0048998953,0.016867593,0.050838314,-0.06990001,0.029678112,-0.019354418,0.0,0.0,0.0,-0.018030867,0.071457215,0.31650668,-0.015961945,0.11242795,0.17195529,-0.12564793,-0.090438455,0.029426944,0.0486534,-0.06019178,0.1059183,0.08263296,-0.042344805,0.09972261,-0.07001697,0.055711955,-0.03723494,-0.037548564,-0.008047195,0.028419666,0.028311657,-0.016028436,0.042109642,0.06960647,2.0,2.0,-2.0,2.0,-0.24210675,-2.0,-2.0,-0.5246947,-2.0,-2.0,0.69102687,-2.0,2.0,2.0,-2.0,2.0,-0.08150567,-2.0,-2.0,-0.46546406,-2.0,-2.0,0.43442017,-2.0
2025-07-21 14:28:24.330,0.4400000000000001,440,22,0.042440105,0.06413074,0.005805618,-0.07132792,0.02149487,-0.01509778,0.0,0.0,0.0,-0.018225463,0.080039516,0.34009966,-0.015158337,0.10825733,0.15660724,-0.114005834,-0.09993979,0.041276246,0.071763605,-0.061577328,0.10850898,0.09189052,0.051180627,-0.011145869,0.008283638,-0.013231041,0.032967083,0.04232733,-0.0152411405,0.020867193,0.080651276,0.03326389,0.025803924,0.012340818,2.0,2.0,-2.0,2.0,-0.08150567,-2.0,-2.0,-0.46546406,-2.0,-2.0,0.43442017,-2.0,2.0,2.0,-2.0,2.0,-0.31353503,-2.0,-2.0,-0.59785146,-2.0,-2.0,0.3897004,-2.0
2025-07-21 14:28:24.355,0.46000000000000013,460,23,0.018772818,-0.016231315,-0.030835524,-0.06887146,0.05140776,-0.043127593,0.0,0.0,0.0,-0.01848397,0.086183585,0.36472628,-0.02711176,0.1039947,0.15723097,-0.1129532,-0.10790611,0.036288824,0.05928739,-0.058814324,0.124441236,0.11089817,0.013912911,-0.024776915,-0.056145515,-0.055235278,-0.104284346,-0.0195301,0.036269654,-0.04240458,-0.010733939,0.015564621,0.07735581,-0.033296935,2.0,2.0,-2.0,2.0,-0.31353503,-2.0,-2.0,-0.59785146,-2.0,-2.0,0.3897004,-2.0,2.0,2.0,-2.0,2.0,-0.30466717,-2.0,-2.0,0.17938745,-2.0,-2.0,0.3417364,-2.0
2025-07-21 14:28:24.372,0.48000000000000015,480,24,0.016918082,-0.011982663,0.064797476,-0.079782374,0.054799538,-0.048831012,0.0,0.0,0.0,-0.018846035,0.070938416,0.36728296,-0.026572963,0.110354945,0.13159087,-0.11342756,-0.10264639,0.066703185,0.06628166,-0.06244387,0.12985954,0.11828961,-0.033384025,0.02021235,0.061857607,-0.05591977,-0.036250073,-0.055590916,0.02775965,0.012650904,-0.05385869,0.04695735,0.09664554,0.04450468,2.0,2.0,-2.0,2.0,-0.30466717,-2.0,-2.0,0.17938745,-2.0,-2.0,0.3417364,-2.0,2.0,2.0,-2.0,2.0,-0.15532465,-2.0,-2.0,-1.0398036,-2.0,-2.0,0.2034797,-2.0
2025-07-21 14:28:24.391,0.5000000000000001,500,25,0.06446144,0.04645648,0.03443081,-0.03426852,0.055390466,0.0072712116,0.0,0.0,0.0,-0.019627612,0.07481081,0.38427413,-0.051147524,0.11555256,0.12778221,-0.11017932,-0.11681968,0.06802881,0.08791745,-0.08392866,0.13837117,0.13579461,0.031908456,0.016016345,-0.06910384,-0.05431952,-0.044756155,-0.07303146,-0.0098822955,-0.03807342,-0.0265763,-0.0758623,-0.06700196,0.056366637,2.0,2.0,-2.0,2.0,-0.15532465,-2.0,-2.0,-1.0398036,-2.0,-2.0,0.2034797,-2.0,2.0,2.0,-2.0,2.0,-0.0821742,-2.0,-2.0,0.27364296,-2.0,-2.0,0.7207349,-2.0
2025-07-21 14:28:24.410,0.5200000000000001,520,26,0.010932723,0.03141956,0.07927111,-0.06895546,0.015855486,-0.031642806,0.0,0.0,0.0,-0.020467697,0.07285642,0.39907447,-0.055823836,0.11182799,0.12156194,-0.10741704,-0.10731432,0.08865965,0.082265966,-0.07670094,0.15034124,0.15411474,0.0104650315,0.060198903,0.047987726,0.031145835,-0.04383176,0.08007099,-0.057179578,0.09460782,0.027926108,0.031309273,0.07539694,0.032533757,2.0,2.0,-2.0,2.0,-0.0821742,-2.0,-2.0,0.27364296,-2.0,-2.0,0.7207349,-2.0,2.0,2.0,-2.0,2.0,-0.17170246,-2.0,-2.0,-1.0283997,-2.0,-2.0,0.28072196,-2.0
2025-07-21 14:28:24.430,0.5400000000000001,540,27,0.07748245,-0.0032751192,-0.005474544,-0.03735728,0.028265141,0.024344038,0.0,0.0,0.0,-0.021253504,0.075961664,0.4189236,-0.061914507,0.11237005,0.13183933,-0.09768322,-0.12527165,0.09127058,0.09401184,-0.09244053,0.14500175,0.15344544,0.009314861,0.05451057,-0.064552985,0.0039275233,0.047996804,0.0010588468,-0.056249294,-0.044837717,0.05148461,0.02234433,-0.035714254,0.082621366,2.0,2.0,-2.0,2.0,-0.17170246,-2.0,-2.0,-1.0283997,-2.0,-2.0,0.28072196,-2.0,2.0,2.0,-2.0,2.0,-0.57737565,-2.0,-2.0,0.27763057,-2.0,-2.0,0.5300096,-2.0
2025-07-21 14:28:24.455,0.5600000000000002,560,28,0.0067749405,0.030192299,0.048972536,-0.08393721,0.03440869,0.039124418,0.0,0.0,0.0,-0.021854851,0.07275552,0.43995908,-0.06585512,0.110449106,0.118405834,-0.083430715,-0.12132379,0.09265108,0.09006083,-0.08756585,0.15078941,0.15970045,0.031437453,0.09968248,-0.07621831,0.027841168,-0.031472437,0.08014162,-0.036622304,0.030062323,0.054477885,-0.08375783,0.0028003263,-0.044346277,2.0,2.0,-2.0,2.0,-0.57737565,-2.0,-2.0,0.27763057,-2.0,-2.0,0.5300096,-2.0,2.0,2.0,-2.0,2.0,-0.44622236,-2.0,-2.0,-0.6957027,-2.0,-2.0,0.16289586,-2.0
2025-07-21 14:28:24.473,0.5800000000000002,580,29,0.08091831,0.013559936,0.011501256,-0.06403255,-0.02537626,0.00034144768,0.0,0.0,0.0,-0.022533046,0.08067466,0.45118117,-0.07290162,0.12774852,0.1025737,-0.08087778,-0.1184874,0.09969998,0.09702772,-0.09875485,0.15288612,0.17181285,0.017628744,0.07485889,-0.07935218,0.031617433,-0.09711007,0.06722367,-0.07592755,0.0035491784,0.09191209,0.012438792,0.012586123,-0.030071728,2.0,2.0,-2.0,2.0,-0.44622236,-2.0,-2.0,-0.6957027,-2.0,-2.0,0.16289586,-2.0,2.0,2.0,-2.0,2.0,-0.35123825,-2.0,-2.0,0.029409178,-2.0,-2.0,0.4045487,-2.0
2025-07-21 14:28:24.490,0.6000000000000002,600,30,0.048757315,0.051191486,0.07415298,-0.08575034,0.056943607,0.01026325,0.0,0.0,0.0,-0.023308966,0.08412414,0.4603045,-0.0819917,0.11810982,0.10158739,-0.08123792,-0.13412721,0.11398597,0.10773076,-0.09779511,0.1609562,0.18318805,-0.042295244,0.028145049,-0.06388792,0.054908242,-0.03546305,0.00035090777,-0.030423557,0.03236564,0.02505399,0.051749576,-0.051625535,-0.009821975,2.0,2.0,-2.0,2.0,-0.35123825,-2.0,-2.0,0.029409178,-2.0,-2.0,0.4045487,-2.0,2.0,2.0,-2.0,2.0,-0.44833136,-2.0,-2.0,-0.6693231,-2.0,-2.0,0.42600912,-2.0
2025-07-21 14:28:24.510,0.6200000000000002,620,31,0.067945495,-0.02089391,0.053310126,-0.1142661,-0.024165204,-0.020635976,0.0,0.0,0.0,-0.024075849,0.08420062,0.4798984,-0.08156699,0.12501246,0.10124451,-0.087113574,-0.12736335,0.11088705,0.11811994,-0.10067209,0.15325549,0.19739284,0.017386131,0.059364073,-0.0172658,0.025766633,-0.05796616,0.022580383,-0.0130918715,0.03768489,-0.007827422,0.030822238,0.062223766,0.033336695,2.0,2.0,-2.0,2.0,-0.44833136,-2.0,-2.0,-0.6693231,-2.0,-2.0,0.42600912,-2.0,2.0,2.0,-2.0,2.0,-0.47730827,-2.0,-2.0,-0.15087926,-2.0,-2.0,0.5038815,-2.0
2025-07-21 14:28:24.531,0.6400000000000002,640,32,0.02704607,-0.025095282,0.017957468,-0.10147161,0.0011778102,0.022598172,0.0,0.0,0.0,-0.024634924,0.07659142,0.4757691,-0.09459143,0.11577836,0.08253058,-0.06853178,-0.136326,0.13029115,0.12404186,-0.10187693,0.16748853,0.19939658,-0.06868968,-0.04529203,0.008395022,0.021367628,-0.065003574,0.020338336,0.057297282,0.06511691,0.063788764,-0.0107884705,0.0013950318,-0.033864394,2.0,2.0,-2.0,2.0,-0.47730827,-2.0,-2.0,-0.15087926,-2.0,-2.0,0.5038815,-2.0,2.0,2.0,-2.0,2.0,-0.56345457,-2.0,-2.0,-0.18032813,-2.0,-2.0,0.3873821,-2.0
2025-07-21 14:28:24.556,0.6600000000000003,660,33,0.07815103,-0.0044224765,0.017952278,-0.09975205,-0.0052096085,0.01762134,0.0,0.0,0.0,-0.0249536,0.09201384,0.48891106,-0.09163161,0.13334946,0.08931963,-0.06892312,-0.13974132,0.1416086,0.1392809,-0.09885643,0.16184214,0.20797905,-0.043548327,-0.03485161,-0.084099114,0.0018935079,-0.03380216,-0.008193686,0.039850432,0.03829229,0.004021949,0.054604128,-0.053449772,0.07739899,2.0,2.0,-2.0,2.0,-0.56345457,-2.0,-2.0,-0.18032813,-2.0,-2.0,0.3873821,-2.0,2.0,2.0,-2.0,2.0,-0.2102712,-2.0,-2.0,-0.13802093,-2.0,-2.0,0.14641237,-2.0
2025-07-21 14:28:24.573,0.6800000000000003,680,34,0.03641644,0.032137413,0.026901234,-0.15142234,0.059058845,-0.01690664,0.0,0.0,0.0,-0.025309468,0.093151495,0.50805503,-0.10085697,0.11620691,0.08732372,-0.081601895,-0.14637914,0.13393609,0.14500253,-0.113236725,0.17325445,0.22899032,0.058650523,0.06279234,-0.035999313,0.02846133,-0.05896065,-0.013482822,0.0022579448,0.06775,0.009548052,0.031384777,-0.046830535,0.0101398425,2.0,2.0,-2.0,2.0,-0.2102712,-2.0,-2.0,-0.13802093,-2.0,-2.0,0.14641237,-2.0,2.0,2.0,-2.0,2.0,-0.3073458,-2.0,-2.0,-0.2972319,-2.0,-2.0,0.14286739,-2.0
2025-07-21 14:28:24.594,0.7000000000000003,700,35,0.059528276,-0.029049225,-0.009586961,-0.10859124,0.033782627,-0.0055096243,0.0,0.0,0.0,-0.025768327,0.08130706,0.5032641,-0.09748368,0.12137031,0.083572075,-0.08013945,-0.13849829,0.13708991,0.134885,-0.10120155,0.17071725,0.2363519,-0.025598262,-0.041000385,0.060031682,0.028939007,-0.06590005,0.029909324,-0.061250735,-0.028753387,0.09169815,0.061013706,0.05060996,-0.01732581,2.0,2.0,-2.0,2.0,-0.3073458,-2.0,-2.0,-0.2972319,-2.0,-2.0,0.14286739,-2.0,2.0,2.0,-2.0,2.0,-0.43420422,-2.0,-2.0,-0.24389148,-2.0,-2.0,0.17721033,-2.0
2025-07-21 14:28:24.611,0.7200000000000003,720,36,0.100227505,0.027199397,-0.017516915,-0.13907844,0.04038817,-0.020616977,0.0,0.0,0.0,-0.02626793,0.082288206,0.50201166,-0.10512327,0.123007536,0.08412859,-0.07065082,-0.13850653,0.15174596,0.14143653,-0.11531764,0.17876264,0.22986433,-0.00031396394,0.07682418,-0.08159787,-0.057314005,0.030783063,0.009029512,0.043271795,0.013850435,-0.02089098,-0.026533252,-0.057021204,-0.014837618,2.0,2.0,-2.0,2.0,-0.43420422,-2.0,-2.0,-0.24389148,-2.0,-2.0,0.17721033,-2.0,2.0,2.0,-2.0,2.0,-0.14805295,-2.0,-2.0,0.12237144,-2.0,-2.0,0.12397379,-2.0
2025-07-21 14:28:24.631,0.7400000000000003,740,37,0.06815264,-0.04822603,0.0636035,-0.08125011,-0.018893968,0.028625008,0.0,0.0,0.0,-0.026767047,0.09256208,0.5077643,-0.115944006,0.12862086,0.08547325,-0.08116107,-0.15287168,0.14328294,0.14724077,-0.117742665,0.18007721,0.23975596,-0.04152043,0.018114535,0.0066632642,-0.0107599655,0.049657777,0.035505448,-0.06895,0.053215865,-0.007838354,-0.065727845,0.043139044,0.07917416,2.0,2.0,-2.0,2.0,-0.14805295,-2.0,-2.0,0.12237144,-2.0,-2.0,0.12397379,-2.0,2.0,2.0,-2.0,2.0,-0.5550191,-2.0,-2.0,-0.77447003,-2.0,-2.0,0.1829645,-2.0
2025-07-21 14:28:24.656,0.7600000000000003,760,38,0.11798815,-0.04161019,0.037265524,-0.113066584,0.019880716,0.016831955,0.0,0.0,0.0,-0.027434267,0.095632225,0.5115895,-0.11979276,0.1269132,0.07835792,-0.07154257,-0.14925942,0.15175475,0.15484789,-0.111389644,0.17012489,0.24300514,-0.06937022,-0.019986754,-0.033545766,0.072285175,-0.088643216,-0.07761998,0.03256235,-0.08036175,-0.0037489086,0.027783781,0.015771577,-0.027413167,2.0,2.0,-2.0,2.0,-0.5550191,-2.0,-2.0,-0.77447003,-2.0,-2.0,0.1829645,-2.0,2.0,2.0,-2.0,2.0,0.08504765,-2.0,-2.0,0.5985428,-2.0,-2.0,0.55647844,-2.0
2025-07-21 14:28:24.674,0.7800000000000004,780,39,-0.029017352,-0.06059119,0.035392873,-0.16186446,0.04663457,0.035742644,0.0,0.0,0.0,-0.027903486,0.09344353,0.5227557,-0.11151281,0.13045113,0.079983644,-0.083076715,-0.14767316,0.14578803,0.17256303,-0.1020848,0.19248329,0.23786353,0.07833126,-0.0057269977,-0.06046655,-0.020155823,0.018517118,0.061616976,-0.031913083,0.02617971,-0.036471896,-0.031713597,-0.043101303,-0.028119408,2.0,2.0,-2.0,2.0,0.08504765,-2.0,-2.0,0.5985428,-2.0,-2.0,0.55647844,-2.0,2.0,2.0,-2.0,2.0,-0.37883407,-2.0,-2.0,-0.78848326,-2.0,-2.0,0.04940432,-2.0
2025-07-21 14:28:24.692,0.8000000000000004,800,40,0.024403708,-0.04287927,-0.042901464,-0.120237134,0.035787743,0.039517548,0.0,0.0,0.0,-0.028309183,0.102836214,0.528533,-0.12092633,0.124001324,0.081443444,-0.08902,-0.15456688,0.16172728,0.17567071,-0.120895185,0.1798603,0.25066537,0.056678813,0.076479115,0.050932422,0.035049472,-0.03242337,0.046331864,0.009833661,0.060776774,-0.041153572,-0.07082603,-0.0119341165,0.04015814,2.0,2.0,-2.0,2.0,-0.37883407,-2.0,-2.0,-0.78848326,-2.0,-2.0,0.04940432,-2.0,2.0,2.0,-2.0,2.0,-0.19666977,-2.0,-2.0,0.79427654,-2.0,-2.0,0.142407,-2.0
2025-07-21 14:28:24.711,0.8200000000000004,820,41,-0.056510728,0.012259879,0.08225511,-0.12068669,-0.000605634,-0.032536663,0.0,0.0,0.0,-0.02857649,0.095118135,0.53648186,-0.11952953,0.13571241,0.076799825,-0.079772376,-0.14382853,0.16239697,0.1653017,-0.10265476,0.1981499,0.24808732,-0.018430017,0.049648385,0.073837765,-0.00047104646,-0.015504443,-0.023166103,0.009248201,0.033154123,0.014719944,0.06842507,0.08784421,-0.03065797,2.0,2.0,-2.0,2.0,-0.19666977,-2.0,-2.0,0.79427654,-2.0,-2.0,0.142407,-2.0,2.0,2.0,-2.0,2.0,-0.3760212,-2.0,-2.0,-1.1571426,-2.0,-2.0,-0.008103076,-2.0
2025-07-21 14:28:24.731,0.8400000000000004,840,42,0.07311795,-0.0295074,-0.023755455,-0.08787302,0.012330144,-0.031104226,0.0,0.0,0.0,-0.029153205,0.10564737,0.53510594,-0.12258921,0.13608114,0.08136454,-0.08929599,-0.14384031,0.17099996,0.1764099,-0.11325464,0.19373986,0.24202691,-0.043666087,0.009392009,-0.036516707,0.06720393,-0.055251673,-0.08387517,-0.011019098,0.0011909618,-0.0014267806,0.041183475,-0.083150804,0.06406468,2.0,2.0,-2.0,2.0,-0.3760212,-2.0,-2.0,-1.1571426,-2.0,-2.0,-0.008103076,-2.0,2.0,2.0,-2.0,2.0,0.13697158,-2.0,-2.0,1.0734693,-2.0,-2.0,0.1434468,-2.0
2025-07-21 14:28:24.756,0.8600000000000004,860,43,0.005136489,-0.0556319,0.10418223,-0.16827649,0.025207091,-0.03266419,0.0,0.0,0.0,-0.029637497,0.09829346,0.54076666,-0.11176516,0.13625205,0.09184188,-0.101952314,-0.15419514,0.1744601,0.18046576,-0.107164435,0.18898539,0.24026982,-0.04644971,0.002886564,0.06368051,0.055055745,-0.019561397,0.052706376,0.03456317,0.029329136,0.0014998007,-0.06823144,0.017163001,-0.0059704934,2.0,2.0,-2.0,2.0,0.13697158,-2.0,-2.0,1.0734693,-2.0,-2.0,0.1434468,-2.0,2.0,2.0,-2.0,2.0,-0.34937602,-2.0,-2.0,-1.4481831,-2.0,-2.0,-0.045195166,-2.0
2025-07-21 14:28:24.772,0.8800000000000004,880,44,0.099282295,-0.056826897,0.01821266,-0.08769981,0.044985484,-0.024814183,0.0,0.0,0.0,-0.03029949,0.11496459,0.53751934,-0.11099444,0.13324781,0.081584536,-0.10603062,-0.15901104,0.15889685,0.1888025,-0.11119419,0.18532497,0.23413467,0.03944763,-0.018257745,0.056380436,-0.033605073,0.051145412,0.04063039,0.07073755,0.0133280475,0.09640028,-0.0716556,-0.089761086,-0.016480742,2.0,2.0,-2.0,2.0,-0.34937602,-2.0,-2.0,-1.4481831,-2.0,-2.0,-0.045195166,-2.0,2.0,2.0,-2.0,2.0,-0.91353726,-2.0,-2.0,0.7890297,-2.0,-2.0,1.1727066,-2.0
2025-07-21 14:28:24.792,0.9000000000000005,900,45,-0.04357051,-0.014464239,0.034594998,-0.1588378,0.038441468,0.049938686,0.0,0.0,0.0,-0.030752597,0.11056641,0.53291726,-0.11593201,0.13345845,0.07197003,-0.08946591,-0.15558109,0.16991934,0.17281827,-0.1019725,0.18785754,0.22683902,0.00338298,0.08035031,0.015625441,0.01794707,-0.07311531,0.06607574,0.03803918,-0.016230699,-0.04162975,0.046299472,0.06901755,-0.04843926,2.0,2.0,-2.0,2.0,-0.91353726,-2.0,-2.0,0.7890297,-2.0,-2.0,1.1727066,-2.0,2.0,2.0,-2.0,2.0,0.58359665,-2.0,-2.0,-0.16009331,-2.0,-2.0,-0.26218027,-2.0
2025-07-21 14:28:24.813,0.9200000000000005,920,46,-0.05258807,-0.010370197,-0.037622184,-0.07872814,0.041798152,0.046795353,0.0,0.0,0.0,-0.030840747,0.1041877,0.5391444,-0.10403095,0.12803054,0.077822864,-0.101837456,-0.1450179,0.16433805,0.17982699,-0.11322238,0.2015656,0.23383787,-0.02734494,-0.009089528,0.015975576,-0.019008808,-0.04803507,-0.060651,-0.0112025235,-0.06468428,0.06918339,0.011684278,0.08802549,0.04910878,2.0,2.0,-2.0,2.0,0.58359665,-2.0,-2.0,-0.16009331,-2.0,-2.0,-0.26218027,-2.0,2.0,2.0,-2.0,2.0,-0.0703143,-2.0,-2.0,-0.15708023,-2.0,-2.0,-0.12578052,-2.0
2025-07-21 14:28:24.831,0.9400000000000005,940,47,-0.024575934,-0.04469288,-0.021674268,-0.14131095,0.06260382,-0.02179369,0.0,0.0,0.0,-0.031040573,0.106491104,0.54479456,-0.10784551,0.13403182,0.07571432,-0.111165114,-0.16137311,0.16347298,0.1806877,-0.10167447,0.20214613,0.2157188,0.051050216,-0.028626021,0.037690904,-0.028870068,0.03857138,-0.031969514,-0.030912936,0.02947532,0.005934691,0.011134946,0.0461562,-0.053445768,2.0,2.0,-2.0,2.0,-0.0703143,-2.0,-2.0,-0.15708023,-2.0,-2.0,-0.12578052,-2.0,2.0,2.0,-2.0,2.0,-0.5931351,-2.0,-2.0,-0.24572504,-2.0,-2.0,0.10633212,-2.0
2025-07-21 14:28:24.856,0.9600000000000005,960,48,0.037038412,0.012589952,-0.0050291205,-0.15519772,0.028280945,0.019712526,0.0,0.0,0.0,-0.031313367,0.11688663,0.54604334,-0.101760894,0.13673264,0.07497191,-0.10501467,-0.15940218,0.16876306,0.17837022,-0.10228926,0.19526675,0.21774153,0.05709344,0.058377996,-0.010423009,0.06139994,-0.0838498,0.02277873,0.074720606,0.05361856,-0.057936076,-0.06321259,-0.042332064,-0.038408604,2.0,2.0,-2.0,2.0,-0.5931351,-2.0,-2.0,-0.24572504,-2.0,-2.0,0.10633212,-2.0,2.0,2.0,-2.0,2.0,0.120908484,-2.0,-2.0,0.57377994,-2.0,-2.0,0.08792108,-2.0
2025-07-21 14:28:24.873,0.9800000000000005,980,49,-0.04835366,0.026142268,0.03651109,-0.13764285,0.055613678,-0.017910013,0.0,0.0,0.0,-0.031671036,0.11738729,0.556932,-0.099627405,0.13173026,0.06380438,-0.12381213,-0.15217152,0.1653494,0.18230124,-0.1069782,0.19599606,0.22009343,-0.057171963,-0.023299728,0.073267035,0.011706642,-0.015508421,-0.055050723,-0.07191624,-0.048602153,-0.031331398,-0.03561751,0.02130972,0.045171544,2.0,2.0,-2.0,2.0,0.120908484,-2.0,-2.0,0.57377994,-2.0,-2.0,0.08792108,-2.0,2.0,2.0,-2.0,2.0,-0.08240111,-2.0,-2.0,-0.7772088,-2.0,-2.0,-0.22105128,-2.0
2025-07-21 14:28:24.892,1.0000000000000004,1000,50,0.04162015,-0.0705456,0.023055745,-0.08076816,0.083476625,0.039121155,0.0,0.0,0.0,-0.032317396,0.11351178,0.55363566,-0.109996654,0.13086793,0.062168494,-0.12415264,-0.15509169,0.17037061,0.18174452,-0.11317795,0.19345795,0.2264263,-0.0033405034,-0.040388517,-0.059353463,-0.011243599,0.046298556,-0.043572966,0.010087457,0.007557358,-0.04445336,-0.054775227,-0.046252634,0.003025079,2.0,2.0,-2.0,2.0,-0.08240111,-2.0,-2.0,-0.7772088,-2.0,-2.0,-0.22105128,-2.0,2.0,2.0,-2.0,2.0,-0.5389667,-2.0,-2.0,0.26873875,-2.0,-2.0,0.59041876,-2.0
2025-07-21 14:28:24.912,1.0200000000000005,1020,51,-0.067905046,-0.010156127,0.04827677,-0.109994575,0.073159315,-0.047332115,0.0,0.0,0.0,-0.03284797,0.11298922,0.54952717,-0.11116791,0.14290446,0.059308253,-0.12858318,-0.15195672,0.15965255,0.1977359,-0.09953047,0.20380262,0.2217847,-0.021355359,-0.021032441,0.0638086,0.031581517,0.02771943,-0.059975788,0.07448541,0.06461426,0.049299605,0.034374826,-0.0057000834,-0.049888927,2.0,2.0,-2.0,2.0,-0.5389667,-2.0,-2.0,0.26873875,-2.0,-2.0,0.59041876,-2.0,2.0,2.0,-2.0,2.0,-0.13246484,-2.0,-2.0,-0.42794538,-2.0,-2.0,0.11253655,-2.0
2025-07-21 14:28:24.932,1.0400000000000005,1040,52,-0.051144224,-0.034417637,-0.0023593032,-0.15776125,0.08234958,-0.005045738,0.0,0.0,0.0,-0.033117615,0.12487047,0.5426912,-0.098581456,0.13478252,0.059595205,-0.121638246,-0.15816703,0.15615653,0.18702494,-0.1048938,0.20421158,0.21385941,-0.06501381,-0.040534116,-0.03859218,-0.042636298,0.039758876,0.042377554,0.041586407,-0.02577055,0.0041429307,-0.03764016,-0.023729049,0.0076356344,2.0,2.0,-2.0,2.0,-0.13246484,-2.0,-2.0,-0.42794538,-2.0,-2.0,0.11253655,-2.0,2.0,2.0,-2.0,2.0,-0.34953147,-2.0,-2.0,0.13463652,-2.0,-2.0,0.27066666,-2.0
2025-07-21 14:28:24.956,1.0600000000000005,1060,53,-0.05057572,-0.035196677,-0.039766103,-0.11382912,0.07476113,-0.014507281,0.0,0.0,0.0,-0.03315908,0.11702086,0.53520566,-0.10271787,0.12867485,0.052782264,-0.13734114,-0.16034251,0.16046558,0.17945193,-0.114167854,0.20710666,0.211626,0.050216373,0.07333919,0.026365872,0.011340886,-0.08206898,-0.071908586,0.06555067,0.025311219,0.04345177,-0.049651787,0.023851411,0.013252999,2.0,2.0,-2.0,2.0,-0.34953147,-2.0,-2.0,0.13463652,-2.0,-2.0,0.27066666,-2.0,2.0,2.0,-2.0,2.0,0.3351913,-2.0,-2.0,0.2779444,-2.0,-2.0,-0.30235702,-2.0
2025-07-21 14:28:24.973,1.0800000000000005,1080,54,0.007773692,-0.06109566,0.04180326,-0.11845145,0.035777148,0.023682473,0.0,0.0,0.0,-0.03309915,0.118452236,0.5433181,-0.08598664,0.14503832,0.051203437,-0.13713853,-0.14957836,0.1646367,0.1829993,-0.11097667,0.19242351,0.2129649,-0.02972899,-0.061263643,-0.0060248696,0.062758714,0.023425931,-0.031765435,0.0023998686,0.062245734,8.470221e-05,0.04339317,0.04759484,0.01832744,2.0,2.0,-2.0,2.0,0.3351913,-2.0,-2.0,0.2779444,-2.0,-2.0,-0.30235702,-2.0,2.0,2.0,-2.0,2.0,-0.580428,-2.0,-2.0,-0.8908987,-2.0,-2.0,0.1090197,-2.0
2025-07-21 14:28:24.994,1.1000000000000005,1100,55,-0.007952412,0.020003056,0.00028535663,-0.14453122,0.02632245,-0.015906136,0.0,0.0,0.0,-0.03338992,0.13186258,0.5426399,-0.08896801,0.13091335,0.04170055,-0.13061155,-0.14381789,0.1565803,0.18475617,-0.1154972,0.20470592,0.2021132,-0.014076279,-0.021635666,-0.03601824,0.0013105026,0.044424437,-0.0102901105,0.047426984,-0.035367012,-0.016996337,-0.04721342,-0.04159241,0.06655051,2.0,2.0,-2.0,2.0,-0.580428,-2.0,-2.0,-0.8908987,-2.0,-2.0,0.1090197,-2.0,2.0,2.0,-2.0,2.0,0.02769475,-2.0,-2.0,0.6627816,-2.0,-2.0,0.5696842,-2.0
2025-07-21 14:28:25.013,1.1200000000000006,1120,56,-0.12502831,-0.03658202,0.01352257,-0.13524082,0.06718657,-0.033032782,0.0,0.0,0.0,-0.033511743,0.128844,0.53196126,-0.08833846,0.13752446,0.052408144,-0.13377367,-0.14729854,0.1572823,0.1860159,-0.09700152,0.20077212,0.20945346,0.048033107,0.031738088,0.027081857,0.028749304,0.07791085,-0.044184342,-0.023868475,-0.0070788185,-0.07489486,0.0554024,0.08886748,-0.013758151,2.0,2.0,-2.0,2.0,0.02769475,-2.0,-2.0,0.6627816,-2.0,-2.0,0.5696842,-2.0,2.0,2.0,-2.0,2.0,0.18806128,-2.0,-2.0,-0.46180075,-2.0,-2.0,-0.29474187,-2.0
2025-07-21 14:28:25.037,1.1400000000000006,1140,57,-0.021990402,-0.06024808,0.014768683,-0.12679677,0.08943217,-0.046647884,0.0,0.0,0.0,-0.033456024,0.12866932,0.52782,-0.09281759,0.124221064,0.047786273,-0.14034371,-0.14136685,0.16629419,0.17618905,-0.10268856,0.19356889,0.19109866,-0.02798021,0.05457568,-0.011090434,-0.015020266,-0.011314695,-0.05874118,-0.034222372,-0.01326243,0.07149094,-0.04021451,0.001404925,0.0037889197,2.0,2.0,-2.0,2.0,0.18806128,-2.0,-2.0,-0.46180075,-2.0,-2.0,-0.29474187,-2.0,2.0,2.0,-2.0,2.0,-0.30369437,-2.0,-2.0,-0.16670036,-2.0,-2.0,0.13242751,-2.0
2025-07-21 14:28:25.056,1.1600000000000006,1160,58,0.047524206,-0.0070552058,-0.0133112315,-0.13277343,0.036068182,-0.010368057,0.0,0.0,0.0,-0.033432018,0.13138399,0.5376932,-0.08028848,0.12766556,0.03811233,-0.15021059,-0.15291248,0.15943259,0.17500292,-0.11286096,0.20256612,0.1903338,0.015722029,-0.0011710026,0.01632006,0.00028016104,-0.03261638,0.016743924,0.0025270819,-0.017825225,0.02781448,-0.0025972193,0.03413085,0.03874732,2.0,2.0,-2.0,2.0,-0.30369437,-2.0,-2.0,-0.16670036,-2.0,-2.0,0.13242751,-2.0,2.0,2.0,-2.0,2.0,-0.12271412,-2.0,-2.0,-0.036180787,-2.0,-2.0,-0.019252304,-2.0
2025-07-21 14:28:25.074,1.1800000000000006,1180,59,0.028951248,-0.031146528,0.041079458,-0.112469,0.02340538,-0.03491883,0.0,0.0,0.0,-0.03331516,0.12620372,0.5373652,-0.09298162,0.13791673,0.035275523,-0.14372076,-0.14441347,0.16546787,0.17515382,-0.10762875,0.19697085,0.20385394,-0.0368099,0.009655678,-0.052094486,0.030369852,-0.014239799,0.00091902073,-0.0036467523,-0.066895805,0.037778907,0.025936853,0.011622049,-0.008472658,2.0,2.0,-2.0,2.0,-0.12271412,-2.0,-2.0,-0.036180787,-2.0,-2.0,-0.019252304,-2.0,2.0,2.0,-2.0,2.0,-0.35476565,-2.0,-2.0,-0.45359677,-2.0,-2.0,0.23859316,-2.0
2025-07-21 14:28:25.093,1.2000000000000006,1200,60,-5.581471e-05,0.004424737,-0.036790118,-0.092863984,0.049790837,0.043722503,0.0,0.0,0.0,-0.0332705,0.13317177,0.526698,-0.07962262,0.12506594,0.04892687,-0.1406319,-0.14034356,0.15519978,0.18523322,-0.11054412,0.19196354,0.19957092,-0.014963555,-0.03593577,0.045299176,-0.05706603,0.025339764,0.010386259,0.055972297,0.0024931037,0.021730978,-0.029061453,0.031363875,-0.048726104,2.0,2.0,-2.0,2.0,-0.35476565,-2.0,-2.0,-0.45359677,-2.0,-2.0,0.23859316,-2.0,2.0,2.0,-2.0,2.0,-0.24727549,-2.0,-2.0,0.38456678,-2.0,-2.0,0.26662278,-2.0
2025-07-21 14:28:25.113,1.2200000000000006,1220,61,-0.0747954,0.033914793,0.017326018,-0.12657283,0.08912598,-0.023840321,0.0,0.0,0.0,-0.033071574,0.13338317,0.5234476,-0.07866336,0.13380012,0.045718513,-0.14778723,-0.1422932,0.15151359,0.18467988,-0.09404135,0.19817209,0.19606423,-0.048913214,0.062427673,0.019947417,-0.06990706,0.054767355,0.05525171,-0.012512075,0.06821005,-0.08856482,0.07083967,0.077240214,0.060676094,2.0,2.0,-2.0,2.0,-0.24727549,-2.0,-2.0,0.38456678,-2.0,-2.0,0.26662278,-2.0,2.0,2.0,-2.0,2.0,0.04511409,-2.0,-2.0,-0.60193455,-2.0,-2.0,-0.38013208,-2.0
2025-07-21 14:28:25.144,1.2400000000000007,1240,62,0.07085272,0.038901657,0.021926919,-0.09250512,0.01633227,-0.009448055,0.0,0.0,0.0,-0.03291194,0.11631937,0.51496655,-0.073648535,0.12931685,0.02947721,-0.14831968,-0.14552723,0.15394858,0.17439273,-0.09479866,0.19051836,0.18140697,0.03486264,-0.07190605,-0.04327268,-0.042363442,-0.025787607,-0.020580124,-0.021566015,-0.07046349,-0.041695327,0.06791668,-0.08892639,0.08068929,2.0,2.0,-2.0,2.0,0.04511409,-2.0,-2.0,-0.60193455,-2.0,-2.0,-0.38013208,-2.0,2.0,2.0,-2.0,2.0,-0.43064517,-2.0,-2.0,-0.14357698,-2.0,-2.0,0.46829695,-2.0
2025-07-21 14:28:25.179,1.2600000000000007,1260,63,-0.020634254,-0.027385633,0.03388707,-0.089693405,0.06126895,0.008298529,0.0,0.0,0.0,-0.032859545,0.12957315,0.50663066,-0.07552619,0.12732404,0.026223982,-0.14322144,-0.1510924,0.13549627,0.17396338,-0.10350087,0.1866245,0.18268472,0.01664557,0.06652533,0.016553124,0.07013164,-0.019073367,-0.05681815,0.05454279,-0.06535348,0.016954577,0.061972633,0.04828485,0.03651098,2.0,2.0,-2.0,2.0,-0.43064517,-2.0,-2.0,-0.14357698,-2.0,-2.0,0.46829695,-2.0,2.0,2.0,-2.0,2.0,0.17138873,-2.0,-2.0,0.036555298,-2.0,-2.0,0.12689817,-2.0
2025-07-21 14:28:25.192,1.2800000000000007,1280,64,-0.058282662,0.011968756,-0.04198304,-0.14490691,0.081760444,-0.04431851,0.0,0.0,0.0,-0.03259958,0.12499203,0.52025324,-0.06835961,0.13103592,0.03787378,-0.14381875,-0.14068654,0.14192368,0.16621071,-0.106687024,0.18942703,0.19406824,-0.018180557,0.05084165,-0.010472695,-0.05662876,-0.06870059,0.047117956,0.075007744,0.035688095,-0.08797132,0.023560321,-0.045289215,0.037971485,2.0,2.0,-2.0,2.0,0.17138873,-2.0,-2.0,0.036555298,-2.0,-2.0,0.12689817,-2.0,2.0,2.0,-2.0,2.0,-0.29001433,-2.0,-2.0,0.05412949,-2.0,-2.0,-0.15850717,-2.0
2025-07-21 14:28:25.214,1.3000000000000007,1300,65,-0.009218677,0.009902745,0.015069024,-0.09160603,0.08048286,0.031992767,1.5,0.0,0.0,-0.032272544,0.11757211,0.50470203,-0.08115324,0.123270124,0.03436391,-0.1373522,-0.15167484,0.13842715,0.17333902,-0.105638936,0.18432282,0.19157708,-0.018549576,0.011659278,-0.03778312,-0.04937431,-0.034740455,0.051472593,0.043805838,0.0019190421,0.052608237,0.0017097107,-0.043636914,-0.038455497,2.0,2.0,-2.0,2.0,-0.29001433,-2.0,-2.0,0.05412949,-2.0,-2.0,-0.15850717,-2.0,2.0,2.0,-2.0,2.0,-1.1758808,-1.7722046,-2.0,-1.5782785,-2.0,-2.0,-0.39455065,-2.0
2025-07-21 14:28:25.233,1.3200000000000007,1320,66,0.06757608,0.025827302,-0.0023561453,-0.15276526,0.02068275,0.013249196,1.5,0.0,0.0,-0.032251295,0.12994291,0.5070444,-0.08499887,0.13060245,0.008494642,-0.14431076,-0.14854158,0.12487934,0.1694414,-0.09760619,0.17881818,0.1934083,-0.05919877,-0.019251244,-0.057580132,0.04205948,-0.14485987,0.018666673,-0.051283292,-0.12568334,0.07918039,-0.0013939579,0.004064026,0.024659649,2.0,2.0,-2.0,2.0,-1.1758808,-1.7722046,-2.0,-1.5782785,-2.0,-2.0,-0.39455065,-2.0,2.0,2.0,-2.0,2.0,-1.1639469,2.0,-2.0,-0.7501768,-2.0,-2.0,-0.24439394,-2.0
2025-07-21 14:28:25.256,1.3400000000000007,1340,67,0.059290927,0.1418437,-0.09708089,-0.13157222,0.031654328,0.047565155,1.5,0.0,0.0,-0.032124523,0.12864892,0.4959143,-0.092777275,0.11403366,-0.056364726,-0.07061819,-0.1378787,0.11322566,0.17405352,-0.10286054,0.15195471,0.19619419,0.023682568,-0.037312157,-0.062652715,-0.007991533,-0.24193779,0.16846414,0.08655744,-0.07980282,0.07656078,-0.018042982,0.033794206,-0.018099576,2.0,2.0,-2.0,2.0,-1.1639469,2.0,-2.0,-0.7501768,-2.0,-2.0,-0.24439394,-2.0,2.0,1.5794271,-2.0,2.0,-1.8354203,2.0,-2.0,0.060892113,-2.0,-2.0,-0.66722625,-2.0
2025-07-21 14:28:25.276,1.3600000000000008,1360,68,0.014377868,0.11729644,-0.013616852,-0.091109976,0.045819383,-0.027158368,1.5,0.0,0.0,-0.031303838,0.12180599,0.48408225,-0.07808955,0.09310676,-0.13784753,0.031217795,-0.12534451,0.09437633,0.19287007,-0.09328525,0.1488875,0.21782336,0.06862276,0.02956859,-0.040566135,-0.046939097,-0.26795188,0.28656554,0.068278305,0.039927736,0.060167085,-0.0053585134,-0.018714763,0.08320907,2.0,1.5794271,-2.0,2.0,-1.8354203,2.0,-2.0,0.060892113,-2.0,-2.0,-0.66722625,-2.0,2.0,1.374629,-2.0,2.0,-1.2415805,2.0,-2.0,-0.6092553,-2.0,-2.0,-0.99040866,-2.0
2025-07-21 14:28:25.312,1.3800000000000008,1380,69,0.049456168,0.12934443,-0.027026575,-0.08502842,0.01251096,-0.02547049,1.5,0.0,0.0,-0.0305892,0.14414443,0.4650613,-0.07241025,0.07909914,-0.20865597,0.09279508,-0.12599777,0.08645773,0.18750612,-0.07276631,0.133804,0.22914672,0.043293517,-0.0037773997,0.009555426,-0.041350547,-0.18986452,0.15079491,0.06135419,-0.067741044,0.06707192,-0.055647504,-0.015215777,0.020291753,2.0,1.374629,-2.0,2.0,-1.2415805,2.0,-2.0,-0.6092553,-2.0,-2.0,-0.99040866,-2.0,2.0,0.5395637,-2.0,2.0,-1.5788985,2.0,-2.0,-0.15545094,-2.0,-2.0,-0.7738694,-2.0
2025-07-21 14:28:25.345,1.4000000000000008,1400,70,0.014023242,0.14773965,-0.0646176,-0.16525488,-0.005972754,0.031054152,1.5,0.0,0.0,-0.030093305,0.12853421,0.4660976,-0.07406551,0.07887318,-0.24323575,0.13986757,-0.11157639,0.07496824,0.17737272,-0.072558016,0.12244101,0.24123774,0.039609324,-0.0072583724,0.050120465,0.01773568,-0.12355301,0.04993986,0.07876607,-0.052581847,-0.002186694,0.05957425,0.023976086,-0.0046290625,2.0,0.5395637,-2.0,2.0,-1.5788985,2.0,-2.0,-0.15545094,-2.0,-2.0,-0.7738694,-2.0,2.0,0.1274502,-2.0,2.0,0.15136354,2.0,-2.0,-0.09095549,-2.0,-2.0,-1.5582018,-2.0
2025-07-21 14:28:25.360,1.4200000000000008,1420,71,0.054989755,0.1373865,-0.0071829874,-0.15559743,-0.04594019,0.017309742,1.5,0.0,0.0,-0.029528633,0.13928513,0.4406558,-0.055195287,0.07968187,-0.24226797,0.1630341,-0.11899844,0.056279957,0.18804616,-0.07553456,0.102848776,0.25680462,-0.07465688,-0.09131263,-0.016204963,-0.015398097,0.18675224,0.058955126,-0.009293113,-0.0033425672,-0.02035401,-0.06566498,0.0077085746,0.11731589,2.0,0.1274502,-2.0,2.0,0.15136354,2.0,-2.0,-0.09095549,-2.0,-2.0,-1.5582018,-2.0,2.0,-1.5469689,-2.0,2.0,0.52924967,2.0,-2.0,-0.36414552,-2.0,-2.0,-1.4432242,-2.0
2025-07-21 14:28:25.389,1.4400000000000008,1440,72,0.04637636,0.13892308,-0.0440489,-0.09832788,-0.025946742,0.033339582,1.5,0.0,0.0,-0.029100271,0.14018974,0.37096936,-0.019838376,0.079627745,-0.1689311,0.19302185,-0.10852402,0.033115327,0.19462892,-0.073233195,0.0681896,0.2740192,-0.024942795,-0.25339693,0.0008149261,0.06968265,0.18402715,-0.02315049,0.034800705,-0.09979251,-0.03775832,-0.007918855,-0.06549387,-0.0008571196,2.0,-1.5469689,-2.0,2.0,0.52924967,2.0,-2.0,-0.36414552,-2.0,-2.0,-1.4432242,-2.0,2.0,-2.0,-2.0,2.0,2.0,2.0,-2.0,0.37575042,-2.0,-2.0,-2.0,-2.0
2025-07-21 14:28:25.406,1.4600000000000009,1460,73,0.08050653,0.22902009,-0.006458434,-0.12874994,0.010543115,-1.5316877e-05,1.5,0.0,0.0,-0.02864464,0.121753685,0.28581685,0.012569078,0.07927134,-0.0264035,0.19208007,-0.11222771,0.012860799,0.1771062,-0.078027554,0.022131437,0.30113295,0.05206794,-0.22859478,0.118048705,-0.047939196,0.31096706,0.04801903,-0.03113526,-0.080338396,-0.05680918,0.042203803,-0.0904278,0.10704373,2.0,-2.0,-2.0,2.0,2.0,2.0,-2.0,0.37575042,-2.0,-2.0,-2.0,-2.0,2.0,-2.0,0.52751005,2.0,2.0,2.0,2.0,0.12078584,-2.0,-2.0,-2.0,-2.0
2025-07-21 14:28:25.423,1.4800000000000009,1480,74,-0.10375966,0.2803075,0.017103992,-0.13693847,-0.006458421,0.045471072,1.5,0.0,0.0,-0.028556885,0.13405658,0.14966586,0.046628315,0.07846823,0.11837933,0.19665086,-0.10632892,0.0065526403,0.1764703,-0.055370864,0.00058624725,0.33106294,0.01022954,-0.41617104,0.086514585,0.03402274,0.4004208,0.0759509,0.09104465,-0.043017246,-0.08510295,0.096278295,-0.14714935,-0.0042391713,2.0,-2.0,0.52751005,2.0,2.0,2.0,2.0,0.12078584,-2.0,-2.0,-2.0,-2.0,-2.0,-1.9265237,2.0,-2.0,1.9300696,-2.0,2.0,-1.0114442,-2.0,-2.0,-1.717477,-2.0
2025-07-21 14:28:25.442,1.5000000000000009,1500,75,-0.20037946,0.13305601,0.033323847,-0.12519453,-0.0683727,0.012390991,1.5,0.0,0.0,-0.02932321,0.09819781,-0.005323248,0.09536304,0.06265057,0.24226652,0.12935114,-0.08832415,0.005382717,0.15860657,-0.0572155,-0.042123977,0.32677668,-0.09000528,-0.3238847,0.15043768,-0.0334339,0.23503438,-0.2989908,0.068333,0.008449001,0.0048689805,0.036960647,-0.135025,-0.01044146,-2.0,-1.9265237,2.0,-2.0,1.9300696,-2.0,2.0,-1.0114442,-2.0,-2.0,-1.717477,-2.0,-2.0,-1.5796453,2.0,-2.0,2.0,-2.0,2.0,-0.3357336,-2.0,-2.0,-0.783206,-2.0
2025-07-21 14:28:25.462,1.520000000000001,1520,76,-0.4338709,0.16133127,0.024683995,-0.041798327,-0.025324091,-0.02541515,1.5,0.0,0.0,-0.030216526,0.047496453,-0.12685488,0.12515031,0.024293289,0.3412462,0.033732068,-0.101120576,0.0023627772,0.13416791,-0.07445691,-0.036780905,0.34787995,-0.07207952,-0.22836766,0.06828519,-0.10233321,0.15689364,-0.22297367,-0.00013805935,0.07486419,-0.10718625,0.054025803,0.026781114,-0.066871956,-2.0,-1.5796453,2.0,-2.0,2.0,-2.0,2.0,-0.3357336,-2.0,-2.0,-0.783206,-2.0,-2.0,-1.7528452,2.0,-2.0,1.9597428,-2.0,2.0,-0.57047665,-2.0,-2.0,-0.8548135,-2.0
2025-07-21 14:28:25.481,1.540000000000001,1540,77,-0.41435012,-0.07996654,-0.016911758,-0.04075021,-0.11041332,0.020583192,1.5,0.0,0.0,-0.030840654,0.0038551018,-0.23938732,0.15916814,0.011967935,0.3559711,0.04539671,-0.10622493,0.03026541,0.117297046,-0.05809217,-0.03792881,0.32137606,-0.088513836,-0.17057285,0.025928225,-0.05876116,-0.021582015,0.07627248,-0.007824772,-0.008338462,-0.015834369,0.016078409,0.024085654,-0.119203396,-2.0,-1.7528452,2.0,-2.0,1.9597428,-2.0,2.0,-0.57047665,-2.0,-2.0,-0.8548135,-2.0,-2.0,-1.7838911,2.0,-2.0,0.92289037,-2.0,2.0,-0.63723093,-2.0,-2.0,-0.50002587,-2.0
2025-07-21 14:28:25.506,1.560000000000001,1560,78,-0.2584018,-0.16290523,-0.103712425,-0.06727255,-0.029286146,-0.0059793126,1.5,0.0,0.0,-0.030581575,-0.023252802,-0.29002643,0.18247797,-0.012447351,0.3491355,0.10407766,-0.09346298,0.026437767,0.096199594,-0.06747924,-0.021432886,0.30744433,-0.12793541,-0.0717491,0.046252824,0.014308341,0.004575451,0.15293278,0.054790672,-0.06405274,0.039187018,0.028341511,0.09676449,-0.052674547,-2.0,-1.7838911,2.0,-2.0,0.92289037,-2.0,2.0,-0.63723093,-2.0,-2.0,-0.50002587,-2.0,-2.0,-1.3834023,2.0,-2.0,0.07854514,-2.0,2.0,-0.5949298,-2.0,-2.0,-0.7464002,-2.0
2025-07-21 14:28:25.524,1.580000000000001,1580,79,-0.18397963,-0.15046886,-0.10073287,0.03593519,-0.035015598,-0.0043894406,1.5,0.0,0.0,-0.029486764,-0.05112086,-0.33054432,0.20642246,-0.04009737,0.33067948,0.15099654,-0.107676186,0.02460171,0.09469631,-0.08581961,-0.027601942,0.28982106,-0.061571795,0.035817996,0.04322965,-0.08627634,-0.025082637,0.08140551,-0.030741103,-0.039435536,-0.09276569,-0.025903432,-0.032749157,-0.12429028,-2.0,-1.3834023,2.0,-2.0,0.07854514,-2.0,2.0,-0.5949298,-2.0,-2.0,-0.7464002,-2.0,-2.0,-1.749353,2.0,-2.0,-0.24684294,-2.0,2.0,-0.21136677,-2.0,-2.0,-0.6114276,-2.0
2025-07-21 14:28:25.542,1.600000000000001,1600,80,-0.12557319,-0.18957885,-0.006434169,0.023078928,0.011359037,0.025416963,1.5,0.0,0.0,-0.028260062,-0.06611631,-0.35135192,0.20587122,-0.034586273,0.29140615,0.17033438,-0.105193816,0.005139406,0.080144435,-0.08405113,-0.019891921,0.26811367,0.031080902,-0.052971132,0.04765473,0.021932285,-0.13445152,0.051526845,-0.05072713,0.024710298,0.035832845,0.00964718,-0.08063658,-0.0061860643,-2.0,-1.749353,2.0,-2.0,-0.24684294,-2.0,2.0,-0.21136677,-2.0,-2.0,-0.6114276,-2.0,-2.0,-2.0,2.0,-2.0,0.3927366,-2.0,2.0,-0.71828175,-2.0,-2.0,-1.0234663,-2.0
2025-07-21 14:28:25.570,1.620000000000001,1620,81,-0.0920696,-0.14283068,-0.018822355,0.04063614,-0.042607192,0.045775656,1.5,0.0,0.0,-0.027525108,-0.055428386,-0.3602647,0.20890886,-0.04288867,0.26810667,0.19340092,-0.12216881,-0.02328231,0.07096297,-0.073939346,-0.04026755,0.23125589,0.0054053483,-0.0042477725,0.046700757,0.04592817,-0.114892416,0.040201068,0.004383255,-0.11365971,-0.08150847,0.0021054938,0.0118802665,-0.0020377927,-2.0,-2.0,2.0,-2.0,0.3927366,-2.0,2.0,-0.71828175,-2.0,-2.0,-1.0234663,-2.0,-2.0,-2.0,2.0,-2.0,0.24712329,-2.0,2.0,-0.44265914,-2.0,-2.0,-0.49904293,-2.0
2025-07-21 14:28:25.589,1.640000000000001,1640,82,-0.16726877,-0.22369309,-0.04704612,0.050154507,0.022172734,-0.005435626,1.5,0.0,0.0,-0.02709089,-0.057314515,-0.37014169,0.22238912,-0.051178053,0.24758305,0.18753156,-0.11493481,-0.038091555,0.060982265,-0.080690555,-0.04514863,0.20523411,0.017958691,0.017783744,0.071977384,0.023888528,-0.05892322,0.0723352,-0.029105036,-0.08928171,-0.07687916,-0.07143584,-0.0048050703,-0.080740236,-2.0,-2.0,2.0,-2.0,0.24712329,-2.0,2.0,-0.44265914,-2.0,-2.0,-0.49904293,-2.0,-2.0,-2.0,2.0,-2.0,-0.8108845,-2.0,2.0,-0.6749991,-2.0,-2.0,-0.61866105,-2.0
2025-07-21 14:28:25.612,1.660000000000001,1660,83,-0.067623295,-0.21170615,-0.0016477723,-0.008261911,0.02897698,-0.01937655,1.5,0.0,0.0,-0.026740944,-0.05457508,-0.38653082,0.22948253,-0.05018191,0.21898822,0.19706258,-0.12750086,-0.062630884,0.0672417,-0.08342069,-0.058030684,0.16763742,0.029728804,-0.039295934,0.07691798,0.07244455,-0.030858576,-0.060959384,-0.060758423,-0.021333983,-0.049351756,-0.027329965,-0.060040016,-0.015734138,-2.0,-2.0,2.0,-2.0,-0.8108845,-2.0,2.0,-0.6749991,-2.0,-2.0,-0.61866105,-2.0,-2.0,-2.0,2.0,-2.0,-0.12571783,-2.0,2.0,-0.84235954,-2.0,-1.0998322,-1.0750092,-2.0
2025-07-21 14:28:25.630,1.680000000000001,1680,84,-0.07467938,-0.12895548,-0.015990077,0.020546688,0.05940384,0.024460668,1.5,0.0,0.0,-0.026745725,-0.056519583,-0.41348958,0.22366722,-0.050444596,0.17382528,0.1779638,-0.13147892,-0.08424876,0.06154637,-0.08691107,-0.07342209,0.13708146,-0.008191332,-0.043534532,-0.067803405,0.061991688,-0.06160672,-0.016325891,0.0056722322,-0.12914577,-0.0721512,-0.06237519,-0.016291285,-0.08881724,-2.0,-2.0,2.0,-2.0,-0.12571783,-2.0,2.0,-0.84235954,-2.0,-1.0998322,-1.0750092,-2.0,-2.0,-2.0,2.0,-2.0,-0.57860076,-2.0,2.0,-0.6475725,-2.0,2.0,-0.17480022,-2.0
2025-07-21 14:28:25.655,1.700000000000001,1700,85,-0.077262126,-0.11107551,-0.035591852,0.059735443,0.03188698,-0.039660588,1.5,0.0,0.0,-0.02707593,-0.045248415,-0.42009073,0.22883235,-0.037823502,0.15513565,0.16817617,-0.11726876,-0.104061924,0.04638219,-0.07995106,-0.08867504,0.1077632,-0.06468958,-0.021527706,-0.004035242,0.08461472,-0.06870313,-0.048719276,0.096378036,-0.02655075,-0.009303676,0.0067275963,0.016204877,-0.0806339,-2.0,-2.0,2.0,-2.0,-0.57860076,-2.0,2.0,-0.6475725,-2.0,2.0,-0.17480022,-2.0,-2.0,-0.91478705,2.0,-2.0,-0.92305964,-2.0,2.0,-1.7677987,-2.0,2.0,-1.2878478,-2.0
2025-07-21 14:28:25.674,1.720000000000001,1720,86,0.024549823,-0.04363986,-0.04585492,0.093498334,0.051053774,-0.019380754,1.5,0.0,0.0,-0.027219806,-0.0536831,-0.38587588,0.23811033,-0.029885888,0.114123054,0.16228497,-0.10096493,-0.15538943,0.0418159,-0.045346186,-0.09889205,0.07379599,-0.07056995,0.176767,-0.0016475619,0.039471984,-0.06692177,-0.0120999515,0.036047082,-0.10713605,0.03554521,0.09523756,-0.11145241,-0.12708431,-2.0,-0.91478705,2.0,-2.0,-0.92305964,-2.0,2.0,-1.7677987,-2.0,2.0,-1.2878478,-2.0,-2.0,-0.3667797,2.0,-2.0,-0.82583445,-2.0,2.0,-0.7130732,-2.0,2.0,0.21831664,2.0
2025-07-21 14:28:25.690,1.740000000000001,1740,87,-0.0097999,-0.032753322,0.04609531,0.02029802,-0.002363814,0.010687452,1.5,0.0,0.0,-0.026992202,-0.05796872,-0.3099681,0.22561114,-0.006938166,0.078544185,0.16888177,-0.07164456,-0.18632828,0.0440934,-0.017408056,-0.104040146,0.09977776,-0.08729813,0.19916691,-0.0015665273,0.10715589,-0.05984004,0.01455223,0.021877483,-0.08856495,0.0063034757,0.016419567,0.021798814,0.004120533,-2.0,-0.3667797,2.0,-2.0,-0.82583445,-2.0,2.0,-0.7130732,-2.0,2.0,0.21831664,2.0,-2.0,1.040779,2.0,-2.0,0.96308094,-2.0,2.0,-1.3661635,-2.0,2.0,-0.16311961,2.0
2025-07-21 14:28:25.710,1.7600000000000011,1760,88,-0.06262697,-0.10539949,0.0010911197,0.06196521,0.007412371,-0.047837403,1.5,0.0,0.0,-0.02693472,-0.06653616,-0.1966098,0.2305353,0.0059925327,0.027915908,0.15320514,-0.059330948,-0.22224633,0.032593958,0.0009364605,-0.09270505,0.13143207,0.016781421,0.39945173,0.04121754,0.019501878,-0.11833897,0.034268387,-0.036683343,-0.024563333,-0.03285946,0.08473698,0.052060615,0.025231272,-2.0,1.040779,2.0,-2.0,0.96308094,-2.0,2.0,-1.3661635,-2.0,2.0,-0.16311961,2.0,-2.0,2.0,2.0,-2.0,-0.82208204,-2.0,2.0,-1.8460839,-2.0,2.0,-0.17323452,2.0
2025-07-21 14:28:25.730,1.7800000000000011,1780,89,-0.0028955988,-0.10630946,0.055251256,0.08495815,0.047497388,0.03030285,1.5,0.0,0.0,-0.027000196,-0.07738885,-0.07473757,0.23196097,0.02716289,-0.0012055786,0.14636257,-0.05232901,-0.25465357,0.03565863,0.029467449,-0.05926689,0.16871142,-0.05172078,0.10506009,0.038586568,0.00865446,-0.09900267,0.024147036,0.09137116,-0.02173866,-0.057690077,0.037941612,0.10140847,0.14133832,-2.0,2.0,2.0,-2.0,-0.82208204,-2.0,2.0,-1.8460839,-2.0,2.0,-0.17323452,2.0,-2.0,2.0,2.0,-2.0,-1.5941987,-2.0,2.0,-2.0,-2.0,2.0,1.0207478,2.0
2025-07-21 14:28:25.756,1.8000000000000012,1800,90,-0.0059040156,-0.114360504,0.076193936,0.0068027847,0.09640308,0.016346311,1.5,0.0,0.0,-0.027293688,-0.08697772,0.0029514642,0.2559731,0.053106803,-0.04962285,0.13549504,-0.027392572,-0.3011249,0.03926178,0.038618192,-0.012821201,0.1835329,0.008458262,0.23743333,-0.053145953,0.0291406,-0.10816295,-0.05307226,0.087152146,-0.04136367,-0.053515103,-0.015740158,0.14690469,0.093870185,-2.0,2.0,2.0,-2.0,-1.5941987,-2.0,2.0,-2.0,-2.0,2.0,1.0207478,2.0,-2.0,2.0,2.0,-2.0,-1.2975029,-2.0,2.0,-2.0,-2.0,2.0,1.047337,2.0
2025-07-21 14:28:25.781,1.8200000000000012,1820,91,-0.023292422,-0.12877809,0.13497815,0.09259381,0.08022119,-0.033561572,1.5,0.0,0.0,-0.02860855,-0.106599085,0.10782381,0.2570622,0.06770662,-0.08171139,0.12611975,-0.03614736,-0.35158157,0.057004295,0.066777974,0.05878184,0.20265411,-0.04458376,0.19158642,-0.0022997456,0.08541795,-0.04685659,0.0018024864,-0.04800185,-0.18718328,0.06656885,-0.024144903,0.17339924,-0.0054602637,-2.0,2.0,2.0,-2.0,-1.2975029,-2.0,2.0,-2.0,-2.0,2.0,1.047337,2.0,-2.0,2.0,-2.0,-2.0,-0.74205595,2.0,2.0,-2.0,-2.0,2.0,1.2994654,-2.0
2025-07-21 14:28:25.806,1.8400000000000012,1840,92,0.021485299,0.15304598,0.14763036,0.08653312,0.09250279,-0.004556336,1.5,0.0,0.0,-0.030517837,-0.11329967,0.14895187,0.25794902,0.086489215,-0.13476214,0.1477662,-0.0170587,-0.38940874,0.04634599,0.06559389,0.13116743,0.13085884,0.06810605,0.043483652,-0.028736075,-0.07318731,-0.049811844,0.11529511,0.057788968,-0.09919243,0.033465568,-0.01458546,0.21642867,-0.19849576,-2.0,2.0,-2.0,-2.0,-0.74205595,2.0,2.0,-2.0,-2.0,2.0,1.2994654,-2.0,-2.0,0.59876055,-2.0,2.0,-2.0,2.0,2.0,-2.0,-2.0,-2.0,0.6696815,-2.0
2025-07-21 14:28:25.823,1.8600000000000012,1860,93,0.018891033,0.20756276,0.028993348,0.07864276,0.01674934,-0.022729585,1.5,0.0,0.0,-0.0324463,-0.08086949,0.112803936,0.26403722,0.06819931,-0.19583212,0.1757084,0.0032566611,-0.42053264,0.044770136,0.083077446,0.16393453,0.05601988,0.06737405,-0.0364515,0.077495046,-0.0612566,-0.09906005,0.0054108948,0.13063131,-0.09947603,-0.034183588,-0.028870171,-0.038257122,-0.016295228,-2.0,0.59876055,-2.0,2.0,-2.0,2.0,2.0,-2.0,-2.0,-2.0,0.6696815,-2.0,2.0,0.12959102,-2.0,2.0,-2.0,2.0,2.0,-0.99913675,-2.0,-2.0,0.7004654,-2.0
2025-07-21 14:28:25.844,1.8800000000000012,1880,94,-0.1697649,0.24773754,-0.007910478,0.071157455,-0.012592192,-0.029930634,1.5,0.0,0.0,-0.03409679,-0.052252777,0.07584519,0.27813888,0.062312126,-0.26149106,0.19834714,0.038915467,-0.41507548,0.013551302,0.097180925,0.14954944,0.04922919,0.06930024,-0.059186745,0.11398811,0.06509389,-0.09293581,0.11798743,0.01595327,0.026216349,-0.17083141,-0.006299655,-0.10874015,0.08820048,2.0,0.12959102,-2.0,2.0,-2.0,2.0,2.0,-0.99913675,-2.0,-2.0,0.7004654,-2.0,2.0,-0.08818963,-2.0,2.0,-1.7374269,2.0,-2.0,-1.562991,2.0,-2.0,0.18445998,-2.0
2025-07-21 14:28:25.864,1.9000000000000012,1900,95,-0.124379545,0.058885347,-0.011416931,0.08499807,0.03246379,0.017829496,1.5,0.0,0.0,-0.034456745,-0.042794064,0.048320085,0.30493954,0.063675255,-0.30696726,0.22889234,0.03966338,-0.42012846,0.037897315,0.115714855,0.10697929,0.070165254,0.028927237,-0.051422454,0.0808312,-0.07784288,-0.06548863,0.035684552,0.012924445,0.031167597,0.08587961,0.045217793,-0.04985553,0.07650148,2.0,-0.08818963,-2.0,2.0,-1.7374269,2.0,-2.0,-1.562991,2.0,-2.0,0.18445998,-2.0,2.0,-1.9100772,-2.0,2.0,1.2638841,2.0,-2.0,-0.09643745,2.0,-2.0,-0.5954446,-2.0
2025-07-21 14:28:25.889,1.9200000000000013,1920,96,-0.035109922,-0.1255249,-0.082159676,0.09300943,0.030546013,-0.009151635,1.5,0.0,0.0,-0.034249768,-0.050573234,0.007852738,0.32677513,0.06630404,-0.31789315,0.22445466,0.0030767624,-0.36283773,0.0788005,0.12494185,0.08494822,0.08105183,-0.06829579,-0.086155154,0.04655338,0.0061910716,0.058580566,-0.012167946,-0.049982127,0.19374435,0.19726838,-0.03900051,-0.036524713,-0.016767487,2.0,-1.9100772,-2.0,2.0,1.2638841,2.0,-2.0,-0.09643745,2.0,-2.0,-0.5954446,-2.0,2.0,-0.7320879,-2.0,2.0,1.3916502,2.0,-2.0,-1.19303,2.0,-2.0,-1.3622555,-2.0
2025-07-21 14:28:25.906,1.9400000000000013,1940,97,0.18194462,-0.16248243,-0.12385343,0.07412731,0.009326206,-0.015069493,1.5,0.0,0.0,-0.033081055,-0.057393186,-0.035557978,0.32420015,0.092336565,-0.27315712,0.22101296,-0.025494214,-0.30912787,0.13538961,0.121429555,0.046891775,0.08117577,-0.0267406,-0.123605445,-0.03246064,-0.0382516,0.15012881,-0.02349646,-0.046130866,0.037941463,0.077509,-0.048424345,-0.12327018,0.092723675,2.0,-0.7320879,-2.0,2.0,1.3916502,2.0,-2.0,-1.19303,2.0,-2.0,-1.3622555,-2.0,2.0,-0.48251316,-2.0,2.0,2.0,2.0,-2.0,-1.495076,2.0,-2.0,-2.0,-2.0
2025-07-21 14:28:25.930,1.9600000000000013,1960,98,0.40026808,-0.09477119,-0.054659065,0.01892642,0.01719892,0.015393215,1.5,0.0,0.0,-0.031022364,-0.06846879,-0.079373345,0.3036393,0.10178739,-0.18546592,0.20248856,-0.048022345,-0.2883117,0.18075415,0.1212679,-0.0034577418,0.09683782,-0.05601452,-0.15745074,-0.10049323,0.034209866,0.28799188,-0.047999874,-0.050231066,-0.013989688,0.05163581,0.06290226,-0.11054365,0.12006492,2.0,-0.48251316,-2.0,2.0,2.0,2.0,-2.0,-1.495076,2.0,-2.0,-2.0,-2.0,2.0,-0.7628277,-2.0,2.0,2.0,2.0,-2.0,-1.3272444,2.0,-2.0,-2.0,-2.0
2025-07-21 14:28:25.956,1.9800000000000013,1980,99,0.37195677,-0.008465586,0.0014439389,0.05370294,0.0013065584,0.038549926,1.5,0.0,0.0,-0.029044282,-0.08987383,-0.13505593,0.26432735,0.09716217,-0.020278342,0.20575881,-0.06952625,-0.3036537,0.20330961,0.11354949,-0.06997129,0.12655526,-0.05012505,-0.12765922,-0.042403292,-0.0071861357,0.33851454,0.014103811,0.014368966,-0.16625981,0.035363633,0.017741537,-0.19588251,0.13118547,2.0,-0.7628277,-2.0,2.0,2.0,2.0,-2.0,-1.3272444,2.0,-2.0,-2.0,-2.0,2.0,-0.96906626,-2.0,2.0,2.0,2.0,-2.0,-0.5428908,2.0,-2.0,-0.89355713,-2.0
2025-07-21 14:28:25.974,2.0000000000000013,2000,100,0.16843908,0.04399393,-0.03228507,-0.028219195,0.049124576,-0.03755082,1.5,0.0,0.0,-0.027820315,-0.0857389,-0.17384297,0.2454995,0.08249402,0.14094111,0.2140693,-0.05941273,-0.3352071,0.22490738,0.11948594,-0.12292177,0.13649653,0.07549013,-0.041788466,-0.090328954,-0.077293135,0.37668043,0.017060725,0.011837056,-0.063635886,-0.0022353418,0.0012326447,-0.09427379,0.054634567,2.0,-0.96906626,-2.0,2.0,2.0,2.0,-2.0,-0.5428908,2.0,-2.0,-0.89355713,-2.0,2.0,-1.5251446,-2.0,2.0,2.0,2.0,-2.0,0.3631904,2.0,-2.0,-0.32117277,-2.0
2025-07-21 14:28:26.003,2.0200000000000014,2020,101,-0.09645467,0.06559525,0.016808359,0.03408894,0.027403098,0.023204938,1.5,0.0,0.0,-0.027781626,-0.08370334,-0.18655947,0.23348527,0.097459376,0.25943,0.23096399,-0.06939865,-0.33543774,0.21735217,0.12536164,-0.15613963,0.13596046,0.08123092,-0.040868882,0.03460511,0.0007366318,0.21856453,0.024200983,-0.05791692,0.13107887,0.047950972,-0.058799703,-0.0051582553,-0.064473614,2.0,-1.5251446,-2.0,2.0,2.0,2.0,-2.0,0.3631904,2.0,-2.0,-0.32117277,-2.0,2.0,-2.0,-2.0,2.0,2.0,2.0,-2.0,0.45879638,2.0,-2.0,-0.1545437,-2.0
2025-07-21 14:28:26.029,2.0400000000000014,2040,102,-0.13671905,0.06505699,-0.056130007,0.033174384,-0.011840924,0.049926043,1.5,0.0,0.0,-0.028187472,-0.06791689,-0.2077639,0.24673992,0.09026912,0.34279725,0.23959564,-0.0793255,-0.24306487,0.21989258,0.1311091,-0.15304434,0.11947062,-0.03689486,-0.11681118,0.077659965,-0.050547242,0.1026263,-0.029999837,0.0012952572,0.24887747,0.04723265,0.018087525,0.0684602,-0.04131319,2.0,-2.0,-2.0,2.0,2.0,2.0,-2.0,0.45879638,2.0,-2.0,-0.1545437,-2.0,2.0,-2.0,-2.0,2.0,2.0,2.0,-2.0,1.0748639,2.0,-2.0,-1.6179554,-2.0
2025-07-21 14:28:26.062,2.0600000000000014,2060,103,-0.027364157,0.1351196,-0.042521678,-0.02998628,0.050157532,-0.02390349,1.5,0.0,0.0,-0.02795952,-0.074460045,-0.22391526,0.24756491,0.0811253,0.39831272,0.23831035,-0.08402697,-0.14556709,0.22239798,0.1329484,-0.17308046,0.12829411,-0.022322848,0.002196252,0.031401012,-0.002323517,0.07520237,0.04922198,-0.06487008,0.3087844,-0.017635034,-0.04766567,-0.09488492,0.0030499585,2.0,-2.0,-2.0,2.0,2.0,2.0,-2.0,1.0748639,2.0,-2.0,-1.6179554,-2.0,2.0,-2.0,-2.0,-2.0,2.0,-2.0,-2.0,0.52098536,2.0,-2.0,-1.6314718,-2.0
2025-07-21 14:28:26.095,2.0800000000000014,2080,104,0.089255266,-0.004671399,-0.012528125,-0.025750311,0.052999627,-0.042545635,1.5,0.0,0.0,-0.027751999,-0.068553604,-0.26272318,0.24077621,0.05255039,0.43188712,0.16281824,-0.09781913,-0.06978783,0.21896887,0.13797787,-0.20546184,0.13348296,0.0016987352,-0.13969679,-0.07355226,-0.046921104,0.08781082,-0.36236355,-0.073471226,0.10653812,0.037081826,0.022239693,-0.1521454,-0.008847922,2.0,-2.0,-2.0,-2.0,2.0,-2.0,-2.0,0.52098536,2.0,-2.0,-1.6314718,-2.0,2.0,-2.0,2.0,-2.0,1.881652,-2.0,2.0,-0.4099208,-2.0,-2.0,-1.4555469,-2.0
2025-07-21 14:28:26.112,2.1000000000000014,2100,105,-0.10220455,-0.04443101,0.00034898255,0.025463825,0.05709874,0.0308439,1.5,0.0,0.0,-0.02773994,-0.06514057,-0.30399445,0.25786117,0.030445617,0.42974284,0.09337565,-0.10826396,-0.053828847,0.2189309,0.13974398,-0.22492947,0.1256876,0.10429324,-0.08633075,0.017062902,-0.058439333,-0.059739597,-0.03015959,-0.07187623,-0.05998733,-0.014467628,0.004885042,-0.055996027,0.042414587,2.0,-2.0,2.0,-2.0,1.881652,-2.0,2.0,-0.4099208,-2.0,-2.0,-1.4555469,-2.0,-2.0,-2.0,2.0,-2.0,0.07382719,-2.0,2.0,-0.95206314,-2.0,-2.0,-0.8661072,-2.0
2025-07-21 14:28:26.135,2.1200000000000014,2120,106,-0.09262668,-0.23826808,-0.010003667,0.055907216,0.016672608,0.013651682,1.5,0.0,0.0,-0.027990876,-0.05712416,-0.34234384,0.25271022,0.02308597,0.40605685,0.13909055,-0.12264306,-0.067281276,0.2063111,0.104818545,-0.23526104,0.11010024,-0.03621499,-0.033051535,0.083611496,-0.005266611,-0.14359863,0.055791188,-0.084319964,-0.08570998,-0.04948371,0.017773803,0.0109608,-0.03881776,-2.0,-2.0,2.0,-2.0,0.07382719,-2.0,2.0,-0.95206314,-2.0,-2.0,-0.8661072,-2.0,-2.0,-2.0,2.0,-2.0,0.6875733,-2.0,2.0,-0.52610695,-2.0,2.0,-0.89604765,-2.0
2025-07-21 14:28:26.156,2.1400000000000015,2140,107,-0.21285367,-0.07268252,0.035134334,0.009791475,0.06403179,-0.035648834,1.5,0.0,0.0,-0.028610379,-0.07025125,-0.36850375,0.2625486,0.0010591445,0.36882803,0.17235708,-0.13418466,-0.08528721,0.19772503,0.09951603,-0.24715629,0.06262602,0.0470435,-0.111748464,0.051404737,-0.073800765,-0.06786763,0.14886403,0.040106237,0.025451234,0.01470346,-0.08509881,-0.02734464,-0.021535268,-2.0,-2.0,2.0,-2.0,0.6875733,-2.0,2.0,-0.52610695,-2.0,2.0,-0.89604765,-2.0,-2.0,-2.0,2.0,-2.0,-0.7927157,-2.0,2.0,-1.1842676,-2.0,2.0,-0.63810617,-2.0
2025-07-21 14:28:26.173,2.1600000000000015,2160,108,-0.13720492,-0.138313,0.06635644,0.09332241,0.039945647,0.04616685,1.5,0.0,0.0,-0.029306596,-0.06532624,-0.40415716,0.26450282,0.020655531,0.327611,0.19105804,-0.12567139,-0.0956484,0.19447774,0.09197646,-0.24933815,0.04182367,0.024993079,-0.110036194,0.007285867,-0.05337567,-0.11228366,0.11793428,-0.073132485,-0.056733772,0.039061967,-0.05001933,-0.07627644,-0.13067897,-2.0,-2.0,2.0,-2.0,-0.7927157,-2.0,2.0,-1.1842676,-2.0,2.0,-0.63810617,-2.0,-2.0,-2.0,2.0,-2.0,0.4423247,-2.0,2.0,-1.4557528,-2.0,2.0,-0.7223961,-2.0
2025-07-21 14:28:26.192,2.1800000000000015,2180,109,-0.05056309,-0.1225988,0.026192056,0.039381366,0.10007912,0.02754135,1.5,0.0,0.0,-0.029828899,-0.063380994,-0.4324417,0.26355767,0.022162337,0.28727344,0.21210186,-0.13925077,-0.13018496,0.1853005,0.091903225,-0.25126636,-0.0038908813,0.07716141,-0.0107307965,-0.026506064,-0.0366852,-0.037798595,0.033459134,0.023336388,-0.04550316,-0.0005865582,-0.0003221203,0.012985011,-0.092129566,-2.0,-2.0,2.0,-2.0,0.4423247,-2.0,2.0,-1.4557528,-2.0,2.0,-0.7223961,-2.0,-2.0,-1.8682467,2.0,-2.0,-0.13428213,-2.0,2.0,-1.5008488,-2.0,2.0,-0.7532516,2.0
2025-07-21 14:28:26.212,2.2000000000000015,2200,110,-0.055124,-0.033440255,0.0010546448,0.10375573,0.07116159,-0.03841313,1.5,0.0,0.0,-0.029851915,-0.0722475,-0.44408315,0.24693789,0.020239554,0.25357074,0.21849163,-0.12679689,-0.15596266,0.17697182,0.08908583,-0.24785805,0.024640132,-0.06405788,-0.03978987,-0.077372745,-0.006003772,-0.10008774,-0.021925444,0.026151136,-0.14619139,-0.02653803,0.07068361,-0.025570901,0.20288946,-2.0,-1.8682467,2.0,-2.0,-0.13428213,-2.0,2.0,-1.5008488,-2.0,2.0,-0.7532516,2.0,-2.0,-0.71222514,2.0,-2.0,0.011394519,-2.0,2.0,-1.5604999,-2.0,2.0,0.07091093,2.0
2025-07-21 14:28:26.240,2.2200000000000015,2220,111,-0.03786149,0.03787974,-0.003203029,0.06488694,0.06983546,-0.010558154,1.5,0.0,0.0,-0.029500159,-0.05701844,-0.46136558,0.2318113,0.031254936,0.22073661,0.21776292,-0.11451306,-0.20236616,0.18423516,0.09737344,-0.20752466,0.06919865,-0.035756037,-0.037035912,0.033025283,0.0023085754,-0.07652298,-0.024791446,0.050508577,-0.038552437,-0.08409366,0.04947506,0.14522183,0.18959172,-2.0,-0.71222514,2.0,-2.0,0.011394519,-2.0,2.0,-1.5604999,-2.0,2.0,0.07091093,2.0,-2.0,-0.4904047,2.0,-2.0,0.7117296,-2.0,2.0,-1.6916299,-2.0,2.0,-0.9756423,2.0
2025-07-21 14:28:26.256,2.2400000000000015,2240,112,0.070612594,0.08481638,0.0032511272,0.012774091,0.08907107,0.0039448473,1.5,0.0,0.0,-0.02928528,-0.053078514,-0.446398,0.230674,0.0507812,0.16910766,0.20016739,-0.10022157,-0.23598799,0.174067,0.09804071,-0.18013659,0.1344367,-0.038089167,0.043824356,0.010323204,0.08167588,-0.1626324,-0.064280234,8.079372e-05,-0.054589503,-0.07347234,-0.012213423,-0.019437471,0.16858578,-2.0,-0.4904047,2.0,-2.0,0.7117296,-2.0,2.0,-1.6916299,-2.0,2.0,-0.9756423,2.0,-2.0,0.7882891,2.0,-2.0,0.7163248,-2.0,2.0,-1.3615625,-2.0,2.0,-0.64453304,2.0
2025-07-21 14:28:26.274,2.2600000000000016,2260,113,-0.01360335,0.16546848,0.035141375,0.056421682,0.074662924,0.03454714,1.5,0.0,0.0,-0.029285664,-0.06438614,-0.42743027,0.21306242,0.06604321,0.14805841,0.20402373,-0.082078755,-0.25009644,0.14883114,0.089167126,-0.1686539,0.16574393,-0.008194827,0.118949205,-0.0912775,0.08712024,-0.10464582,-0.03905546,0.07150585,-0.028683657,0.028230343,-0.043531004,0.008694619,0.1268815,-2.0,0.7882891,2.0,-2.0,0.7163248,-2.0,2.0,-1.3615625,-2.0,2.0,-0.64453304,2.0,-2.0,2.0,2.0,-2.0,-0.026263189,-2.0,2.0,-2.0,-2.0,2.0,-0.430184,2.0
2025-07-21 14:28:26.293,2.2800000000000016,2280,114,0.0818678,0.20201325,0.06300446,0.0046145944,0.053740658,0.007807637,1.5,0.0,0.0,-0.02954097,-0.07560099,-0.36342475,0.19843814,0.07356384,0.11141754,0.19273835,-0.055435814,-0.2727556,0.14236943,0.07640026,-0.14591712,0.19523667,-0.07531675,0.16809,-0.046143565,0.123473294,-0.07380075,0.009430871,0.08693447,-0.03686278,-0.11286287,-0.0144184735,0.03265228,0.0383763,-2.0,2.0,2.0,-2.0,-0.026263189,-2.0,2.0,-2.0,-2.0,2.0,-0.430184,2.0,-2.0,2.0,2.0,-2.0,-0.961188,-2.0,2.0,-2.0,-2.0,2.0,0.23514593,2.0
2025-07-21 14:28:26.313,2.3000000000000016,2300,115,0.14653073,0.17186938,0.024714792,0.04968208,0.030924443,0.01947966,1.5,0.0,0.0,-0.030140482,-0.07932502,-0.28501126,0.19182058,0.11189674,0.08572729,0.1709061,-0.047296483,-0.29469872,0.1143937,0.06567069,-0.09918969,0.20177731,0.02627831,0.27594817,-0.078713514,0.047405466,-0.04849643,-0.08367261,0.10433592,-0.039482396,-0.06020707,0.016100513,0.11270691,-0.0152208395,-2.0,2.0,2.0,-2.0,-0.961188,-2.0,2.0,-2.0,-2.0,2.0,0.23514593,2.0,-2.0,2.0,2.0,-2.0,-0.894337,-2.0,2.0,-2.0,-2.0,2.0,0.3740592,2.0
2025-07-21 14:28:26.338,2.3200000000000016,2320,116,0.24845646,0.15566783,0.034971938,-0.008102504,-0.012069615,-0.0036351641,1.5,0.0,0.0,-0.031231914,-0.10578072,-0.1313639,0.19204336,0.124398485,0.049764648,0.14940071,-0.042286847,-0.3194259,0.106505126,0.07899566,-0.04481452,0.21650638,0.011662449,0.44792354,0.04865763,0.10891644,-0.16734512,-0.061115015,-0.047515616,-0.09920641,-0.05847098,-0.05028629,0.094883665,0.00020510613,-2.0,2.0,2.0,-2.0,-0.894337,-2.0,2.0,-2.0,-2.0,2.0,0.3740592,2.0,-2.0,2.0,2.0,-2.0,-0.57125026,-2.0,2.0,-2.0,-2.0,2.0,0.6487379,2.0
2025-07-21 14:28:26.356,2.3400000000000016,2340,117,0.18932956,-0.002527405,0.07563881,-0.020162158,-0.033150382,0.023656165,1.5,0.0,0.0,-0.032753572,-0.10049982,0.04397945,0.20736666,0.14094552,0.012720885,0.14076748,-0.04062591,-0.3571301,0.10525196,0.065295085,-0.0015017361,0.23046751,0.07323299,0.4063605,0.08724681,0.030501375,-0.16302522,-0.054354846,-0.006039145,-0.13307416,0.05501813,-0.035462257,0.15806109,-0.061334305,-2.0,2.0,2.0,-2.0,-0.57125026,-2.0,2.0,-2.0,-2.0,2.0,0.6487379,2.0,-2.0,2.0,2.0,-2.0,-1.1210985,-2.0,2.0,-2.0,-2.0,2.0,1.0610615,2.0
2025-07-21 14:28:26.375,2.3600000000000017,2360,118,0.15499741,-0.012138431,0.09298434,-0.02699215,0.034263127,0.008820888,1.5,0.0,0.0,-0.034322575,-0.098857686,0.19515665,0.2085353,0.13114269,-0.025537403,0.11432031,-0.040643007,-0.4136575,0.11825712,0.054753065,0.07330489,0.22725151,0.044891372,0.2725373,-0.019345257,0.071002334,-0.15464793,-0.04917146,0.03024761,-0.16811623,-0.033315286,0.051007804,0.20263705,-0.028793922,-2.0,2.0,2.0,-2.0,-1.1210985,-2.0,2.0,-2.0,-2.0,2.0,1.0610615,2.0,-2.0,2.0,-2.0,-2.0,-0.87865907,2.0,2.0,-2.0,-2.0,2.0,1.0362538,-2.0
2025-07-21 14:28:26.393,2.3800000000000017,2380,119,-0.12501359,0.0015378346,-0.0025644025,-0.029711561,-0.037562113,-0.026393631,1.5,0.0,0.0,-0.035853382,-0.080471255,0.31006625,0.13633373,0.118875235,-0.07559109,0.14165565,-0.045860488,-0.44579846,0.118498616,0.072300375,0.1096395,0.17912994,0.06628766,0.31280953,-0.23890585,-0.09210315,-0.15235712,0.16748936,0.041225538,-0.014758806,-0.03717245,0.020270376,-0.012497786,-0.12133819,-2.0,2.0,-2.0,-2.0,-0.87865907,2.0,2.0,-2.0,-2.0,2.0,1.0362538,-2.0,-1.1886162,2.0,-2.0,2.0,-2.0,2.0,2.0,-1.4319704,-2.0,-2.0,0.4374337,-2.0
2025-07-21 14:28:26.413,2.4000000000000017,2400,120,-0.30029196,0.08840283,-0.08942552,-0.035535008,0.0061126836,-0.027288387,1.5,0.0,0.0,-0.036365777,-0.09590836,0.35542056,0.09242243,0.10119312,-0.13091819,0.18742381,-0.040000144,-0.44281256,0.08634584,0.07980812,0.12642081,0.17109554,-0.003309906,-0.037605006,0.0068252487,0.045548044,-0.11298758,0.13846344,-0.0026713961,0.04377314,-0.110750735,-0.034134973,0.02894406,0.047219757,-1.1886162,2.0,-2.0,2.0,-2.0,2.0,2.0,-1.4319704,-2.0,-2.0,0.4374337,-2.0,2.0,0.24791357,-2.0,2.0,-2.0,2.0,2.0,-1.2264295,-2.0,-2.0,-0.5871485,-2.0
2025-07-21 14:28:26.439,2.4200000000000017,2420,121,-0.2851312,0.25286677,-0.09005965,0.0062374524,0.031140381,-0.025482181,1.5,0.0,0.0,-0.035195284,-0.07983263,0.3429572,0.120640025,0.112320326,-0.21121298,0.23291203,-0.019993896,-0.4283248,0.06628231,0.08598152,0.115133025,0.18313132,0.001834379,-0.11557212,0.050579824,-0.05647188,-0.15646596,0.017744564,0.095387,0.12484288,-0.13168381,-0.023462795,0.014015559,0.08863637,2.0,0.24791357,-2.0,2.0,-2.0,2.0,2.0,-1.2264295,-2.0,-2.0,-0.5871485,-2.0,2.0,0.5733119,-2.0,2.0,-2.0,2.0,-2.0,-1.518055,-2.0,-2.0,-0.6881277,-2.0
2025-07-21 14:28:26.457,2.4400000000000017,2440,122,-0.20134196,0.17262667,-0.024139814,0.017989326,0.019529037,-0.016992837,1.5,0.0,0.0,-0.03420981,-0.0769869,0.3065809,0.16580944,0.09732814,-0.27421093,0.2604271,-0.011918657,-0.3949507,0.009723427,0.10255012,0.080911584,0.20307358,0.050308064,-0.08662912,0.031942528,-0.018721528,-0.14420149,0.118060976,0.071754314,0.10307115,-0.11695211,0.047225803,-0.012062249,-0.006503919,2.0,0.5733119,-2.0,2.0,-2.0,2.0,-2.0,-1.518055,-2.0,-2.0,-0.6881277,-2.0,2.0,0.071495414,-2.0,2.0,-2.0,2.0,-2.0,-0.6551032,-2.0,-2.0,0.12332547,-2.0
2025-07-21 14:28:26.473,2.4600000000000017,2460,123,-0.1822798,0.13790077,0.020178452,0.052865222,-0.014096192,-0.04912519,1.5,0.0,0.0,-0.03403738,-0.07607466,0.28534347,0.19715714,0.101458944,-0.32812497,0.27196148,-0.011108308,-0.37165654,-0.01744489,0.10631036,0.071745485,0.19538172,0.047055796,-0.107926935,0.061596822,-0.00671633,-0.16518529,0.042155482,0.010302533,0.037461568,-0.19494365,-0.0043688514,-0.037710384,-0.06837386,2.0,0.071495414,-2.0,2.0,-2.0,2.0,-2.0,-0.6551032,-2.0,-2.0,0.12332547,-2.0,2.0,-0.05377987,-2.0,2.0,-1.8098115,2.0,-2.0,-0.80316806,-2.0,-2.0,0.0906789,-2.0
2025-07-21 14:28:26.494,2.4800000000000018,2480,124,-0.20466976,0.123696454,-0.055778936,0.080575846,-0.024591772,-0.023501078,1.5,0.0,0.0,-0.034459736,-0.0891295,0.26597938,0.2224604,0.094708756,-0.3558747,0.28457928,-0.022123389,-0.3464024,-0.07115032,0.087682866,0.045719307,0.19925927,-0.015443754,-0.062365953,0.10079302,-0.050505575,-0.0974206,-0.02742868,-0.00614594,0.14188485,-0.16988693,0.05399215,-0.05636183,0.048148103,2.0,-0.05377987,-2.0,2.0,-1.8098115,2.0,-2.0,-0.80316806,-2.0,-2.0,0.0906789,-2.0,2.0,0.3668879,-2.0,2.0,-0.84783083,2.0,-2.0,-1.1541018,-2.0,-2.0,-0.53108346,-2.0
2025-07-21 14:28:26.514,2.5000000000000018,2500,125,-0.08737642,0.02966888,-0.014396859,0.13216011,-0.08282186,-9.08998e-05,1.5,0.0,0.0,-0.034910496,-0.091552496,0.2289488,0.23592694,0.09323734,-0.37034643,0.2821323,-0.032712515,-0.32169428,-0.13257672,0.08090919,0.031881813,0.18561797,-0.04040892,-0.037660785,0.04250895,0.034255363,0.020020934,-0.067627184,-0.0016190826,0.012755265,-0.09312993,-0.05279383,-0.05558889,0.0147458855,2.0,0.3668879,-2.0,2.0,-0.84783083,2.0,-2.0,-1.1541018,-2.0,-2.0,-0.53108346,-2.0,2.0,-0.27151194,-2.0,2.0,-1.6248894,2.0,-2.0,-1.1539402,2.0,-2.0,-0.43989986,-2.0
2025-07-21 14:28:26.539,2.520000000000002,2520,126,-0.03583218,0.0052078664,0.0053554475,0.13512315,-0.031553097,-0.0021451686,1.5,0.0,0.0,-0.035301093,-0.103214756,0.20957734,0.2266684,0.08882723,-0.3917823,0.28994992,-0.028371196,-0.32293776,-0.09610344,0.07754576,0.0094949575,0.18906681,-0.032098264,-0.080768354,-0.0621631,-0.03756268,-0.005230261,-0.001057824,-0.09356556,0.08639651,0.15232934,0.020916888,-0.065312125,0.0052458085,2.0,-0.27151194,-2.0,2.0,-1.6248894,2.0,-2.0,-1.1539402,2.0,-2.0,-0.43989986,-2.0,2.0,-1.8372028,-2.0,2.0,1.8518538,2.0,-2.0,-0.44307363,2.0,-2.0,-1.3646322,-2.0
2025-07-21 14:28:26.556,2.540000000000002,2540,127,0.13351229,-0.14033139,-0.020009477,0.05818887,-0.042150535,6.1257364e-05,1.5,0.0,0.0,-0.035508096,-0.09813118,0.16972487,0.22287545,0.06508167,-0.40426356,0.27196154,-0.058397137,-0.28437367,0.0054583377,0.0652775,-0.01358878,0.18574263,-0.025308559,-0.106360264,0.020908242,-0.015447046,-0.05318801,0.01011392,-0.095957845,0.09464765,0.27649307,-0.01831392,-0.083849914,-0.08664029,2.0,-1.8372028,-2.0,2.0,1.8518538,2.0,-2.0,-0.44307363,2.0,-2.0,-1.3646322,-2.0,2.0,-0.9097722,-2.0,2.0,2.0,2.0,-2.0,-2.0,2.0,-2.0,-2.0,-2.0
2025-07-21 14:28:26.574,2.560000000000002,2560,128,0.28971478,-0.18867736,-0.1219602,0.053126734,-0.025650727,0.017468443,1.5,0.0,0.0,-0.026767539,-0.11207067,0.10805708,0.21018828,0.06666554,-0.3893363,0.24520305,-0.06520575,-0.2869426,0.08661341,0.055390608,-0.06638143,0.19493215,-0.12256525,-0.14291579,-0.13876538,0.0451413,0.10843237,-0.09106866,0.033076666,-0.09523119,0.13309532,-0.016859384,-0.12208521,0.017827794,2.0,-0.9097722,-2.0,2.0,2.0,2.0,-2.0,-2.0,2.0,-2.0,-2.0,-2.0,2.0,0.01820275,-2.0,2.0,2.0,2.0,-2.0,-2.0,2.0,-2.0,-2.0,-2.0
2025-07-21 14:28:26.595,2.580000000000002,2580,129,0.32079166,-0.2381736,-0.06971782,0.051734503,-0.031764165,0.035671324,1.5,0.0,0.0,-0.016643947,-0.14082886,0.06662754,0.178605,0.0861702,-0.3110462,0.20866235,-0.07561889,-0.31547323,0.14575668,0.051416203,-0.10718461,0.17886467,0.0015112169,-0.11503388,-0.10189443,0.092462644,0.34255534,-0.11089312,-0.014376665,-0.11424695,0.1131435,-0.0606921,-0.12778151,-0.06163424,2.0,0.01820275,-2.0,2.0,2.0,2.0,-2.0,-2.0,2.0,-2.0,-2.0,-2.0,2.0,-0.031801254,-2.0,2.0,2.0,2.0,-2.0,-2.0,2.0,-2.0,-2.0,-2.0
2025-07-21 14:28:26.614,2.600000000000002,2600,130,0.38352722,-0.106176265,-0.088707834,0.0685348,0.011584546,0.012285472,1.5,0.0,0.0,-0.006175534,-0.14918873,0.028914113,0.14645948,0.09808401,-0.16655649,0.21342738,-0.061826356,-0.35492158,0.17329288,0.04462821,-0.15543462,0.17828225,0.033098042,-0.110788584,-0.14512335,0.06700893,0.37299365,0.030920558,0.023701476,-0.06747174,0.018203804,-0.038926058,-0.15614036,0.038844503,2.0,-0.031801254,-2.0,2.0,2.0,2.0,-2.0,-2.0,2.0,-2.0,-2.0,-2.0,2.0,-0.09364012,-2.0,2.0,2.0,2.0,-2.0,-1.6542492,2.0,-2.0,-2.0,-2.0
2025-07-21 14:28:26.639,2.620000000000002,2620,131,0.37168702,-0.02579614,-0.10925286,-0.040849198,-0.022040153,0.00835723,1.5,0.0,0.0,0.0040018326,-0.15558821,-0.021052832,0.10978072,0.09788222,0.0021227088,0.20656568,-0.06528546,-0.35646158,0.2098122,0.04708911,-0.2177379,0.19585481,0.07037304,-0.03360969,-0.0044527426,-0.009667974,0.45614398,0.007515906,0.015143513,-0.010033136,0.1018291,0.027189692,-0.14250441,-0.035137363,2.0,-0.09364012,-2.0,2.0,2.0,2.0,-2.0,-1.6542492,2.0,-2.0,-2.0,-2.0,2.0,-0.32585815,-2.0,2.0,2.0,2.0,-2.0,-1.1392113,2.0,-2.0,-2.0,-2.0
2025-07-21 14:28:26.656,2.640000000000002,2640,132,0.29025275,0.038690023,-0.053512722,-0.041811068,0.04010817,-0.025370402,1.5,0.0,0.0,0.013503832,-0.14317173,-0.04882064,0.080748536,0.09018861,0.16394104,0.20986037,-0.07392189,-0.34027225,0.20912662,0.058565315,-0.27065653,0.2081799,-0.03046218,-0.13182022,-0.057887614,0.021662736,0.29038486,0.0302084,-0.003780138,0.023428023,-0.042367503,-0.03232881,-0.20465095,0.089471765,2.0,-0.32585815,-2.0,2.0,2.0,2.0,-2.0,-1.1392113,2.0,-2.0,-2.0,-2.0,2.0,-0.93695426,-2.0,2.0,2.0,2.0,-2.0,-0.49602568,2.0,-2.0,-1.7222646,-2.0
2025-07-21 14:28:26.675,2.660000000000002,2660,133,0.13071509,-0.0020933913,-0.05029208,-0.077807225,-0.053288363,0.00914104,1.5,0.0,0.0,0.022325646,-0.14781302,-0.094871104,0.06807633,0.07491036,0.28140682,0.22296032,-0.074056275,-0.29090208,0.21743901,0.07929869,-0.32656714,0.20786239,-0.051806495,-0.043587003,-0.0133874025,0.04256856,0.29979983,0.012447671,-0.016552763,0.16186632,0.08691012,0.08262207,-0.04061272,-0.05875834,2.0,-0.93695426,-2.0,2.0,2.0,2.0,-2.0,-0.49602568,2.0,-2.0,-1.7222646,-2.0,2.0,-2.0,-2.0,2.0,2.0,2.0,-2.0,-0.18424237,2.0,-2.0,-1.830527,-2.0
2025-07-21 14:28:26.694,2.680000000000002,2680,134,-0.01577338,0.09970499,0.032289516,-0.10217469,-0.009027802,-0.024430636,1.5,0.0,0.0,0.030772788,-0.14353873,-0.127297,0.081495926,0.08649557,0.3578942,0.22260055,-0.07244645,-0.29428223,0.23645392,0.08618352,-0.35778993,0.20519674,0.07533227,-0.115780294,-0.037630435,-0.056011442,0.10473335,-0.007855667,-0.0055625373,-0.021335343,0.016675208,-0.025681894,-0.03542914,0.0070945607,2.0,-2.0,-2.0,2.0,2.0,2.0,-2.0,-0.18424237,2.0,-2.0,-1.830527,-2.0,2.0,-2.0,-2.0,2.0,2.0,2.0,-2.0,-0.27219665,2.0,-2.0,-1.5368686,-2.0
2025-07-21 14:28:26.714,2.700000000000002,2700,135,-0.0569135,0.0047455467,0.056969177,-0.024063202,-0.0038128854,0.0013646322,1.5,0.0,0.0,0.03832198,-0.12037204,-0.14501508,0.094634764,0.07085694,0.4047492,0.24041802,-0.09012571,-0.24768585,0.24231744,0.10177191,-0.3774965,0.20576593,-0.014574204,-0.024684837,0.03537014,-0.008067482,0.16158202,0.051224813,-0.06449987,0.18701129,0.005736164,-0.0149464,-0.06396287,0.02741686,2.0,-2.0,-2.0,2.0,2.0,2.0,-2.0,-0.27219665,2.0,-2.0,-1.5368686,-2.0,2.0,-2.0,-2.0,-2.0,2.0,-2.0,-2.0,0.4283163,2.0,-2.0,-1.7982711,-2.0
2025-07-21 14:28:26.739,2.720000000000002,2720,136,-0.106454924,-0.044393264,-0.015978564,-0.066302836,-0.033063818,0.0008631883,1.5,0.0,0.0,0.04570798,-0.12359218,-0.20171319,0.113434404,0.061139032,0.45163217,0.15442306,-0.08764681,-0.19318973,0.2295149,0.10366041,-0.3838302,0.18968138,0.020072978,-0.1360931,0.07747179,-0.13629887,0.12996829,-0.3588665,0.014489106,0.09865396,0.0152748935,-0.05247263,-0.061185658,-0.0104573425,2.0,-2.0,-2.0,-2.0,2.0,-2.0,-2.0,0.4283163,2.0,-2.0,-1.7982711,-2.0,2.0,-2.0,2.0,-2.0,1.1500372,-2.0,2.0,-0.050431482,-2.0,-2.0,-1.4900066,-2.0
2025-07-21 14:28:26.756,2.740000000000002,2740,137,-0.38785607,0.023100188,0.09236753,0.029338269,0.023354862,-0.03901338,1.5,0.0,0.0,0.053164516,-0.099283375,-0.23786333,0.15340957,0.021824667,0.43131584,0.07312822,-0.093343884,-0.16123477,0.21433417,0.096516505,-0.39184582,0.16216816,0.1607783,-0.12010048,0.0842799,-0.010251502,0.012445557,-0.10546584,0.066361286,0.049877632,-0.024925677,-0.05658477,-0.0143995965,-0.11275305,2.0,-2.0,2.0,-2.0,1.1500372,-2.0,2.0,-0.050431482,-2.0,-2.0,-1.4900066,-2.0,-2.0,-2.0,2.0,-2.0,0.16101323,-2.0,2.0,-0.66238165,-2.0,-2.0,-0.5632633,-2.0
2025-07-21 14:28:26.775,2.760000000000002,2760,138,-0.47111583,-0.25527313,0.023684971,0.022968268,-0.0224956,-0.0003961082,1.5,0.0,0.0,0.059733722,-0.08891299,-0.2895401,0.21265098,0.020232242,0.41948202,0.107014,-0.10493128,-0.14788702,0.20429312,0.090797566,-0.3583716,0.112969756,0.06848344,-0.04995551,0.07854257,0.0017434593,-0.13375452,0.107610434,-0.048765678,0.062196113,-0.023677511,-0.032180794,0.13305335,-0.15144718,-2.0,-2.0,2.0,-2.0,0.16101323,-2.0,2.0,-0.66238165,-2.0,-2.0,-0.5632633,-2.0,-2.0,-2.0,2.0,-2.0,-0.57535434,-2.0,2.0,-0.2802602,-2.0,2.0,-0.6399395,-2.0
2025-07-21 14:28:26.795,2.780000000000002,2780,139,-0.3547813,-0.12896295,0.050310727,0.0522579,0.06060574,0.0022647816,1.5,0.0,0.0,0.06594616,-0.088386156,-0.32543823,0.2420238,0.028598558,0.38671938,0.17501861,-0.11954078,-0.13739964,0.17422841,0.07532015,-0.3343284,0.06389641,0.052519217,-0.12665805,0.04246861,-0.029851545,-0.14132452,0.14673387,0.02420858,0.091560625,-0.035364397,-0.08739938,0.013668712,-0.11090733,-2.0,-2.0,2.0,-2.0,-0.57535434,-2.0,2.0,-0.2802602,-2.0,2.0,-0.6399395,-2.0,-2.0,-2.0,2.0,-2.0,-1.53712,-2.0,2.0,-0.6931929,-2.0,2.0,-0.72003806,-2.0
2025-07-21 14:28:26.815,2.800000000000002,2800,140,-0.20570317,-0.14922197,0.07184699,0.11663422,0.041453287,-0.038591,1.5,0.0,0.0,0.07215651,-0.0891697,-0.35933793,0.26600653,0.046162643,0.34139726,0.23088618,-0.11356782,-0.12865879,0.16538282,0.052143086,-0.3101193,0.013157144,0.089091055,-0.050275847,0.09826453,0.058315556,-0.17317507,0.06920956,-0.025289522,-0.02384807,-0.052928127,0.051169302,0.070949905,-0.19399619,-2.0,-2.0,2.0,-2.0,-1.53712,-2.0,2.0,-0.6931929,-2.0,2.0,-0.72003806,-2.0,-2.0,-2.0,2.0,-2.0,-0.43093416,-2.0,2.0,-0.41946173,-2.0,2.0,-0.7076312,-2.0
2025-07-21 14:28:26.840,2.820000000000002,2820,141,-0.2583009,-0.14832646,0.10888577,0.09718254,0.04532065,-0.0034391114,1.5,0.0,0.0,0.07817589,-0.09058392,-0.40854034,0.27570203,0.05923991,0.28098118,0.24959171,-0.10672209,-0.15178333,0.129786,0.04954692,-0.29503974,-0.05173023,0.011791358,-0.011064689,0.054014012,0.098789,-0.053223666,0.07424075,-0.07623619,-0.048261307,-0.12688887,0.03588392,0.07165778,-0.075012386,-2.0,-2.0,2.0,-2.0,-0.43093416,-2.0,2.0,-0.41946173,-2.0,2.0,-0.7076312,-2.0,-2.0,-2.0,2.0,-2.0,-0.7586332,-2.0,2.0,-0.69084096,-2.0,2.0,-0.83992696,2.0
2025-07-21 14:28:26.856,2.840000000000002,2840,142,-0.12756073,-0.1366801,0.07725259,0.053686403,0.009759944,0.02377741,1.5,0.0,0.0,0.08411191,-0.06728394,-0.4315022,0.28288832,0.06697519,0.23073447,0.2637261,-0.117610246,-0.15659559,0.1242724,0.053145602,-0.2823776,-0.022437554,-0.03629843,-0.13581158,-0.06377057,0.004396227,-0.121115215,-0.0463503,-0.011799878,-0.10682914,-0.046113346,-0.00630813,-0.0008249932,0.085843,-2.0,-2.0,2.0,-2.0,-0.7586332,-2.0,2.0,-0.69084096,-2.0,2.0,-0.83992696,2.0,-2.0,-1.6431907,2.0,-2.0,-0.9850921,-2.0,2.0,-0.7916822,-2.0,2.0,0.14395294,2.0
2025-07-21 14:28:26.875,2.860000000000002,2860,143,-0.12049612,-0.11390737,0.07402474,0.122992426,0.017327862,-0.038344942,1.5,0.0,0.0,0.09001299,-0.060133282,-0.47632667,0.26597646,0.09589499,0.18021479,0.2682374,-0.12864158,-0.18651196,0.113354355,0.06213657,-0.24117836,0.042990074,-0.038240004,-0.022852192,0.03474747,-0.0029322596,-0.11926806,-0.00033783258,-0.08097371,-0.12554625,-0.06435708,-0.039342858,0.2092,0.118807666,-2.0,-1.6431907,2.0,-2.0,-0.9850921,-2.0,2.0,-0.7916822,-2.0,2.0,0.14395294,2.0,-2.0,-1.1135916,2.0,-2.0,-0.5900219,-2.0,2.0,-0.7120695,-2.0,2.0,-0.7583836,2.0
2025-07-21 14:28:26.895,2.880000000000002,2880,144,-0.063490614,-0.040865492,0.15889488,0.0733536,0.082737595,0.029413495,1.5,0.0,0.0,0.0955588,-0.04842468,-0.48868838,0.2659084,0.10568562,0.12143789,0.2728168,-0.12855938,-0.20228432,0.08577451,0.055772778,-0.19330065,0.09991504,-0.032658294,-0.0889189,-0.097845726,0.08874102,-0.1277384,-0.03020372,0.015190888,-0.030370835,-0.02925134,0.02206912,0.13719434,0.17525794,-2.0,-1.1135916,2.0,-2.0,-0.5900219,-2.0,2.0,-0.7120695,-2.0,2.0,-0.7583836,2.0,-2.0,-0.10393074,2.0,-2.0,1.0451392,-2.0,2.0,-1.3291225,-2.0,2.0,-1.0532655,2.0
2025-07-21 14:28:26.921,2.900000000000002,2900,145,0.0363855,-0.011533318,0.098582745,0.08313441,0.06273634,-0.015682338,1.5,0.0,0.0,0.100462556,-0.047890216,-0.50837696,0.24428867,0.11177412,0.08006143,0.24507295,-0.13747253,-0.22171295,0.07066018,0.054584894,-0.16410086,0.14421898,0.06386608,-0.0802896,-0.10199415,-0.02615559,-0.12036968,-0.020667361,-0.06547575,-0.097776525,-0.10605834,0.05727301,0.08139862,0.11530086,-2.0,-0.10393074,2.0,-2.0,1.0451392,-2.0,2.0,-1.3291225,-2.0,2.0,-1.0532655,2.0,-2.0,2.0,2.0,-2.0,0.30681592,-2.0,2.0,-1.5393206,-2.0,2.0,-1.1877643,2.0
2025-07-21 14:28:26.946,2.920000000000002,2920,146,0.005120627,0.02067127,0.13985635,0.08449858,0.07272257,0.012764867,1.5,0.0,0.0,0.10548332,-0.025191562,-0.5118974,0.21106416,0.12646133,0.03763241,0.21084651,-0.13226746,-0.23740628,0.036543496,0.055889793,-0.18195915,0.1788701,0.011492352,-0.008002788,-0.15853877,0.011004933,-0.04693674,-0.09598444,-0.052932106,0.03759047,-0.11522959,-0.035614744,-0.001038998,0.055001203,-2.0,2.0,2.0,-2.0,0.30681592,-2.0,2.0,-1.5393206,-2.0,2.0,-1.1877643,2.0,-2.0,2.0,2.0,-2.0,-0.88252217,-2.0,2.0,-2.0,-2.0,2.0,-1.0395206,2.0
2025-07-21 14:28:26.977,2.940000000000002,2940,147,0.12529697,-0.0068519064,0.17342581,0.13578111,0.060618468,0.001742318,1.5,0.0,0.0,0.11100313,-0.019955968,-0.5101689,0.16605042,0.14451343,0.007872172,0.18536593,-0.11057423,-0.26508516,0.015316595,0.06870187,-0.1869365,0.20446184,-0.043592446,0.015047366,-0.07388834,0.06259007,-0.088510476,-0.1442588,0.053286888,-0.15908074,-0.027680758,-0.05515204,0.0018660281,-0.012828227,-2.0,2.0,2.0,-2.0,-0.88252217,-2.0,2.0,-2.0,-2.0,2.0,-1.0395206,2.0,-2.0,2.0,2.0,-2.0,-0.015847515,-2.0,2.0,-2.0,-2.0,2.0,-0.49723184,2.0
2025-07-21 14:28:26.993,2.960000000000002,2960,148,0.060267642,-0.06831892,0.15405871,0.06368978,0.09646986,0.037944213,1.5,0.0,0.0,0.11635987,-0.028299185,-0.49523062,0.13431932,0.1484481,-0.0071504144,0.14576612,-0.09398309,-0.3004862,-0.035273686,0.050361227,-0.17134775,0.22027469,0.011241631,-0.02649527,-0.15919778,-0.051858842,0.007849131,-0.10312046,0.067144975,-0.11918863,-0.10010433,-0.062338267,0.10819876,0.086448856,-2.0,2.0,2.0,-2.0,-0.015847515,-2.0,2.0,-2.0,-2.0,2.0,-0.49723184,2.0,-2.0,2.0,2.0,-2.0,-0.30453974,2.0,2.0,-2.0,-2.0,2.0,-0.6640579,2.0
2025-07-21 14:28:27.013,2.980000000000002,2980,149,-0.06668511,0.013269155,0.13585258,0.107885286,0.03710224,-0.031352915,1.5,0.0,0.0,0.12136178,-0.032345906,-0.47777987,0.09123898,0.1253328,-0.046070147,0.16817537,-0.0442911,-0.33955994,-0.086273454,0.05797731,-0.14774728,0.2214124,0.06715257,0.07514786,-0.11234553,-0.09866482,-0.03264968,0.119035155,0.11600594,-0.095863245,-0.17520738,-0.07131241,0.045202706,0.06151299,-2.0,2.0,2.0,-2.0,-0.30453974,2.0,2.0,-2.0,-2.0,2.0,-0.6640579,2.0,-2.0,2.0,-2.0,-2.0,-0.8626531,2.0,2.0,-2.0,2.0,2.0,-1.0906006,2.0
2025-07-21 14:28:27.039,3.000000000000002,3000,150,0.1057973,0.18453987,0.22102192,0.07141361,0.077519335,-0.040028203,1.5,0.0,0.0,0.12609513,-0.020484949,-0.45749623,0.057863075,0.07901992,-0.062667,0.19096012,0.014857956,-0.35957208,-0.04576089,0.05485905,-0.16934133,0.24034025,-0.0402169,0.023077123,-0.07926894,-0.14668696,-0.11710166,0.09624061,0.08100555,-0.12495043,0.13264115,0.065379076,0.006326859,0.091176815,-2.0,2.0,-2.0,-2.0,-0.8626531,2.0,2.0,-2.0,2.0,2.0,-1.0906006,2.0,2.0,-0.3341681,-2.0,2.0,1.1095763,2.0,-2.0,-2.0,2.0,2.0,-0.613246,-2.0
2025-07-21 14:28:27.057,3.0200000000000022,3020,151,0.11546568,0.30809918,0.21768178,0.11063323,-0.0138571,0.016742354,1.5,0.0,0.0,0.130193,-0.011741502,-0.4421481,0.02446312,0.062139638,-0.080737576,0.20736103,0.04274568,-0.39782,0.03216715,0.07404567,-0.1497796,0.1644444,0.048860442,0.04648715,-0.10620553,0.013307822,-0.025537362,0.081183605,0.08163659,-0.11018617,0.22246681,-0.018912623,0.032715622,-0.22474054,2.0,-0.3341681,-2.0,2.0,1.1095763,2.0,-2.0,-2.0,2.0,2.0,-0.613246,-2.0,2.0,-0.41115645,-2.0,2.0,2.0,2.0,-2.0,-2.0,2.0,-2.0,-1.315076,-2.0
2025-07-21 14:28:27.074,3.0400000000000023,3040,152,0.12174216,0.23038995,0.1088849,0.04214225,0.032619,-0.01733409,1.5,0.0,0.0,0.13425423,-0.0034142411,-0.41758156,-0.004040996,0.07886794,-0.06565137,0.2226552,0.02009251,-0.39810574,0.09493585,0.055233024,-0.16802448,0.037908025,0.0561191,-0.022032611,0.0097114965,0.037192263,0.07769071,-0.0017478482,-0.04149624,-0.040537067,0.10792119,-0.15298302,-0.004041772,-0.19443503,2.0,-0.41115645,-2.0,2.0,2.0,2.0,-2.0,-2.0,2.0,-2.0,-1.315076,-2.0,2.0,-0.9394991,-2.0,2.0,2.0,2.0,-2.0,-1.4889159,2.0,-2.0,-2.0,-2.0
2025-07-21 14:28:27.094,3.0600000000000023,3060,153,0.08844561,0.19705208,0.084273025,0.09557419,-0.0038684113,0.04059544,1.5,0.0,0.0,0.13910024,-0.0098288255,-0.41323224,-0.029039122,0.10804224,-0.00095000427,0.2235865,0.003121649,-0.39954463,0.14593825,0.036083758,-0.19861458,-0.0071653286,0.071804024,0.06559958,0.007221658,0.023612374,0.24056707,0.047385484,-0.04905537,0.083220884,0.113202505,-0.07484067,-0.08302688,-0.023805777,2.0,-0.9394991,-2.0,2.0,2.0,2.0,-2.0,-1.4889159,2.0,-2.0,-2.0,-2.0,2.0,-0.98405415,-2.0,-2.0,2.0,0.9317093,-2.0,-1.0080696,2.0,-2.0,-2.0,-2.0
2025-07-21 14:28:27.114,3.0800000000000023,3080,154,0.045365535,0.010475798,0.07704503,0.08147905,-0.052517727,-0.047824923,1.5,0.0,0.0,0.14473374,-0.015762918,-0.41697344,-0.033829976,0.09628467,0.036240976,0.22457789,-0.028068323,-0.35693538,0.18604888,0.003396032,-0.2513033,0.013964027,0.014512085,-0.016224153,0.0062173815,-0.050593402,0.10226504,0.08332784,-0.012091379,0.11880523,0.014825891,-0.050067212,-0.021513065,0.13574547,2.0,-0.98405415,-2.0,-2.0,2.0,0.9317093,-2.0,-1.0080696,2.0,-2.0,-2.0,-2.0,2.0,-2.0,2.0,-2.0,2.0,-2.0,-2.0,-0.17200875,2.0,-2.0,-2.0,-2.0
2025-07-21 14:28:27.139,3.1000000000000023,3100,155,-0.0063911113,-0.34675473,0.059109185,0.0867245,-0.0023499636,0.009938763,1.5,0.0,0.0,0.15140808,-0.021137979,-0.44298875,0.0014318859,0.071585216,0.049552247,0.22455993,-0.06405535,-0.28670794,0.19844195,-0.027784223,-0.27230787,0.025819542,0.0852515,-0.10772569,0.1282891,-0.09410117,0.097132765,-0.04712032,-0.02305454,0.124496005,0.0029281862,-0.14915435,-0.089353904,0.018093452,2.0,-2.0,2.0,-2.0,2.0,-2.0,-2.0,-0.17200875,2.0,-2.0,-2.0,-2.0,-2.0,-0.38330117,2.0,-2.0,0.24389724,-2.0,2.0,-0.117942505,-2.0,2.0,-2.0,2.0
2025-07-21 14:28:27.156,3.1200000000000023,3120,156,0.16854365,-0.29626477,0.017742854,0.068626694,-0.031386804,0.01852646,1.5,0.0,0.0,0.15868592,-0.016415732,-0.4135446,0.05737781,0.03604651,0.060261052,0.21109219,-0.063238084,-0.21561071,0.13014062,-0.031209948,-0.31017357,0.079618014,-0.08456941,0.086707786,0.16205797,-0.12857154,0.031864967,-0.042496707,0.012066701,0.21498089,-0.1864338,0.027434144,-0.16309656,0.10468985,-2.0,-0.38330117,2.0,-2.0,0.24389724,-2.0,2.0,-0.117942505,-2.0,2.0,-2.0,2.0,-2.0,-0.69319314,2.0,-2.0,-0.1307111,-2.0,2.0,0.1455729,-2.0,2.0,-1.7850147,2.0
2025-07-21 14:28:27.174,3.1400000000000023,3140,157,0.06779664,-0.020681307,0.09980374,0.010308525,0.06787565,-0.04407882,1.5,0.0,0.0,0.16607116,-0.05368289,-0.41506928,0.08342854,0.019268135,0.038501754,0.21874759,-0.039680935,-0.17106028,0.05702533,-0.0043172487,-0.33504635,0.12009172,0.009233931,0.05216668,0.09286228,0.023058876,-0.039669283,-0.054948945,-0.080422826,0.0043847696,0.011648635,0.096971795,-0.10533317,0.043665834,-2.0,-0.69319314,2.0,-2.0,-0.1307111,-2.0,2.0,0.1455729,-2.0,2.0,-1.7850147,2.0,-2.0,-0.63364834,2.0,-2.0,0.23142521,-2.0,2.0,0.17577869,-2.0,2.0,-0.72171205,2.0
2025-07-21 14:28:27.194,3.1600000000000024,3160,158,-0.066344924,0.05530515,0.16812626,0.021839263,0.062035967,-0.0014752473,1.5,0.0,0.0,0.1724318,-0.06763559,-0.38802215,0.12147277,0.024249282,0.021434318,0.2131553,-0.06805969,-0.1702699,0.07191051,0.020342365,-0.32216907,0.17087853,-0.05071043,0.07980356,0.02563776,-0.046459977,0.010386519,0.08256047,-0.07060545,-0.031435773,0.08499789,0.08911023,0.14086758,0.07022641,-2.0,-0.63364834,2.0,-2.0,0.23142521,-2.0,2.0,0.17577869,-2.0,2.0,-0.72171205,2.0,-2.0,0.33510014,2.0,-2.0,-0.24903215,-2.0,2.0,-0.6533114,-2.0,2.0,-0.15559173,2.0
2025-07-21 14:28:27.214,3.1800000000000024,3180,159,-0.020232432,0.19971587,0.20625395,0.032165196,0.05909002,0.0040690885,1.5,0.0,0.0,0.17712508,-0.071626134,-0.32131076,0.15459503,0.02945525,0.014262696,0.23376983,-0.061376534,-0.14337613,0.085992604,0.0351117,-0.26271126,0.19433357,-0.04150969,0.12869526,0.08826307,0.028625902,-0.0048316577,0.044659503,0.046254214,0.10261373,0.10002012,0.052952923,0.18196492,0.0246681,-2.0,0.33510014,2.0,-2.0,-0.24903215,-2.0,2.0,-0.6533114,-2.0,2.0,-0.15559173,2.0,-2.0,0.28602174,2.0,-2.0,0.6918456,-2.0,2.0,-0.5157675,-2.0,2.0,-0.0833686,2.0
2025-07-21 14:28:27.245,3.2000000000000024,3200,160,0.06131044,0.08080513,0.18332773,0.037924778,-0.0141374115,0.03498616,1.5,0.0,0.0,0.18101475,-0.084128626,-0.2566261,0.18731967,0.055250082,0.012421061,0.24704075,-0.07344211,-0.13243912,0.09941225,0.054743122,-0.18901359,0.1939681,-0.03567346,0.16402465,0.1179603,0.09669322,-0.012617939,-0.05060674,-0.054592196,0.083990775,0.078766994,-0.04382073,0.13783582,-0.023645565,-2.0,0.28602174,2.0,-2.0,0.6918456,-2.0,2.0,-0.5157675,-2.0,2.0,-0.0833686,2.0,-2.0,0.793688,2.0,-2.0,0.59181786,-2.0,2.0,-0.27267593,-2.0,2.0,-0.2622741,2.0
2025-07-21 14:28:27.273,3.2200000000000024,3220,161,0.11578618,0.15636119,0.20102632,0.03820336,-0.0038891619,-0.039813355,1.5,0.0,0.0,0.18472843,-0.07919444,-0.16617861,0.2041738,0.07265107,0.017560774,0.23232186,-0.10126734,-0.12441327,0.08820239,0.055294678,-0.12258037,0.21655591,-0.07717486,0.32536754,0.102535784,0.07404224,-0.040194996,-0.012288541,0.012684175,0.09784277,-0.06506458,0.062097874,0.13375154,0.09920886,-2.0,0.793688,2.0,-2.0,0.59181786,-2.0,2.0,-0.27267593,-2.0,2.0,-0.2622741,2.0,-2.0,1.4691802,2.0,-2.0,0.18529867,-2.0,2.0,-0.31613398,-2.0,2.0,0.1821813,2.0
2025-07-21 14:28:27.290,3.2400000000000024,3240,162,0.09613754,0.10289249,0.1886849,0.075422965,0.005999908,0.041582644,1.5,0.0,0.0,0.18843627,-0.089290954,-0.04841122,0.20234893,0.08810894,0.006836649,0.23053648,-0.10549629,-0.10357631,0.08665428,0.058451805,-0.07946226,0.22632952,-0.019069623,0.26512113,0.034709398,0.102648646,-0.008575124,-0.05446306,0.0031449413,0.063302204,0.016908467,-0.061077625,0.06880809,0.035179187,-2.0,1.4691802,2.0,-2.0,0.18529867,-2.0,2.0,-0.31613398,-2.0,2.0,0.1821813,2.0,-2.0,1.9010266,2.0,-2.0,0.5015453,-2.0,2.0,-0.108663075,-2.0,2.0,0.56532186,2.0
2025-07-21 14:28:27.310,3.2600000000000025,3260,163,0.073097706,-0.024335375,0.2078074,0.024126459,0.0072884276,-0.01583167,1.5,0.0,0.0,0.1921384,-0.07381272,0.07225558,0.21380617,0.0957884,0.00897267,0.23964122,-0.12147349,-0.07959375,0.10821289,0.07251611,-0.015737139,0.2196493,-0.013971438,0.37035322,0.08837871,0.089709416,0.0567276,-0.06996276,0.024491042,0.056084793,-0.032239616,-0.07409578,0.11540192,0.021584949,-2.0,1.9010266,2.0,-2.0,0.5015453,-2.0,2.0,-0.108663075,-2.0,2.0,0.56532186,2.0,-2.0,2.0,2.0,-2.0,-0.3641203,-2.0,2.0,-0.06291854,-2.0,2.0,1.1414672,2.0
2025-07-21 14:28:27.330,3.2800000000000025,3280,164,0.019930314,0.014978693,0.16562201,0.01892693,-0.054989595,-0.028962726,1.5,0.0,0.0,0.19596975,-0.072043926,0.20498972,0.21356587,0.10655703,0.009909128,0.24093771,-0.13607779,-0.06237405,0.09832166,0.06137272,0.0074716997,0.24549791,0.07555212,0.22521125,0.036170226,0.030782182,0.06611096,-0.0583834,-0.08685745,0.020160176,-0.038636047,0.061661173,0.16629614,-0.03356017,-2.0,2.0,2.0,-2.0,-0.3641203,-2.0,2.0,-0.06291854,-2.0,2.0,1.1414672,2.0,-2.0,2.0,2.0,-2.0,-1.1026131,-2.0,2.0,-0.12263351,-2.0,2.0,1.9741935,2.0
2025-07-21 14:28:27.362,3.3000000000000025,3300,165,0.08770389,-0.051074903,0.20178245,0.037359156,-0.0053622867,0.020560225,1.5,0.0,0.0,0.20059533,-0.05901485,0.2986105,0.23453796,0.11644124,0.004567992,0.23953927,-0.14947337,-0.04738658,0.10359409,0.06936539,0.102636054,0.23679018,-0.0077615,0.19375278,0.008441828,0.055110827,-0.07020505,0.06118702,-0.06805956,0.025709923,-0.02663685,-0.04249832,0.28744256,0.05087335,-2.0,2.0,2.0,-2.0,-1.1026131,-2.0,2.0,-0.12263351,-2.0,2.0,1.9741935,2.0,-2.0,2.0,2.0,-2.0,-0.12169416,-2.0,2.0,-0.59641,-2.0,2.0,2.0,2.0
2025-07-21 14:28:27.373,3.3200000000000025,3320,166,0.09533404,-0.09345416,0.17332985,-0.008367911,-0.023185123,0.034278862,1.5,0.0,0.0,0.20533817,-0.062078234,0.37487113,0.22541657,0.12429557,0.0017254335,0.24913956,-0.17134917,-0.041187912,0.13305761,0.08042522,0.18457092,0.243755,-0.03883163,0.06558008,0.020419357,0.013678622,-0.023162924,0.02036517,-0.016828142,0.050737318,0.094523475,0.06675897,0.16891941,-0.009726267,-2.0,2.0,2.0,-2.0,-0.12169416,-2.0,2.0,-0.59641,-2.0,2.0,2.0,2.0,-2.0,2.0,2.0,-2.0,-1.8330476,-2.0,2.0,-0.64303005,-2.0,2.0,2.0,-2.0
2025-07-21 14:28:27.394,3.3400000000000025,3340,167,0.045954928,-0.1022623,0.047969677,-0.031050235,-0.048039835,-0.017542345,1.5,0.0,0.0,0.21030222,-0.050806757,0.40449724,0.24297677,0.112541184,-0.010959634,0.23305671,-0.17571005,-0.050675333,0.150427,0.06785602,0.25767496,0.21761581,-0.023632592,0.11619136,0.021766787,-0.00068288925,-0.03178655,-0.032043543,-0.03260178,-0.06473608,0.10171123,-0.07172752,0.06264667,0.046764877,-2.0,2.0,2.0,-2.0,-1.8330476,-2.0,2.0,-0.64303005,-2.0,2.0,2.0,-2.0,2.0,2.0,-2.0,2.0,-2.0,2.0,2.0,-1.0766504,-2.0,-2.0,-0.87957466,-2.0
2025-07-21 14:28:27.414,3.3600000000000025,3360,168,0.12581487,0.061995957,0.110187635,0.03427697,-0.06110708,-0.009419224,1.5,0.0,0.0,0.21602991,-0.02872474,0.4415548,0.15353438,0.12294351,-0.05240783,0.2711408,-0.19107482,-0.04668314,0.15487576,0.07919969,0.25605822,0.24029323,0.10644495,0.096238375,-0.32040906,-0.029755417,-0.22314532,0.121745504,-0.05424779,-0.022749512,-2.4500461e-05,-0.017966788,-0.09198117,0.13451858,2.0,2.0,-2.0,2.0,-2.0,2.0,2.0,-1.0766504,-2.0,-2.0,-0.87957466,-2.0,2.0,2.0,-2.0,2.0,-2.0,2.0,2.0,-1.6920468,-2.0,-2.0,-1.6231381,-2.0
2025-07-21 14:28:27.439,3.3800000000000026,3380,169,0.28307143,0.13107848,0.08473146,0.0037522772,-0.064442925,-0.0010489341,1.5,0.0,0.0,0.22224234,0.008036725,0.45462748,0.071261056,0.10941525,-0.1481686,0.2814069,-0.18534172,-0.06313336,0.18936053,0.09452541,0.21752012,0.27321145,0.106807806,-0.04962304,-0.058905333,-0.0138990795,-0.16831554,-0.039398562,0.065996364,-0.08818038,0.03589608,-0.032031547,-0.04691425,0.07265065,2.0,2.0,-2.0,2.0,-2.0,2.0,2.0,-1.6920468,-2.0,-2.0,-1.6231381,-2.0,2.0,2.0,-2.0,2.0,-1.5815135,2.0,-2.0,-1.3369966,-2.0,-2.0,-2.0,-2.0
