openverse-orca/OrcaGym/log/simulation_log_20250605_161830.csv
timestamp,imu_angle_roll,imu_angle_pitch,imu_angle_yaw,imu_angular_velocity_roll,imu_angular_velocity_pitch,imu_angular_velocity_yaw,imu_acc_x,imu_acc_y,imu_acc_z,fl_joint1_pos,fl_joint1_vel,fl_joint1_torque,fl_joint2_pos,fl_joint2_vel,fl_joint2_torque,fl_joint3_pos,fl_joint3_vel,fl_joint3_torque,fr_joint1_pos,fr_joint1_vel,fr_joint1_torque,fr_joint2_pos,fr_joint2_vel,fr_joint2_torque,fr_joint3_pos,fr_joint3_vel,fr_joint3_torque,hl_joint1_pos,hl_joint1_vel,hl_joint1_torque,hl_joint2_pos,hl_joint2_vel,hl_joint2_torque,hl_joint3_pos,hl_joint3_vel,hl_joint3_torque,hr_joint1_pos,hr_joint1_vel,hr_joint1_torque,hr_joint2_pos,hr_joint2_vel,hr_joint2_torque,hr_joint3_pos,hr_joint3_vel,hr_joint3_torque,fl_force_x,fl_force_y,fl_force_z,fr_force_x,fr_force_y,fr_force_z,hl_force_x,hl_force_y,hl_force_z,hr_force_x,hr_force_y,hr_force_z,fl_hip_action,fl_thigh_action,fl_calf_action,fr_hip_action,fr_thigh_action,fr_calf_action,hl_hip_action,hl_thigh_action,hl_calf_action,hr_hip_action,hr_thigh_action,hr_calf_action
2025-06-05 16:18:30.235,0.012941482,-0.040188998,0.03941189,0.027426714,-0.025644485,-0.036731582,1.7396766,0.9996635,0.0,0.0,-0.00400015,0.004195832,0.008854085,-0.0059192344,0.0033465077,-0.008178838,-0.009650018,-0.001986016,-0.00864575,-0.0050610173,0.0035573875,-0.001575357,0.019193247,-0.040367935,0.018684776,0.051572632,-0.055885084,0.033878874,0.0012993203,0.061641805,-0.008114531,-0.024225865,0.04767022,-0.034332097,0.0,0.0,0.0,0.0,0.0,0.0,0.0,0.0,0.0,0.0,0.0,0.0,1.8454423,-0.4618499,-0.8406791,2.0,-0.8812095,0.9909129,0.5843229,-1.3275119,-0.69576883,-1.7991394,-0.2010413,-2.0
2025-06-05 16:18:30.240,-0.09015812,-0.09048484,0.014219702,0.05034669,0.033457175,0.040732536,0.0,0.0,0.0,0.0,0.02756487,-0.021941217,-0.03912901,0.028134959,-0.0691546,0.051343948,0.022853771,-0.08052471,-0.023275962,-0.0120320115,-0.017918777,-0.08783529,0.115564406,-0.13673308,-0.14334296,0.07135166,-0.26352465,0.13119443,-0.026721079,-0.34529102,-0.13270546,-0.062347405,-0.039212976,-0.36547682,1.8454423,-0.4618499,-0.8406791,2.0,-0.8812095,0.9909129,0.5843229,-1.3275119,-0.69576883,-1.7991394,-0.2010413,-2.0,-1.168293,0.829509,-2.0,2.0,1.7485516,0.91429013,-1.1382456,-0.5282344,-0.3613838,-1.8574542,-0.9179425,-2.0
2025-06-05 16:18:30.260,-0.14145665,0.19948581,0.014544654,-0.030911176,-0.05694832,0.009156381,0.0,0.0,0.0,7.6075805e-05,0.022426313,-0.022804502,-0.11524726,0.050296508,0.017608274,0.09226935,-0.008975413,-0.16012034,-0.04850618,-0.040383473,-0.031570576,-0.114015974,0.008614214,-0.05293619,-0.02490919,0.08299659,0.3716914,0.06237443,-0.018096754,-0.16484864,-0.11018648,-0.04280819,-0.07379477,-0.012843093,-1.168293,0.829509,-2.0,2.0,1.7485516,0.91429013,-1.1382456,-0.5282344,-0.3613838,-1.8574542,-0.9179425,-2.0,-2.0,0.7148322,-2.0,2.0,0.38584113,-0.49749982,-0.31682074,-0.3175689,0.16664028,-2.0,-0.39420903,-2.0
2025-06-05 16:18:30.281,-0.10949789,0.26416987,0.020384224,0.028527716,0.0097385505,0.034605533,0.0,0.0,0.0,-0.00010167613,0.00032332586,-0.021708723,-0.10269938,0.08715655,0.13258183,0.058773875,-0.006238472,-0.19608311,-0.06194181,-0.065877445,-0.06654366,-0.0708979,-0.023259722,-0.03813624,0.04395435,0.07682153,0.295547,-0.16843426,0.03312622,-0.059339505,-0.0437728,-0.10243393,-0.12805049,0.070806436,-2.0,0.7148322,-2.0,2.0,0.38584113,-0.49749982,-0.31682074,-0.3175689,0.16664028,-2.0,-0.39420903,-2.0,-2.0,0.7600347,-2.0,2.0,0.5844397,-1.4969509,2.0,-0.0066116974,-2.0,-2.0,-0.7925001,-2.0
2025-06-05 16:18:30.301,0.05759775,-0.087154575,-0.013190562,-0.0072583742,-0.08385971,-0.04911729,0.0,0.0,0.0,-9.515903e-05,-0.02539138,-0.034944504,-0.09444797,0.122576006,0.2044707,-0.043665126,-0.02126021,-0.20431958,-0.07558849,-0.0596652,-0.083051816,-0.050084,0.0056011234,0.03408209,0.0008091674,0.16158961,0.15511443,-0.2514315,-0.07312417,0.07364697,-0.043584008,-0.026090086,-0.02591746,0.059411634,-2.0,0.7600347,-2.0,2.0,0.5844397,-1.4969509,2.0,-0.0066116974,-2.0,-2.0,-0.7925001,-2.0,-2.0,0.3000976,-1.2808096,1.1048578,0.49640593,-2.0,2.0,0.009203963,-2.0,-2.0,-0.8807587,-2.0
2025-06-05 16:18:30.323,0.22685443,-0.08650431,0.031581346,0.027537763,-0.05665321,0.0023799117,0.0,0.0,0.0,-0.00014973665,-0.011148344,-0.03583914,-0.10036939,0.15243664,0.2555574,-0.17527585,-0.027451746,-0.17177436,-0.096467756,-0.0624838,-0.081975125,-0.059254326,-0.05289305,-0.044599015,-0.0130977165,0.0038880154,0.07892175,-0.27041623,0.038951628,0.048880298,-0.16107515,0.034262534,0.038084865,0.04338381,-2.0,0.3000976,-1.2808096,1.1048578,0.49640593,-2.0,2.0,0.009203963,-2.0,-2.0,-0.8807587,-2.0,-2.0,0.08385315,-0.14051387,-0.5043114,0.906658,-2.0,2.0,-0.072605185,-2.0,-1.8424383,-0.85515034,-2.0
2025-06-05 16:18:30.340,0.11626229,0.12861209,0.019571038,0.014283906,-0.004590964,-0.036119916,0.0,0.0,0.0,-0.0005138492,-0.037131738,-0.02708977,-0.0685422,0.13796447,0.2766147,-0.24013047,-0.027642569,-0.12813386,-0.13213462,-0.07812265,-0.09376908,-0.065486036,-0.12789166,0.058958367,0.0818297,-0.0063588866,0.024116712,-0.11930034,-0.01926125,0.04701061,-0.05456728,-0.011962637,-0.02465333,0.043450013,-2.0,0.08385315,-0.14051387,-0.5043114,0.906658,-2.0,2.0,-0.072605185,-2.0,-1.8424383,-0.85515034,-2.0,-2.0,-0.14863864,0.94647384,-2.0,0.33347696,-2.0,2.0,0.17957821,-2.0,0.6021922,-0.9069264,-0.7624663
2025-06-05 16:18:30.360,0.13867301,0.12003134,-0.034722842,-0.04902864,-0.057493746,-0.020833898,0.0,0.0,0.0,-0.0007830176,-0.06368873,-0.033130016,-0.01578645,0.12701644,0.25920275,-0.21897013,-0.046830487,-0.11744686,-0.17433694,-0.07859222,-0.1314561,-0.08203733,-0.1511409,0.031498745,0.15195821,-0.06532906,-0.10051672,0.09815136,0.020338494,0.030811118,-0.05874596,0.03347376,-0.0697814,-0.12590308,-2.0,-0.14863864,0.94647384,-2.0,0.33347696,-2.0,2.0,0.17957821,-2.0,0.6021922,-0.9069264,-0.7624663,-2.0,0.4037152,2.0,-2.0,-0.9931168,-2.0,2.0,-0.015439324,-2.0,2.0,0.17022178,2.0
2025-06-05 16:18:30.381,0.048731934,-0.04549901,-0.009027094,-0.04256228,0.01093314,-0.01541486,0.0,0.0,0.0,-0.00084625056,-0.09329363,-0.017053964,0.09909642,0.111463994,0.2186895,-0.1794258,-0.054119222,-0.100900576,-0.1961178,-0.042664167,-0.14078285,0.0042593535,-0.112708546,0.047846854,0.29156247,-0.0006270558,-0.08950744,0.16988356,-0.041998114,0.0074419808,-0.0014825605,0.15913302,0.06542986,0.3744082,-2.0,0.4037152,2.0,-2.0,-0.9931168,-2.0,2.0,-0.015439324,-2.0,2.0,0.17022178,2.0,-2.0,0.8260571,0.19694892,-2.0,-0.0020722859,-2.0,2.0,-0.055247717,-2.0,2.0,0.7777538,2.0
2025-06-05 16:18:30.401,0.057567295,-0.00085283275,0.01869111,-0.014562194,-0.011579849,-0.01944939,0.0,0.0,0.0,-0.0010367744,-0.12390889,0.07089202,0.14157659,0.12005758,0.18696499,-0.12569429,-0.057663307,-0.08041181,-0.22672,0.035424557,-0.07235753,0.14031845,-0.13169672,0.2501022,-0.0044094822,0.014429728,-0.12601145,0.051357035,-0.058218714,0.056146413,-0.058878515,0.21486145,0.3006222,0.28920144,-2.0,0.8260571,0.19694892,-2.0,-0.0020722859,-2.0,2.0,-0.055247717,-2.0,2.0,0.7777538,2.0,-2.0,1.2011966,-2.0,-2.0,0.6501041,-2.0,2.0,0.25514027,-2.0,2.0,0.05066817,-1.2837907
2025-06-05 16:18:30.423,0.06404851,0.032799583,0.03669103,-0.022255791,0.048477337,-0.0038932913,0.0,0.0,0.0,-0.000939826,-0.16777362,0.20128745,0.019750305,0.09758915,0.18770678,-0.12129688,-0.060186725,-0.08817968,-0.23641586,0.082710125,0.017902749,0.10404048,-0.055985916,0.3908712,-0.41496298,-0.022694355,0.044593383,-0.009683596,0.04047945,-0.011754453,-0.027228186,0.15841775,0.16425976,-0.22347179,-2.0,1.2011966,-2.0,-2.0,0.6501041,-2.0,2.0,0.25514027,-2.0,2.0,0.05066817,-1.2837907,2.0,0.43090552,-2.0,-2.0,0.42369154,-1.9395677,2.0,0.21019864,-2.0,-1.1807958,-0.4246384,-2.0
2025-06-05 16:18:30.441,0.017673515,0.015257776,-0.025840946,-0.0074953344,-0.026266815,-0.046223387,0.0,0.0,0.0,-0.0007386494,-0.13203591,0.2877768,-0.13431221,0.09646269,0.17288154,-0.1260057,-0.065350994,-0.08928271,-0.24588874,0.08849439,0.025309045,-0.0247947,0.2163973,0.10702914,-0.44727156,-0.023056298,-0.03405945,-0.06592319,-0.07732091,-0.0018410801,-0.08115267,-0.09549945,-0.07641986,-0.43840834,2.0,0.43090552,-2.0,-2.0,0.42369154,-1.9395677,2.0,0.21019864,-2.0,-1.1807958,-0.4246384,-2.0,2.0,0.8342244,-2.0,-2.0,0.100953385,2.0,-1.4047512,-1.0181818,0.97227514,-2.0,-0.018999677,-2.0
2025-06-05 16:18:30.461,-0.08373507,-0.22521849,0.08795047,0.0012245581,0.036532126,0.036258586,0.0,0.0,0.0,-0.0008776174,-0.09688593,0.28355804,-0.18042727,0.059361033,0.11612605,-0.005673517,-0.06389882,-0.14990844,-0.16189083,0.048082888,0.01331955,-0.18255825,0.060169946,-0.08494231,-0.121015005,-0.10160716,-0.12056712,0.37871543,0.061491817,-0.28094542,0.3259047,-0.15266939,0.018758897,-0.38013032,2.0,0.8342244,-2.0,-2.0,0.100953385,2.0,-1.4047512,-1.0181818,0.97227514,-2.0,-0.018999677,-2.0,2.0,-0.2616332,-2.0,1.9993025,-0.5655727,2.0,-2.0,-1.5587739,2.0,-2.0,0.8492724,-2.0
2025-06-05 16:18:30.481,0.025861956,-0.11401076,-0.0037806872,-0.0071617574,0.05838454,0.01407337,0.0,0.0,0.0,-0.0018873318,-0.098783985,0.26165566,-0.17558856,0.03602325,0.049812753,0.1566564,-0.069775075,-0.25893098,0.015336151,0.024535215,-0.012205569,-0.20921414,0.065740116,-0.013329645,0.05477646,-0.003057147,-0.20992962,0.45211023,-0.025265276,-0.32885912,0.39345616,0.023584198,-0.11292595,0.008733978,2.0,-0.2616332,-2.0,1.9993025,-0.5655727,2.0,-2.0,-1.5587739,2.0,-2.0,0.8492724,-2.0,-2.0,1.2727226,-2.0,2.0,0.6602487,-0.06432605,-2.0,-0.4641999,0.20580313,-2.0,-1.0792578,-2.0
2025-06-05 16:18:30.504,0.0001411454,0.03796091,0.07352859,-0.040388115,0.0366365,-0.023430554,0.0,0.0,0.0,-0.001975634,-0.113837235,0.25854996,-0.16815358,0.059135303,0.055388793,0.18072209,-0.11295163,-0.31299403,0.09144905,0.023827929,-0.04495955,-0.17931502,0.0015182288,0.03953592,0.08762297,0.14215682,0.110618755,-0.074988395,-0.07392533,-0.10767939,0.06651553,-0.09942223,-0.069498695,0.16271886,-2.0,1.2727226,-2.0,2.0,0.6602487,-0.06432605,-2.0,-0.4641999,0.20580313,-2.0,-1.0792578,-2.0,-2.0,-0.389531,-2.0,2.0,0.1282094,-2.0,2.0,0.1914008,-2.0,-2.0,-0.37376535,-2.0
2025-06-05 16:18:30.523,0.06717262,0.038793065,-0.06602954,-0.03389413,0.05348105,0.021047134,0.0,0.0,0.0,-0.0022838823,-0.11810604,0.23739482,-0.15058619,0.08554137,0.08004093,0.030505583,-0.10313633,-0.26584017,-0.012136178,0.006499893,-0.09234378,-0.14763366,-0.045068193,-0.058432244,0.058136687,0.03918705,0.066134654,-0.442011,0.029931068,0.19285154,-0.29212052,0.00940665,-0.11559816,0.08224799,-2.0,-0.389531,-2.0,2.0,0.1282094,-2.0,2.0,0.1914008,-2.0,-2.0,-0.37376535,-2.0,-2.0,-0.3196183,0.026233342,0.36701873,0.03438073,-2.0,2.0,0.61451507,-2.0,-2.0,-1.8957107,0.46078995
2025-06-05 16:18:30.542,-0.05895838,-0.024660043,-0.015301489,-0.04281634,-0.031064339,-0.00914788,0.0,0.0,0.0,-0.0022429784,-0.14704642,0.17327794,-0.10153843,0.10064049,0.08936103,-0.12105626,-0.0554912,-0.1565214,-0.17139369,-0.02839482,-0.20101763,-0.076645434,-0.082963005,-0.22401907,0.090608135,0.055630542,-0.007733526,-0.18857762,0.08122648,0.29106858,-0.41198426,-0.06002816,-0.40496454,0.23449811,-2.0,-0.3196183,0.026233342,0.36701873,0.03438073,-2.0,2.0,0.61451507,-2.0,-2.0,-1.8957107,0.46078995,-2.0,0.26621553,1.3231894,-2.0,-0.19712968,-2.0,2.0,0.22479779,-2.0,2.0,-0.10917707,2.0
2025-06-05 16:18:30.562,0.0272165,0.020691242,0.008815214,-0.04371409,0.052933224,-0.03667931,0.0,0.0,0.0,-0.002295576,-0.16715157,0.12569062,-0.014277939,0.085959435,0.050651085,-0.123281494,-0.015315324,-0.121360116,-0.24930574,-0.013600013,-0.28832477,0.045720052,-0.07685774,-0.095088266,0.23418213,0.03310498,-0.04206984,0.022983221,-0.06376204,0.031558063,-0.01347671,0.0072834766,-0.020540437,0.31581837,-2.0,0.26621553,1.3231894,-2.0,-0.19712968,-2.0,2.0,0.22479779,-2.0,2.0,-0.10917707,2.0,-2.0,1.0384665,-0.42074135,-2.0,-0.052640866,-2.0,2.0,-0.25025988,-2.0,2.0,0.7685531,2.0
2025-06-05 16:18:30.582,0.09957401,0.04620163,0.03139878,-0.015533066,0.060120914,0.044268496,0.0,0.0,0.0,-0.0024720868,-0.18305323,0.17394882,0.020123936,0.082244694,0.031522963,-0.07233664,-0.03252983,-0.12694581,-0.23346189,0.015246737,-0.1902025,0.17513585,-0.08459858,0.17679791,-0.09059428,0.037947938,-0.044032995,0.113536716,0.05040916,0.00056851393,0.09473759,0.12918437,0.31281173,0.28054497,-2.0,1.0384665,-0.42074135,-2.0,-0.052640866,-2.0,2.0,-0.25025988,-2.0,2.0,0.7685531,2.0,-2.0,0.85518855,-2.0,-2.0,0.98593956,-2.0,2.0,0.0949929,-2.0,2.0,-0.07112588,-1.6696771
2025-06-05 16:18:30.604,0.14956827,0.17808628,-0.016404575,-0.05877537,-0.013318215,0.026144419,0.0,0.0,0.0,-0.0027428453,-0.18672556,0.24072294,-0.08100255,0.087574944,0.0052790553,-0.037984278,-0.03532731,-0.14979132,-0.20563623,0.07758762,-0.07445871,0.12181757,0.039444316,0.2600181,-0.30587232,0.041518435,-0.056023132,0.11811706,-0.062003687,-0.017235456,0.05093744,0.15181889,0.25739446,-0.2379889,-2.0,0.85518855,-2.0,-2.0,0.98593956,-2.0,2.0,0.0949929,-2.0,2.0,-0.07112588,-1.6696771,2.0,0.78895026,-2.0,-2.0,0.647161,-2.0,2.0,-0.044277392,-2.0,-0.62546414,-0.6000926,-2.0
2025-06-05 16:18:30.623,0.09727281,-0.25165474,0.0632886,-0.026570033,0.046859298,0.0009114565,0.0,0.0,0.0,-0.0029449824,-0.17946571,0.28377393,-0.14170612,0.087072544,-0.004318851,-0.032942843,-0.047067188,-0.1370103,-0.22138625,0.078548744,-0.059405215,-0.036139198,-0.027088586,0.09650408,-0.1650936,0.054133695,-0.0068163066,0.014922754,0.025231063,-0.024127278,-0.10147433,-0.045714237,0.043481622,-0.35085815,2.0,0.78895026,-2.0,-2.0,0.647161,-2.0,2.0,-0.044277392,-2.0,-0.62546414,-0.6000926,-2.0,2.0,0.25783303,-2.0,-2.0,0.4489762,2.0,-1.554306,-1.1866182,0.87217164,-2.0,-0.0073980205,-2.0
2025-06-05 16:18:30.642,-0.090538844,-0.046849106,0.041947328,-0.0030433398,1.9289253e-05,-0.041157447,0.0,0.0,0.0,-0.004056984,-0.17527767,0.2614533,-0.16669007,0.06022709,-0.042270277,0.04323775,-0.044718534,-0.2073851,-0.13538143,0.05871079,-0.069594145,-0.16410083,0.010378343,-0.020424545,-0.009843755,-0.17188667,-0.02129291,0.30576035,0.009754614,-0.28205183,0.3462393,-0.10969565,-0.002011224,-0.19365764,2.0,0.25783303,-2.0,-2.0,0.4489762,2.0,-1.554306,-1.1866182,0.87217164,-2.0,-0.0073980205,-2.0,1.7482516,0.29065338,-2.0,1.880765,0.005984593,2.0,-2.0,-1.3183609,2.0,-2.0,0.34066045,-2.0
2025-06-05 16:18:30.662,0.06328109,-0.0476151,-0.0032521912,-0.026637364,-0.015422406,-0.0115871765,0.0,0.0,0.0,-0.004721984,-0.18258321,0.26182017,-0.16332804,0.054127317,-0.030994905,0.18347035,-0.060933076,-0.30690953,0.022194376,0.038837988,-0.07395402,-0.1710414,-0.037175335,0.050432317,0.03340182,-0.04725557,0.09411162,0.3166044,-0.03980925,-0.30843687,0.36156026,0.018872404,-0.083327636,0.012975932,1.7482516,0.29065338,-2.0,1.880765,0.005984593,2.0,-2.0,-1.3183609,2.0,-2.0,0.34066045,-2.0,-2.0,1.146363,-2.0,2.0,0.5266037,0.07953894,-2.0,-0.52731675,0.46289396,-2.0,-0.82927793,-2.0
2025-06-05 16:18:30.682,-0.056138974,0.020181892,0.08590663,0.016480383,0.066062436,-0.029539563,0.0,0.0,0.0,-0.004792719,-0.17809571,0.2717305,-0.16809149,0.090364285,0.02422913,0.20661911,-0.09856411,-0.3377415,0.09372067,0.034721475,-0.10052091,-0.17097214,-0.024709258,0.07487897,-0.0142039,0.09890123,0.2475581,-0.08612593,-0.09329967,-0.030807812,0.121458046,-0.029935172,-0.0755784,0.012503488,-2.0,1.146363,-2.0,2.0,0.5266037,0.07953894,-2.0,-0.52731675,0.46289396,-2.0,-0.82927793,-2.0,-2.0,-0.3671852,-2.0,2.0,0.10886483,-2.0,2.0,0.2086133,-2.0,-2.0,-0.24387194,-2.0
2025-06-05 16:18:30.706,0.040842872,0.048653103,0.0034359645,0.022542309,0.029288478,0.028938442,0.0,0.0,0.0,-0.005698513,-0.19961572,0.23956227,-0.17892107,0.12367352,0.07005257,0.07017415,-0.09046663,-0.28273776,-0.001914685,0.019203326,-0.1144284,-0.17100136,0.034216765,-0.05830806,0.044310912,0.071165696,0.10341619,-0.38407263,0.07538208,0.26934513,-0.36739856,-0.0025702016,-0.063048884,0.037214324,-2.0,-0.3671852,-2.0,2.0,0.10886483,-2.0,2.0,0.2086133,-2.0,-2.0,-0.24387194,-2.0,-2.0,-0.38677064,-0.6620209,-0.76621723,0.5214517,-2.0,2.0,0.32914314,-2.0,-2.0,-1.7323136,1.0670497
2025-06-05 16:18:30.723,-0.1892179,0.027853716,0.024387196,-0.0709421,0.024533587,-0.016778072,0.0,0.0,0.0,-0.0064203455,-0.21768603,0.19945452,-0.15320331,0.10749296,0.107049376,-0.089332104,-0.040563535,-0.19161658,-0.1564725,-0.020096507,-0.21999295,-0.08056752,0.035088312,-0.16756108,0.029822413,-0.019019794,0.10823452,-0.24107173,0.21443823,0.30123815,-0.3380509,-0.121747606,-0.43014383,0.3034555,-2.0,-0.38677064,-0.6620209,-0.76621723,0.5214517,-2.0,2.0,0.32914314,-2.0,-2.0,-1.7323136,1.0670497,-2.0,0.31128716,1.1948543,-2.0,-0.075563625,-2.0,2.0,-0.021067955,-2.0,2.0,-0.6594022,2.0
2025-06-05 16:18:30.742,-0.06510555,0.029903375,0.030125253,-0.055006083,0.008380094,0.019576492,0.0,0.0,0.0,-0.0066551683,-0.22396822,0.14117184,-0.07296494,0.095831506,0.08902714,-0.119322345,-0.021638464,-0.14410584,-0.23763098,-0.01367922,-0.30988684,0.060151055,0.074636765,-0.03011495,0.31478542,0.016749848,-0.090149514,-0.025463147,-0.03768716,0.03769793,0.0069085457,0.07300432,-0.13420378,0.39346915,-2.0,0.31128716,1.1948543,-2.0,-0.075563625,-2.0,2.0,-0.021067955,-2.0,2.0,-0.6594022,2.0,-2.0,0.8293438,-0.067032546,-2.0,0.09758894,-2.0,2.0,-0.24420804,-2.0,2.0,0.71662253,2.0
2025-06-05 16:18:30.762,0.061490092,0.09543361,-0.05776813,0.023265095,0.018768942,-0.03183388,0.0,0.0,0.0,-0.0063642855,-0.20424466,0.15861051,-0.010271498,0.09628748,0.063292034,-0.09483169,-0.018353458,-0.17222045,-0.23621923,0.021937292,-0.24771178,0.20040168,0.005526046,0.048592083,0.07481758,-0.05097787,-0.114948034,0.07604905,0.0030701864,-0.08797961,-0.009695523,0.09751836,0.28656286,0.35272506,-2.0,0.8293438,-0.067032546,-2.0,0.09758894,-2.0,2.0,-0.24420804,-2.0,2.0,0.71662253,2.0,-2.0,1.2060975,-2.0,-2.0,0.19853501,-2.0,2.0,0.2877751,-2.0,2.0,0.1427217,-0.43033507
2025-06-05 16:18:30.782,0.10791452,0.059052777,0.03218149,-0.059076432,0.05843938,0.04025311,0.0,0.0,0.0,-0.005807006,-0.20448606,0.25239438,-0.099668056,0.09695203,0.048630178,-0.05817508,-0.023745446,-0.1753168,-0.21889299,0.06538651,-0.12704147,0.19189735,-0.04187203,0.2906286,-0.32673627,-0.0319755,0.004331882,0.081535675,0.0070091225,0.02375936,-0.06384383,0.13883506,0.22570519,-0.0594324,-2.0,1.2060975,-2.0,-2.0,0.19853501,-2.0,2.0,0.2877751,-2.0,2.0,0.1427217,-0.43033507,2.0,0.46908322,-2.0,-2.0,0.8474291,-2.0,2.0,-0.04963807,-2.0,-0.43865705,-0.572642,-2.0
2025-06-05 16:18:30.806,0.045151528,-0.1629891,0.056217104,-0.07889813,-0.0011432971,0.013211067,0.0,0.0,0.0,-0.005689598,-0.1884839,0.28695598,-0.17434543,0.086557575,0.036175832,-0.0666968,-0.03157944,-0.15773597,-0.23589714,0.07292003,-0.07212016,0.043818936,0.039061323,0.065299265,-0.10357639,0.07050291,-0.086661994,0.059965074,0.07663173,-0.042965423,-0.100835495,-0.07076017,0.09027812,-0.38273054,2.0,0.46908322,-2.0,-2.0,0.8474291,-2.0,2.0,-0.04963807,-2.0,-0.43865705,-0.572642,-2.0,2.0,0.20555303,-2.0,-2.0,0.52568376,2.0,-1.2552443,-1.17974,1.2649056,-2.0,0.0031399466,-2.0
2025-06-05 16:18:30.822,-0.13378821,-0.20899782,0.009909087,0.010045189,0.03920098,-0.007692149,0.0,0.0,0.0,-0.006353333,-0.19434221,0.29095125,-0.19707358,0.08008907,0.007782075,0.035016064,-0.02448391,-0.22579244,-0.13960674,0.042723835,-0.06000641,-0.1304157,-0.0019726336,-0.07409337,-0.028241374,-0.075026274,-0.034285367,0.3270971,0.05024927,-0.20715493,0.37436426,-0.11219419,0.005351942,-0.4601656,2.0,0.20555303,-2.0,-2.0,0.52568376,2.0,-1.2552443,-1.17974,1.2649056,-2.0,0.0031399466,-2.0,1.9050316,0.40771988,-2.0,1.6919694,0.043226678,2.0,-2.0,-1.3935467,2.0,-2.0,0.38406214,-2.0
2025-06-05 16:18:30.842,-0.024892641,-0.05128265,0.031063516,-0.029611014,-0.019333482,-0.03936039,0.0,0.0,0.0,-0.0067866123,-0.1713585,0.27136424,-0.19478944,0.061350062,0.01585206,0.16813684,-0.044001207,-0.31970888,0.03274375,0.027525524,-0.06696137,-0.16313273,-0.020556342,-0.10332208,-0.04218295,0.029757015,0.008114003,0.3864243,-0.02106574,-0.2834402,0.45217207,0.05503537,-0.04594657,0.045907848,1.9050316,0.40771988,-2.0,1.6919694,0.043226678,2.0,-2.0,-1.3935467,2.0,-2.0,0.38406214,-2.0,-2.0,1.0899855,-2.0,2.0,0.43240613,1.7351431,-2.0,-0.5936838,1.7636596,-2.0,-0.44293505,-2.0
2025-06-05 16:18:30.862,0.070415,0.039891277,0.039449506,-0.02863135,0.044201825,-0.011180425,0.0,0.0,0.0,-0.0067545692,-0.18265808,0.27433622,-0.19712515,0.07929534,0.05199986,0.28253227,-0.09033531,-0.36939466,0.18383403,0.022216214,-0.08635346,-0.16530725,0.0463984,0.065295964,0.00055621343,-0.015031963,0.1756457,0.24446568,-0.17553939,-0.05417366,0.26755926,0.017578362,-0.012236804,0.012488841,-2.0,1.0899855,-2.0,2.0,0.43240613,1.7351431,-2.0,-0.5936838,1.7636596,-2.0,-0.44293505,-2.0,-2.0,-0.31785235,-2.0,2.0,-0.46256548,-2.0,1.58893,0.17163882,-2.0,-2.0,-0.29968518,-2.0
2025-06-05 16:18:30.882,0.032342676,0.06051688,0.022248311,-0.033217058,0.05263679,-0.04102092,0.0,0.0,0.0,-0.0069881114,-0.18442962,0.24972488,-0.18865255,0.10736287,0.06169458,0.1673729,-0.091522805,-0.3101635,0.102100216,0.030703908,-0.10388539,-0.1476876,-0.090550154,-0.076055415,0.008764161,0.13221902,-0.0023842754,-0.45069894,-0.012671284,0.29339394,-0.40364185,-0.06743291,0.015399425,0.035492707,-2.0,-0.31785235,-2.0,2.0,-0.46256548,-2.0,1.58893,0.17163882,-2.0,-2.0,-0.29968518,-2.0,-2.0,-0.41690597,-0.7457576,-0.44136027,1.0135447,-2.0,2.0,0.3139107,-2.0,-2.0,-1.9279515,1.1642948
2025-06-05 16:18:30.906,-0.013821758,-0.06283356,-0.061019458,-0.025803404,0.042981066,-0.040028807,0.0,0.0,0.0,-0.0070201526,-0.21446887,0.20402458,-0.14560966,0.11995213,0.091712505,-0.03385598,-0.0454265,-0.19051957,-0.07912858,-0.014391542,-0.22899488,-0.056035124,-0.051097777,-0.2093766,0.094393775,-0.044368554,0.2515428,-0.4540973,0.14171325,0.27639493,-0.4911589,-0.1288474,-0.41307178,0.304991,-2.0,-0.41690597,-0.7457576,-0.44136027,1.0135447,-2.0,2.0,0.3139107,-2.0,-2.0,-1.9279515,1.1642948,-2.0,0.08108797,2.0,-2.0,-0.9474089,-2.0,2.0,0.23900115,-2.0,1.7629156,-0.6989788,2.0
2025-06-05 16:18:30.923,-0.06524402,0.007379989,-0.021337101,-0.0020760584,-0.020004814,0.032593165,0.0,0.0,0.0,-0.006434575,-0.21716763,0.1248885,-0.020101873,0.102153786,0.09976609,-0.07513844,-0.014483554,-0.13454883,-0.18470031,-0.02643642,-0.33400282,0.094964944,0.028275877,-0.13737807,0.3723255,-0.044724993,-0.05205323,-0.01401344,0.08434399,0.021128219,-0.18603355,-0.019649208,-0.23102611,0.30179116,-2.0,0.08108797,2.0,-2.0,-0.9474089,-2.0,2.0,0.23900115,-2.0,1.7629156,-0.6989788,2.0,-2.0,0.51791567,0.8726865,-2.0,-0.28795844,-2.0,2.0,-0.055950575,-2.0,2.0,1.0474122,2.0
2025-06-05 16:18:30.943,0.07339726,0.06974139,0.041345943,-0.027512359,0.026638737,-0.0052129077,0.0,0.0,0.0,-0.0056957873,-0.22275677,0.12818803,0.0805263,0.10547728,0.07295675,-0.054032367,-0.0051875003,-0.15758207,-0.20203955,0.025326705,-0.2501582,0.19629629,-0.044098064,0.09334853,0.22544041,-0.025152938,-0.01179611,0.099763475,-0.07473701,-0.03612462,0.080929704,0.14594513,0.44996664,0.26759422,-2.0,0.51791567,0.8726865,-2.0,-0.28795844,-2.0,2.0,-0.055950575,-2.0,2.0,1.0474122,2.0,-2.0,1.0980355,-2.0,-2.0,1.0587409,-2.0,2.0,-0.18678606,-2.0,2.0,-0.06049533,1.4313111
2025-06-05 16:18:30.963,0.09588635,0.13216716,-0.034583524,-0.037117943,0.010243015,-0.04451882,0.0,0.0,0.0,-0.0055972496,-0.21670304,0.18738386,0.011043988,0.096670814,0.048159484,-0.02449798,-0.010576574,-0.16995247,-0.17724933,0.062054504,-0.12592553,0.27894393,-0.020930758,0.24654377,-0.40795824,0.05096872,-0.017949942,0.050338995,0.015962217,0.033963464,7.095868e-05,0.1326965,0.19016495,0.13575749,-2.0,1.0980355,-2.0,-2.0,1.0587409,-2.0,2.0,-0.18678606,-2.0,2.0,-0.06049533,1.4313111,0.61349404,1.1141115,-2.0,-2.0,0.80975026,-2.0,2.0,-0.029939659,-2.0,0.9282877,-0.28341088,-2.0
2025-06-05 16:18:30.983,0.03310687,0.031044204,0.030356651,-0.051620223,0.019387448,-0.0066349204,0.0,0.0,0.0,-0.005298638,-0.19651693,0.29668453,-0.13293964,0.08304114,0.046333615,-0.019869098,-0.027949257,-0.17569949,-0.19172406,0.08413733,-0.057797596,0.16255714,0.11784281,0.20452602,-0.32658365,-0.036431517,-0.038611174,-0.021505475,-0.053435847,-0.044386294,-0.036215633,0.089554995,0.07269333,-0.46893257,0.61349404,1.1141115,-2.0,-2.0,0.80975026,-2.0,2.0,-0.029939659,-2.0,0.9282877,-0.28341088,-2.0,2.0,-0.069620825,-2.0,-2.0,0.4387623,1.9588804,1.1486897,-0.415556,-0.9881827,-2.0,-0.33832774,-2.0
2025-06-05 16:18:31.006,-0.014690074,-0.31087157,-0.031470545,-0.055715956,0.033515524,0.03141211,0.0,0.0,0.0,-0.0051600537,-0.16771859,0.28958645,-0.15416995,0.064929776,0.01597756,0.07779151,-0.011839143,-0.17046027,-0.19578345,0.06267645,-0.059062503,-0.02616316,-0.017898059,-0.07229682,-0.007821874,-0.03094166,0.01071374,0.3497004,0.063538566,-0.07274769,0.01115127,-0.09718029,-0.06476042,-0.47452196,2.0,-0.069620825,-2.0,-2.0,0.4387623,1.9588804,1.1486897,-0.415556,-0.9881827,-2.0,-0.33832774,-2.0,2.0,0.65802276,-2.0,-1.1296787,0.7945548,2.0,-2.0,-1.9301164,2.0,-2.0,0.3109904,-2.0
2025-06-05 16:18:31.023,-0.123374954,-0.045326397,-0.069103695,0.019793209,-0.009189334,0.016322475,0.0,0.0,0.0,-0.004967637,-0.16952008,0.2796324,-0.1516147,0.008233381,0.05436961,0.1973806,-0.017671566,-0.289814,-0.06282571,0.05723517,-0.057843734,-0.12107004,0.05951559,0.01929479,0.04413651,-0.11791189,0.21999694,0.22793351,-0.025762763,-0.34596735,0.39995664,-0.07759668,-0.09126871,-0.11285732,2.0,0.65802276,-2.0,-1.1296787,0.7945548,2.0,-2.0,-1.9301164,2.0,-2.0,0.3109904,-2.0,-0.80037653,1.0010333,-2.0,2.0,-0.29275677,2.0,-2.0,-0.59136486,2.0,-2.0,-0.4591019,-2.0
2025-06-05 16:18:31.044,0.07186605,-0.10254344,0.02796502,-0.041121885,0.07724442,0.049043603,0.0,0.0,0.0,-0.004252693,-0.17305493,0.26594248,-0.14596757,0.0025684168,0.07242836,0.30842906,-0.043628372,-0.36958057,0.10918819,0.039902963,-0.076563835,-0.120288976,-0.026646137,0.040146526,0.07174352,0.07234772,0.060658686,0.20009984,-0.06590818,-0.14017703,0.37085557,0.070354655,-0.08707146,-0.019033166,-0.80037653,1.0010333,-2.0,2.0,-0.29275677,2.0,-2.0,-0.59136486,2.0,-2.0,-0.4591019,-2.0,-2.0,0.23752323,-2.0,2.0,-0.10197981,-1.0550563,-0.51541173,-0.22410324,-2.0,-2.0,-0.48266822,-2.0
2025-06-05 16:18:31.064,0.063888304,0.073610984,0.029536312,-0.04155382,0.046816044,-0.018442458,0.0,0.0,0.0,-0.0044853007,-0.16234025,0.25547206,-0.15503101,0.042409055,0.07374766,0.23677194,-0.080612406,-0.32722822,0.054152317,0.04652024,-0.10610168,-0.090013675,-0.049419127,-0.039921016,0.08465843,0.057007343,-0.06822554,-0.23670097,-0.047311954,0.14267318,-0.36328945,0.042922717,-0.12044109,0.08458259,-2.0,0.23752323,-2.0,2.0,-0.10197981,-1.0550563,-0.51541173,-0.22410324,-2.0,-2.0,-0.48266822,-2.0,-2.0,-0.46492502,-2.0,0.9595512,0.5905456,-2.0,2.0,0.43301937,-2.0,-2.0,-1.5217897,-2.0
2025-06-05 16:18:31.083,-0.104476,-0.012909049,-0.012147516,-0.06071864,0.0010856845,0.026347453,0.0,0.0,0.0,-0.0048570093,-0.18421319,0.22280231,-0.14327686,0.053674445,0.10177128,0.049717262,-0.07285245,-0.23594303,-0.095305085,0.021762794,-0.1527404,-0.07026038,0.00102463,-0.05548249,-0.00535071,0.0069914847,0.035691805,-0.54158944,0.05039873,0.25887403,-0.35833004,-0.097664654,-0.12918258,0.008993951,-2.0,-0.46492502,-2.0,0.9595512,0.5905456,-2.0,2.0,0.43301937,-2.0,-2.0,-1.5217897,-2.0,-2.0,-0.16205224,0.5738623,-1.2032088,0.45190895,-2.0,2.0,0.23173535,-2.0,-2.0,-1.1937902,-0.8005388
2025-06-05 16:18:31.106,-0.11489295,0.20281233,0.060195394,-0.0046345945,-0.0017781758,0.034346804,0.0,0.0,0.0,-0.0047854497,-0.18803108,0.16815484,-0.08297318,0.046006195,0.09659804,-0.0406896,-0.03719792,-0.16029142,-0.23021926,-0.014172263,-0.23988205,-0.056849197,0.012935812,-0.14344077,0.2201508,0.026319752,0.024824739,-0.06627156,0.061695583,0.13089615,-0.16586854,-0.16132134,-0.26281467,0.020198587,-2.0,-0.16205224,0.5738623,-1.2032088,0.45190895,-2.0,2.0,0.23173535,-2.0,-2.0,-1.1937902,-0.8005388,-2.0,-0.041689374,0.7085963,-2.0,0.38466495,-2.0,2.0,-0.024984457,-2.0,2.0,-0.48051584,2.0
2025-06-05 16:18:31.124,0.0045646047,-0.014985271,0.00079660164,0.022213204,0.04381455,0.018601907,0.0,0.0,0.0,-0.0049426123,-0.18554805,0.102105,-0.012132542,0.0423277,0.07595498,-0.050843075,-0.045343976,-0.18206516,-0.24891515,-0.0130642345,-0.2884344,0.020979607,-0.0058557056,-0.06052542,0.19933379,0.009498517,-0.04316879,0.0052842484,-0.03138619,-0.08372173,0.028602116,0.08254581,-0.07930077,0.3389711,-2.0,-0.041689374,0.7085963,-2.0,0.38466495,-2.0,2.0,-0.024984457,-2.0,2.0,-0.48051584,2.0,-2.0,0.87722296,0.6197207,-2.0,-0.34341568,-2.0,2.0,-0.29010513,-2.0,2.0,0.65941715,2.0
2025-06-05 16:18:31.144,0.02558821,0.008875296,0.010966476,-0.044220176,0.046715688,0.03720309,0.0,0.0,0.0,-0.0047492,-0.17880099,0.12449891,0.03558979,0.030698491,0.05815731,-0.029821768,-0.044763718,-0.1735119,-0.2531646,0.037400104,-0.21684991,0.15807807,-0.0050433725,0.1779234,0.13846178,0.011103944,-0.06882632,0.001739472,-0.07609284,-0.084592134,0.010553722,0.17614396,0.3016425,0.38200954,-2.0,0.87722296,0.6197207,-2.0,-0.34341568,-2.0,2.0,-0.29010513,-2.0,2.0,0.65941715,2.0,-2.0,0.87266827,-2.0,-2.0,0.737665,-2.0,2.0,0.18520445,-2.0,2.0,0.056877065,0.8827714
2025-06-05 16:18:31.164,0.11513702,0.0182854,-0.043400973,0.008275073,-0.0090906285,-0.02907776,0.0,0.0,0.0,-0.004184424,-0.18880926,0.19607253,-0.049424443,0.027371664,0.06217858,-0.013288751,-0.05504898,-0.1870332,-0.26286164,0.06748365,-0.10630639,0.22476983,0.016336648,0.17688617,-0.32871202,-0.05138304,0.060146924,-0.017791077,0.067761056,-0.033062164,0.0019841997,0.07725474,0.23697151,0.07299043,-2.0,0.87266827,-2.0,-2.0,0.737665,-2.0,2.0,0.18520445,-2.0,2.0,0.056877065,0.8827714,0.9534138,0.9760707,-2.0,-2.0,0.5849108,-2.0,2.0,-0.021003284,-2.0,0.28971574,-0.3200809,-2.0
2025-06-05 16:18:31.184,0.02610313,-0.054600786,-0.018721234,0.013302192,-0.023625262,-0.0044151857,0.0,0.0,0.0,-0.0034911064,-0.16190921,0.2655181,-0.15486853,0.03404839,0.046320856,-0.027945997,-0.05416274,-0.16927831,-0.28910923,0.08722882,-0.053079404,0.110204704,0.084395505,0.066384956,-0.15155396,0.052810173,-0.046796706,-0.10565413,0.012741772,-0.013393451,-0.12450323,0.009698826,0.115533285,-0.46953028,0.9534138,0.9760707,-2.0,-2.0,0.5849108,-2.0,2.0,-0.021003284,-2.0,0.28971574,-0.3200809,-2.0,2.0,0.2649845,-2.0,-2.0,0.30323938,2.0,-0.6812526,-0.6410891,0.23263222,-2.0,-0.3970128,-2.0
2025-06-05 16:18:31.205,-0.112531245,-0.2599546,0.030885808,-0.018180711,-0.004424264,0.03680514,0.0,0.0,0.0,-0.0031567253,-0.15063769,0.27032992,-0.19365136,0.023711046,0.022353021,0.052637305,-0.039884888,-0.20220535,-0.22811535,0.059228316,-0.057597745,-0.07241456,0.0860654,-0.0063973838,-0.06429688,-0.08134584,0.019558765,0.28948238,0.018719897,-0.13233124,0.19730964,-0.12555869,-0.036722407,-0.42942387,2.0,0.2649845,-2.0,-2.0,0.30323938,2.0,-0.6812526,-0.6410891,0.23263222,-2.0,-0.3970128,-2.0,2.0,0.0667161,-2.0,0.79771984,0.0008426495,2.0,-2.0,-1.6782491,2.0,-2.0,0.6941865,-2.0
2025-06-05 16:18:31.224,-0.051863212,-0.10128733,-0.023071093,-0.0093921395,0.05530275,-0.0019394398,0.0,0.0,0.0,-0.0034391177,-0.14269987,0.24448448,-0.19505374,-0.008989613,0.019901413,0.18839563,-0.03484316,-0.30659738,-0.053490862,0.040817723,-0.064931266,-0.16607232,-0.014322122,-0.08268616,-0.00084880315,0.0389645,0.016419323,0.35912436,0.002238104,-0.3101826,0.4594185,0.057192437,-0.06208303,-0.03609846,2.0,0.0667161,-2.0,0.79771984,0.0008426495,2.0,-2.0,-1.6782491,2.0,-2.0,0.6941865,-2.0,-2.0,1.2839837,-2.0,2.0,0.46189585,1.925691,-2.0,-0.52972823,2.0,-2.0,-0.81030184,-2.0
2025-06-05 16:18:31.244,-0.004642591,0.08325923,0.027724247,-0.012394799,0.064291246,0.008437808,0.0,0.0,0.0,-0.0031841323,-0.15455465,0.24887745,-0.211015,0.022664823,0.050414875,0.30331978,-0.086235285,-0.36357102,0.11703205,0.029546017,-0.08574216,-0.15531673,0.04796819,-0.017022619,0.047381423,0.04486333,0.087000996,0.29277822,-0.07451981,-0.04961795,0.44660345,-0.06745115,-0.11261146,0.048178002,-2.0,1.2839837,-2.0,2.0,0.46189585,1.925691,-2.0,-0.52972823,2.0,-2.0,-0.81030184,-2.0,-2.0,-0.0030017868,-2.0,2.0,-0.1617511,-2.0,0.6445469,-0.0762079,-2.0,-2.0,-0.2674808,-2.0
2025-06-05 16:18:31.264,0.0055130743,0.09006333,-0.04070493,-0.050575234,0.03335978,0.022347102,0.0,0.0,0.0,-0.0034487082,-0.1645284,0.22832882,-0.20463333,0.05550943,0.067584895,0.18821262,-0.09943714,-0.3152034,0.0596921,0.026146905,-0.102903016,-0.13409156,-0.0938259,-0.0914832,-0.030324243,0.17430073,0.0637898,-0.4286362,-0.00891271,0.1487897,-0.31098646,-0.08596932,0.033101186,0.03565887,-2.0,-0.0030017868,-2.0,2.0,-0.1617511,-2.0,0.6445469,-0.0762079,-2.0,-2.0,-0.2674808,-2.0,-2.0,-0.41729757,-0.80415297,0.6597962,0.76057124,-2.0,2.0,0.47428116,-2.0,-2.0,-1.9953297,-0.44141635
2025-06-05 16:18:31.284,-0.022542706,0.07395591,0.028873745,-0.049443513,-0.021120995,0.006887704,0.0,0.0,0.0,-0.0036904556,-0.17604633,0.19603616,-0.16271943,0.082416065,0.11310318,-0.01040897,-0.05749757,-0.21300302,-0.10322342,-0.012504588,-0.20782632,-0.083867796,-0.090736404,-0.120120265,0.011663939,-0.02455839,0.0919528,-0.55195427,0.07321719,0.21858895,-0.38057506,-0.11978832,-0.44059774,0.11099161,-2.0,-0.41729757,-0.80415297,0.6597962,0.76057124,-2.0,2.0,0.47428116,-2.0,-2.0,-1.9953297,-0.44141635,-2.0,-0.5516371,2.0,-2.0,0.0558994,-2.0,2.0,0.059875585,-2.0,1.248785,-0.71266514,2.0
2025-06-05 16:18:31.305,-0.0071563744,0.03393467,-0.03483389,-0.008949445,0.04813778,-0.03018602,0.0,0.0,0.0,-0.0038206726,-0.19575767,0.08887221,-0.036582246,0.07449342,0.12782356,-0.12143132,-0.016371224,-0.15318546,-0.20739478,-0.02228373,-0.3165574,0.03613634,0.06608631,-0.3415117,0.41910627,-0.022239253,-0.09761975,-0.050166298,0.00643728,0.013580987,-0.07097863,-0.016847752,-0.15608157,0.41919738,-2.0,-0.5516371,2.0,-2.0,0.0558994,-2.0,2.0,0.059875585,-2.0,1.248785,-0.71266514,2.0,-2.0,1.1220458,1.1920975,-2.0,-0.70332617,-2.0,2.0,-0.263312,-2.0,2.0,1.0786848,2.0
2025-06-05 16:18:31.324,0.12199085,0.077724986,-0.03625581,-0.010043004,-0.022547314,-0.017807998,0.0,0.0,0.0,-0.0031786112,-0.18640316,0.08339742,0.084239244,0.07110907,0.107490145,-0.08612841,-0.018299622,-0.15213582,-0.21341643,0.01521865,-0.23764473,0.15783492,-0.029692752,0.09266187,0.1746038,-0.02592914,-0.116942465,0.188043,0.053821627,0.027529811,0.047538023,0.08751274,0.3799226,0.26015592,-2.0,1.1220458,1.1920975,-2.0,-0.70332617,-2.0,2.0,-0.263312,-2.0,2.0,1.0786848,2.0,-2.0,1.0824813,-2.0,-2.0,0.7057604,-2.0,2.0,0.16878498,-2.0,2.0,0.1569231,1.3313303
2025-06-05 16:18:31.345,0.1028624,0.015220844,0.02595992,-0.023945617,0.0519052,0.0040512853,0.0,0.0,0.0,-0.0028475565,-0.20197847,0.19955646,0.005039171,0.071656436,0.07432112,-0.04380224,-0.021709276,-0.16117631,-0.20285948,0.06942793,-0.10959961,0.24793053,0.05260135,0.27530694,-0.30928937,-0.027720788,-0.117095195,0.15109096,-0.036384344,0.0153792985,-0.030512678,0.119657874,0.36223438,0.13421616,-2.0,1.0824813,-2.0,-2.0,0.7057604,-2.0,2.0,0.16878498,-2.0,2.0,0.1569231,1.3313303,1.0609641,0.755272,-2.0,-2.0,1.0997688,-2.0,2.0,-0.15994564,-2.0,1.3957516,-0.38945854,-2.0
2025-06-05 16:18:31.365,0.09879647,-0.034592204,-0.020288067,-0.045091216,-0.0103191845,0.01648248,0.0,0.0,0.0,-0.0028669434,-0.18098265,0.27024195,-0.1259738,0.072175935,0.07152062,-0.030110652,-0.028279696,-0.17234649,-0.19837277,0.104324386,-0.04660062,0.12922356,0.14256115,0.16004932,-0.2616433,0.067234926,0.035343207,-0.061334886,0.047017172,-0.0055850036,-0.06541585,0.090216815,0.13906504,-0.36437607,1.0609641,0.755272,-2.0,-2.0,1.0997688,-2.0,2.0,-0.15994564,-2.0,1.3957516,-0.38945854,-2.0,2.0,0.03892287,-2.0,-2.0,0.2344607,2.0,0.71357805,-0.39364904,-0.39214963,-2.0,-0.48261955,-2.0
2025-06-05 16:18:31.387,-0.015862865,-0.21437319,0.033427242,0.015602303,-0.021209797,0.019562615,0.0,0.0,0.0,-0.0028019915,-0.14991347,0.27955633,-0.16024618,0.046994403,0.041054994,0.05724661,-0.019963834,-0.17543505,-0.1903281,0.08801511,-0.040477656,-0.030170372,0.07220254,-0.06298714,-0.087686695,-0.11641944,-0.11671441,0.39268136,0.08693914,-0.06558316,0.0008656613,-0.05785127,-0.13830352,-0.50949734,2.0,0.03892287,-2.0,-2.0,0.2344607,2.0,0.71357805,-0.39364904,-0.39214963,-2.0,-0.48261955,-2.0,2.0,0.20847705,-2.0,-0.43872324,0.42592466,2.0,-2.0,-1.8381082,2.0,-2.0,0.73435265,-2.0
2025-06-05 16:18:31.405,-0.03342801,-0.031857703,-0.106657274,-0.04712522,6.181456e-05,0.025012387,0.0,0.0,0.0,-0.00294043,-0.14651904,0.26481858,-0.15499209,0.008130785,0.037311662,0.19773597,-0.025126506,-0.28510752,-0.051982623,0.0664601,-0.048056994,-0.1302222,-0.051401388,-0.034997936,-0.0053684744,-0.08685422,0.07549033,0.24794939,-0.052799515,-0.40524706,0.3899411,-0.06986775,-0.021715656,-0.016063316,2.0,0.20847705,-2.0,-0.43872324,0.42592466,2.0,-2.0,-1.8381082,2.0,-2.0,0.73435265,-2.0,-1.4623914,1.462252,-2.0,2.0,0.23648874,1.8691535,-2.0,-0.60820043,2.0,-2.0,-1.1257405,-2.0
2025-06-05 16:18:31.425,-0.0729318,0.01035178,0.02186616,-0.014893715,0.024057357,0.033135798,0.0,0.0,0.0,-0.0022330233,-0.16117874,0.25611877,-0.13579552,0.012061303,0.08357606,0.29420653,-0.055004414,-0.36828825,0.11122952,0.061481904,-0.08762783,-0.11984268,0.0033042121,-0.060511164,0.045174155,0.043766163,0.059162218,0.19801791,-0.11907649,-0.14701083,0.3931285,-0.016910577,-0.14727683,0.0022578344,-1.4623914,1.462252,-2.0,2.0,0.23648874,1.8691535,-2.0,-0.60820043,2.0,-2.0,-1.1257405,-2.0,-2.0,0.2688066,-2.0,2.0,-0.14752729,-0.94204164,0.117627464,-0.1532267,-1.9514953,-2.0,-0.24198551,-2.0
2025-06-05 16:18:31.445,-0.021522302,0.0857241,-0.012257308,0.005936558,0.07202119,0.04313947,0.0,0.0,0.0,-0.0026500716,-0.16178913,0.24543689,-0.14582501,0.043765094,0.09082762,0.23530935,-0.07951073,-0.3196216,0.07559768,0.04775963,-0.11103352,-0.09387321,-0.042820975,-0.04219241,0.0074262996,0.16165154,-0.040834993,-0.29750896,0.030992167,0.16894066,-0.33068556,-0.08343679,-0.00838894,0.035878062,-2.0,0.2688066,-2.0,2.0,-0.14752729,-0.94204164,0.117627464,-0.1532267,-1.9514953,-2.0,-0.24198551,-2.0,-2.0,-0.3493465,-2.0,1.0455246,0.49225277,-2.0,2.0,0.4217879,-2.0,-2.0,-1.7015754,-2.0
2025-06-05 16:18:31.466,-0.12888959,0.09162971,0.01647075,-0.021185862,0.026012734,-0.034888852,0.0,0.0,0.0,-0.0032626663,-0.16615643,0.23348306,-0.1345184,0.07561036,0.09947301,0.053452805,-0.06171599,-0.23643947,-0.09143208,0.031490296,-0.17612611,-0.06777923,-0.048798174,-0.12402948,0.034289513,0.07743439,0.13428634,-0.5508789,0.14322175,0.24733762,-0.387361,-0.02424286,-0.13682899,0.08946068,-2.0,-0.3493465,-2.0,1.0455246,0.49225277,-2.0,2.0,0.4217879,-2.0,-2.0,-1.7015754,-2.0,-2.0,0.12760201,-0.4688544,-1.3591391,0.8049908,-2.0,2.0,0.23926213,-2.0,-2.0,-1.0383466,-1.1408502
2025-06-05 16:18:31.487,-0.12089764,0.14805071,-0.01381774,0.010364201,-0.009439051,-0.023333147,0.0,0.0,0.0,-0.003400674,-0.19415456,0.19999133,-0.121684246,0.052209266,0.11824381,-0.06339211,-0.030148217,-0.16980939,-0.21518034,-0.017303301,-0.2519342,-0.058178302,-0.04761581,-0.07119703,0.08027877,-0.04320822,0.021141892,-0.11352791,0.053581875,0.11267466,-0.108590074,-0.081742816,-0.14978282,-0.11146532,-2.0,0.12760201,-0.4688544,-1.3591391,0.8049908,-2.0,2.0,0.23926213,-2.0,-2.0,-1.0383466,-1.1408502,-2.0,0.10939223,0.093940586,-2.0,-0.074151054,-2.0,2.0,0.21897978,-2.0,0.31442448,-0.73579764,-0.08615467
2025-06-05 16:18:31.506,0.13667205,0.05242648,0.052335877,-0.02167639,0.022284316,0.03081232,0.0,0.0,0.0,-0.003525897,-0.19368686,0.1672907,-0.08349737,0.059899673,0.1112056,-0.078832194,-0.03284175,-0.16170983,-0.22520849,-0.03094001,-0.2983935,-0.06767199,0.0808932,-0.086586356,0.06886727,-0.03679612,-0.029099576,0.046703033,0.009594856,-0.027203318,-0.048316482,0.011705063,-0.15469566,-0.016269803,-2.0,0.10939223,0.093940586,-2.0,-0.074151054,-2.0,2.0,0.21897978,-2.0,0.31442448,-0.73579764,-0.08615467,-2.0,0.38990387,0.5877515,-2.0,-0.012562584,-2.0,2.0,-0.28929147,-2.0,2.0,-0.12804812,2.0
2025-06-05 16:18:31.525,0.053306874,0.039421238,-0.011797276,0.029665286,0.00806268,-0.004333376,0.0,0.0,0.0,-0.004159466,-0.19143584,0.15805012,-0.046141446,0.060402807,0.094443485,-0.037393186,-0.04033702,-0.1808674,-0.2252814,-0.007792355,-0.2843897,0.024750149,0.07345127,-0.04008187,0.15795496,-0.01377911,0.017588465,0.037640832,-0.04226804,-0.0616711,0.022157274,0.062234297,0.08337823,0.39333323,-2.0,0.38990387,0.5877515,-2.0,-0.012562584,-2.0,2.0,-0.28929147,-2.0,2.0,-0.12804812,2.0,-2.0,0.72740215,-0.2684622,-2.0,-0.14080115,-2.0,2.0,-0.041499086,-2.0,2.0,0.40684253,2.0
2025-06-05 16:18:31.545,0.12503749,0.07013367,0.024349941,-0.056592587,-0.037977394,-0.022163142,0.0,0.0,0.0,-0.0043977997,-0.17721343,0.18878388,-0.018696321,0.05220984,0.060964838,-0.025310334,-0.04377466,-0.17270142,-0.22872178,0.029762968,-0.20864297,0.15308125,-0.00025890648,0.10994946,-0.05260838,0.053623594,-0.034218777,0.06722695,-0.019617887,0.051984444,-0.092628784,0.112690374,0.21682128,0.32359847,-2.0,0.72740215,-0.2684622,-2.0,-0.14080115,-2.0,2.0,-0.041499086,-2.0,2.0,0.40684253,2.0,-2.0,0.9473794,-1.9904263,-2.0,0.74152046,-2.0,2.0,-0.06132529,-2.0,2.0,-0.1213962,-0.5115968
2025-06-05 16:18:31.565,0.053000342,0.12759542,0.026489833,-0.047577478,-0.0140725495,0.047917075,0.0,0.0,0.0,-0.0043444764,-0.19193168,0.23957913,-0.1164041,0.03909158,0.06802625,-0.02983244,-0.034110773,-0.17437711,-0.2425509,0.08982392,-0.11458591,0.14984076,0.037378665,0.23404507,-0.3221643,-0.08384302,-0.05944146,-0.081546016,-0.02834224,-0.05486783,-0.056645487,0.09220407,0.13673785,-0.16049924,-2.0,0.9473794,-1.9904263,-2.0,0.74152046,-2.0,2.0,-0.06132529,-2.0,2.0,-0.1213962,-0.5115968,1.5475327,0.5463562,-2.0,-2.0,0.91291124,-2.0,2.0,0.016356863,-2.0,0.15537775,-0.45887437,-2.0
2025-06-05 16:18:31.589,0.012456783,-0.20167086,-0.021681152,-0.029342223,0.042647384,0.036603827,0.0,0.0,0.0,-0.0040608384,-0.17650889,0.27022406,-0.18419576,0.042400613,0.06537235,-0.047182318,-0.02995163,-0.1772733,-0.2637068,0.10318214,-0.06974261,0.030037306,-0.013157893,0.043262392,-0.093039215,0.0039987518,0.04039372,-0.13542925,0.02108765,0.034920104,-0.12026379,-0.019979244,0.013251714,-0.43030542,1.5475327,0.5463562,-2.0,-2.0,0.91291124,-2.0,2.0,0.016356863,-2.0,0.15537775,-0.45887437,-2.0,2.0,0.46507236,-2.0,-2.0,0.31769907,2.0,-1.1119882,-0.8066007,0.74362314,-2.0,-0.35655868,-2.0
2025-06-05 16:18:31.606,-0.14714363,-0.31008652,0.00278299,0.026637252,0.012720434,-0.004187354,0.0,0.0,0.0,-0.0040185456,-0.1591954,0.26339194,-0.20428793,0.029593859,0.03096751,0.04566725,-0.022648724,-0.19846761,-0.18842843,0.055125788,-0.093086295,-0.13574868,0.051059302,-0.024516419,-0.110211514,-0.040419802,-0.064445585,0.25996122,-0.05755474,-0.1930196,0.30498412,-0.077232994,-0.070955135,-0.35266915,2.0,0.46507236,-2.0,-2.0,0.31769907,2.0,-1.1119882,-0.8066007,0.74362314,-2.0,-0.35655868,-2.0,2.0,0.3779383,-2.0,1.4494709,-0.11016552,2.0,-2.0,-1.5496466,2.0,-2.0,0.46210694,-2.0
2025-06-05 16:18:31.626,-0.045410223,-0.121880494,-0.028958067,-0.0072143585,0.022707386,-0.014887756,0.0,0.0,0.0,-0.0042491844,-0.14200588,0.23794019,-0.22084516,0.028843418,0.00688356,0.17542413,-0.05081627,-0.30482283,-0.017035136,0.047951236,-0.104042925,-0.20586902,-0.030634394,-0.012848903,0.022227725,-0.05649093,-0.06505155,0.28466302,-0.035535548,-0.25466132,0.5245308,0.03888546,-0.08463862,-0.041091193,2.0,0.3779383,-2.0,1.4494709,-0.11016552,2.0,-2.0,-1.5496466,2.0,-2.0,0.46210694,-2.0,-2.0,1.2726812,-2.0,2.0,0.5617072,0.6655227,-2.0,-0.5367694,1.5681316,-2.0,-0.9188594,-2.0
2025-06-05 16:18:31.646,-0.045473933,0.0043070433,0.060882866,-0.0145479925,0.042192113,0.0054297154,0.0,0.0,0.0,-0.0044530174,-0.15019359,0.2416186,-0.21699806,0.03518558,0.044366725,0.23516013,-0.090095244,-0.35092407,0.12718186,0.044049326,-0.12010525,-0.20944834,-0.00081350113,0.024412392,0.009683925,0.058918674,0.106649026,0.0780491,-0.15609998,-0.028529292,0.38224736,-0.07246378,-0.037634276,0.09483989,-2.0,1.2726812,-2.0,2.0,0.5617072,0.6655227,-2.0,-0.5367694,1.5681316,-2.0,-0.9188594,-2.0,-2.0,-0.37260625,-2.0,2.0,0.0017064102,-2.0,2.0,0.14205453,-2.0,-2.0,-0.119864,-2.0
2025-06-05 16:18:31.666,0.10002492,0.08069762,0.012213339,-0.030869992,0.05350642,-0.038991794,0.0,0.0,0.0,-0.0054803,-0.1643536,0.23443392,-0.21714668,0.086160585,0.094371416,0.103556626,-0.08793791,-0.29855838,0.05391322,0.032532163,-0.15322742,-0.20094787,-0.05458208,-0.05030189,0.025195627,0.14764893,0.11579684,-0.36669543,0.05005048,0.18132555,-0.2741701,-0.035701517,0.050861537,0.056782812,-2.0,-0.37260625,-2.0,2.0,0.0017064102,-2.0,2.0,0.14205453,-2.0,-2.0,-0.119864,-2.0,-2.0,-0.5897362,-0.447715,-0.60477096,0.6110723,-2.0,2.0,0.19063759,-2.0,-2.0,-1.8565483,1.1885184
2025-06-05 16:18:31.689,-0.027325783,0.10377762,-0.016909271,-0.010110644,0.0028519854,0.033652358,0.0,0.0,0.0,-0.006217867,-0.18145396,0.155509,-0.17985973,0.0947022,0.12269872,-0.077241555,-0.02989524,-0.20830879,-0.08902867,-0.01889202,-0.2511684,-0.081480086,0.032198332,-0.22465932,0.04067773,-0.059758853,0.090100735,-0.51509696,0.16179918,0.23738682,-0.4019896,-0.21248814,-0.4586241,0.35518607,-2.0,-0.5897362,-0.447715,-0.60477096,0.6110723,-2.0,2.0,0.19063759,-2.0,-2.0,-1.8565483,1.1885184,-2.0,-0.14544514,2.0,-2.0,-0.39738783,-2.0,2.0,0.1513376,-2.0,2.0,-0.70767426,2.0
2025-06-05 16:18:31.706,-0.0662725,0.057887904,0.043207124,-0.033280186,0.009063464,0.0013648315,0.0,0.0,0.0,-0.0062530832,-0.18290012,0.07296789,-0.031612568,0.06719736,0.12379969,-0.123773105,-0.005099928,-0.1377248,-0.20819375,-0.018135948,-0.35335836,0.0695488,0.01731052,-0.25725025,0.34623793,-0.037037723,-0.11818285,0.035425,-0.042521447,-0.012023,-0.11558015,0.07637558,-0.09343115,0.43583056,-2.0,-0.14544514,2.0,-2.0,-0.39738783,-2.0,2.0,0.1513376,-2.0,2.0,-0.70767426,2.0,-2.0,1.1815948,0.4438099,-2.0,0.28375065,-2.0,2.0,-0.51527566,-2.0,2.0,0.93237966,2.0
2025-06-05 16:18:31.727,0.051236074,0.09768518,-0.026237275,-0.029128449,0.017695734,0.008696391,0.0,0.0,0.0,-0.0059089228,-0.200841,0.09780933,0.049089734,0.061303854,0.088466175,-0.09404675,-0.009329276,-0.17097895,-0.19953342,0.030024234,-0.27291653,0.18612687,-0.034712523,0.14527996,0.096108444,-0.079801105,-0.0856795,0.11737376,-0.069847055,-0.092090584,0.10117984,0.15785041,0.2998739,0.24777773,-2.0,1.1815948,0.4438099,-2.0,0.28375065,-2.0,2.0,-0.51527566,-2.0,2.0,0.93237966,2.0,-2.0,1.1016567,-2.0,-2.0,0.5250738,-2.0,2.0,0.29148662,-2.0,2.0,0.1081752,-0.13434032
2025-06-05 16:18:31.746,0.19683485,0.07602352,-0.035132855,-0.048037767,0.015573632,-0.023978567,0.0,0.0,0.0,-0.005451397,-0.19991547,0.2118128,-0.04409212,0.05708804,0.07545116,-0.05264809,-0.020711295,-0.16049959,-0.19028638,0.08116645,-0.12256586,0.19928713,-0.006883801,0.31624627,-0.37845054,0.0070343874,0.0051829424,0.074368,0.054221537,0.042171,-0.014788842,0.034666132,0.29162568,-0.15135011,-2.0,1.1016567,-2.0,-2.0,0.5250738,-2.0,2.0,0.29148662,-2.0,2.0,0.1081752,-0.13434032,2.0,0.7475815,-2.0,-2.0,0.55285656,-2.0,2.0,-0.058016427,-2.0,-0.19057082,-0.4516341,-2.0
2025-06-05 16:18:31.767,0.072826706,-0.08428458,0.100032896,-0.06523063,-0.03280814,-0.036121402,0.0,0.0,0.0,-0.0052307835,-0.1697326,0.28439867,-0.15307824,0.055358365,0.070473,-0.048706647,-0.006739838,-0.17246571,-0.20602594,0.08768698,-0.060086664,0.071519524,0.12922509,0.020458175,-0.107299834,-0.028675757,-0.010656046,-0.037445083,-0.02436663,-0.0032758664,-0.10030265,-0.06256033,0.038168505,-0.4506791,2.0,0.7475815,-2.0,-2.0,0.55285656,-2.0,2.0,-0.058016427,-2.0,-0.19057082,-0.4516341,-2.0,2.0,-0.23542169,-2.0,-2.0,0.49974376,2.0,-1.0761269,-1.1874088,1.5080508,-2.0,0.13004409,-2.0
2025-06-05 16:18:31.789,-0.17865679,-0.1334887,0.005739295,-0.019400388,0.0148630245,0.019295009,0.0,0.0,0.0,-0.0058996864,-0.1676932,0.27536643,-0.1713363,0.037555214,0.0361896,0.048808616,-0.021199295,-0.23678516,-0.094938844,0.042393874,-0.037387896,-0.10124796,0.08498895,-0.046802077,-0.047718924,-0.11420486,-0.11329066,0.32955107,-0.055104785,-0.15623552,0.40625155,-0.13398677,0.10676392,-0.47995007,2.0,-0.23542169,-2.0,-2.0,0.49974376,2.0,-1.0761269,-1.1874088,1.5080508,-2.0,0.13004409,-2.0,1.1900985,0.2911744,-2.0,2.0,-0.012465369,2.0,-2.0,-1.2360637,2.0,-2.0,0.39314175,-2.0
2025-06-05 16:18:31.806,0.01881614,0.013680364,-0.04735106,-0.0015055208,0.02007164,-0.029674446,0.0,0.0,0.0,-0.0064759613,-0.15492609,0.2566762,-0.14487997,0.036638826,0.029429805,0.1936505,-0.030467022,-0.31474775,0.06441327,0.049937524,-0.049602762,-0.1504887,-0.024432989,-0.013273005,0.10158664,-0.023812119,-0.011003302,0.30729538,-0.07565158,-0.23930505,0.46604106,-0.02762315,-0.042648062,-0.0682565,1.1900985,0.2911744,-2.0,2.0,-0.012465369,2.0,-2.0,-1.2360637,2.0,-2.0,0.39314175,-2.0,-2.0,1.3288049,-2.0,2.0,0.46429443,-0.046424028,-2.0,-0.46497163,-0.0065836944,-2.0,-0.93268794,-2.0
2025-06-05 16:18:31.826,-0.037072685,0.029935015,-0.0045897025,-0.052000307,-0.013801539,0.022525072,0.0,0.0,0.0,-0.0062093968,-0.16525234,0.24359563,-0.13828647,0.059628688,0.060468514,0.19412354,-0.08075237,-0.35065022,0.115880065,0.02878511,-0.08166446,-0.13311428,0.043404993,0.021983217,0.012149991,0.10141094,0.07364323,-0.049687207,-0.13772357,-0.051243465,-0.05558521,0.0020701285,-0.06456523,0.07494107,-2.0,1.3288049,-2.0,2.0,0.46429443,-0.046424028,-2.0,-0.46497163,-0.0065836944,-2.0,-0.93268794,-2.0,-2.0,-0.013620473,-2.0,2.0,-0.025659394,-2.0,2.0,0.26302215,-2.0,-2.0,-0.63203895,-2.0
2025-06-05 16:18:31.894,-0.012119795,0.07385138,0.04964121,-0.0035902432,0.055368587,-0.01725227,0.0,0.0,0.0,-0.0065503027,-0.17877816,0.23426116,-0.14648494,0.10184386,0.09820687,0.057822406,-0.079341665,-0.27085537,0.0124331135,0.03003971,-0.10518037,-0.117832035,-0.04859663,-0.031870183,-0.05445673,0.1459842,0.030539587,-0.4914744,0.12297577,0.24113876,-0.32021236,-0.083652675,-0.042328525,0.104402706,-2.0,-0.013620473,-2.0,2.0,-0.025659394,-2.0,2.0,0.26302215,-2.0,-2.0,-0.63203895,-2.0,-2.0,-0.15657207,-1.3629998,-0.27221605,1.0352669,-2.0,2.0,0.1463727,-2.0,-2.0,-1.2929411,-0.35972413
2025-06-05 16:18:31.912,-0.1980027,0.109196916,-0.022454776,-0.038051274,0.041194774,-0.033059977,0.0,0.0,0.0,-0.0070707514,-0.19582702,0.20931622,-0.13328384,0.10859964,0.13350436,-0.110949166,-0.027379727,-0.19028284,-0.16022657,-0.0031401303,-0.1816002,-0.0764055,-0.0910723,-0.07346197,0.0687573,-0.05687277,0.1389904,-0.29429153,0.11986547,0.214756,-0.38213032,-0.03698494,-0.19928071,0.12883806,-2.0,-0.15657207,-1.3629998,-0.27221605,1.0352669,-2.0,2.0,0.1463727,-2.0,-2.0,-1.2929411,-0.35972413,-2.0,0.34991774,0.5393435,-2.0,-0.43560523,-2.0,2.0,0.34293094,-2.0,-0.4113004,-0.9967563,0.50851965
2025-06-05 16:18:31.931,-0.013915121,0.0115878545,0.07409735,0.023597298,0.025640132,-0.040196385,0.0,0.0,0.0,-0.0068956637,-0.19994585,0.19967785,-0.08598551,0.097366564,0.12321812,-0.14705473,-0.022363424,-0.1648728,-0.20060994,-0.031753022,-0.26785034,-0.02660357,-0.056011975,-0.042342875,0.1896508,0.059587236,-0.064721644,0.010497834,0.056898516,-0.057298206,0.03733468,-0.07358516,-0.1902273,0.09975159,-2.0,0.34991774,0.5393435,-2.0,-0.43560523,-2.0,2.0,0.34293094,-2.0,-0.4113004,-0.9967563,0.50851965,-2.0,0.35405877,-0.37061125,-2.0,0.4151261,-2.0,2.0,-0.13734743,-2.0,2.0,0.07204586,2.0
2025-06-05 16:18:31.951,0.18510728,0.004993252,0.0039547873,0.021393891,-0.04039424,0.04554925,0.0,0.0,0.0,-0.0074328105,-0.18416594,0.18323968,-0.057438232,0.09857573,0.10948261,-0.10021044,-0.030826828,-0.18649492,-0.19806221,-0.015835715,-0.26841938,0.08885533,0.076159924,-0.06012352,0.006051177,0.0074363425,0.007827089,0.12465629,-0.07211944,-0.06695811,0.07166507,0.06439241,0.08934776,0.37812775,-2.0,0.35405877,-0.37061125,-2.0,0.4151261,-2.0,2.0,-0.13734743,-2.0,2.0,0.07204586,2.0,-2.0,1.0193434,-0.74051857,-2.0,0.063192055,-2.0,2.0,-0.22828597,-2.0,2.0,0.055919994,0.3274097
2025-06-05 16:18:31.973,0.12829092,0.11093571,-0.02345128,-0.010156001,0.015391073,-0.011592646,0.0,0.0,0.0,-0.007638498,-0.19599883,0.2368061,-0.100577086,0.0935454,0.082142204,-0.07142954,-0.037745543,-0.19311962,-0.1944741,0.027316099,-0.19927673,0.12662071,-0.04959612,0.1422326,-0.09145561,0.028143015,-0.05924133,0.109859504,-0.07064646,0.055083632,0.049117472,0.054243334,0.20344451,0.08444848,-2.0,1.0193434,-0.74051857,-2.0,0.063192055,-2.0,2.0,-0.22828597,-2.0,2.0,0.055919994,0.3274097,-2.0,0.7564753,-2.0,-2.0,0.344424,-2.0,2.0,0.1840542,-2.0,1.6913209,-0.19879384,-2.0
2025-06-05 16:18:31.992,0.1188596,0.013111512,0.04420848,-0.034980923,-0.050914254,0.018851684,0.0,0.0,0.0,-0.007471084,-0.20325115,0.26234493,-0.13820988,0.09577549,0.07169605,-0.07240389,-0.045332402,-0.18115456,-0.20551866,0.08574127,-0.12320965,0.021240247,0.061602917,0.044543028,-0.028452504,0.03954263,0.019281933,0.018300166,0.012853123,0.01864897,-0.12756309,0.1107274,0.07611393,-0.38897943,-2.0,0.7564753,-2.0,-2.0,0.344424,-2.0,2.0,0.1840542,-2.0,1.6913209,-0.19879384,-2.0,2.0,0.65122616,-2.0,-2.0,0.9960963,-2.0,2.0,-0.25516674,-2.0,-0.90993744,-0.49755865,-2.0
2025-06-05 16:18:32.011,-0.036458533,-0.26573694,-0.0075653717,-0.024017239,-0.017355451,0.0333065,0.0,0.0,0.0,-0.0073720226,-0.18845032,0.27051783,-0.17667295,0.089277014,0.07081917,-0.090896554,-0.037085697,-0.17926179,-0.23900698,0.083101295,-0.11472297,-0.12421633,0.043104723,-0.06194137,-0.036944654,-0.008361151,0.01232129,-0.034413327,0.035303175,0.08665162,-0.037973996,0.026953377,0.015735202,-0.43019408,2.0,0.65122616,-2.0,-2.0,0.9960963,-2.0,2.0,-0.25516674,-2.0,-0.90993744,-0.49755865,-2.0,2.0,0.59276897,-2.0,-2.0,0.34982967,2.0,-1.9581454,-1.0857505,1.6871735,-2.0,-0.04742388,-2.0
2025-06-05 16:18:32.031,-0.06651329,-0.1044451,-0.020844579,-0.03840004,0.023788879,-0.0477593,0.0,0.0,0.0,-0.007377952,-0.17196989,0.25575396,-0.19770418,0.07152194,0.052337583,0.01313914,-0.044625044,-0.2214947,-0.118244395,0.048836514,-0.118189804,-0.22892605,-0.009959403,0.046511237,-0.042948913,-0.10519067,0.047537226,0.27051583,0.0029492322,-0.22215332,0.41870892,0.011219158,-0.02114279,-0.08825463,2.0,0.59276897,-2.0,-2.0,0.34982967,2.0,-1.9581454,-1.0857505,1.6871735,-2.0,-0.04742388,-2.0,1.104871,0.8060007,-2.0,2.0,-0.17547251,2.0,-2.0,-1.1789913,2.0,-2.0,-0.08041714,-2.0
2025-06-05 16:18:32.053,-0.0052307304,-0.10854014,0.07715665,-0.018221384,-0.013779851,0.0032346859,0.0,0.0,0.0,-0.007408727,-0.16827309,0.26855832,-0.21309106,0.039365254,0.032336377,0.15552875,-0.063608475,-0.3046831,0.054322902,0.05139405,-0.1308788,-0.24378052,0.044337437,0.039069265,-0.045579374,-0.00088947534,-0.12748359,0.31175464,-0.059877526,-0.22541505,0.45315444,0.046186037,0.023453893,-0.03054839,1.104871,0.8060007,-2.0,2.0,-0.17547251,2.0,-2.0,-1.1789913,2.0,-2.0,-0.08041714,-2.0,-2.0,0.41129532,-2.0,2.0,0.19788055,1.1612484,-2.0,-0.46167335,0.17068437,-2.0,-0.14562114,-2.0
2025-06-05 16:18:32.073,0.097322404,0.11848151,0.053650938,0.02077026,-0.0061494196,0.015338944,0.0,0.0,0.0,-0.0081857955,-0.17682609,0.26453346,-0.22646275,0.068556346,0.04839466,0.24815579,-0.09712009,-0.31841516,0.11690752,0.03884074,-0.13741317,-0.2445724,0.0020868187,0.023185745,0.07773356,0.06999294,0.0230193,0.20730388,-0.077020615,-0.014959085,0.06977729,-0.0012291257,-0.008470951,-0.035173833,-2.0,0.41129532,-2.0,2.0,0.19788055,1.1612484,-2.0,-0.46167335,0.17068437,-2.0,-0.14562114,-2.0,-2.0,-0.27441987,-2.0,2.0,-0.24871226,-2.0,2.0,0.28093943,-2.0,-2.0,-0.57840776,-2.0
2025-06-05 16:18:32.095,0.04363109,0.008725154,0.040724862,-0.04044963,0.011575186,-0.028085146,0.0,0.0,0.0,-0.009018884,-0.17430185,0.24094953,-0.2094227,0.09914816,0.040066782,0.121666096,-0.10491992,-0.25618088,0.018188462,0.028293544,-0.1372272,-0.24087107,-0.018080667,-0.024928158,-0.0048904484,0.16954882,-0.06101007,-0.4820857,0.06995408,0.28231844,-0.44145003,-0.030155491,-0.007923224,0.0123333745,-2.0,-0.27441987,-2.0,2.0,-0.24871226,-2.0,2.0,0.28093943,-2.0,-2.0,-0.57840776,-2.0,-2.0,-0.48200163,-0.43360922,-0.74883056,1.0268027,-2.0,2.0,0.21210101,-2.0,-2.0,-1.7231416,1.8143724
2025-06-05 16:18:32.123,-0.05327608,0.047689527,0.02440061,-0.024536338,0.051573887,0.021684127,0.0,0.0,0.0,-0.009624537,-0.18769659,0.17542297,-0.16839929,0.09598033,0.100371405,-0.067297004,-0.05443302,-0.16183874,-0.14375779,-0.015442828,-0.25921956,-0.11277309,-0.098918594,-0.14861023,0.03470797,-0.082178034,0.14427288,-0.49542844,0.1252428,0.2904251,-0.38621703,-0.15335245,-0.29446152,0.5155251,-2.0,-0.48200163,-0.43360922,-0.74883056,1.0268027,-2.0,2.0,0.21210101,-2.0,-2.0,-1.7231416,1.8143724,-2.0,0.03923443,2.0,-2.0,-0.42728,-2.0,2.0,-0.104379974,-2.0,2.0,-0.4598107,2.0
2025-06-05 16:18:32.140,-0.09792463,0.008095179,0.0055640675,-0.03953194,-0.01104682,-0.00413252,0.0,0.0,0.0,-0.009581343,-0.19549523,0.1098781,-0.03546944,0.072602734,0.104689665,-0.14851439,0.0043325755,-0.12925075,-0.23229048,-0.02830625,-0.33914766,0.06413833,-0.06352314,-0.18317996,0.46145022,0.03889264,0.009087093,-0.075306535,-0.03993502,-0.07205997,-0.04652916,0.037042305,-0.14227873,0.36237773,-2.0,0.03923443,2.0,-2.0,-0.42728,-2.0,2.0,-0.104379974,-2.0,2.0,-0.4598107,2.0,-2.0,0.90151167,0.1504825,-2.0,-0.04685129,-2.0,2.0,-0.15808785,-2.0,2.0,1.0074085,2.0
2025-06-05 16:18:32.159,0.089871325,0.08321988,0.0016328181,-0.054442275,-0.015110459,-0.025392523,0.0,0.0,0.0,-0.008811003,-0.20121561,0.11441113,0.028352028,0.074522234,0.06409877,-0.1123142,-0.0015720852,-0.14650594,-0.22698373,0.027698614,-0.23396774,0.20877357,-0.041509397,0.14150326,0.1443588,-0.079070225,-0.03883189,0.091476165,-0.044316106,-0.056689084,-0.0050928756,0.11832251,0.33102587,0.3613933,-2.0,0.90151167,0.1504825,-2.0,-0.04685129,-2.0,2.0,-0.15808785,-2.0,2.0,1.0074085,2.0,-2.0,1.0749363,-2.0,-2.0,0.7037049,-2.0,2.0,0.16728508,-2.0,2.0,-0.1011578,-0.4429858
2025-06-05 16:18:32.179,0.12786496,0.07181073,0.009491827,0.012372876,-0.03242864,0.0121043,0.0,0.0,0.0,-0.008204045,-0.21220993,0.21548507,-0.05759543,0.072470084,0.044041507,-0.06430067,-0.008423317,-0.16361016,-0.21654513,0.06842453,-0.09639351,0.19863571,-0.07345625,0.25496352,-0.3367824,-0.020957831,-0.11750463,0.06689454,-0.0010310055,-0.0100039765,-0.030782204,0.055965584,0.21196288,-0.09312238,-2.0,1.0749363,-2.0,-2.0,0.7037049,-2.0,2.0,0.16728508,-2.0,2.0,-0.1011578,-0.4429858,2.0,0.77354324,-2.0,-2.0,0.8924406,-2.0,2.0,-0.030122764,-2.0,0.022706574,-0.4443438,-2.0
2025-06-05 16:18:32.199,0.084034,-0.10209507,0.052333027,-0.009458709,0.025306966,0.02795107,0.0,0.0,0.0,-0.008065616,-0.1674943,0.26777115,-0.15734164,0.056960147,0.027961072,-0.04042405,-0.015458328,-0.15805067,-0.21461526,0.083788544,-0.04471996,0.046790227,0.051105462,0.017402725,-0.20814726,0.017507648,-0.055473782,-0.013079304,0.079612345,-0.012324241,-0.09499839,0.06607459,0.004834166,-0.35395053,2.0,0.77354324,-2.0,-2.0,0.8924406,-2.0,2.0,-0.030122764,-2.0,0.022706574,-0.4443438,-2.0,2.0,0.061150722,-2.0,-2.0,0.42444623,2.0,-1.3026339,-1.1392435,0.9987992,-2.0,-0.122671604,-2.0
2025-06-05 16:18:32.223,-0.1141195,-0.20890535,0.054405957,-0.02637878,0.018752279,-0.023108628,0.0,0.0,0.0,-0.008608148,-0.17274825,0.26718885,-0.16030324,0.044907898,0.0025960137,0.059405115,-0.01034516,-0.22213264,-0.13944523,0.050070107,-0.055337265,-0.12450767,-0.033336397,-0.06526334,-0.018396692,-0.1515629,-0.0028556744,0.28002363,-0.06881846,-0.22020686,0.22000615,-0.14341462,-0.0561721,-0.48069996,2.0,0.061150722,-2.0,-2.0,0.42444623,2.0,-1.3026339,-1.1392435,0.9987992,-2.0,-0.122671604,-2.0,1.3166361,0.27613991,-2.0,1.6464751,0.0136545785,2.0,-2.0,-1.2830421,2.0,-2.0,0.62851363,-2.0
2025-06-05 16:18:32.239,0.007388984,-0.04098288,0.0047763744,0.0102467295,0.024237985,0.008438983,0.0,0.0,0.0,-0.009240331,-0.17094383,0.23871051,-0.16182975,0.04135113,0.0017556717,0.19270885,-0.02924599,-0.30395022,0.034993596,0.034820955,-0.052288976,-0.18012106,0.048631847,-0.07921895,0.028211141,0.06866462,-0.042259365,0.29000255,-0.06950549,-0.27533346,0.46014017,0.0070387796,-0.047165368,0.009056632,1.3166361,0.27613991,-2.0,1.6464751,0.0136545785,2.0,-2.0,-1.2830421,2.0,-2.0,0.62851363,-2.0,-2.0,1.1225235,-2.0,2.0,0.5750068,1.280012,-2.0,-0.507154,1.1269318,-2.0,-0.6943222,-2.0
2025-06-05 16:18:32.259,0.010086794,0.0070940233,0.04463848,-0.022540096,-0.026467469,-0.009188594,0.0,0.0,0.0,-0.00892328,-0.18051131,0.24309103,-0.13790564,0.054544732,0.03455687,0.2638873,-0.08438142,-0.34819868,0.14268136,0.033136558,-0.07394027,-0.17136243,-0.042049915,-0.08429637,0.03460575,0.046701312,0.22137314,0.11832874,-0.1291833,0.038427807,0.1706964,0.0068606106,0.018524814,0.015730787,-2.0,1.1225235,-2.0,2.0,0.5750068,1.280012,-2.0,-0.507154,1.1269318,-2.0,-0.6943222,-2.0,-2.0,0.062439583,-2.0,2.0,-0.03513975,-1.3299248,1.713255,0.06613765,-2.0,-2.0,-0.33873838,-2.0
2025-06-05 16:18:32.279,0.03807459,-0.0053962874,-0.0061750384,0.0027557455,-0.016266182,-0.04731013,0.0,0.0,0.0,-0.008825865,-0.17358796,0.22102016,-0.13090219,0.10086235,0.08541115,0.17216931,-0.08474789,-0.28438064,0.053221755,0.039608564,-0.08852625,-0.15054476,0.021275776,-0.042723946,0.011024699,0.13847251,0.086371966,-0.37747058,0.009198529,0.20424435,-0.3059033,0.0048835333,-0.049847938,-0.050384082,-2.0,0.062439583,-2.0,2.0,-0.03513975,-1.3299248,1.713255,0.06613765,-2.0,-2.0,-0.33873838,-2.0,-2.0,-0.29921433,-1.7628181,-0.3450022,0.5736921,-2.0,2.0,0.30504444,-2.0,-2.0,-1.6175766,-0.67052746
2025-06-05 16:18:32.299,-0.19102299,0.031129302,-0.016926412,-0.036622945,0.04557266,0.030917646,0.0,0.0,0.0,-0.008609856,-0.19769107,0.21056233,-0.13820192,0.089227736,0.11976174,-0.0062575815,-0.0325972,-0.20414108,-0.108252876,0.017000966,-0.17635179,-0.100751124,-0.084703416,-0.062395502,0.06387178,-0.033674926,0.0913471,-0.52994686,0.15189265,0.21075796,-0.48578376,-0.057064302,-0.31205493,0.09596819,-2.0,-0.29921433,-1.7628181,-0.3450022,0.5736921,-2.0,2.0,0.30504444,-2.0,-2.0,-1.6175766,-0.67052746,-2.0,-0.078260876,1.031621,-2.0,-0.15663405,-2.0,2.0,0.40842134,-2.0,-1.5073092,-1.407487,1.5375357
2025-06-05 16:18:32.322,-0.0001108219,0.0030032801,0.014717933,-0.06515283,0.04204366,0.011251512,0.0,0.0,0.0,-0.007859173,-0.20132957,0.15236028,-0.06094506,0.084866144,0.11472945,-0.10451188,-0.01460015,-0.14138567,-0.20545025,-0.037707098,-0.3131619,0.0049600904,0.012783119,-0.07357363,0.1755363,-0.0960655,-0.0992592,-0.029193098,-0.027752835,0.005381253,-0.031699117,-0.1235957,-0.25848246,0.32976887,-2.0,-0.078260876,1.031621,-2.0,-0.15663405,-2.0,2.0,0.40842134,-2.0,-1.5073092,-1.407487,1.5375357,-2.0,0.41387063,1.0183815,-2.0,-0.32124943,-2.0,2.0,-0.05592542,-2.0,2.0,0.29302907,2.0
2025-06-05 16:18:32.339,0.1353526,0.004858962,-0.0009922849,-0.007744866,0.017603906,0.047588453,0.0,0.0,0.0,-0.0073544146,-0.19897065,0.13860308,0.020323636,0.07897279,0.08349332,-0.060730837,-0.015331183,-0.15054151,-0.20129178,-0.04337181,-0.30533963,0.14240816,-0.04429877,-0.08293704,0.26945817,-0.026277032,-0.07550301,0.090317145,-0.046167105,0.0005562406,0.07247634,0.14834234,0.12226984,0.32288584,-2.0,0.41387063,1.0183815,-2.0,-0.32124943,-2.0,2.0,-0.05592542,-2.0,2.0,0.29302907,2.0,-2.0,0.9020138,-0.5820635,-2.0,0.093317196,-2.0,2.0,-0.17102218,-2.0,2.0,0.47277522,2.0
2025-06-05 16:18:32.359,0.047017362,0.029126436,-0.030365191,0.01055894,-0.024966588,-0.025345631,0.0,0.0,0.0,-0.0070451503,-0.19872145,0.18065037,0.034231283,0.074077964,0.055409882,-0.02394402,-0.028032362,-0.17371495,-0.2058124,0.0068037813,-0.21074627,0.25454396,0.03312343,0.16100991,-0.047727086,0.023955315,-0.11548213,0.14085703,0.03421587,-0.008743776,-0.039108854,0.10164118,0.37352866,0.19973683,-2.0,0.9020138,-0.5820635,-2.0,0.093317196,-2.0,2.0,-0.17102218,-2.0,2.0,0.47277522,2.0,-2.0,1.177277,-2.0,-2.0,0.76627034,-2.0,2.0,0.11171929,-2.0,2.0,0.0010536201,-2.0
2025-06-05 16:18:32.379,0.09287917,0.17445388,0.023016635,-0.04191387,-0.003646852,0.018764243,0.0,0.0,0.0,-0.0065850597,-0.18845181,0.2706041,-0.08220258,0.047080163,0.036261555,-0.017946748,-0.027002627,-0.17019063,-0.23070435,0.072158225,-0.093829565,0.16225506,-0.034019835,0.28119725,-0.29097363,-0.00057520275,0.025325025,0.07720666,0.0016118461,0.08366707,-0.04863657,0.0437237,0.1938517,-0.36960107,-2.0,1.177277,-2.0,-2.0,0.76627034,-2.0,2.0,0.11171929,-2.0,2.0,0.0010536201,-2.0,2.0,0.49125758,-2.0,-2.0,0.8262584,-2.0,2.0,-0.029951952,-2.0,-1.2381268,-0.5504375,-2.0
2025-06-05 16:18:32.400,-0.035587955,-0.22898845,0.050761312,-0.0814867,-0.0043788655,0.035300795,0.0,0.0,0.0,-0.006156237,-0.19385189,0.3040726,-0.16783953,0.05640215,0.041812476,-0.018520193,-0.022302702,-0.15824468,-0.23553759,0.05945626,-0.060614597,-0.031327903,0.07138044,0.027986566,-0.16867758,0.0028049408,-0.0035666083,-0.035222225,0.04070322,-0.03869868,-0.099983126,-0.064757295,0.029926147,-0.44980007,2.0,0.49125758,-2.0,-2.0,0.8262584,-2.0,2.0,-0.029951952,-2.0,-1.2381268,-0.5504375,-2.0,2.0,0.28946432,-2.0,-2.0,0.5179696,2.0,-1.6189531,-1.2110534,1.4551518,-2.0,0.13673387,-2.0
2025-06-05 16:18:32.423,-0.16690381,-0.014705729,0.03223876,-0.04200494,0.036653463,0.021301549,0.0,0.0,0.0,-0.0065054777,-0.1894096,0.28966352,-0.19391648,0.03627136,0.01165621,0.055963412,-0.024908269,-0.22165357,-0.12972799,0.035602454,-0.054871235,-0.16002195,0.017862782,-0.07193727,-0.048213102,-0.036167275,-0.06619525,0.25961676,-0.013490259,-0.18391164,0.31952596,0.011802361,-0.016174039,-0.13990973,2.0,0.28946432,-2.0,-2.0,0.5179696,2.0,-1.6189531,-1.2110534,1.4551518,-2.0,0.13673387,-2.0,1.2637268,0.45575166,-2.0,2.0,-0.07466008,2.0,-2.0,-1.1905775,2.0,-2.0,0.16366018,-2.0
2025-06-05 16:18:32.440,0.0064024236,-0.0051838793,0.042218145,-0.045643244,0.027935117,-0.041934147,0.0,0.0,0.0,-0.006514723,-0.1810429,0.2876576,-0.20099826,0.025795821,0.020657653,0.18694246,-0.05481549,-0.29996404,0.045735344,0.034628406,-0.054884832,-0.17001583,0.048501268,-0.084502354,0.05611461,0.096960805,0.023899153,0.32729086,0.01014373,-0.23159575,0.4759064,-0.05593576,-0.06745111,-0.030984536,1.2637268,0.45575166,-2.0,2.0,-0.07466008,2.0,-2.0,-1.1905775,2.0,-2.0,0.16366018,-2.0,-2.0,0.9662862,-2.0,2.0,0.43803352,1.2692472,-2.0,-0.5708774,0.58280575,-2.0,-0.33829743,-2.0
2025-06-05 16:18:32.460,0.02713617,0.12457069,0.021819903,-0.013009866,0.01188636,0.013288429,0.0,0.0,0.0,-0.0064158156,-0.19033413,0.27746084,-0.19376203,0.06243343,0.04996221,0.2735283,-0.10117397,-0.34626687,0.13637717,0.023805656,-0.0812247,-0.17572887,-0.04983106,-0.07540268,0.043132965,0.008909067,0.19079527,0.112635195,-0.15966514,-0.050197624,0.14864004,-0.0018154961,-0.013565375,0.07273047,-2.0,0.9662862,-2.0,2.0,0.43803352,1.2692472,-2.0,-0.5708774,0.58280575,-2.0,-0.33829743,-2.0,-2.0,-0.092324115,-2.0,2.0,-0.4304512,-2.0,1.8574117,0.1908238,-2.0,-2.0,-0.5976315,-2.0
2025-06-05 16:18:32.480,-0.045253325,0.009649642,0.050679952,-0.07557206,0.041048594,-0.046554957,0.0,0.0,0.0,-0.0066248295,-0.20725088,0.26481935,-0.1975742,0.1105872,0.044553667,0.15502538,-0.08551333,-0.27259815,0.04065675,0.02213632,-0.092917435,-0.18107189,-0.06845534,-0.05293065,-0.02637747,0.14406417,0.0066382186,-0.4966089,0.062093623,0.21166009,-0.33529085,-0.09203597,-0.06557973,0.03446012,-2.0,-0.092324115,-2.0,2.0,-0.4304512,-2.0,1.8574117,0.1908238,-2.0,-2.0,-0.5976315,-2.0,-2.0,-0.39988145,-1.0916268,-0.6392745,1.143848,-2.0,2.0,0.2557688,-2.0,-2.0,-1.6082226,1.0097663
2025-06-05 16:18:32.506,-0.093097225,-0.039575618,-0.038851675,0.008001322,0.0034486298,0.014495591,0.0,0.0,0.0,-0.0069704764,-0.20575549,0.22188373,-0.17928213,0.10431153,0.09335598,-0.04114028,-0.045205455,-0.18894787,-0.12573917,-0.02239583,-0.20461115,-0.083829,-0.065706715,-0.11643343,0.07722336,-0.022246554,0.23825161,-0.46273407,0.19501115,0.172222,-0.45842564,-0.1269834,-0.41937733,0.25026003,-2.0,-0.39988145,-1.0916268,-0.6392745,1.143848,-2.0,2.0,0.2557688,-2.0,-2.0,-1.6082226,1.0097663,-2.0,-0.1072303,2.0,-2.0,-0.8920981,-2.0,2.0,0.21360424,-2.0,1.3963827,-1.0068672,2.0
2025-06-05 16:18:32.523,-0.09761304,-0.051193397,-0.048625622,-0.036518924,-0.033784006,-0.039540626,0.0,0.0,0.0,-0.0067071826,-0.21961322,0.14537258,-0.05790621,0.08185364,0.09119452,-0.13827637,-0.0071285013,-0.12934639,-0.23663726,-0.032657664,-0.3255477,0.05853659,-0.028276088,-0.22843227,0.37680387,0.051435594,-0.13218954,-0.017063765,0.04412217,-0.060174078,-0.05124258,-0.016281182,-0.3009516,0.3160341,-2.0,-0.1072303,2.0,-2.0,-0.8920981,-2.0,2.0,0.21360424,-2.0,1.3963827,-1.0068672,2.0,-2.0,0.7719404,0.7854999,-2.0,-0.3548429,-2.0,2.0,0.008600213,-2.0,2.0,1.144006,2.0
2025-06-05 16:18:32.541,0.17409128,-0.03923054,0.057245947,0.03241345,-0.022698693,0.0021843116,0.0,0.0,0.0,-0.0061978637,-0.22674893,0.13191687,0.061893936,0.099020325,0.064696565,-0.09775848,-0.0039089094,-0.15443301,-0.239953,0.0040588696,-0.2481932,0.18272188,0.043245334,9.4695984e-05,0.22313505,-0.049679868,-0.093605965,0.10786969,-0.0609974,-0.050170448,-0.0012926402,0.08864972,0.37210232,0.26771402,-2.0,0.7719404,0.7854999,-2.0,-0.3548429,-2.0,2.0,0.008600213,-2.0,2.0,1.144006,2.0,-2.0,1.0893015,-2.0,-2.0,1.2858921,-2.0,2.0,-0.08518672,-2.0,2.0,-0.15969379,0.94148254
2025-06-05 16:18:32.561,0.08127918,0.13990167,0.02210702,-0.014934564,0.00376153,-0.015774792,0.0,0.0,0.0,-0.0063379095,-0.2201434,0.2148053,-0.007096381,0.09380591,0.04397812,-0.06729848,0.0013369384,-0.17323823,-0.21155487,0.062964305,-0.12293716,0.2537593,4.8327736e-05,0.29420498,-0.36157045,0.017770102,0.024361448,0.082766965,0.01280233,-0.08686851,0.09888292,0.10470614,0.31097248,0.05536084,-2.0,1.0893015,-2.0,-2.0,1.2858921,-2.0,2.0,-0.08518672,-2.0,2.0,-0.15969379,0.94148254,2.0,0.73435444,-2.0,-2.0,1.0623937,-2.0,2.0,-0.0915448,-2.0,1.5483621,-0.37399673,-2.0
2025-06-05 16:18:32.580,0.061785623,0.019048516,0.020386942,-0.0147151165,0.023622015,-0.037315708,0.0,0.0,0.0,-0.0063212262,-0.17416574,0.29161966,-0.15540546,0.093539625,0.030189436,-0.06034659,0.0025525982,-0.18319888,-0.22641696,0.0826861,-0.072720446,0.13131422,0.17727481,0.14152706,-0.27799094,-0.0026242812,0.047646433,0.03855485,0.07550249,0.030808229,-0.021816893,0.045535836,0.15688577,-0.35741878,2.0,0.73435444,-2.0,-2.0,1.0623937,-2.0,2.0,-0.0915448,-2.0,1.5483621,-0.37399673,-2.0,2.0,-0.19644845,-2.0,-2.0,0.33688074,2.0,-0.24783145,-0.87661105,0.37604493,-2.0,-0.3979862,-2.0
2025-06-05 16:18:32.606,-0.15054348,-0.16975048,-0.04156796,-0.06659332,-0.021447413,0.049722426,0.0,0.0,0.0,-0.0060732793,-0.16348562,0.27404654,-0.177946,0.05826898,-0.013774742,0.051222846,0.0022798788,-0.22664386,-0.16812296,0.07083229,-0.061943796,-0.061184857,0.08892871,0.007639543,-0.04869016,-0.025380814,-0.11053329,0.24996307,0.036576856,-0.11988621,0.21307969,-0.12162808,-0.031055842,-0.4311236,2.0,-0.19644845,-2.0,-2.0,0.33688074,2.0,-0.24783145,-0.87661105,0.37604493,-2.0,-0.3979862,-2.0,2.0,0.6005386,-2.0,0.853588,0.40204114,2.0,-2.0,-1.4948195,2.0,-2.0,0.23511054,-2.0
2025-06-05 16:18:32.622,-0.021644006,-0.13240363,-0.0125274295,0.029822694,-0.017320417,-0.0010251503,0.0,0.0,0.0,-0.005954797,-0.16423422,0.24962915,-0.17731558,0.038781706,0.012948129,0.17979205,-0.009267168,-0.31908956,-0.009285164,0.045324787,-0.09205258,-0.13667785,0.07641826,-0.10648693,-0.03367206,0.029272618,0.06566561,0.38980165,0.018441284,-0.304607,0.38505617,0.050751638,0.0061318725,-0.028242154,2.0,0.6005386,-2.0,0.853588,0.40204114,2.0,-2.0,-1.4948195,2.0,-2.0,0.23511054,-2.0,-1.9927475,1.0184182,-2.0,2.0,0.16294755,2.0,-2.0,-0.6342559,2.0,-2.0,-0.3784443,-2.0
2025-06-05 16:18:32.640,-0.005687403,0.102112874,0.046816424,-0.052928723,0.012277613,0.028313817,0.0,0.0,0.0,-0.0058288756,-0.16657214,0.24075516,-0.14892006,0.034636676,0.05646141,0.28982005,-0.05236578,-0.3537072,0.15024082,0.04633115,-0.10873247,-0.14572561,-0.0006110657,-0.100782305,0.066378884,0.04805082,0.14013721,0.32568657,-0.15691978,-0.07802021,0.37840328,-0.02579965,-0.071424596,0.08336113,-1.9927475,1.0184182,-2.0,2.0,0.16294755,2.0,-2.0,-0.6342559,2.0,-2.0,-0.3784443,-2.0,-2.0,0.27389923,-2.0,2.0,-0.05046041,-0.70750093,1.02733,-0.018604718,-1.8966757,-2.0,-0.3558243,-2.0
2025-06-05 16:18:32.661,0.027169658,0.11197011,-0.042358845,0.014407508,-0.013236316,0.031300332,0.0,0.0,0.0,-0.0059784753,-0.17640805,0.22857852,-0.1448391,0.08068102,0.06943698,0.24262244,-0.077411555,-0.31202397,0.086481765,0.039082147,-0.10929629,-0.13303229,-0.055713523,-0.06419937,-0.006001218,0.052248638,0.078640446,-0.3051227,0.026805216,0.11800121,-0.2554672,0.0072295545,-0.016185526,-0.02814153,-2.0,0.27389923,-2.0,2.0,-0.05046041,-0.70750093,1.02733,-0.018604718,-1.8966757,-2.0,-0.3558243,-2.0,-2.0,-0.41477236,-1.940576,0.61130446,0.3019871,-2.0,2.0,0.401086,-2.0,-2.0,-1.8169692,-1.9765694
2025-06-05 16:18:32.681,-0.10970274,0.07530656,0.014360684,-0.054539528,0.02583177,0.0012687228,0.0,0.0,0.0,-0.005879868,-0.19030601,0.217982,-0.14459847,0.09684746,0.08322376,0.067153946,-0.04814922,-0.20930488,-0.07614179,0.009008011,-0.17944771,-0.10271388,-0.043715995,-0.03502067,0.07419328,0.06256183,0.0019138306,-0.4703808,0.109001495,0.30186933,-0.36975473,-0.037200302,-0.2975139,0.15149347,-2.0,-0.41477236,-1.940576,0.61130446,0.3019871,-2.0,2.0,0.401086,-2.0,-2.0,-1.8169692,-1.9765694,-2.0,-0.22701833,0.59827375,-1.6715324,0.52037466,-2.0,2.0,0.38060114,-2.0,-2.0,-1.362497,0.41838482
2025-06-05 16:18:32.701,0.06216954,0.017213358,0.039731547,-0.06104862,0.019582247,0.033127073,0.0,0.0,0.0,-0.005555611,-0.20269667,0.14796442,-0.08949041,0.079544306,0.104844585,-0.07598431,-0.017334284,-0.14928319,-0.1789039,-0.03036399,-0.29935896,-0.04085468,-0.035350244,-0.24058239,0.1893768,-0.031893637,0.032450907,-0.12668459,-0.006775832,-0.013030579,-0.09509133,-0.18586689,-0.2655219,0.09603927,-2.0,-0.22701833,0.59827375,-1.6715324,0.52037466,-2.0,2.0,0.38060114,-2.0,-2.0,-1.362497,0.41838482,-2.0,0.23574242,1.3951757,-2.0,-0.000179898,-2.0,2.0,-0.30171433,-2.0,2.0,-0.27948534,2.0
2025-06-05 16:18:32.721,0.07263938,0.010466687,0.004833533,-0.0072326995,-0.02826976,0.025559694,0.0,0.0,0.0,-0.005342511,-0.18745606,0.10968075,0.012790746,0.07570099,0.08711383,-0.07397521,-0.029238151,-0.1559045,-0.19019035,-0.037821166,-0.3318745,0.068160094,0.0062064333,-0.024121065,0.31209403,-0.05894128,-0.07002083,0.12547953,-0.0667008,0.029574107,0.06842163,0.0390852,-0.07848354,0.29403794,-2.0,0.23574242,1.3951757,-2.0,-0.000179898,-2.0,2.0,-0.30171433,-2.0,2.0,-0.27948534,2.0,-2.0,0.7363621,0.5381211,-2.0,-0.30733854,-2.0,2.0,-0.23076579,-2.0,2.0,0.8232113,2.0
2025-06-05 16:18:32.741,0.1595722,0.100608625,0.002793477,-0.07826766,-0.014244319,-0.030233184,0.0,0.0,0.0,-0.0047152797,-0.19540562,0.12289372,0.08885389,0.07139471,0.07113899,-0.03805573,-0.03209608,-0.16613479,-0.18102841,0.011360763,-0.24317044,0.18381293,-0.00047287202,0.13388455,0.058859497,-0.0033808665,-0.12980783,0.14525485,-0.0745931,0.037141778,0.024818689,0.1583359,0.41586432,0.24205363,-2.0,0.7363621,0.5381211,-2.0,-0.30733854,-2.0,2.0,-0.23076579,-2.0,2.0,0.8232113,2.0,-2.0,1.1455241,-2.0,-2.0,0.8260614,-2.0,2.0,-0.08906826,-2.0,2.0,0.0019502528,0.7325913
2025-06-05 16:18:32.761,0.03134105,0.06029151,-0.06356373,-0.008762654,0.0034772025,-0.041794084,0.0,0.0,0.0,-0.0037853287,-0.20260088,0.21563622,-0.024768334,0.06692411,0.05341422,-0.013229009,-0.02041464,-0.16678853,-0.203631,0.06981765,-0.105291784,0.24418947,-0.08215366,0.30482852,-0.37867245,0.00035456594,0.038637057,0.058641173,0.0070250104,-0.06827618,-0.04309073,0.122887276,0.29261586,0.066079624,-2.0,1.1455241,-2.0,-2.0,0.8260614,-2.0,2.0,-0.08906826,-2.0,2.0,0.0019502528,0.7325913,1.1055236,0.92466986,-2.0,-2.0,0.53601706,-2.0,2.0,0.17252436,-2.0,-0.19623753,-0.30633712,-2.0
2025-06-05 16:18:32.781,0.10915346,-0.028891712,0.037107907,-0.07738307,0.04832113,0.0042322855,0.0,0.0,0.0,-0.0026824574,-0.16771322,0.29304495,-0.1356757,0.047077775,0.04502923,-0.01626392,-0.031677645,-0.16702421,-0.2216673,0.071258955,-0.044225954,0.11180886,0.050081164,0.013314324,-0.12922828,0.05989574,0.051694587,-0.024968266,0.053533755,0.09492855,-0.03923021,0.059027802,0.060242034,-0.48253578,1.1055236,0.92466986,-2.0,-2.0,0.53601706,-2.0,2.0,0.17252436,-2.0,-0.19623753,-0.30633712,-2.0,2.0,0.108626746,-2.0,-2.0,0.37828058,2.0,-0.7872369,-0.9623964,0.22641361,-2.0,-0.20566036,-2.0
2025-06-05 16:18:32.801,-0.16009784,-0.20253946,-0.0019760726,-0.05883,-0.012397949,-0.023754766,0.0,0.0,0.0,-0.0022873208,-0.15426163,0.28689662,-0.16425748,0.03813049,0.02353178,0.06388467,-0.025046134,-0.20202969,-0.18166596,0.051650316,-0.034942422,-0.05538226,0.07088295,-0.06038889,0.03160453,-0.019530438,0.007682742,0.27625683,0.015785193,-0.099924594,0.11426759,-0.11702864,-0.005314018,-0.412969,2.0,0.108626746,-2.0,-2.0,0.37828058,2.0,-0.7872369,-0.9623964,0.22641361,-2.0,-0.20566036,-2.0,2.0,0.41914693,-2.0,0.9374077,0.1596552,2.0,-2.0,-1.5159386,2.0,-2.0,0.4412328,-2.0
2025-06-05 16:18:32.822,-0.104296565,-0.118266165,-0.041951314,-0.03976525,0.04535565,-0.009619768,0.0,0.0,0.0,-0.0023225585,-0.15129443,0.25985834,-0.16022883,0.015047851,0.01943751,0.20418032,-0.04116378,-0.30328244,-0.026632769,0.022548947,-0.04320435,-0.15640627,0.038420193,-0.032334585,0.021263668,-0.09051801,0.07295105,0.28405234,-0.015988022,-0.22309846,0.4784745,-0.061669014,-0.06867284,-0.04780632,2.0,0.41914693,-2.0,0.9374077,0.1596552,2.0,-2.0,-1.5159386,2.0,-2.0,0.4412328,-2.0,-2.0,1.2936599,-2.0,2.0,0.3768723,1.4610796,-2.0,-0.66974545,2.0,-2.0,-0.79294425,-2.0
2025-06-05 16:18:32.841,-0.0918872,0.029062916,0.043542303,-0.032245796,0.04325697,-0.020200107,0.0,0.0,0.0,-0.0021452017,-0.15505038,0.251162,-0.16688915,0.036561724,0.056351945,0.27876356,-0.07034212,-0.3631757,0.1364789,0.020528872,-0.07427364,-0.15673997,-0.012534298,0.05674185,0.03523977,0.02130016,0.15499775,0.21518856,-0.041846495,-0.015643464,0.3703172,-0.0689623,-0.114646666,0.08237798,-2.0,1.2936599,-2.0,2.0,0.3768723,1.4610796,-2.0,-0.66974545,2.0,-2.0,-0.79294425,-2.0,-2.0,0.024583004,-2.0,2.0,-0.12658711,-1.6812391,1.3391272,0.06537495,-2.0,-2.0,-0.2694584,-2.0
2025-06-05 16:18:32.861,0.046102002,0.0871889,-0.0023654017,-0.045087755,-0.027001016,0.043223936,0.0,0.0,0.0,-0.0026020652,-0.16152492,0.2485854,-0.17197801,0.06839895,0.08943509,0.17175913,-0.09136592,-0.30834952,0.0738687,0.012014529,-0.08723981,-0.14070466,-0.007462347,0.046706684,0.01312093,0.1376641,-0.023426589,-0.3398171,-0.014767945,0.22260424,-0.27258694,0.0009326834,-0.02174621,0.0117084365,-2.0,0.024583004,-2.0,2.0,-0.12658711,-1.6812391,1.3391272,0.06537495,-2.0,-2.0,-0.2694584,-2.0,-2.0,-0.67593396,-0.7410482,0.19765672,0.4886375,-2.0,2.0,0.35084754,-2.0,-2.0,-1.8840827,-0.17844966
2025-06-05 16:18:32.883,-0.096088104,0.021484356,0.010186348,-0.03320733,-0.0015331234,-0.018563725,0.0,0.0,0.0,-0.0029094412,-0.18025856,0.19151966,-0.1363763,0.08596083,0.09909019,-0.018344203,-0.051298,-0.21992463,-0.07387602,-0.00054779655,-0.21155281,-0.076679446,-0.04411743,-0.2534701,0.15508734,0.019167645,0.12310155,-0.4514675,0.11336948,0.22877079,-0.38261837,-0.07014007,-0.40615413,0.101614825,-2.0,-0.67593396,-0.7410482,0.19765672,0.4886375,-2.0,2.0,0.35084754,-2.0,-2.0,-1.8840827,-0.17844966,-2.0,-0.1403239,1.5428946,-2.0,0.13691373,-2.0,2.0,0.10433764,-2.0,1.6459607,-0.8502649,2.0
2025-06-05 16:18:32.905,-0.03380873,0.007650384,-0.034541525,-0.025392888,0.027468247,0.032195468,0.0,0.0,0.0,-0.0029245617,-0.19553001,0.09822502,-0.0310884,0.075224414,0.10483536,-0.10258746,-0.0014916763,-0.14891167,-0.20705406,-0.0035257547,-0.32073438,0.033002373,0.0059603453,-0.23466137,0.3375598,0.0296399,-0.07996467,-0.12017462,0.044854496,-0.015743235,-0.11124436,0.07587584,-0.2427762,0.40897816,-2.0,-0.1403239,1.5428946,-2.0,0.13691373,-2.0,2.0,0.10433764,-2.0,1.6459607,-0.8502649,2.0,-2.0,0.9443408,0.89264274,-2.0,-0.698351,-2.0,2.0,-0.14100859,-2.0,2.0,1.0623705,2.0
2025-06-05 16:18:32.924,0.1624143,0.0022813787,-0.0089436,-0.0021155425,0.044252258,0.0027496598,0.0,0.0,0.0,-0.00230655,-0.20595872,0.111578226,0.05672792,0.07040341,0.06315664,-0.07219099,0.0011370765,-0.16717958,-0.20086181,0.040423553,-0.24775122,0.1759465,-0.06816478,0.14728446,0.20310257,0.013631755,-0.06083583,0.11980771,-0.0067954278,-0.009788814,0.0790175,0.16175821,0.40582192,0.29414392,-2.0,0.9443408,0.89264274,-2.0,-0.698351,-2.0,2.0,-0.14100859,-2.0,2.0,1.0623705,2.0,-2.0,0.91939473,-2.0,-2.0,0.77413267,-2.0,2.0,0.08544224,-2.0,2.0,0.033839274,1.4839141
2025-06-05 16:18:32.944,0.16865367,0.09502319,0.010087062,-0.03771935,0.0674348,0.008499797,0.0,0.0,0.0,-0.0021182185,-0.21211596,0.19250435,-0.011508889,0.06457722,0.048278127,-0.036203198,-0.013412729,-0.1788747,-0.20699427,0.0673004,-0.11873136,0.2553141,0.02198092,0.28937626,-0.37529033,-0.015857646,-0.10899928,0.06711217,-0.07842492,0.013809291,0.0025615364,0.049342178,0.24779359,0.20112841,-2.0,0.91939473,-2.0,-2.0,0.77413267,-2.0,2.0,0.08544224,-2.0,2.0,0.033839274,1.4839141,-0.33269438,0.92322665,-2.0,-2.0,0.9136031,-2.0,2.0,-0.18088856,-2.0,1.4412075,-0.33016476,-2.0
2025-06-05 16:18:32.964,0.03726859,0.033317834,-0.0155135235,-0.024114585,0.062010784,-0.0005946929,0.0,0.0,0.0,-0.0021814255,-0.19426787,0.26788086,-0.14878675,0.0673522,0.026308851,-0.03462097,-0.025234368,-0.18167283,-0.20271277,0.10431115,-0.053093374,0.14025742,-0.039993465,0.1759514,-0.20666757,-0.082298495,-0.092231154,-0.06566129,0.03330139,-0.04579474,-0.01096198,0.046210036,0.08767539,-0.39577755,-0.33269438,0.92322665,-2.0,-2.0,0.9136031,-2.0,2.0,-0.18088856,-2.0,1.4412075,-0.33016476,-2.0,2.0,0.3205491,-2.0,-2.0,0.56057745,0.11087942,2.0,-0.051899217,-1.8281657,-2.0,-0.53354645,-2.0
2025-06-05 16:18:32.984,0.14266887,-0.27851704,0.019499311,-0.0122166015,0.037766572,-0.0016667295,0.0,0.0,0.0,-0.0021656982,-0.18091153,0.28663135,-0.18529369,0.06117225,0.027219722,-0.01416943,-0.0020646523,-0.17197612,-0.21792111,0.07882257,-0.05215387,-0.025835227,0.0027679116,0.0758946,-0.01678908,0.10480609,-0.06512244,0.026472686,0.026939694,0.06824651,-0.10856254,-0.12420695,-0.01662254,-0.40738857,2.0,0.3205491,-2.0,-2.0,0.56057745,0.11087942,2.0,-0.051899217,-1.8281657,-2.0,-0.53354645,-2.0,2.0,0.6757555,-2.0,-2.0,0.6207609,2.0,-2.0,-1.6039515,2.0,-2.0,0.19811702,-2.0
2025-06-05 16:18:33.005,-0.00047028123,-0.040762536,-0.003970212,0.012682197,0.025371596,-0.020007413,0.0,0.0,0.0,-0.002155843,-0.16466112,0.26897517,-0.18709505,0.040170465,0.021852298,0.07535953,-0.0064057917,-0.25123852,-0.08327848,0.041015618,-0.07006561,-0.16866656,-1.4281479e-05,-0.07280921,0.015075108,-0.16184698,0.11693514,0.28012693,-0.013127774,-0.36231655,0.39456648,-0.057240155,-0.048163835,-0.17535311,2.0,0.6757555,-2.0,-2.0,0.6207609,2.0,-2.0,-1.6039515,2.0,-2.0,0.19811702,-2.0,0.8020974,0.6460793,-2.0,2.0,-0.21532337,2.0,-2.0,-0.95115846,2.0,-2.0,-0.07183473,-2.0
2025-06-05 16:18:33.024,0.07293872,-0.08657839,-0.035313543,-0.05734052,0.07956635,-0.014244535,0.0,0.0,0.0,-0.0014041681,-0.16804159,0.26106822,-0.20030181,0.045273937,0.0068096034,0.2210005,-0.035728592,-0.33141306,0.09113663,0.040811945,-0.08445598,-0.16848089,-0.024493793,-0.086591445,0.060911644,0.08304431,-0.009165161,0.2914426,-0.121380255,-0.21775903,0.45002702,0.054884523,-0.0977138,-0.028842837,0.8020974,0.6460793,-2.0,2.0,-0.21532337,2.0,-2.0,-0.95115846,2.0,-2.0,-0.07183473,-2.0,-2.0,1.2538704,-2.0,2.0,0.4578026,-0.7159569,-2.0,-0.4917301,-0.9259944,-2.0,-0.8986892,-2.0
2025-06-05 16:18:33.044,0.082814865,0.026477475,0.0419585,-0.029121399,0.09813837,0.04923409,0.0,0.0,0.0,-0.0011235127,-0.17611429,0.26980475,-0.190731,0.056270327,0.044607267,0.18673983,-0.09686328,-0.34193,0.10279865,0.02452469,-0.10393541,-0.14615317,0.0029573385,-0.023280296,-0.043732684,0.036663402,0.14127119,-0.14120519,-0.16039895,0.037042957,-0.13263588,-0.0398884,-0.12485724,-0.02501751,-2.0,1.2538704,-2.0,2.0,0.4578026,-0.7159569,-2.0,-0.4917301,-0.9259944,-2.0,-0.8986892,-2.0,-2.0,-0.50382435,-2.0,2.0,0.31696755,-2.0,2.0,0.29853752,-2.0,-2.0,-0.65044194,-2.0
2025-06-05 16:18:33.064,0.08861415,-0.06574528,0.07601422,-0.054020494,0.09930706,0.040729098,0.0,0.0,0.0,-0.0018826948,-0.1764296,0.2615767,-0.19614288,0.11371116,0.104292005,0.03144055,-0.093587175,-0.2714683,-0.033691246,0.03186347,-0.1160828,-0.13038272,-0.042761717,-0.030204272,0.097683914,0.05200733,0.12809083,-0.41839132,0.14117545,0.27224824,-0.3621179,0.047924113,-0.07411299,0.057372622,-2.0,-0.50382435,-2.0,2.0,0.31696755,-2.0,2.0,0.29853752,-2.0,-2.0,-0.65044194,-2.0,-2.0,-0.40565953,-0.75310457,-0.7961016,0.7763836,-2.0,2.0,-0.0021694824,-2.0,-2.0,-1.3407471,0.3310906
2025-06-05 16:18:33.084,-0.2680992,0.14271043,-0.049229823,0.023414768,0.058348626,0.008428878,0.0,0.0,0.0,-0.0026029898,-0.20462027,0.18185796,-0.16579671,0.10010048,0.11974302,-0.07933818,-0.05557236,-0.20048885,-0.19265674,-0.0064261854,-0.20258224,-0.08613013,-0.0817448,-0.25164142,0.083985455,-0.019830203,0.016999792,-0.12788828,0.07992499,0.21122165,-0.41502258,-0.070427366,-0.3413327,0.116384655,-2.0,-0.40565953,-0.75310457,-0.7961016,0.7763836,-2.0,2.0,-0.0021694824,-2.0,-2.0,-1.3407471,0.3310906,-2.0,0.30049995,1.4910599,-2.0,-0.5352459,-2.0,2.0,0.45484897,-2.0,1.280911,-0.95518357,2.0
2025-06-05 16:18:33.106,-0.17628159,0.018713322,0.09572146,-0.02719037,0.04531404,0.04032849,0.0,0.0,0.0,-0.002710593,-0.20758694,0.12072084,-0.07918358,0.07611879,0.084915146,-0.07348316,-0.009248008,-0.15272631,-0.29360884,-0.028020903,-0.29969993,0.047277845,-0.05599408,-0.17163143,0.3674586,-0.10238227,-0.07228951,0.09098338,0.012901939,0.0817205,-0.067124166,0.035953388,-0.20312907,0.3815173,-2.0,0.30049995,1.4910599,-2.0,-0.5352459,-2.0,2.0,0.45484897,-2.0,1.280911,-0.95518357,2.0,-2.0,0.8864093,-0.07666695,-2.0,0.5225391,-2.0,2.0,-0.49553466,-2.0,2.0,0.6477727,2.0
2025-06-05 16:18:33.125,-0.025959237,0.053804,0.03381639,-0.023723787,0.008642112,-0.022185417,0.0,0.0,0.0,-0.0032186015,-0.21917601,0.14876989,-0.023093943,0.060299966,0.05412736,-0.06956544,-0.024273632,-0.18107922,-0.28521475,0.0040926537,-0.25190023,0.17155716,0.068049684,0.053868957,0.0049578366,-0.047746614,-0.13094383,0.06707103,-0.020255007,-0.04496456,0.10092701,0.18542713,0.26168922,0.30548075,-2.0,0.8864093,-0.07666695,-2.0,0.5225391,-2.0,2.0,-0.49553466,-2.0,2.0,0.6477727,2.0,-2.0,1.2060262,-2.0,-2.0,1.1462193,-2.0,2.0,0.16141072,-2.0,2.0,-0.12118401,-1.3169134
2025-06-05 16:18:33.145,0.039455462,0.16380645,-0.00016613767,-0.019164603,-0.028997181,-0.016495675,0.0,0.0,0.0,-0.0034185145,-0.21135138,0.24541953,-0.093024895,0.04480204,0.05314152,-0.06299091,-0.04095939,-0.17613555,-0.26495874,0.057053864,-0.16276753,0.12915899,-0.072325625,0.33754995,-0.3025953,0.028090538,-0.031773634,0.026097804,0.023302665,-0.0646437,0.052624796,0.04249359,0.24734236,-0.19102079,-2.0,1.2060262,-2.0,-2.0,1.1462193,-2.0,2.0,0.16141072,-2.0,2.0,-0.12118401,-1.3169134,2.0,0.651672,-2.0,-2.0,0.7553929,-2.0,2.0,0.0062293485,-2.0,-0.6811483,-0.51846594,-2.0
2025-06-05 16:18:33.165,0.04886152,-0.05791983,-0.01999125,-0.029249884,0.04314729,0.027251856,0.0,0.0,0.0,-0.0031498992,-0.17150535,0.3085645,-0.19878598,0.05465591,0.039337523,-0.06464164,-0.04827867,-0.19101612,-0.27343464,0.055890396,-0.10896608,-0.00907381,0.076457635,0.013284142,-0.12208077,0.04120262,-0.034197908,-0.0023050718,-0.003625693,0.025289852,0.037141066,-0.06954851,0.0973951,-0.4174625,2.0,0.651672,-2.0,-2.0,0.7553929,-2.0,2.0,0.0062293485,-2.0,-0.6811483,-0.51846594,-2.0,2.0,0.56373245,-2.0,-2.0,0.3482415,2.0,-2.0,-1.1420281,1.2184548,-2.0,-0.22432901,-2.0
2025-06-05 16:18:33.263,-0.07719309,-0.123944804,-0.0048223115,-0.020787919,0.049033042,0.021190597,0.0,0.0,0.0,-0.00321691,-0.16622718,0.31680042,-0.22101818,0.033614762,0.015905814,0.047333226,-0.05645856,-0.24089053,-0.15767226,0.0320498,-0.096830934,-0.16891468,0.023565782,-0.0108178705,-0.027050706,-0.15262991,-0.10712145,0.26894757,-0.041738834,-0.13011642,0.33554697,-0.10404347,0.061978802,-0.1636217,2.0,0.56373245,-2.0,-2.0,0.3482415,2.0,-2.0,-1.1420281,1.2184548,-2.0,-0.22432901,-2.0,1.7278117,0.5784036,-2.0,2.0,-0.082755715,2.0,-2.0,-1.3152,2.0,-2.0,-0.008185279,-2.0
2025-06-05 16:18:33.281,0.027827071,-0.13471606,0.09579956,-0.043191046,0.019166809,-0.022797799,0.0,0.0,0.0,-0.0038982301,-0.15655242,0.30134895,-0.20731968,0.02728275,0.010866098,0.17648585,-0.069159895,-0.322803,0.01677308,0.040355884,-0.11652523,-0.18915416,0.002134812,-0.054191276,0.011436345,0.03978488,-0.07810479,0.36399862,-0.009047261,-0.15903576,0.4946247,-0.054079913,0.011422221,-0.051254734,1.7278117,0.5784036,-2.0,2.0,-0.082755715,2.0,-2.0,-1.3152,2.0,-2.0,-0.008185279,-2.0,-2.0,0.69657123,-2.0,2.0,0.40773553,1.757394,-2.0,-0.68298423,1.2128986,-2.0,-0.094341114,-2.0
2025-06-05 16:18:33.320,0.1023177,0.10173973,0.03997089,0.009095116,0.005428252,-0.030373503,0.0,0.0,0.0,-0.004920159,-0.1515385,0.28927508,-0.19266474,0.043500684,0.036809146,0.26889834,-0.09793592,-0.3567954,0.14649022,0.021752277,-0.12380965,-0.18417217,-0.060898937,-0.054727368,0.052466016,0.07486869,0.15365706,0.279296,-0.14776403,-0.028213913,0.20599648,0.007061985,0.06901488,-0.018093782,-2.0,0.69657123,-2.0,2.0,0.40773553,1.757394,-2.0,-0.68298423,1.2128986,-2.0,-0.094341114,-2.0,-2.0,0.07691946,-2.0,2.0,-0.22986253,-1.9495754,1.352413,0.13066307,-2.0,-2.0,-0.5273457,-2.0
2025-06-05 16:18:33.340,0.04935493,0.047709104,0.021004558,-0.06899843,-0.012451953,-0.036109798,0.0,0.0,0.0,-0.005677855,-0.17123495,0.29664677,-0.19037288,0.10326638,0.06387206,0.166734,-0.10535043,-0.30740064,0.051158324,0.0054005296,-0.13346809,-0.18970892,-0.047006637,-0.07770631,0.058179818,0.12742716,-0.06251711,-0.4565681,0.051982224,0.20364983,-0.42158484,-0.042809088,-0.08253907,-0.009759184,-2.0,0.07691946,-2.0,2.0,-0.22986253,-1.9495754,1.352413,0.13066307,-2.0,-2.0,-0.5273457,-2.0,-2.0,-0.51229715,-0.9732777,-0.3046216,0.8581554,-2.0,2.0,0.4468028,-2.0,-2.0,-1.9088959,1.2367204
2025-06-05 16:18:33.357,-0.11654676,-0.0652756,-0.04062896,-0.046341393,0.020310158,-0.013072084,0.0,0.0,0.0,-0.00614813,-0.181633,0.24374771,-0.16090001,0.102268025,0.09826732,-0.017877132,-0.06798594,-0.20869024,-0.10550755,-0.026268186,-0.24398032,-0.08709622,-0.04792226,-0.12894166,0.026055187,0.018636081,0.13835731,-0.4883883,0.19150817,0.21457589,-0.3712124,-0.065924,-0.40764174,0.30080602,-2.0,-0.51229715,-0.9732777,-0.3046216,0.8581554,-2.0,2.0,0.4468028,-2.0,-2.0,-1.9088959,1.2367204,-2.0,-0.17652765,2.0,-2.0,-0.7535781,-2.0,2.0,0.16702011,-2.0,1.7243984,-0.7582944,2.0
2025-06-05 16:18:33.377,-0.107904196,-0.12605835,-0.031475134,0.029374951,0.039672997,-0.041072823,0.0,0.0,0.0,-0.0061259344,-0.20040059,0.14659597,-0.029866656,0.086273916,0.106917486,-0.106881574,-0.017079467,-0.14422274,-0.21155645,-0.036592398,-0.34809494,0.080464,-0.041824874,-0.20198289,0.44044724,0.017089246,0.005950207,-0.060469676,0.112300314,0.03131418,-0.11983467,0.07919957,-0.17463022,0.31563836,-2.0,-0.17652765,2.0,-2.0,-0.7535781,-2.0,2.0,0.16702011,-2.0,1.7243984,-0.7582944,2.0,-2.0,0.7814652,0.54066503,-2.0,-0.4066854,-2.0,2.0,-0.0032546148,-2.0,2.0,1.1638875,2.0
2025-06-05 16:18:33.398,0.15599102,-0.038037967,-0.029653525,-0.039417617,-0.028078452,0.037148234,0.0,0.0,0.0,-0.0055152155,-0.20836765,0.1357649,0.06274372,0.09601953,0.065343745,-0.07688969,-0.017580718,-0.14820212,-0.22322348,0.020690363,-0.25310472,0.19656879,-0.0795019,0.1110937,0.12233546,-0.053838015,-0.13412566,0.15711531,0.022852134,0.015695263,0.009828458,0.109385625,0.45156083,0.33673885,-2.0,0.7814652,0.54066503,-2.0,-0.4066854,-2.0,2.0,-0.0032546148,-2.0,2.0,1.1638875,2.0,-2.0,1.0966687,-2.0,-2.0,0.48348516,-2.0,2.0,0.058283925,-2.0,2.0,0.017064858,0.7166345
2025-06-05 16:18:33.418,0.13291019,0.056341194,0.002474753,-0.04790091,0.015939638,0.00658587,0.0,0.0,0.0,-0.00549931,-0.20485318,0.2240404,-0.013537442,0.08463661,0.04268977,-0.041634217,-0.012198441,-0.1560666,-0.21754299,0.06985179,-0.119286045,0.2475385,-0.077741474,0.18182507,-0.36870557,-0.039671887,-0.022058114,0.11264237,0.030790772,0.04417109,0.06343101,0.089899205,0.27171463,-0.024415571,-2.0,1.0966687,-2.0,-2.0,0.48348516,-2.0,2.0,0.058283925,-2.0,2.0,0.017064858,0.7166345,2.0,0.80332476,-2.0,-2.0,0.9091358,-2.0,2.0,-0.11811402,-2.0,0.41872227,-0.32917958,-2.0
2025-06-05 16:18:33.440,0.060184747,-0.08934146,0.006531136,0.021145616,0.0071399,-0.02353053,0.0,0.0,0.0,-0.0059892465,-0.16623706,0.2797089,-0.14742239,0.096696235,0.02142679,-0.02650789,-0.01721927,-0.16353558,-0.20250967,0.08060631,-0.04870786,0.11881315,0.12596373,0.08143941,-0.24539372,0.06685512,-0.06069898,0.06245598,0.008174882,-0.07364063,-0.014615642,0.06463307,0.17336808,-0.3984252,2.0,0.80332476,-2.0,-2.0,0.9091358,-2.0,2.0,-0.11811402,-2.0,0.41872227,-0.32917958,-2.0,2.0,0.049471788,-2.0,-2.0,0.34770566,2.0,-0.94578683,-0.96917015,0.58890307,-2.0,-0.30179012,-2.0
2025-06-05 16:18:33.459,-0.18012932,-0.20664074,0.019857509,-0.023431107,0.05528963,-0.046824057,0.0,0.0,0.0,-0.0067552375,-0.1477164,0.27670914,-0.1696823,0.05961651,-0.00686499,0.079294525,-0.034922566,-0.21720159,-0.13233781,0.056867912,-0.04995061,-0.053457055,0.09216674,-0.082716696,0.0076655317,-0.035807878,-0.13640417,0.34750617,-0.055609126,-0.22369607,0.22496945,-0.18490468,0.033917904,-0.44558787,2.0,0.049471788,-2.0,-2.0,0.34770566,2.0,-0.94578683,-0.96917015,0.58890307,-2.0,-0.30179012,-2.0,2.0,0.26001337,-2.0,1.0736797,0.08865626,2.0,-2.0,-1.5060064,2.0,-2.0,0.64964515,-2.0
2025-06-05 16:18:33.478,-0.0071597295,0.01328342,-0.007960451,-0.051921867,-0.006003197,-0.01646767,0.0,0.0,0.0,-0.007655398,-0.14560178,0.26330748,-0.17274033,0.055036888,-0.013577946,0.19974074,-0.051368937,-0.3189746,0.007838643,0.043936107,-0.06311343,-0.11304915,-0.081411205,-0.118841,0.05186153,-0.03886145,0.05346513,0.36687338,0.011009813,-0.32695007,0.45615417,0.0029194814,-0.095479615,0.03339223,2.0,0.26001337,-2.0,1.0736797,0.08865626,2.0,-2.0,-1.5060064,2.0,-2.0,0.64964515,-2.0,-2.0,1.3329595,-2.0,2.0,0.614564,1.610166,-2.0,-0.6625651,2.0,-2.0,-0.84049773,-2.0
2025-06-05 16:18:33.498,0.027876401,0.050260898,0.0106864,0.004987974,-0.0077628572,-0.024947394,0.0,0.0,0.0,-0.007509479,-0.1677029,0.2570605,-0.15155758,0.061175916,0.054306343,0.27469802,-0.06746495,-0.3570694,0.17114295,0.028440978,-0.08202327,-0.10303812,-0.046476122,-0.056083646,-0.02742883,0.101250485,0.13167112,0.18195969,-0.14011246,-0.008369384,0.31288388,-0.04152794,-0.06380576,-0.013601658,-2.0,1.3329595,-2.0,2.0,0.614564,1.610166,-2.0,-0.6625651,2.0,-2.0,-0.84049773,-2.0,-2.0,0.32133737,-2.0,2.0,-0.030741405,-1.1166971,1.0141004,-0.041095518,-2.0,-2.0,-0.37234014,-2.0
2025-06-05 16:18:33.520,0.062654585,0.09258221,0.03862578,-0.04266443,0.046365663,0.048438374,0.0,0.0,0.0,-0.0077518304,-0.17022178,0.26618472,-0.14467432,0.090536006,0.095617674,0.21059848,-0.08770025,-0.31669453,0.1044564,0.030424232,-0.08678409,-0.090449885,-0.08085381,-0.06187566,-0.044986177,0.085786656,0.104647055,-0.3447344,0.029533027,0.12391954,-0.3998914,0.048314616,-0.0014532637,-0.040433172,-2.0,0.32133737,-2.0,2.0,-0.030741405,-1.1166971,1.0141004,-0.041095518,-2.0,-2.0,-0.37234014,-2.0,-2.0,-0.5798048,-2.0,0.26443663,0.5913214,-2.0,2.0,0.18944383,-2.0,-2.0,-1.4248189,-1.5119758
2025-06-05 16:18:33.540,-0.12332135,0.0844074,-0.020654554,-0.005980346,0.05316723,-0.042886768,0.0,0.0,0.0,-0.008062849,-0.20573972,0.23604661,-0.13350695,0.086104475,0.13783622,0.031011412,-0.03831936,-0.22827375,-0.07812888,0.0044860444,-0.14252853,-0.057721734,-0.0014874302,-0.12655187,0.028930612,-0.057843216,0.16443689,-0.43739745,0.16203925,0.22965556,-0.5036299,-0.06290912,-0.23107179,0.106668405,-2.0,-0.5798048,-2.0,0.26443663,0.5913214,-2.0,2.0,0.18944383,-2.0,-2.0,-1.4248189,-1.5119758,-2.0,0.05723896,0.44197944,-2.0,0.122366294,-2.0,2.0,0.4656115,-2.0,-2.0,-1.3431804,0.04960063
2025-06-05 16:18:33.559,-0.088515855,0.081093326,0.012474236,0.03691892,-0.010428425,-0.0024949913,0.0,0.0,0.0,-0.0076897466,-0.20808293,0.169795,-0.09752746,0.06351866,0.13582197,-0.08224697,-0.019861763,-0.15745276,-0.19828038,-0.030004071,-0.25919592,-0.004638901,0.034719214,-0.16942249,0.16928291,-0.034406334,-0.0006165383,-0.1692479,-0.017225843,0.09476268,-0.14186452,-0.18651134,-0.3273633,0.092108384,-2.0,0.05723896,0.44197944,-2.0,0.122366294,-2.0,2.0,0.4656115,-2.0,-2.0,-1.3431804,0.04960063,-2.0,0.2663116,0.4225528,-2.0,-0.07460095,-2.0,2.0,0.15145135,-2.0,2.0,-0.32497218,1.9506254
2025-06-05 16:18:33.578,0.12544933,-0.06521946,0.018238824,-0.044581205,-0.016603228,0.0033756555,0.0,0.0,0.0,-0.0076117837,-0.21180797,0.13819323,-0.03959619,0.058650997,0.11400022,-0.074560635,-0.012960897,-0.16842337,-0.21214406,-0.027238004,-0.29872918,0.07824188,0.0034542144,-0.09174111,0.09072798,-0.043576457,-0.04859554,0.024444642,0.051099304,0.0054698163,0.039923817,0.10346165,-0.028494192,0.2872188,-2.0,0.2663116,0.4225528,-2.0,-0.07460095,-2.0,2.0,0.15145135,-2.0,2.0,-0.32497218,1.9506254,-2.0,0.9820244,-0.11580992,-2.0,0.20317821,-2.0,2.0,-0.3824257,-2.0,2.0,0.33638927,2.0
2025-06-05 16:18:33.598,0.101809725,0.005812926,-0.05677027,-0.0015478414,-0.028033787,0.02819045,0.0,0.0,0.0,-0.007969286,-0.20734592,0.17987262,-0.020948494,0.07505652,0.09785482,-0.029916322,-0.018292531,-0.19057707,-0.19875026,0.0059811585,-0.229686,0.19266711,0.057832506,0.16795155,-0.048641585,-0.08577508,0.006684713,0.104435705,-0.05773559,0.02393608,0.042073015,0.13887973,0.15712494,0.35193187,-2.0,0.9820244,-0.11580992,-2.0,0.20317821,-2.0,2.0,-0.3824257,-2.0,2.0,0.33638927,2.0,-2.0,0.9236943,-1.6231698,-2.0,-0.12942322,-2.0,2.0,0.2891306,-2.0,2.0,0.16741572,-0.87298346
2025-06-05 16:18:33.622,0.13369256,0.09749596,0.056394342,-0.029566014,-0.038781732,0.021319272,0.0,0.0,0.0,-0.007967901,-0.18731108,0.25484556,-0.087879054,0.058480024,0.0727079,-0.009296103,-0.03946733,-0.17245094,-0.20779377,0.067219555,-0.13363275,0.17419359,-0.040280208,0.19999573,-0.28666812,0.03957218,-0.08098047,0.007434375,-0.060810752,0.0019904086,-0.0013852082,0.12743695,0.20856416,-0.25498754,-2.0,0.9236943,-1.6231698,-2.0,-0.12942322,-2.0,2.0,0.2891306,-2.0,2.0,0.16741572,-0.87298346,1.1297748,0.42604306,-2.0,-2.0,1.232456,-2.0,2.0,-0.13440406,-2.0,0.40100875,-0.60908884,-2.0
2025-06-05 16:18:33.638,0.04616733,-0.095316805,0.02882654,-0.053698782,0.04402184,0.045063294,0.0,0.0,0.0,-0.008311529,-0.17898518,0.29779473,-0.16404697,0.061820917,0.07184727,-0.023649197,-0.02574183,-0.16185881,-0.23143455,0.08475052,-0.077318735,0.02632271,0.08892431,0.028051052,-0.1263017,0.049938597,-0.045120865,-0.10227655,0.041339032,0.020520387,-0.023648132,-0.035671055,-0.046614688,-0.36325487,1.1297748,0.42604306,-2.0,-2.0,1.232456,-2.0,2.0,-0.13440406,-2.0,0.40100875,-0.60908884,-2.0,2.0,0.21324763,-2.0,-2.0,0.50097346,2.0,0.23886015,-0.65696096,0.38484734,-2.0,-0.2114059,-2.0
2025-06-05 16:18:33.659,-0.048742324,-0.23240691,0.038723435,0.01749622,0.0288229,0.04219683,0.0,0.0,0.0,-0.008759335,-0.17359522,0.28666025,-0.18249287,0.040525954,0.04189829,0.06512631,-0.01771144,-0.20626009,-0.18423168,0.06405892,-0.09161296,-0.15462877,0.0062379986,0.022669228,-0.09385698,-0.094977364,-0.08082777,0.3746951,0.023135275,-0.09473999,0.110282525,-0.1475063,-0.01469414,-0.41021878,2.0,0.21324763,-2.0,-2.0,0.50097346,2.0,0.23886015,-0.65696096,0.38484734,-2.0,-0.2114059,-2.0,2.0,0.08176904,-2.0,0.16348621,0.3079711,2.0,-2.0,-1.6587898,2.0,-2.0,0.64637613,-2.0
2025-06-05 16:18:33.679,-0.05587826,0.013401173,-0.008238926,-0.04868396,0.021416375,0.039199214,0.0,0.0,0.0,-0.008823393,-0.16391842,0.25938705,-0.19078708,0.015175596,0.05607284,0.19213346,-0.010480477,-0.30310738,-0.023743412,0.052762166,-0.09412955,-0.20595843,-0.09015514,-0.0852827,0.061324928,-0.07324441,0.0396273,0.2516753,0.0054086605,-0.2694499,0.48867434,0.062041588,0.024411658,-0.035446007,2.0,0.08176904,-2.0,0.16348621,0.3079711,2.0,-2.0,-1.6587898,2.0,-2.0,0.64637613,-2.0,-2.0,1.0041294,-2.0,2.0,0.2831871,2.0,-2.0,-0.5187845,2.0,-2.0,-0.6813074,-2.0
2025-06-05 16:18:33.699,-0.014358311,0.1278516,0.056062497,-0.052683152,0.027006058,0.026605202,0.0,0.0,0.0,-0.008077179,-0.17156717,0.250227,-0.17903851,0.010553654,0.089487635,0.30686936,-0.054755706,-0.35557443,0.14589433,0.035063412,-0.11154061,-0.19763412,-0.07917688,0.022139812,0.0013771483,-0.0032665466,0.11795152,0.19547077,-0.14520216,-0.112079725,0.34313515,-0.057930242,-0.08878213,0.017911589,-2.0,1.0041294,-2.0,2.0,0.2831871,2.0,-2.0,-0.5187845,2.0,-2.0,-0.6813074,-2.0,-2.0,-0.18957719,-2.0,2.0,-0.34359282,-2.0,1.206587,0.06858087,-2.0,-2.0,-0.1501648,-2.0
