openverse-orca/OrcaGym/log/simulation_log_20250606_114101.csv
timestamp,imu_angle_roll,imu_angle_pitch,imu_angle_yaw,imu_angular_velocity_roll,imu_angular_velocity_pitch,imu_angular_velocity_yaw,imu_acc_x,imu_acc_y,imu_acc_z,fl_joint1_pos,fl_joint1_vel,fl_joint1_torque,fl_joint2_pos,fl_joint2_vel,fl_joint2_torque,fl_joint3_pos,fl_joint3_vel,fl_joint3_torque,fr_joint1_pos,fr_joint1_vel,fr_joint1_torque,fr_joint2_pos,fr_joint2_vel,fr_joint2_torque,fr_joint3_pos,fr_joint3_vel,fr_joint3_torque,hl_joint1_pos,hl_joint1_vel,hl_joint1_torque,hl_joint2_pos,hl_joint2_vel,hl_joint2_torque,hl_joint3_pos,hl_joint3_vel,hl_joint3_torque,hr_joint1_pos,hr_joint1_vel,hr_joint1_torque,hr_joint2_pos,hr_joint2_vel,hr_joint2_torque,hr_joint3_pos,hr_joint3_vel,hr_joint3_torque,fl_force_x,fl_force_y,fl_force_z,fr_force_x,fr_force_y,fr_force_z,hl_force_x,hl_force_y,hl_force_z,hr_force_x,hr_force_y,hr_force_z,fl_hip_action,fl_thigh_action,fl_calf_action,fr_hip_action,fr_thigh_action,fr_calf_action,hl_hip_action,hl_thigh_action,hl_calf_action,hr_hip_action,hr_thigh_action,hr_calf_action
2025-06-06 11:41:01.672,0.015885808,0.007488624,0.011999001,0.028049257,-0.037455954,0.03909758,0.0,0.0,0.0,0.0,0.002017844,-0.005865136,0.0073818644,0.0034598706,-0.005326979,0.004219312,0.0045391433,0.0057872813,0.005477033,0.008579077,-0.0015961862,0.0014036582,0.004429964,-0.054951433,-0.009884933,0.011234659,0.056073513,0.058526177,-0.03338876,0.033326916,0.008529058,-0.037910856,-0.03678474,-0.005503003,0.0,0.0,0.0,0.0,0.0,0.0,0.0,0.0,0.0,0.0,0.0,0.0,0.9576435,0.2698885,-0.38592649,0.2570602,-0.053040277,-0.19729468,1.1364055,-0.07521896,-0.7101426,-1.1644493,-0.11978081,-1.3050843
2025-06-06 11:41:01.677,-0.018282771,0.04275965,-0.030183986,-0.026454484,0.0019509143,0.042282023,0.0,0.0,0.0,0.0,0.015706904,0.014716056,-0.0002524401,0.0027972464,-0.0018783769,0.0014323321,0.0066976645,-0.002553579,-0.011879135,-0.014721139,-0.006862435,-0.028307823,0.08488774,0.026951335,-0.012138573,-0.009983865,-0.08068478,0.03326212,-0.040392295,0.043993793,-0.03792914,-0.06708588,0.033980273,-0.04698935,0.9576435,0.2698885,-0.38592649,0.2570602,-0.053040277,-0.19729468,1.1364055,-0.07521896,-0.7101426,-1.1644493,-0.11978081,-1.3050843,2.896524,0.87700695,-0.982093,2.0506878,0.30578917,-0.5843846,2.5014775,0.022855625,-1.2484151,-3.0,-0.6821275,-2.317235
2025-06-06 11:41:01.697,-0.0006132457,-0.004627547,-0.005472622,0.0008253395,0.018961605,-0.034233727,0.0,0.0,0.0,0.0,0.028008666,0.051221237,-0.042177986,0.02936383,0.003501793,-0.013942722,0.03475682,0.0028157546,-0.03998635,-0.031473316,-0.02239656,-0.063202046,0.08129053,0.17578362,-0.06662583,-0.024778498,0.047941174,-0.022539617,0.0809017,0.0074393735,-0.052410953,-0.06932005,0.0012384937,0.03227344,2.896524,0.87700695,-0.982093,2.0506878,0.30578917,-0.5843846,2.5014775,0.022855625,-1.2484151,-3.0,-0.6821275,-2.317235,3.0,0.5425923,-1.953306,3.0,0.8638161,-1.0808085,3.0,-0.09018923,-2.7989366,-3.0,-1.1228684,-3.0
2025-06-06 11:41:01.719,-0.25175342,-0.01845463,0.05216319,0.004571631,-0.029955432,0.033070557,0.0,0.0,0.0,0.0,0.042127732,0.049136788,-0.033431593,0.043995082,0.03455891,-0.040180385,0.044853624,0.00066586834,-0.047420334,-0.0258922,-0.03593486,-0.045822885,0.0720761,-0.06353894,0.014001506,0.02319635,0.07549167,0.019518645,0.013134199,0.014451392,0.015899414,0.08056125,0.027353726,-0.006793987,3.0,0.5425923,-1.953306,3.0,0.8638161,-1.0808085,3.0,-0.09018923,-2.7989366,-3.0,-1.1228684,-3.0,3.0,0.49487364,-1.8615174,3.0,0.7104488,-1.4978942,3.0,-1.0715578,-3.0,-3.0,-0.63563097,-3.0
2025-06-06 11:41:01.738,-0.09166626,-0.034592938,0.08452271,-0.04483228,-0.00266932,-0.03885709,0.0,0.0,0.0,0.0,0.070363484,0.053341724,0.0009008214,0.069547996,0.033141952,-0.027361823,0.04205723,-0.0041918303,-0.042231523,-0.016272143,-0.053960353,-0.03544867,-0.03631614,0.058347892,0.0018064368,-0.018888967,-0.017006453,0.06982813,0.015974302,-0.021233514,0.04123197,0.015099593,-0.0666625,-0.039233662,3.0,0.49487364,-1.8615174,3.0,0.7104488,-1.4978942,3.0,-1.0715578,-3.0,-3.0,-0.63563097,-3.0,3.0,0.4657544,-2.1098764,3.0,0.50052863,-1.3024933,3.0,-1.2879474,-3.0,-3.0,-0.44649783,-3.0
2025-06-06 11:41:01.758,-0.016570697,0.0067102234,-0.004879299,-0.017810872,-0.065442085,0.012993237,0.0,0.0,0.0,0.0,0.06954078,0.040955663,-0.0073692896,0.06563905,0.028767223,-0.024192631,0.0629268,-0.012535897,-0.04494583,-0.005311786,-0.05626537,-0.031554677,0.061832715,0.05615415,-0.020547528,0.03418353,-0.085419476,-0.038063627,-0.016061433,-0.08949623,-0.04379563,0.0691037,0.047990393,0.022781469,3.0,0.4657544,-2.1098764,3.0,0.50052863,-1.3024933,3.0,-1.2879474,-3.0,-3.0,-0.44649783,-3.0,3.0,0.6752291,-1.8258511,3.0,0.25074592,-1.1903362,3.0,-1.0838091,-2.7239263,-3.0,-0.7459587,-3.0
2025-06-06 11:41:01.778,-0.019054784,0.007605904,0.038521312,0.017871477,0.0051721553,-0.02114336,0.0,0.0,0.0,0.0,0.07117425,0.040017538,-0.019004637,0.07888244,0.016867345,-0.036288686,0.05809182,-0.02899195,-0.04916161,-0.009516954,-0.071191974,-0.036720153,0.04862539,-0.068486966,-0.05367504,-0.053457297,-0.06761086,-0.011087914,-0.05199361,0.026680306,-0.087834835,0.0051087667,0.014228232,-0.07666379,3.0,0.6752291,-1.8258511,3.0,0.25074592,-1.1903362,3.0,-1.0838091,-2.7239263,-3.0,-0.7459587,-3.0,3.0,0.62100303,-1.9190918,3.0,0.4858138,-1.3267705,3.0,-0.9915521,-2.6886463,-3.0,-0.722499,-3.0
2025-06-06 11:41:01.800,0.020265186,0.06384545,-0.010320093,-0.072560765,-0.032837223,-0.030226594,0.0,0.0,0.0,0.0,0.08463543,0.05416446,-0.046606362,0.096656494,0.016204467,-0.05600843,0.057115804,-0.041481532,-0.07131496,-0.011506288,-0.0634511,-0.045826532,0.039708946,-0.052724086,-0.11703781,0.038642768,-0.026408345,-0.09079974,0.08104001,-0.07474921,-0.02603165,-0.011417587,0.0080470685,0.01738217,3.0,0.62100303,-1.9190918,3.0,0.4858138,-1.3267705,3.0,-0.9915521,-2.6886463,-3.0,-0.722499,-3.0,3.0,0.6756804,-1.5973834,3.0,0.49608418,-1.3596585,3.0,-0.83538216,-2.7252104,-3.0,-1.0105639,-3.0
2025-06-06 11:41:01.819,0.037061684,-0.005840955,0.03715152,-0.02858102,-0.025910584,0.026808856,0.0,0.0,0.0,0.0,0.09562593,0.046132162,-0.06551461,0.08715491,0.025719402,-0.0746573,0.07402248,-0.049535293,-0.09770882,-0.015920077,-0.075227514,-0.07216158,0.05664303,0.023193795,0.008186694,0.013923573,0.016784778,-0.03567215,-0.008643182,0.02032143,-0.025243837,0.045269616,0.04198061,0.02000697,3.0,0.6756804,-1.5973834,3.0,0.49608418,-1.3596585,3.0,-0.83538216,-2.7252104,-3.0,-1.0105639,-3.0,3.0,0.5494959,-1.7891973,3.0,0.7857224,-1.5247316,3.0,-0.90561146,-3.0,-3.0,-0.9315208,-3.0
2025-06-06 11:41:01.839,-0.015510195,0.034547526,0.106563576,-0.039538726,-0.041436832,-0.036417,0.0,0.0,0.0,0.0,0.08494245,0.051446754,-0.062367722,0.094180316,0.017193446,-0.10904614,0.059596367,-0.054493498,-0.12594275,-0.011451916,-0.082006976,-0.08598628,0.030237334,0.031224873,-0.09592862,0.021283843,0.011310876,-0.08989617,0.0631583,-0.0043108445,-0.052716598,-0.026396865,0.053001855,0.004933975,3.0,0.5494959,-1.7891973,3.0,0.7857224,-1.5247316,3.0,-0.90561146,-3.0,-3.0,-0.9315208,-3.0,3.0,0.31105125,-1.9275584,3.0,0.8377636,-1.4780306,3.0,-1.239028,-3.0,-3.0,-0.48979184,-2.9028168
2025-06-06 11:41:01.859,0.0036149034,-0.022630082,0.05010822,-0.026303438,0.012438096,-0.04701568,0.0,0.0,0.0,0.0,0.08725268,0.034930274,-0.07923703,0.108946785,0.016648874,-0.13175128,0.0703862,-0.08224554,-0.12606229,-0.00511103,-0.08834888,-0.10609881,0.008434246,-0.050768092,0.04913471,-0.0477313,0.042304605,-0.101593755,0.016324498,0.011438572,0.03416322,0.02632589,0.07434893,-0.08716472,3.0,0.31105125,-1.9275584,3.0,0.8377636,-1.4780306,3.0,-1.239028,-3.0,-3.0,-0.48979184,-2.9028168,3.0,0.42421943,-2.0393229,3.0,0.2999666,-1.1026398,3.0,-1.1826892,-2.4647858,-3.0,-0.60476685,-3.0
2025-06-06 11:41:01.879,0.005491178,-0.006531803,-0.0035013403,-0.021306602,0.019729452,0.01006613,0.0,0.0,0.0,0.0,0.09643578,0.023291651,-0.08125704,0.09458993,0.01912264,-0.12019475,0.07720513,-0.09634928,-0.15949893,-0.013130485,-0.0882838,-0.118923515,0.06865452,0.014717688,0.016584342,0.066619955,0.046161503,-0.07103686,0.09268693,-0.13362558,-0.050816532,-0.025305856,0.043199368,-0.059450258,3.0,0.42421943,-2.0393229,3.0,0.2999666,-1.1026398,3.0,-1.1826892,-2.4647858,-3.0,-0.60476685,-3.0,3.0,0.47109073,-2.2589905,3.0,0.23674646,-0.88412106,3.0,-0.8275443,-1.603946,-3.0,-0.77273357,-3.0
2025-06-06 11:41:01.899,-0.01684876,-0.08261353,0.029424068,-0.056350324,-0.01950212,0.020956056,0.0,0.0,0.0,0.0,0.09578832,0.02799664,-0.085938714,0.10811012,0.028391395,-0.120188855,0.090524726,-0.1256528,-0.16708322,-0.018625315,-0.08432848,-0.1341888,0.0021518252,0.046178225,-0.067933895,-0.00367662,-0.05155759,0.058268335,0.0052031907,-0.05548011,0.039580703,-0.035640515,-0.047713626,-0.041460853,3.0,0.47109073,-2.2589905,3.0,0.23674646,-0.88412106,3.0,-0.8275443,-1.603946,-3.0,-0.77273357,-3.0,3.0,0.31352922,-2.9171336,3.0,0.058305893,-0.5522901,3.0,-0.5455446,-0.66634405,-3.0,-0.697994,-3.0
2025-06-06 11:41:01.919,0.024061158,-0.04914767,0.09155705,-0.04067787,-0.07163885,0.03640818,0.0,0.0,0.0,0.0,0.0982848,0.0020408423,-0.092823245,0.108506896,0.03599172,-0.107371874,0.102621794,-0.12531975,-0.149542,-0.032824658,-0.10907761,-0.13450038,-0.038765196,-0.102418244,-0.04420578,0.04398477,0.05659486,0.09906617,0.105207354,0.022264961,0.08688224,-0.069618456,-0.029127255,-0.055436026,3.0,0.31352922,-2.9171336,3.0,0.058305893,-0.5522901,3.0,-0.5455446,-0.66634405,-3.0,-0.697994,-3.0,3.0,-0.13407207,-3.0,3.0,-0.43686363,-0.116219915,3.0,-0.45191365,0.6027688,-3.0,0.037167285,-3.0
2025-06-06 11:41:01.942,0.06843146,-0.12578815,0.05425805,-0.024464432,-0.06538569,0.01605847,0.0,0.0,0.0,0.0,0.08884475,-0.007400772,-0.06673588,0.10596354,0.014048734,-0.069148,0.12919834,-0.11448787,-0.09272139,-0.026498528,-0.10876359,-0.15598448,0.0178837,-0.02388377,-0.039892312,-0.0148000615,-0.083466314,0.11225072,0.088699594,-0.035355076,0.16525587,-0.0622348,-0.05061096,-0.07517609,3.0,-0.13407207,-3.0,3.0,-0.43686363,-0.116219915,3.0,-0.45191365,0.6027688,-3.0,0.037167285,-3.0,3.0,-0.09064889,-3.0,3.0,-0.7245636,0.14412993,3.0,-0.11172049,1.513582,-3.0,-0.05923977,-3.0
2025-06-06 11:41:01.959,0.044000402,-0.078518376,-0.04166161,-0.03348118,-0.033950206,-0.0013577415,0.0,0.0,0.0,0.0,0.081575096,-0.016138604,-0.06848443,0.094669946,-0.021869907,-0.05755479,0.12564786,-0.09689223,-0.028525027,-0.049852796,-0.11267598,-0.14642933,0.043791223,-0.059034377,-0.028666483,0.028557543,-0.07930117,0.011004319,0.097891524,0.005426456,0.25085822,0.020506956,-0.029547343,-0.003986067,3.0,-0.09064889,-3.0,3.0,-0.7245636,0.14412993,3.0,-0.11172049,1.513582,-3.0,-0.05923977,-3.0,3.0,0.33906883,-3.0,3.0,-0.5536344,0.12720978,3.0,0.22875778,1.6828746,-3.0,-0.8429755,-3.0
2025-06-06 11:41:01.979,-0.018697806,0.034604907,-0.002659799,-0.043050583,-0.06032895,0.00025156912,0.0,0.0,0.0,0.0,0.077931985,-0.034218032,-0.071903005,0.11401703,-0.054858938,-0.033733834,0.13133578,-0.046925724,0.05264687,-0.037245627,-0.12154572,-0.16134746,-0.056736343,-0.10082262,0.006514523,0.07186331,-0.034417246,0.10329533,0.029141478,0.09079612,0.14910795,-0.008769005,-0.009397479,-0.004319205,3.0,0.33906883,-3.0,3.0,-0.5536344,0.12720978,3.0,0.22875778,1.6828746,-3.0,-0.8429755,-3.0,3.0,0.24238993,-3.0,3.0,-0.24071273,-0.12328122,3.0,0.33332574,1.2708868,-3.0,-0.8668038,-3.0
2025-06-06 11:41:02.002,-0.03327596,0.0039040279,0.0061971745,-0.0350686,-0.009147339,0.019584535,0.0,0.0,0.0,0.0,0.080344304,-0.046414964,-0.07338209,0.11537656,-0.06562694,-0.024168575,0.13823967,-0.0006044259,0.081723265,-0.05060091,-0.13652463,-0.14624906,-0.019590868,0.0032176785,-0.024370678,0.0058366233,0.028955515,-0.055297956,0.06999726,0.15525998,0.09554196,0.046884477,-0.06981906,0.061396748,3.0,0.24238993,-3.0,3.0,-0.24071273,-0.12328122,3.0,0.33332574,1.2708868,-3.0,-0.8668038,-3.0,3.0,0.35743958,-3.0,3.0,-0.038817134,-0.2771221,3.0,0.37947378,0.6985142,-3.0,-1.1219747,-3.0
2025-06-06 11:41:02.019,-0.108054735,0.11034387,0.035888646,-0.0712051,-0.014219073,-0.034792613,0.0,0.0,0.0,0.0,0.08010103,-0.058585867,-0.08714639,0.10206835,-0.048682205,-0.024723144,0.15131897,0.020274466,0.08909647,-0.049530003,-0.16100743,-0.15021142,-0.002803279,0.026511636,-0.09794598,-0.03501722,-0.0126400925,-0.03559666,-0.013595962,0.08847494,0.03448987,-0.07020196,-0.13559903,0.067202844,3.0,0.35743958,-3.0,3.0,-0.038817134,-0.2771221,3.0,0.37947378,0.6985142,-3.0,-1.1219747,-3.0,3.0,0.19344003,-3.0,3.0,0.23609272,-0.49230242,3.0,0.3680678,0.09120069,-3.0,-1.0442318,-3.0
2025-06-06 11:41:02.039,-0.1177883,0.079882696,-0.027671337,-0.01546883,0.00040341466,-0.008413069,0.0,0.0,0.0,0.0,0.08109173,-0.06339158,-0.08236512,0.116104685,-0.029365616,-0.037354507,0.14912441,0.05979515,0.06677769,-0.05456418,-0.19375147,-0.14822207,-0.014633615,0.026361683,-0.05897158,0.03601369,0.08399987,0.0033909795,0.05141048,0.043549523,-0.04372519,-0.060564764,-0.04049545,-0.0051663998,3.0,0.19344003,-3.0,3.0,0.23609272,-0.49230242,3.0,0.3680678,0.09120069,-3.0,-1.0442318,-3.0,3.0,0.49863002,-2.4793441,3.0,0.26452997,-0.54314613,3.0,0.3276853,-0.2938998,-3.0,-1.4903399,-3.0
2025-06-06 11:41:02.060,-0.16458294,0.077590235,0.040431105,0.0025596025,-0.076049045,0.017772622,0.0,0.0,0.0,0.0,0.083512954,-0.08440373,-0.087816246,0.105774544,-0.0036311604,-0.037271265,0.13828851,0.07485441,0.04551326,-0.0525252,-0.21812545,-0.12841327,-0.04886638,-0.09305232,0.048984673,-0.025396174,0.0018632768,-0.074131526,-0.007324306,0.08798347,-0.07434098,0.06404743,0.0035867067,-0.0397351,3.0,0.49863002,-2.4793441,3.0,0.26452997,-0.54314613,3.0,0.3276853,-0.2938998,-3.0,-1.4903399,-3.0,3.0,0.27421683,-2.6384919,3.0,0.5506994,-0.8046247,3.0,0.24810103,-0.73411185,-3.0,-1.3237144,-3.0
2025-06-06 11:41:02.079,-0.12086667,0.056366663,-0.0014531551,-0.0562392,-0.062194217,0.049707353,0.0,0.0,0.0,0.0,0.08994358,-0.0926718,-0.105406195,0.10147004,0.026456892,-0.055365615,0.14831053,0.07052653,0.0081353085,-0.06831552,-0.22384833,-0.13062273,0.016407523,0.04630868,-0.057037998,-0.045101218,-0.031402193,-0.0011507531,-0.048388645,-0.013104883,-0.06839533,-0.05020135,-0.06185731,-0.0029642347,3.0,0.27421683,-2.6384919,3.0,0.5506994,-0.8046247,3.0,0.24810103,-0.73411185,-3.0,-1.3237144,-3.0,3.0,0.40859514,-2.2146823,3.0,0.589505,-0.84008795,3.0,0.19942753,-1.1784598,-3.0,-1.6036109,-3.0
2025-06-06 11:41:02.102,-0.112397246,0.03854311,0.042037237,-0.014045629,-0.060361896,-0.028036274,0.0,0.0,0.0,0.0,0.072242215,-0.10257205,-0.104963765,0.10942625,0.016664963,-0.051687695,0.14568086,0.070293814,-0.033851866,-0.0694531,-0.24595554,-0.12881485,-0.006046493,0.021446155,0.015265482,-0.058346555,-0.037089657,0.004009944,0.02273468,-0.050288312,-0.056646354,-0.0036982459,-0.029039318,-0.053670574,3.0,0.40859514,-2.2146823,3.0,0.589505,-0.84008795,3.0,0.19942753,-1.1784598,-3.0,-1.6036109,-3.0,3.0,0.19538572,-2.3157148,3.0,0.84814304,-1.1229792,3.0,0.041235805,-1.7106048,-3.0,-1.3904245,-3.0
2025-06-06 11:41:02.120,-0.10378708,-0.053114366,0.025208985,-0.0993908,-0.04686602,-0.011084648,0.0,0.0,0.0,0.0,0.08486984,-0.10069849,-0.11930001,0.11606081,0.0016467944,-0.046305437,0.1394237,0.06051993,-0.07138419,-0.07514247,-0.2512255,-0.1453837,-0.03214873,-0.0058236844,0.010763565,0.05059774,-0.021289697,0.030065592,-0.016327024,-0.059755173,0.008148515,-0.017620862,0.026628291,-0.011983878,3.0,0.19538572,-2.3157148,3.0,0.84814304,-1.1229792,3.0,0.041235805,-1.7106048,-3.0,-1.3904245,-3.0,3.0,0.23904677,-2.063439,3.0,0.7555979,-1.0848795,3.0,-0.17584194,-2.1122167,-3.0,-1.4474723,-3.0
2025-06-06 11:41:02.140,-0.041015796,0.01469357,0.088271156,-0.01213035,-0.07396798,0.02425879,0.0,0.0,0.0,0.0,0.08557369,-0.10608158,-0.111522056,0.122306205,-0.021211108,-0.026646014,0.12778765,0.06503514,-0.09081982,-0.08139918,-0.26968226,-0.15451692,0.072235,0.034515165,0.025174422,0.017142469,-0.023180995,-0.041716356,0.030129386,-0.039405257,-0.10128059,-0.002783854,-0.037899558,0.024575273,3.0,0.23904677,-2.063439,3.0,0.7555979,-1.0848795,3.0,-0.17584194,-2.1122167,-3.0,-1.4474723,-3.0,3.0,0.07798402,-1.9271057,3.0,1.0708802,-1.362871,3.0,-0.32279235,-2.7462463,-3.0,-1.2932347,-2.8617015
2025-06-06 11:41:02.160,-0.11549863,-0.015995743,0.053810034,-0.092914626,-0.10826848,0.017357092,0.0,0.0,0.0,0.0,0.07825806,-0.09657343,-0.13258483,0.112370595,-0.011495916,-0.044403706,0.14073567,0.06565943,-0.100328654,-0.08667411,-0.26757815,-0.1582478,-0.0018528489,-0.050881702,-0.049915984,0.06083496,0.037821423,0.05616904,-0.0808725,-0.021638134,-0.029788738,-0.039345767,-0.008979062,-0.04332838,3.0,0.07798402,-1.9271057,3.0,1.0708802,-1.362871,3.0,-0.32279235,-2.7462463,-3.0,-1.2932347,-2.8617015,3.0,0.19015272,-1.4658486,3.0,1.0669513,-1.6323931,3.0,-0.6313995,-3.0,-3.0,-1.3333465,-2.792616
2025-06-06 11:41:02.180,-0.07281694,-0.028479636,0.07396141,-0.093755044,-0.06965212,0.007146497,0.0,0.0,0.0,0.0,0.08230975,-0.10251448,-0.1508106,0.124640055,-0.01973441,-0.05558501,0.12533568,0.04837405,-0.11332162,-0.09511246,-0.25983322,-0.18310231,0.041692533,0.065430924,-0.03209249,0.013308604,0.017065687,-0.06697556,-0.042107396,0.020800136,0.017640078,0.023384575,-0.05294478,-0.07247848,3.0,0.19015272,-1.4658486,3.0,1.0669513,-1.6323931,3.0,-0.6313995,-3.0,-3.0,-1.3333465,-2.792616,3.0,0.21383801,-0.9428551,3.0,1.3782139,-2.1574054,3.0,-0.7654851,-3.0,-3.0,-1.397636,-2.323895
2025-06-06 11:41:02.202,-0.0032543093,0.03361356,0.050335,-0.0395576,-0.12179297,0.041621212,0.0,0.0,0.0,0.0,0.083230175,-0.092353955,-0.13237554,0.11739113,-0.017637627,-0.067253076,0.116082326,0.019218415,-0.14038098,-0.108410984,-0.25902358,-0.19493198,0.03437508,0.041224673,0.05703581,-0.014967072,0.0033017069,0.01260383,-0.015016235,-0.1193125,0.01498736,0.02349953,0.06904661,-0.081569076,3.0,0.21383801,-0.9428551,3.0,1.3782139,-2.1574054,3.0,-0.7654851,-3.0,-3.0,-1.397636,-2.323895,3.0,0.17265494,-0.66844743,3.0,1.4467642,-2.464428,3.0,-0.8700377,-3.0,-3.0,-1.3784064,-1.7996638
2025-06-06 11:41:02.220,0.05373343,0.037404027,0.06709091,-0.056951586,-0.11810313,-0.038082723,0.0,0.0,0.0,0.0,0.08549845,-0.103281796,-0.12804365,0.120744914,-0.022125809,-0.07880852,0.12987456,0.0013641652,-0.15675914,-0.109935656,-0.248628,-0.20780973,-0.022204295,-0.040205214,0.046172056,0.059991885,0.004626146,-0.11569211,0.042289842,-0.0474185,0.026909763,-0.06284866,-0.069393925,-0.027314104,3.0,0.17265494,-0.66844743,3.0,1.4467642,-2.464428,3.0,-0.8700377,-3.0,-3.0,-1.3784064,-1.7996638,3.0,0.11854665,-0.3357123,3.0,1.5854352,-2.6242616,3.0,-0.94128525,-3.0,-3.0,-1.3651165,-1.1124085
2025-06-06 11:41:02.240,0.16038108,-0.04099968,0.05128663,-0.04350931,-0.035116438,0.033904806,0.0,0.0,0.0,0.0,0.08232523,-0.08378219,-0.11200807,0.11906916,-0.010155737,-0.09237496,0.12279213,-0.032735545,-0.18146458,-0.11752934,-0.2602971,-0.17852387,0.03961074,0.14678112,0.028975619,-0.027347218,-0.039171796,-0.054016083,0.059570324,-0.10242341,0.055619933,-0.09046065,-0.048612256,0.10570005,3.0,0.11854665,-0.3357123,3.0,1.5854352,-2.6242616,3.0,-0.94128525,-3.0,-3.0,-1.3651165,-1.1124085,3.0,0.25687376,0.1728545,3.0,1.4342374,-3.0,3.0,-0.9489141,-3.0,-3.0,-1.3434137,-0.38166085
2025-06-06 11:41:02.260,0.1847258,-0.0024522408,0.08056893,-0.0145416865,-0.06774102,0.028489467,0.0,0.0,0.0,0.0,0.088437326,-0.05361503,-0.08113173,0.11107721,-0.015764521,-0.12193239,0.118474476,-0.06030604,-0.17475218,-0.11986532,-0.25393853,-0.14053233,0.0002842732,0.08665331,0.0339803,-0.008220323,-0.05135804,-0.062249612,-0.040541403,-0.03693638,0.049383942,-0.035432108,0.07107215,0.13029449,3.0,0.25687376,0.1728545,3.0,1.4342374,-3.0,3.0,-0.9489141,-3.0,-3.0,-1.3434137,-0.38166085,3.0,0.41552567,0.19628043,3.0,1.5461895,-3.0,3.0,-1.085153,-3.0,-3.0,-1.1152121,0.20945424
2025-06-06 11:41:02.280,0.1729246,-0.01597335,0.034316424,-0.0050018043,-0.020555729,0.048075575,0.0,0.0,0.0,0.0,0.1130104,-0.0119638825,-0.038226064,0.112704724,-0.01261022,-0.14838393,0.10386688,-0.07631545,-0.15740664,-0.14367588,-0.25757036,-0.087348,0.032402996,0.082862996,0.11735896,-0.08152547,0.006355334,-0.12544857,0.03962172,-0.030703958,0.011800512,-0.076933965,0.035079043,0.071896955,3.0,0.41552567,0.19628043,3.0,1.5461895,-3.0,3.0,-1.085153,-3.0,-3.0,-1.1152121,0.20945424,3.0,0.61452425,0.70702845,3.0,0.92757165,-3.0,3.0,-0.6772822,-3.0,-3.0,-1.0959157,0.7714329
2025-06-06 11:41:02.302,0.16450861,-0.06388265,0.06323326,-0.056819104,0.01022689,-0.04489378,0.0,0.0,0.0,0.0,0.11823874,0.03529287,-0.010472991,0.12296778,-0.008132899,-0.14719696,0.10890295,-0.08076451,-0.13945489,-0.13474557,-0.23670436,-0.037734773,0.06704523,0.090262145,0.14138342,0.047378607,0.06832116,0.041152406,0.04320566,0.004890118,0.028088732,0.018909222,0.11344089,0.10952061,3.0,0.61452425,0.70702845,3.0,0.92757165,-3.0,3.0,-0.6772822,-3.0,-3.0,-1.0959157,0.7714329,3.0,0.6021517,0.3488608,3.0,1.1209037,-3.0,3.0,-0.8633057,-3.0,-3.0,-0.8376494,0.8446781
2025-06-06 11:41:02.320,0.17312406,-0.05757697,0.046705127,-0.04725173,-0.014418248,0.049384516,0.0,0.0,0.0,0.0,0.13408956,0.07015393,0.0013771406,0.121942304,0.0035265477,-0.15951917,0.10951358,-0.09117222,-0.12725781,-0.14457327,-0.20036647,0.0042284746,0.04954067,0.121138304,0.097924426,-0.022479014,-0.002314207,-0.07235843,0.02289033,0.009099596,0.027538935,-0.062807254,0.09069262,0.14077555,3.0,0.6021517,0.3488608,3.0,1.1209037,-3.0,3.0,-0.8633057,-3.0,-3.0,-0.8376494,0.8446781,3.0,0.6779804,0.572434,3.0,0.80689174,-3.0,3.0,-0.669027,-3.0,-3.0,-0.8687597,0.8309118
2025-06-06 11:41:02.340,0.10167424,-0.12223102,-0.0018197343,-0.0073005976,-0.038542178,0.020669041,0.0,0.0,0.0,0.0,0.1456524,0.105027564,0.03241993,0.11421101,0.017818073,-0.16750555,0.10318229,-0.10034667,-0.10737553,-0.1454464,-0.17678307,0.034603253,0.008122325,0.0003178982,0.055282183,0.047639783,0.04740714,0.019518597,0.02104686,-0.01825784,0.033375744,0.030689215,0.058511563,0.121650755,3.0,0.6779804,0.572434,3.0,0.80689174,-3.0,3.0,-0.669027,-3.0,-3.0,-0.8687597,0.8309118,3.0,0.70745564,0.46981913,3.0,0.5812722,-3.0,3.0,-0.34619692,-3.0,-3.0,-0.87715876,0.77686197
2025-06-06 11:41:02.361,0.025053281,-0.13449508,0.08120808,0.0396771,-0.078063525,-0.026606254,0.0,0.0,0.0,0.0,0.14655703,0.096084826,0.050951477,0.122172855,0.014182848,-0.167141,0.10693329,-0.10407594,-0.10161693,-0.14055325,-0.17706613,0.05916967,0.087156,0.031128967,0.011942175,0.01380616,0.021175822,0.0572182,0.044270102,0.0040475447,-0.026315005,-0.07282276,0.024082452,-0.0006118901,3.0,0.70745564,0.46981913,3.0,0.5812722,-3.0,3.0,-0.34619692,-3.0,-3.0,-0.87715876,0.77686197,3.0,0.6144008,0.084742874,3.0,0.92395455,-3.0,3.0,-0.6168984,-3.0,-3.0,-0.7217047,0.41892067
2025-06-06 11:41:02.381,0.045014735,-0.17879201,0.029541645,0.0038549472,-0.020309124,0.048603565,0.0,0.0,0.0,0.0,0.16456173,0.10325816,0.078183144,0.14131798,0.025579646,-0.17730975,0.10343863,-0.08897426,-0.08944775,-0.14123988,-0.163379,0.061868235,-0.017854452,-0.06897417,0.1187955,0.05125049,0.090359,0.041931614,-0.06580075,0.031426385,-0.014086034,-0.0622597,-0.003019352,0.021353472,3.0,0.6144008,0.084742874,3.0,0.92395455,-3.0,3.0,-0.6168984,-3.0,-3.0,-0.7217047,0.41892067,3.0,0.7592658,0.29847914,3.0,0.4749148,-3.0,3.0,-0.3428718,-3.0,-3.0,-0.96294117,0.14959365
2025-06-06 11:41:02.403,0.050903812,-0.11713063,0.09980394,0.029942757,-0.05078116,0.044553697,0.0,0.0,0.0,0.0,0.16952679,0.08982437,0.097429454,0.13705832,0.021932684,-0.18370989,0.113255,-0.08083916,-0.08784579,-0.14039066,-0.15458478,0.048653904,-0.01823247,0.056279253,0.04018724,-0.012294833,-0.000679867,-0.07249641,-0.061642285,-0.05110949,-0.06688561,-0.0027627833,-0.040820073,-0.08037712,3.0,0.7592658,0.29847914,3.0,0.4749148,-3.0,3.0,-0.3428718,-3.0,-3.0,-0.96294117,0.14959365,3.0,0.5596886,0.0014871322,3.0,0.8490049,-3.0,3.0,-0.4816101,-3.0,-3.0,-0.79629445,0.19208893
2025-06-06 11:41:02.421,0.11833208,-0.074146375,0.026314016,0.05045669,-0.065267205,-0.0016906643,0.0,0.0,0.0,0.0,0.18257378,0.091307975,0.1196751,0.14754552,0.03977128,-0.18758689,0.11816222,-0.072420634,-0.09245247,-0.14619988,-0.15908292,0.028122254,0.033633683,0.004953504,-0.029173238,0.03772306,-0.0058305264,0.03881869,0.03800022,-0.015435452,0.067423075,0.007220333,0.07558027,0.010056622,3.0,0.5596886,0.0014871322,3.0,0.8490049,-3.0,3.0,-0.4816101,-3.0,-3.0,-0.79629445,0.19208893,3.0,0.751317,0.32382917,3.0,0.46538648,-3.0,3.0,-0.36984178,-3.0,-3.0,-0.9372601,0.15100494
2025-06-06 11:41:02.441,0.07583916,-0.13138264,0.007183473,0.054686517,-0.060385026,-0.035593104,0.0,0.0,0.0,0.0,0.19209896,0.09040936,0.12328389,0.16023743,0.038527936,-0.2044941,0.115039416,-0.08636976,-0.083326295,-0.14004144,-0.16275136,0.023225015,0.08494695,0.05465395,0.016556436,0.08568827,-0.016456109,0.003272331,-0.07042849,-0.00068704045,-0.0442999,0.06445102,-0.00935779,-0.049728263,3.0,0.751317,0.32382917,3.0,0.46538648,-3.0,3.0,-0.36984178,-3.0,-3.0,-0.9372601,0.15100494,3.0,0.68808883,0.39594495,3.0,0.32377988,-3.0,3.0,0.016346842,-3.0,-3.0,-1.0009733,0.44302893
2025-06-06 11:41:02.461,-0.028123626,-0.12206421,0.058014672,0.11695317,0.0016772315,-0.0030157415,0.0,0.0,0.0,0.0,0.20782405,0.098791346,0.13863301,0.16209339,0.043029144,-0.20160049,0.11426863,-0.06066497,-0.08910535,-0.1381873,-0.166326,0.025981821,-0.01810731,0.01044396,-0.024670735,0.08724921,0.08642458,-0.018022902,-0.020100594,-0.04275006,-0.026725706,-0.048533,-0.06689858,0.07792314,3.0,0.68808883,0.39594495,3.0,0.32377988,-3.0,3.0,0.016346842,-3.0,-3.0,-1.0009733,0.44302893,3.0,0.5701014,0.36293882,3.0,0.5805086,-3.0,3.0,-0.070373684,-3.0,-3.0,-0.8801274,0.57431626
2025-06-06 11:41:02.481,0.076227665,-0.14365569,-0.002524372,0.078743674,-0.045104936,0.04587629,0.0,0.0,0.0,0.0,0.21810608,0.094208635,0.1591283,0.1623012,0.05769803,-0.21336976,0.12201546,-0.04852332,-0.088619605,-0.14787996,-0.16519174,0.038546108,-0.008288888,-0.011401413,0.09927566,-0.045611627,0.01804069,0.04976194,0.03178345,0.059500694,0.0014740501,0.010695814,0.025911245,-0.0065550166,3.0,0.5701014,0.36293882,3.0,0.5805086,-3.0,3.0,-0.070373684,-3.0,-3.0,-0.8801274,0.57431626,3.0,0.76028645,0.71521884,3.0,0.13976085,-3.0,3.0,0.23090006,-3.0,-3.0,-1.0030577,0.72168225
2025-06-06 11:41:02.503,-0.0074647153,-0.1406303,0.048986357,0.101087324,-0.09106274,0.003265741,0.0,0.0,0.0,0.0,0.21491708,0.097370654,0.17274442,0.16690785,0.057343755,-0.22458951,0.1105789,-0.041890174,-0.10153495,-0.13992263,-0.16654374,0.05132692,-0.05746562,0.0029731272,0.04035148,0.02460342,-0.025239304,0.030483076,0.07037858,0.09691666,-0.02965327,-0.05545364,-0.069494665,0.090314165,3.0,0.76028645,0.71521884,3.0,0.13976085,-3.0,3.0,0.23090006,-3.0,-3.0,-1.0030577,0.72168225,3.0,0.58440846,0.5510915,3.0,0.37351432,-3.0,3.0,0.25272983,-3.0,-3.0,-0.8914078,0.7684528
2025-06-06 11:41:02.521,-0.01124862,-0.09883563,0.012213845,0.085959174,-0.015711347,-0.011497764,0.0,0.0,0.0,0.0,0.22617802,0.09132254,0.17268588,0.16175139,0.07091998,-0.21343713,0.1111727,-0.03518049,-0.12065802,-0.15386777,-0.16445687,0.053061727,0.04835638,-0.010301559,-0.0068073496,-0.004861311,0.0009166068,0.028733283,-0.020141631,0.050771207,-0.052619904,0.046796974,0.051592447,-0.032307647,3.0,0.58440846,0.5510915,3.0,0.37351432,-3.0,3.0,0.25272983,-3.0,-3.0,-0.8914078,0.7684528,3.0,0.7017907,0.68481857,3.0,0.26226267,-3.0,3.0,0.23900957,-3.0,-3.0,-0.8705602,0.8851766
2025-06-06 11:41:02.541,0.024294741,-0.14021216,0.04308035,0.13992599,-0.06524886,0.023681898,0.0,0.0,0.0,0.0,0.22781754,0.093843624,0.19279227,0.16026548,0.06505466,-0.209755,0.10087342,-0.018253943,-0.13217214,-0.1532148,-0.17371216,0.061988167,0.011766492,0.033741828,0.013859216,0.029000638,-0.032995492,0.013267559,-0.049808882,-0.0013434163,-0.049983334,-0.07087555,0.009471884,-0.028728865,3.0,0.7017907,0.68481857,3.0,0.26226267,-3.0,3.0,0.23900957,-3.0,-3.0,-0.8705602,0.8851766,3.0,0.6394848,0.6230935,3.0,0.31669262,-3.0,3.0,0.24103875,-3.0,-3.0,-0.83088154,0.904988
2025-06-06 11:41:02.561,-0.025883399,-0.13046457,-0.0127040595,0.073846914,-0.07469634,0.026299061,0.0,0.0,0.0,0.0,0.23479351,0.10393697,0.20913096,0.17920442,0.07624035,-0.21335241,0.104401544,-0.0031241444,-0.12985885,-0.13772789,-0.16662177,0.07687118,-0.041320134,-0.0755965,0.006796156,0.028737936,0.06688171,0.038074292,0.04747779,0.05170718,0.01785738,-0.02179236,0.024654971,-0.008280069,3.0,0.6394848,0.6230935,3.0,0.31669262,-3.0,3.0,0.24103875,-3.0,-3.0,-0.83088154,0.904988,3.0,0.7349676,0.7647005,3.0,0.06078871,-3.0,3.0,0.5269749,-3.0,-3.0,-0.9150011,0.8486038
2025-06-06 11:41:02.581,-0.048894834,-0.028769596,0.030297639,0.11579862,-0.078130156,0.008323183,0.0,0.0,0.0,0.0,0.22170937,0.09019761,0.20246167,0.17794038,0.063025095,-0.20731007,0.09444118,0.0010763853,-0.14880434,-0.1437645,-0.16062117,0.079899564,0.03165183,0.06550504,-0.055486273,0.021580333,0.032940764,0.026035128,-0.051074795,-0.050382525,-0.017381486,0.03128135,0.06098834,0.015113634,3.0,0.7349676,0.7647005,3.0,0.06078871,-3.0,3.0,0.5269749,-3.0,-3.0,-0.9150011,0.8486038,3.0,0.5847138,0.54561967,3.0,0.34916034,-3.0,3.0,0.2181171,-3.0,-3.0,-0.7299431,0.7749725
2025-06-06 11:41:02.602,-0.006014348,-0.06914583,0.05920261,0.16275042,-0.05972016,-0.03963869,0.0,0.0,0.0,0.0,0.22544062,0.09022266,0.21215096,0.16506466,0.06823807,-0.19965516,0.09146922,-0.0019402421,-0.139773,-0.13636479,-0.16337326,0.0739793,-0.050528254,-0.05165871,-0.0027968492,0.020175928,-0.058927413,-0.050229136,-0.056941614,0.03698928,-0.041603528,0.040286303,-0.05086718,0.0039094505,3.0,0.5847138,0.54561967,3.0,0.34916034,-3.0,3.0,0.2181171,-3.0,-3.0,-0.7299431,0.7749725,3.0,0.702322,0.5339441,3.0,0.36334768,-3.0,3.0,0.19159457,-3.0,-3.0,-0.848939,0.73176867
2025-06-06 11:41:02.621,-0.006421192,0.058878016,0.059040073,0.16246463,-0.110623725,0.001463021,0.0,0.0,0.0,0.0,0.21985413,0.08229007,0.21337269,0.17978798,0.052632574,-0.21252653,0.09007792,-0.0057805986,-0.14920615,-0.14180467,-0.14977077,0.07755935,0.02498616,-0.014789332,0.0259569,-0.067004435,-0.017783627,0.010383284,-0.07850482,-0.02614467,0.051467717,0.075545736,0.06958728,-0.06837455,3.0,0.702322,0.5339441,3.0,0.36334768,-3.0,3.0,0.19159457,-3.0,-3.0,-0.848939,0.73176867,3.0,0.6646505,0.38089174,3.0,0.4024575,-3.0,3.0,0.022814654,-3.0,-3.0,-0.752104,0.60148984
2025-06-06 11:41:02.641,-0.029612381,0.083566286,0.012315553,0.13703315,-0.10772313,-0.015281315,0.0,0.0,0.0,0.0,0.22779742,0.08617865,0.21078892,0.16694374,0.04779401,-0.21463107,0.09434932,-0.0032427025,-0.15060756,-0.13967977,-0.15527405,0.06765346,-0.0007228287,-0.056724958,-0.051790718,-0.07588804,0.00598274,0.016944025,-0.06840699,0.00080643804,-0.023563663,-0.033409197,0.020703172,-0.08168667,3.0,0.6646505,0.38089174,3.0,0.4024575,-3.0,3.0,0.022814654,-3.0,-3.0,-0.752104,0.60148984,3.0,0.71186125,0.6289689,3.0,0.15054855,-3.0,3.0,0.37454852,-3.0,-3.0,-0.9325106,0.6059586
2025-06-06 11:41:02.662,-0.08893616,0.008919839,0.052389473,0.105081394,-0.08142433,0.027765486,0.0,0.0,0.0,0.0,0.22841173,0.07843469,0.19763479,0.16465098,0.054810412,-0.21255657,0.09981886,-0.0031074965,-0.15794396,-0.13478209,-0.15621261,0.06300303,0.072585024,0.015367471,-0.014614509,0.00018545399,0.011202244,0.049331374,0.03884139,-0.05309713,0.03257974,0.047874723,0.05783463,-0.055671643,3.0,0.71186125,0.6289689,3.0,0.15054855,-3.0,3.0,0.37454852,-3.0,-3.0,-0.9325106,0.6059586,3.0,0.6312719,0.34246826,3.0,0.48889127,-3.0,3.0,-0.0016203742,-3.0,-3.0,-0.6780569,0.59965974
2025-06-06 11:41:02.684,-0.012669816,0.05022241,0.040678155,0.16184144,-0.07678208,-0.04618338,0.0,0.0,0.0,0.0,0.22634178,0.08252487,0.20139903,0.1641521,0.043874104,-0.2154074,0.09145143,-0.0036768096,-0.16324693,-0.14275755,-0.1414917,0.07013993,0.00034851447,0.03261735,-0.0927848,-0.025508039,-0.074768804,0.028972387,0.04879776,-0.058506813,-0.05649395,0.01625673,0.08848151,-0.04144142,3.0,0.6312719,0.34246826,3.0,0.48889127,-3.0,3.0,-0.0016203742,-3.0,-3.0,-0.6780569,0.59965974,3.0,0.73258513,0.5281165,3.0,0.31791976,-3.0,3.0,0.094306275,-3.0,-3.0,-0.8193898,0.54523855
2025-06-06 11:41:02.702,-0.07166524,0.03255777,-0.035245508,0.06994127,-0.03302378,0.0021514646,0.0,0.0,0.0,0.0,0.23082958,0.06423648,0.19155344,0.1788005,0.029603979,-0.20919885,0.09143083,-0.013213352,-0.1566107,-0.14035465,-0.14739765,0.0692753,-0.051540036,0.035877384,0.050507005,0.030928407,0.031930443,0.014607657,-0.005730391,-0.06028802,0.027785948,0.038841635,-0.05907919,-0.022017129,3.0,0.73258513,0.5281165,3.0,0.31791976,-3.0,3.0,0.094306275,-3.0,-3.0,-0.8193898,0.54523855,3.0,0.72968924,0.8104296,3.0,0.023984034,-3.0,3.0,0.5633403,-3.0,-3.0,-1.0196182,0.74413085
2025-06-06 11:41:02.722,-0.108289674,0.023090685,0.05787995,0.062145844,-0.082220405,-0.0115969945,0.0,0.0,0.0,0.0,0.21303976,0.065065585,0.18505648,0.16759071,0.037727553,-0.20211004,0.0959194,-0.007784138,-0.17328575,-0.13955311,-0.1421483,0.07099825,0.01161244,-0.0032466084,-0.0792409,0.00778699,-0.022855882,0.002293866,-0.06435863,0.019750921,0.04533618,-0.0070286184,-0.004180595,0.074414544,3.0,0.72968924,0.8104296,3.0,0.023984034,-3.0,3.0,0.5633403,-3.0,-3.0,-1.0196182,0.74413085,3.0,0.525991,0.43968987,3.0,0.55426455,-3.0,3.0,0.053687885,-3.0,-3.0,-0.7146143,0.72647864
2025-06-06 11:41:02.742,-0.05407452,0.07998374,0.043668404,0.14363024,-0.1067704,0.043204095,0.0,0.0,0.0,0.0,0.21680695,0.07708857,0.17296799,0.17057429,0.02047915,-0.20622362,0.08426477,-0.018945865,-0.17464055,-0.14300852,-0.1536564,0.07047545,0.035758797,-0.024738384,-0.06936905,0.047607344,-0.013816465,0.03421004,0.026207644,0.02836071,0.052979358,0.033118203,-0.05774226,0.035153236,3.0,0.525991,0.43968987,3.0,0.55426455,-3.0,3.0,0.053687885,-3.0,-3.0,-0.7146143,0.72647864,3.0,0.7741695,0.62367207,3.0,0.36802927,-3.0,3.0,0.023544393,-3.0,-3.0,-0.8668829,0.717083
2025-06-06 11:41:02.804,-0.060518112,0.047993097,0.049655832,0.10643078,-0.079573356,0.020769859,0.0,0.0,0.0,0.0,0.20923221,0.059842203,0.17505701,0.16279632,0.006467131,-0.20194227,0.0796751,-0.006646354,-0.18252431,-0.13833065,-0.14649048,0.073108375,-0.029720174,-0.030024132,0.02486708,-0.029266892,-0.007335435,-0.005049224,-0.021141225,0.009974331,0.036056567,-0.0446031,-0.033741485,-0.031475674,3.0,0.7741695,0.62367207,3.0,0.36802927,-3.0,3.0,0.023544393,-3.0,-3.0,-0.8668829,0.717083,3.0,0.6355283,0.52679104,3.0,0.40286553,-3.0,3.0,0.14071532,-3.0,-3.0,-0.85447276,0.74171835
2025-06-06 11:41:02.828,-0.011043287,0.08018284,0.019588608,0.058416598,-0.058196608,-0.01491544,0.0,0.0,0.0,0.0,0.20788935,0.07383831,0.17047289,0.1622677,0.001645919,-0.19078921,0.08059261,-0.00976896,-0.1726338,-0.14331523,-0.14360292,0.07018966,-0.04153833,0.028065402,-0.051480748,-0.031145355,0.04026898,0.0027237854,-0.080988415,-0.0133572435,0.036479384,-0.01646946,0.04034024,-0.061744805,3.0,0.6355283,0.52679104,3.0,0.40286553,-3.0,3.0,0.14071532,-3.0,-3.0,-0.85447276,0.74171835,3.0,0.6560702,0.62896115,3.0,0.33452454,-3.0,3.0,0.17714025,-3.0,-3.0,-0.88904166,0.7771713
2025-06-06 11:41:02.844,-0.061278984,0.026254497,0.041494157,0.06444935,-0.04488885,0.044247307,0.0,0.0,0.0,0.0,0.19956492,0.070382066,0.16454962,0.16554154,0.005818663,-0.18616606,0.08531923,-0.016481591,-0.18889463,-0.14874807,-0.15040258,0.07504829,-0.008213996,0.041962624,-0.026076138,0.029366989,-0.009660837,0.002588433,-0.063620664,-0.074249856,-0.063111044,0.062015295,-0.059435662,0.05219651,3.0,0.6560702,0.62896115,3.0,0.33452454,-3.0,3.0,0.17714025,-3.0,-3.0,-0.88904166,0.7771713,3.0,0.64192337,0.5808937,3.0,0.4709692,-3.0,3.0,0.0662798,-3.0,-3.0,-0.83662933,0.8813531
2025-06-06 11:41:02.864,-0.027727962,0.009840731,-0.020498315,0.034871742,-0.08118724,-2.272259e-05,0.0,0.0,0.0,0.0,0.20551836,0.07319221,0.16659117,0.16897008,-0.0048015825,-0.18238078,0.09042523,-0.026978258,-0.18801565,-0.15006463,-0.16201173,0.0755067,0.055417027,-0.06320534,0.017548807,0.046315026,-0.01991313,-0.036986742,0.04799592,-0.008290331,-0.0013188159,-0.0210224,-0.07096137,-0.05161933,3.0,0.64192337,0.5808937,3.0,0.4709692,-3.0,3.0,0.0662798,-3.0,-3.0,-0.83662933,0.8813531,3.0,0.7504331,0.9209229,3.0,0.09568104,-3.0,3.0,0.470705,-3.0,-3.0,-0.9389774,1.1414709
2025-06-06 11:41:02.887,-0.06582478,0.045518782,0.09075781,0.047877304,-0.12508431,0.007357763,0.0,0.0,0.0,0.0,0.20349038,0.068035945,0.16540876,0.15693587,0.0015976143,-0.18826903,0.08350877,-0.010307277,-0.1781996,-0.15246381,-0.14483862,0.08176647,0.03381676,-0.018545654,0.031459298,-0.0163267,-0.07907702,-0.04714318,-0.071589865,0.040292982,0.027524177,-0.06838309,-0.035273485,0.056923423,3.0,0.7504331,0.9209229,3.0,0.09568104,-3.0,3.0,0.470705,-3.0,-3.0,-0.9389774,1.1414709,3.0,0.53311473,0.49156862,3.0,0.6505447,-3.0,3.0,-0.048130974,-3.0,-3.0,-0.6890437,0.9385411
2025-06-06 11:41:02.904,-0.020246267,0.045784775,-0.0201663,0.069846444,-0.034616794,-0.005080887,0.0,0.0,0.0,0.0,0.20762579,0.06827525,0.16814189,0.15697303,-0.019472647,-0.17349514,0.073692344,-0.022153381,-0.18622275,-0.15356886,-0.14195332,0.088577,0.027569842,-0.04102754,-0.064494275,-0.048258323,-0.02974418,0.023258846,-0.02926785,0.06281141,0.0057079345,0.017607676,-0.04762775,-0.0554528,3.0,0.53311473,0.49156862,3.0,0.6505447,-3.0,3.0,-0.048130974,-3.0,-3.0,-0.6890437,0.9385411,3.0,0.8306909,0.9953274,3.0,0.036700506,-3.0,3.0,0.4093298,-3.0,-3.0,-0.93782604,1.0251458
2025-06-06 11:41:02.924,-0.08170711,0.039437614,0.05359129,0.07670897,-0.06759201,0.0070066154,0.0,0.0,0.0,0.0,0.20689143,0.074823245,0.16803417,0.15852077,-0.024666416,-0.16788985,0.06502298,-0.018459192,-0.177046,-0.14339647,-0.15725593,0.09835579,-0.02874618,-0.014618844,0.048529636,-0.02171413,0.006111283,-0.058740024,0.058953445,-0.010902567,0.017851455,-0.026009772,0.008116849,-0.056078266,3.0,0.8306909,0.9953274,3.0,0.036700506,-3.0,3.0,0.4093298,-3.0,-3.0,-0.93782604,1.0251458,3.0,0.52721304,0.5425383,3.0,0.48337674,-3.0,3.0,0.19832934,-3.0,-3.0,-0.71259433,0.95225495
2025-06-06 11:41:02.944,0.00303953,0.027721087,0.025244225,0.0199358,-0.12204602,0.024084061,0.0,0.0,0.0,0.0,0.19349034,0.08456661,0.16805252,0.1723501,-0.014027041,-0.18026559,0.06444474,-0.0015523582,-0.1923504,-0.15074341,-0.13966039,0.100418806,-0.028358042,0.0672558,0.029473042,0.0020120202,-0.009650087,8.038342e-05,-0.058505557,0.055431083,0.013406132,-0.014691363,0.044434804,-0.016030913,3.0,0.52721304,0.5425383,3.0,0.48337674,-3.0,3.0,0.19832934,-3.0,-3.0,-0.71259433,0.95225495,3.0,0.7660272,0.77365345,3.0,0.23228809,-3.0,3.0,0.21704547,-3.0,-3.0,-0.8908105,0.86544
2025-06-06 11:41:02.965,-0.037831314,-0.0020023594,0.056404192,0.086134695,-0.05825569,-0.027800014,0.0,0.0,0.0,0.0,0.19842498,0.08992034,0.16498876,0.17299706,-0.013184913,-0.16973253,0.06672637,-0.0106807295,-0.19149259,-0.14117306,-0.14280362,0.09306199,0.03562439,-0.0035239984,0.04954817,0.016069422,0.04820701,-0.029378463,-0.06834148,-0.025698373,0.06683693,0.011992353,0.019754406,0.007613129,3.0,0.7660272,0.77365345,3.0,0.23228809,-3.0,3.0,0.21704547,-3.0,-3.0,-0.8908105,0.86544,3.0,0.60055715,0.438065,3.0,0.47053534,-3.0,3.0,0.045787588,-3.0,-3.0,-0.7496191,0.7896961
2025-06-06 11:41:02.987,0.061860044,0.09105977,0.038425,0.068188526,-0.032174744,-0.04054726,0.0,0.0,0.0,0.0,0.19981813,0.08062535,0.15292956,0.16151676,-0.025583535,-0.16647817,0.063046396,-0.002729714,-0.18782906,-0.1466704,-0.13760775,0.09438029,0.00676575,0.020359147,0.051065236,7.1457995e-05,0.06016365,-0.037283506,-0.008545438,-0.026588988,-0.03978942,0.06163956,0.022440001,0.0010441564,3.0,0.60055715,0.438065,3.0,0.47053534,-3.0,3.0,0.045787588,-3.0,-3.0,-0.7496191,0.7896961,3.0,0.7067226,0.62948865,3.0,0.35523257,-3.0,3.0,0.072224155,-3.0,-3.0,-0.86060774,0.82609254
2025-06-06 11:41:03.005,0.0179199,0.020124134,0.063644126,0.06823241,-0.10468975,0.03838393,0.0,0.0,0.0,0.0,0.19946173,0.09715336,0.15371539,0.17951411,-0.032689918,-0.16450238,0.057636447,-0.020773545,-0.17064165,-0.14307238,-0.14678273,0.08495862,0.052078437,-0.010646193,-0.01765313,0.029054267,-0.025822336,0.014051903,-0.026215386,-0.06921005,-0.052026093,-0.062691,0.03715354,0.05025301,3.0,0.7067226,0.62948865,3.0,0.35523257,-3.0,3.0,0.072224155,-3.0,-3.0,-0.86060774,0.82609254,3.0,0.6276235,0.56798345,3.0,0.470561,-3.0,3.0,0.045944706,-3.0,-3.0,-0.77950585,0.9105168
2025-06-06 11:41:03.025,-0.02500584,0.0013315331,0.01202772,0.07302232,-0.070759214,-0.04703834,0.0,0.0,0.0,0.0,0.19412486,0.092817836,0.14470161,0.16710797,-0.026490195,-0.17655163,0.0671335,-0.020689944,-0.17847946,-0.14082465,-0.14648978,0.09768072,-0.055775635,-0.055007298,0.050050933,-0.054927208,-0.0032970037,0.053827807,-0.040796325,0.017795313,0.011326404,0.068013154,0.047244843,0.010167563,3.0,0.6276235,0.56798345,3.0,0.470561,-3.0,3.0,0.045944706,-3.0,-3.0,-0.77950585,0.9105168,3.0,0.72781026,0.62878424,3.0,0.22256319,-3.0,3.0,0.25056514,-3.0,-3.0,-0.8722117,0.8024767
2025-06-06 11:41:03.045,0.018883169,0.024041224,-0.017573146,0.061357655,-0.07209175,0.045004398,0.0,0.0,0.0,0.0,0.20132613,0.09190398,0.14779733,0.1768424,-0.019838704,-0.17167884,0.05556124,-0.015858471,-0.1696213,-0.1506065,-0.14873905,0.09054439,-0.022149773,-0.04107003,-0.07048197,0.07329612,0.023252927,-0.021849416,0.050855335,-0.040212356,0.0145991985,-0.02313323,-0.03505273,0.06787001,3.0,0.72781026,0.62878424,3.0,0.22256319,-3.0,3.0,0.25056514,-3.0,-3.0,-0.8722117,0.8024767,3.0,0.65576124,0.94155836,3.0,0.09395984,-3.0,3.0,0.5911924,-3.0,-3.0,-0.931949,1.0978342
2025-06-06 11:41:03.065,-0.08690109,-0.06676399,0.08334007,0.034356706,-0.03265206,-0.01210089,0.0,0.0,0.0,0.0,0.2134826,0.110896066,0.14227988,0.17088191,-0.03358665,-0.16905256,0.059387326,-0.012151361,-0.17510647,-0.15211247,-0.14609389,0.083038606,-0.024110254,-0.014615349,0.04837687,-0.0042530894,0.040657055,-0.010535555,0.025217528,-0.019042656,-0.06405974,0.01577278,0.03446162,0.013457358,3.0,0.65576124,0.94155836,3.0,0.09395984,-3.0,3.0,0.5911924,-3.0,-3.0,-0.931949,1.0978342,3.0,0.550781,0.5270562,3.0,0.5676912,-3.0,3.0,0.033143535,-3.0,-3.0,-0.6668259,0.9504456
2025-06-06 11:41:03.089,0.053237356,-0.004386779,0.010472359,0.027192635,-0.09207157,0.038503546,0.0,0.0,0.0,0.0,0.19752917,0.1152585,0.15925245,0.18059906,-0.026977079,-0.17122386,0.059691742,3.3686356e-05,-0.16820028,-0.14204362,-0.14707328,0.10103228,0.008476646,-0.059357233,0.049914747,0.007895113,-0.047023352,0.02871108,-0.0672361,0.033816516,-0.051866177,-0.052155912,-0.04649771,0.03574517,3.0,0.550781,0.5270562,3.0,0.5676912,-3.0,3.0,0.033143535,-3.0,-3.0,-0.6668259,0.9504456,3.0,0.8141349,0.9742351,3.0,0.04709694,-3.0,3.0,0.43030882,-3.0,-3.0,-0.9348146,1.0375717
2025-06-06 11:41:03.105,-0.034560975,0.024317684,0.033089697,0.06951069,-0.08387659,-0.03559924,0.0,0.0,0.0,0.0,0.2104734,0.10289244,0.15576553,0.18610887,-0.024109283,-0.17663108,0.04639883,0.006994467,-0.17400326,-0.13623285,-0.14757042,0.08808367,0.06512048,0.07877544,-0.009674669,0.06689568,-0.0767526,-0.012458364,-0.06487323,0.06932116,0.055520754,-0.002032596,-0.023409463,-0.05428995,3.0,0.8141349,0.9742351,3.0,0.04709694,-3.0,3.0,0.43030882,-3.0,-3.0,-0.9348146,1.0375717,3.0,0.58373207,0.7983877,3.0,0.2557989,-3.0,3.0,0.40575936,-3.0,-3.0,-0.8015684,1.1072109
2025-06-06 11:41:03.125,0.010839599,-0.072568126,0.04619464,0.056927577,-0.08750587,0.032587197,0.0,0.0,0.0,0.0,0.19734682,0.10781047,0.16450429,0.17764097,-0.03713006,-0.16548584,0.049735703,0.012106996,-0.17308664,-0.14714901,-0.15707438,0.0963146,-0.018944934,0.0028588572,0.06885748,-0.048639923,0.0022569923,0.051040407,-0.014152088,-0.05595443,-0.03389774,-0.04019335,0.026782002,0.05151943,3.0,0.58373207,0.7983877,3.0,0.2557989,-3.0,3.0,0.40575936,-3.0,-3.0,-0.8015684,1.1072109,3.0,0.65885097,0.76686573,3.0,0.28575706,-3.0,3.0,0.2930498,-3.0,-3.0,-0.7792411,1.0872778
2025-06-06 11:41:03.145,-0.01584799,-0.07001317,-0.019969234,0.020524312,-0.091897115,0.0017452256,0.0,0.0,0.0,0.0,0.19818504,0.12672976,0.16824658,0.18415698,-0.024296144,-0.16938351,0.05240575,0.011751792,-0.17579854,-0.1534022,-0.15054083,0.095803216,0.068969816,-0.045449324,0.069735534,-0.047777064,0.044022083,-0.065314785,0.057292093,-0.034474876,-0.014794026,0.009399747,0.036258858,0.034340866,3.0,0.65885097,0.76686573,3.0,0.28575706,-3.0,3.0,0.2930498,-3.0,-3.0,-0.7792411,1.0872778,3.0,0.7290035,1.0675617,3.0,-0.061327394,-3.0,3.0,0.7510939,-3.0,-3.0,-0.8548365,1.2858404
2025-06-06 11:41:03.165,-0.079648204,-0.0906228,0.02889802,0.021758892,-0.033190817,-0.029919034,0.0,0.0,0.0,0.0,0.19979474,0.117889896,0.17626089,0.17285278,-0.03504939,-0.14910571,0.040662024,0.010935627,-0.17459293,-0.15148766,-0.13608813,0.12061751,0.053562913,-0.04501938,-0.011600459,0.027925933,-0.02296101,0.030274056,-0.045851745,0.09736996,0.057672508,-0.022121327,-0.075419165,0.0611165,3.0,0.7290035,1.0675617,3.0,-0.061327394,-3.0,3.0,0.7510939,-3.0,-3.0,-0.8548365,1.2858404,3.0,0.5790714,0.8491283,3.0,0.1742667,-3.0,3.0,0.50931096,-3.0,-3.0,-0.76110846,1.1451428
2025-06-06 11:41:03.189,-0.010767047,-0.007866155,0.002256159,0.021156857,-0.079903856,-0.039525524,0.0,0.0,0.0,0.0,0.2091778,0.13288507,0.18567532,0.1792699,-0.026592286,-0.16132018,0.052946147,0.023145242,-0.1678847,-0.15385795,-0.13984817,0.117541626,0.0479996,0.06548957,0.0597797,-0.019223236,0.039762657,-0.039197482,0.058493268,-0.027507147,0.031608887,0.060070522,0.04763501,0.07469447,3.0,0.5790714,0.8491283,3.0,0.1742667,-3.0,3.0,0.50931096,-3.0,-3.0,-0.76110846,1.1451428,3.0,0.7217212,0.9866211,3.0,0.059509937,-3.0,3.0,0.56438726,-3.0,-3.0,-0.80088896,1.1801683
2025-06-06 11:41:03.205,0.035603337,-0.018803064,0.06712824,0.02865141,-0.10842003,-0.026930027,0.0,0.0,0.0,0.0,0.210294,0.13368489,0.18980245,0.18326485,-0.030117778,-0.14463177,0.035913933,0.02894657,-0.16296771,-0.1364971,-0.14723106,0.12535511,-0.06667331,-0.063540876,0.060866795,0.03887852,-0.02386769,0.05800539,-0.053321537,-0.050356604,-0.034596942,-0.05434109,-0.07037845,0.023545353,3.0,0.7217212,0.9866211,3.0,0.059509937,-3.0,3.0,0.56438726,-3.0,-3.0,-0.80088896,1.1801683,3.0,0.57230914,0.6270439,3.0,0.3692784,-3.0,3.0,0.28914094,-3.0,-3.0,-0.74120283,0.9310144
2025-06-06 11:41:03.225,0.019552818,0.0177698,-0.010546451,0.08035465,-0.06674079,-0.03729475,0.0,0.0,0.0,0.0,0.21520227,0.12320301,0.18510275,0.1903948,-0.03272639,-0.15222503,0.03943789,0.029880514,-0.16862464,-0.14346687,-0.145429,0.116482,0.034619574,0.072192036,-0.06862646,0.049663834,0.05882765,-0.035221003,-0.076728165,0.023675654,-0.0656223,-0.06002335,0.010816081,-0.057191063,3.0,0.57230914,0.6270439,3.0,0.3692784,-3.0,3.0,0.28914094,-3.0,-3.0,-0.74120283,0.9310144,3.0,0.7348445,1.1603159,3.0,-0.07997151,-3.0,3.0,0.72976816,-3.0,-3.0,-0.96102315,1.090375
2025-06-06 11:41:03.245,0.002970981,-0.051060587,-0.006226697,0.064198725,-0.12250344,0.0048141573,0.0,0.0,0.0,0.0,0.21069463,0.124997325,0.17914142,0.18003973,-0.037102964,-0.1495726,0.031977754,0.019124119,-0.17402078,-0.1448507,-0.15571204,0.10049308,-0.0077125807,0.050229676,0.074090354,0.0542142,0.05645024,-0.05491296,-0.047542542,-0.040682096,-0.01164255,0.021210875,-0.024417236,0.035824984,3.0,0.7348445,1.1603159,3.0,-0.07997151,-3.0,3.0,0.72976816,-3.0,-3.0,-0.96102315,1.090375,3.0,0.52853805,0.99850696,3.0,0.022742365,-3.0,3.0,0.7631743,-3.0,-3.0,-0.8760277,1.2695303
2025-06-06 11:41:03.266,-0.03648026,-0.0143904565,0.009625324,0.11630022,-0.120957516,0.0019359646,0.0,0.0,0.0,0.0,0.21113643,0.13966389,0.18823865,0.18154693,-0.03734646,-0.16192769,0.043827623,0.028891541,-0.17806022,-0.14144488,-0.15580946,0.11391672,0.0030547497,-0.045957126,0.07819052,-0.06353203,-0.01906534,-0.009326127,-0.050951757,0.055060416,-0.05418163,-0.011012636,-0.019670516,-1.5260634e-05,3.0,0.52853805,0.99850696,3.0,0.022742365,-3.0,3.0,0.7631743,-3.0,-3.0,-0.8760277,1.2695303,3.0,0.6012669,1.071103,3.0,-0.0441052,-3.0,3.0,0.8300961,-3.0,-3.0,-0.86588323,1.3435993
2025-06-06 11:41:03.287,-0.039431617,-0.056678936,0.01559224,0.046619352,-0.03531011,-0.005768309,0.0,0.0,0.0,0.0,0.22950156,0.13108082,0.20842852,0.19787474,-0.03512321,-0.15098539,0.029493468,0.046262357,-0.169323,-0.15221527,-0.1622939,0.12699263,-0.012042124,-0.028953226,0.052131742,-0.0512739,0.058478408,0.08002689,-0.010341293,0.07765632,0.035150368,0.026149383,0.012424487,-0.017961295,3.0,0.6012669,1.071103,3.0,-0.0441052,-3.0,3.0,0.8300961,-3.0,-3.0,-0.86588323,1.3435993,3.0,0.6109865,1.0144396,3.0,-0.050368514,-3.0,3.0,0.7493054,-3.0,-3.0,-0.8148328,1.2539973
2025-06-06 11:41:03.306,-0.059369087,-0.06538833,-0.0031886604,0.033766422,-0.11492327,-0.041553922,0.0,0.0,0.0,0.0,0.23110604,0.13734832,0.20782124,0.19434087,-0.033300612,-0.1528001,0.022851055,0.04657163,-0.18261053,-0.14122373,-0.16050181,0.12570067,0.016480096,-0.054447755,0.03079701,-0.030641321,-0.08085777,0.024104184,-0.017230025,0.052333597,0.012013822,0.072194725,-0.023748022,-0.04857502,3.0,0.6109865,1.0144396,3.0,-0.050368514,-3.0,3.0,0.7493054,-3.0,-3.0,-0.8148328,1.2539973,3.0,0.6636104,1.066265,3.0,-0.13672236,-3.0,3.0,0.9699877,-3.0,-3.0,-0.84333444,1.3027878
2025-06-06 11:41:03.326,0.008232446,0.007012693,0.09129017,0.115746126,-0.13868336,-0.0054261116,0.0,0.0,0.0,0.0,0.21823967,0.12833273,0.20501873,0.18977077,-0.04937593,-0.15652853,0.034683544,0.04877569,-0.18647051,-0.1499422,-0.14650208,0.1274115,0.079030074,-0.05786819,-0.06145854,-0.019887375,0.0034141648,-0.059310537,-0.039219428,0.03129586,0.051043913,-0.06438495,-0.008500808,-0.008739393,3.0,0.6636104,1.066265,3.0,-0.13672236,-3.0,3.0,0.9699877,-3.0,-3.0,-0.84333444,1.3027878,3.0,0.4731632,0.70693696,3.0,0.2941164,-3.0,3.0,0.35377795,-3.0,-3.0,-0.6422301,1.1350915
2025-06-06 11:41:03.346,0.049564507,0.052163508,-0.026850525,0.0687081,-0.08088719,0.013387624,0.0,0.0,0.0,0.0,0.22995211,0.13899477,0.202769,0.19309616,-0.041608464,-0.15748452,0.024507513,0.049565982,-0.18755299,-0.14867046,-0.142709,0.12195129,0.034933694,-0.06318769,-0.057175413,-0.0463839,-0.0043852436,-0.05298418,0.047302138,0.028618902,0.05663822,-0.023771234,-0.042560104,-0.001009105,3.0,0.4731632,0.70693696,3.0,0.2941164,-3.0,3.0,0.35377795,-3.0,-3.0,-0.6422301,1.1350915,3.0,0.8192633,1.3757653,3.0,-0.27140656,-3.0,3.0,1.0190743,-3.0,-3.0,-0.9215676,1.3991576
2025-06-06 11:41:03.370,-0.009174001,0.009617929,0.05076222,0.123557724,-0.05830437,0.04570838,0.0,0.0,0.0,0.0,0.22734497,0.13785811,0.20952602,0.20125031,-0.049350202,-0.16019194,0.03125474,0.052606568,-0.18476503,-0.14697668,-0.1432126,0.13190173,-0.0093863355,0.043608915,-0.01485021,0.071278445,-0.07099998,-0.050454956,0.007263668,0.028733328,0.062586896,0.06191876,0.026627382,0.05189731,3.0,0.8192633,1.3757653,3.0,-0.27140656,-3.0,3.0,1.0190743,-3.0,-3.0,-0.9215676,1.3991576,3.0,0.41911626,0.8659882,3.0,0.118217915,-3.0,3.0,0.58259505,-3.0,-3.0,-0.6789017,1.3251781
2025-06-06 11:41:03.387,-0.015906941,-0.032763444,-0.015479544,0.08476466,-0.08383975,0.03199156,0.0,0.0,0.0,0.0,0.228953,0.1387988,0.21363534,0.19996059,-0.061143637,-0.1618991,0.014806888,0.05118274,-0.19784392,-0.15114608,-0.15033329,0.13768527,-0.021560518,0.054934304,0.07528392,-0.04414289,-0.062956624,0.03962052,0.061687045,-0.046932377,0.061787248,-0.014154354,-0.015814578,0.071186244,3.0,0.41911626,0.8659882,3.0,0.118217915,-3.0,3.0,0.58259505,-3.0,-3.0,-0.6789017,1.3251781,3.0,0.8107293,1.3189086,3.0,-0.2749563,-3.0,3.0,1.0282055,-3.0,-3.0,-0.8659602,1.4396578
2025-06-06 11:41:03.406,-0.074663065,0.0025630163,0.06526452,0.0886372,-0.04881868,0.043247275,0.0,0.0,0.0,0.0,0.23404978,0.12031571,0.20700787,0.18896478,-0.06271878,-0.16203348,0.02214386,0.044182785,-0.19083199,-0.13527344,-0.14246516,0.14200966,0.030192733,0.02537511,-0.017274104,0.012827753,-0.05061906,0.0036523892,-0.027076108,0.0287101,0.029165177,-0.06195858,0.048085812,0.07897457,3.0,0.8107293,1.3189086,3.0,-0.2749563,-3.0,3.0,1.0282055,-3.0,-3.0,-0.8659602,1.4396578,3.0,0.41607124,0.8040286,3.0,0.18326564,-3.0,3.0,0.513474,-3.0,-3.0,-0.6364309,1.2021165
2025-06-06 11:41:03.426,-0.014710082,0.012147985,-0.0021036228,0.053849984,-0.09764723,-0.0014505488,0.0,0.0,0.0,0.0,0.22390972,0.11641004,0.22342047,0.18730381,-0.06783702,-0.16137865,0.011507134,0.048920896,-0.20197429,-0.14794739,-0.146416,0.13533287,0.061487943,-0.02845241,0.06608543,-0.007355518,-0.01355703,0.031406336,-0.053004008,-0.03292444,-0.027194822,0.027129212,0.07456326,-0.055325422,3.0,0.41607124,0.8040286,3.0,0.18326564,-3.0,3.0,0.513474,-3.0,-3.0,-0.6364309,1.2021165,3.0,0.8372863,1.0828595,3.0,-0.13091527,-3.0,3.0,0.79202634,-3.0,-3.0,-0.80233455,1.2981603
2025-06-06 11:41:03.446,-0.072279654,-0.0036227878,0.0141589865,0.06371121,-0.065883055,0.048441105,0.0,0.0,0.0,0.0,0.22942378,0.13425729,0.21412876,0.19959232,-0.062710114,-0.15741594,0.021218112,0.04239117,-0.20353428,-0.13647075,-0.1390438,0.13624413,-0.019588668,0.017636918,-0.016920146,0.019197898,-0.029061766,0.044256672,-0.008064863,-0.0037136043,-0.047160525,0.0024020404,-0.060647286,-0.012751434,3.0,0.8372863,1.0828595,3.0,-0.13091527,-3.0,3.0,0.79202634,-3.0,-3.0,-0.80233455,1.2981603,3.0,0.56655824,1.0072681,3.0,-0.04704907,-3.0,3.0,0.85378003,-3.0,-3.0,-0.7667673,1.2054508
2025-06-06 11:41:03.470,-0.015493816,0.014781684,0.061194412,0.052613985,-0.109631084,-0.008149798,0.0,0.0,0.0,0.0,0.22137107,0.13099742,0.21839166,0.20151897,-0.06644563,-0.15009472,0.011109799,0.043531626,-0.21031402,-0.14488104,-0.1341739,0.12261491,0.020808695,0.06668671,-0.027569257,-0.04705395,-0.001988696,-0.049204107,0.036811873,-0.019713424,0.03574451,-0.0363679,0.0054794066,-0.079729974,3.0,0.56655824,1.0072681,3.0,-0.04704907,-3.0,3.0,0.85378003,-3.0,-3.0,-0.7667673,1.2054508,3.0,0.5973608,0.89897424,3.0,0.16190939,-3.0,3.0,0.54784256,-3.0,-3.0,-0.70563704,1.2012726
2025-06-06 11:41:03.487,0.03358232,0.0246381,-0.009486286,0.07726762,-0.10663479,-0.01588933,0.0,0.0,0.0,0.0,0.2176541,0.11748115,0.21135755,0.2020682,-0.07322741,-0.15912724,0.011632381,0.05038916,-0.1976487,-0.14940192,-0.13038811,0.12534417,0.018271405,-0.029558536,0.049133256,0.035755828,0.012784913,0.054480664,-2.8612471e-06,-0.0029893059,-0.06350584,-0.024510294,0.00028887435,-0.07945065,3.0,0.5973608,0.89897424,3.0,0.16190939,-3.0,3.0,0.54784256,-3.0,-3.0,-0.70563704,1.2012726,3.0,0.7522662,1.1843127,3.0,-0.18409894,-3.0,3.0,0.8843212,-3.0,-3.0,-0.84643424,1.3012993
2025-06-06 11:41:03.506,-0.08111435,0.0053453157,-0.038815334,0.075528,-0.14261176,-0.032904834,0.0,0.0,0.0,0.0,0.21257529,0.121966556,0.20875934,0.19210246,-0.0798263,-0.16242835,0.029743629,0.03684947,-0.2077743,-0.15409888,-0.13510983,0.13614272,0.015232312,0.042071614,-0.007778796,0.05480315,-0.071539484,-0.016729774,0.0058964705,0.056830075,-0.084644526,0.01612985,-0.07934051,0.06520837,3.0,0.7522662,1.1843127,3.0,-0.18409894,-3.0,3.0,0.8843212,-3.0,-3.0,-0.84643424,1.3012993,2.9574077,0.56918234,1.3213983,3.0,-0.31441852,-3.0,3.0,1.2585119,-3.0,-3.0,-0.8997103,1.4462535
2025-06-06 11:41:03.526,-0.057169385,-0.0012403533,0.028223544,0.09162522,-0.07999756,-0.043610934,0.0,0.0,0.0,0.0,0.22930142,0.12246954,0.21549541,0.20170535,-0.074010715,-0.16023621,0.013670829,0.046251368,-0.22314748,-0.14342618,-0.1454802,0.13990186,-0.003789527,-0.025861256,0.0096549075,0.047099944,0.055805847,-0.0080111055,-0.011958196,0.023011079,-0.06357849,0.03645835,-0.009667818,0.07306581,2.9574077,0.56918234,1.3213983,3.0,-0.31441852,-3.0,3.0,1.2585119,-3.0,-3.0,-0.8997103,1.4462535,3.0,0.4345932,0.9851751,3.0,-0.035996642,-3.0,3.0,0.79071957,-3.0,-3.0,-0.76658523,1.3802747
2025-06-06 11:41:03.546,-0.05620384,-8.611991e-05,0.053438906,0.030393416,-0.13936618,-0.025524238,0.0,0.0,0.0,0.0,0.22919153,0.11499182,0.22672142,0.20486292,-0.08001343,-0.16538803,0.01469137,0.046077352,-0.21437131,-0.137498,-0.14100347,0.14181288,0.02394374,0.03986404,-0.027665267,0.018271204,-0.027787773,-0.029068388,-0.034719102,0.0550941,-0.05187845,0.05886534,0.049531978,0.039582822,3.0,0.4345932,0.9851751,3.0,-0.035996642,-3.0,3.0,0.79071957,-3.0,-3.0,-0.76658523,1.3802747,3.0,0.6807311,0.9363051,3.0,0.09521933,-3.0,3.0,0.59701645,-3.0,-3.0,-0.71724194,1.2968538
2025-06-06 11:41:03.570,0.045841616,0.04020095,0.042106062,0.092948645,-0.09553101,-0.04925662,0.0,0.0,0.0,0.0,0.22820526,0.12100702,0.22325775,0.20134327,-0.071237445,-0.1587814,0.011327535,0.05642949,-0.21533588,-0.14278466,-0.13943848,0.14178719,0.050111726,-0.07503693,-0.029604074,0.053345907,-0.06970331,0.011652549,-0.053291082,0.06271239,-0.056356028,-0.035776764,-0.05385549,0.02978903,3.0,0.6807311,0.9363051,3.0,0.09521933,-3.0,3.0,0.59701645,-3.0,-3.0,-0.71724194,1.2968538,3.0,0.6676873,1.0809656,3.0,-0.046492066,-3.0,3.0,0.7433958,-3.0,-3.0,-0.76728654,1.3299608
2025-06-06 11:41:03.587,-0.01167839,0.011571585,0.0065668314,0.035811253,-0.07003752,0.01347205,0.0,0.0,0.0,0.0,0.21467958,0.104575925,0.22688858,0.19914272,-0.07726075,-0.15345854,0.023500072,0.05175761,-0.2146693,-0.15322438,-0.14424558,0.13538896,-0.0010813641,-0.022536768,-0.046222236,0.014986094,-0.043691617,0.020228421,-0.052345123,-0.0015680165,-0.008872183,0.008449263,0.045080394,0.049560416,3.0,0.6676873,1.0809656,3.0,-0.046492066,-3.0,3.0,0.7433958,-3.0,-3.0,-0.76728654,1.3299608,3.0,0.6360366,1.0826169,3.0,-0.06774655,-3.0,3.0,0.80009735,-3.0,-3.0,-0.7384267,1.3847258
2025-06-06 11:41:03.607,0.01963186,0.00084984687,0.033799928,0.0685719,-0.12521449,-0.036453225,0.0,0.0,0.0,0.0,0.22387959,0.11087317,0.21623442,0.19287223,-0.091837674,-0.16871926,0.0073675537,0.05016273,-0.22465536,-0.14370558,-0.12672615,0.13212109,-0.048523918,-0.02205465,0.051595524,-0.020449666,0.059080493,0.02157335,0.040470704,-0.019524418,-0.008867917,-0.0016685474,0.018547624,0.014487626,3.0,0.6360366,1.0826169,3.0,-0.06774655,-3.0,3.0,0.80009735,-3.0,-3.0,-0.7384267,1.3847258,3.0,0.6072784,0.90630054,3.0,0.020640079,-3.0,3.0,0.6773387,-3.0,-3.0,-0.7189216,1.2323062
2025-06-06 11:41:03.627,0.044569436,0.03564798,0.014701454,0.10680008,-0.06462863,-0.033258263,0.0,0.0,0.0,0.0,0.22360748,0.114491135,0.22220294,0.19487083,-0.0931391,-0.15602462,0.025770256,0.03508351,-0.22135441,-0.14294246,-0.1260509,0.1326967,0.050361805,0.06465561,0.048598807,0.050523803,0.027055267,-0.07301288,0.029341293,-0.023456682,-0.020701373,0.04353956,0.03788568,0.023552539,3.0,0.6072784,0.90630054,3.0,0.020640079,-3.0,3.0,0.6773387,-3.0,-3.0,-0.7189216,1.2323062,3.0,0.691569,1.0560356,3.0,-0.05297452,-3.0,3.0,0.71411425,-3.0,-3.0,-0.746762,1.3528206
2025-06-06 11:41:03.647,-0.005199006,0.03416798,-0.045992997,0.06399566,-0.06910096,0.043493185,0.0,0.0,0.0,0.0,0.21075718,0.096922204,0.22417367,0.1925091,-0.09299579,-0.1709461,0.011379507,0.049091067,-0.22843261,-0.146263,-0.12737602,0.14385682,0.051795956,-0.02626514,-0.065791,0.072082356,0.040790867,-0.0149849355,0.0124538625,0.0177036,0.06782149,-0.06546444,0.0039546452,-0.001860779,3.0,0.691569,1.0560356,3.0,-0.05297452,-3.0,3.0,0.71411425,-3.0,-3.0,-0.746762,1.3528206,3.0,0.68812954,1.3309083,3.0,-0.31484374,-3.0,3.0,1.1082768,-3.0,-3.0,-0.8004852,1.5036802
2025-06-06 11:41:03.670,-0.07484035,0.01999878,0.019624509,0.083422996,-0.13504265,-0.02790934,0.0,0.0,0.0,0.0,0.2045197,0.10113025,0.21575704,0.2109271,-0.09597694,-0.16494669,0.022891825,0.035957213,-0.22874603,-0.13629654,-0.13593605,0.14491907,0.06886131,0.05846206,0.0077403123,0.013884056,0.06529774,0.033238616,0.048519902,0.042332165,0.040191427,0.059060786,-0.04476407,0.0134064555,3.0,0.68812954,1.3309083,3.0,-0.31484374,-3.0,3.0,1.1082768,-3.0,-3.0,-0.8004852,1.5036802,3.0,0.52513796,0.8807345,3.0,0.0057071783,-3.0,3.0,0.6746425,-3.0,-3.0,-0.68773,1.256752
2025-06-06 11:41:03.687,0.05113814,0.02869459,0.046818126,0.032449633,-0.09412239,0.032007523,0.0,0.0,0.0,0.0,0.21911746,0.10596625,0.21970183,0.19653393,-0.09980228,-0.16312952,0.012883948,0.037600797,-0.23420021,-0.14049625,-0.13922189,0.1399983,-0.05261726,-0.043122873,0.045495823,0.01236538,-0.05957268,-0.0027182393,0.035788592,0.053471774,-0.0032536825,0.017496927,0.048163965,0.02988917,3.0,0.52513796,0.8807345,3.0,0.0057071783,-3.0,3.0,0.6746425,-3.0,-3.0,-0.68773,1.256752,3.0,0.72427905,0.9278107,3.0,0.044838015,-3.0,3.0,0.6161649,-3.0,-3.0,-0.72185963,1.3050449
2025-06-06 11:41:03.707,-0.009498767,-0.025204873,0.010933776,0.082324296,-0.06473472,-0.02508771,0.0,0.0,0.0,0.0,0.21710324,0.11022906,0.21940212,0.21034838,-0.0922378,-0.17094867,0.025092367,0.050654445,-0.23081303,-0.15231702,-0.1282753,0.13387485,0.0044280267,0.00058487296,0.06909899,-0.011043481,-0.04511561,0.011847086,-0.06162724,-0.032017525,-0.012017868,-0.009028449,0.050861415,0.01476042,3.0,0.72427905,0.9278107,3.0,0.044838015,-3.0,3.0,0.6161649,-3.0,-3.0,-0.72185963,1.3050449,3.0,0.67607117,1.0489724,3.0,-0.13925071,-3.0,3.0,0.8336296,-3.0,-3.0,-0.74759275,1.3169596
2025-06-06 11:41:03.727,-0.041163772,-0.011855857,-0.040661097,0.085964814,-0.12460498,-0.034898173,0.0,0.0,0.0,0.0,0.22256026,0.09912406,0.22992237,0.20059888,-0.08985057,-0.15782619,0.020075602,0.040515713,-0.23505788,-0.1363941,-0.13451868,0.14176573,0.06279031,0.006851399,0.01487881,-0.021823097,0.042102907,-0.019665267,0.061738353,0.011021124,-0.049155694,-0.04128916,-0.016344598,-0.03980056,3.0,0.67607117,1.0489724,3.0,-0.13925071,-3.0,3.0,0.8336296,-3.0,-3.0,-0.74759275,1.3169596,3.0,0.64599186,1.2687937,3.0,-0.3256384,-3.0,3.0,1.2103661,-3.0,-3.0,-0.8412257,1.4218227
2025-06-06 11:41:03.747,-0.07744931,-0.0011507629,0.010340968,0.1090001,-0.11744193,0.020624781,0.0,0.0,0.0,0.0,0.20911191,0.098570235,0.23209967,0.21096963,-0.08308,-0.17074776,0.029263021,0.050874934,-0.23738998,-0.14402626,-0.12853861,0.13256893,0.075413726,0.07333962,0.0872452,0.059448373,0.06580035,-0.03702395,-0.059657685,0.039421737,0.024707632,-0.024596997,-0.02660734,0.016327797,3.0,0.64599186,1.2687937,3.0,-0.3256384,-3.0,3.0,1.2103661,-3.0,-3.0,-0.8412257,1.4218227,3.0,0.501368,1.0209817,3.0,-0.11533858,-3.0,3.0,0.8382045,-3.0,-3.0,-0.7635911,1.3683786
2025-06-06 11:41:03.770,0.014554882,-0.064906135,0.052180246,0.082168005,-0.07994788,-0.021910232,0.0,0.0,0.0,0.0,0.21581271,0.106655985,0.22754943,0.21494594,-0.1025687,-0.15850541,0.017113507,0.059048317,-0.24380477,-0.13990408,-0.14180163,0.1318783,-0.0030405112,-0.004051645,0.03521652,0.0070514022,-0.0032359655,0.04668629,0.045042347,0.048214797,-0.05873666,0.0040968265,0.009999504,0.06756099,3.0,0.501368,1.0209817,3.0,-0.11533858,-3.0,3.0,0.8382045,-3.0,-3.0,-0.7635911,1.3683786,3.0,0.645411,0.95230776,3.0,0.012218017,-3.0,3.0,0.67167044,-3.0,-3.0,-0.71962667,1.3733809
2025-06-06 11:41:03.787,0.008456885,-0.008862472,0.02865949,0.10966411,-0.071287334,0.023168197,0.0,0.0,0.0,0.0,0.21842362,0.09709698,0.22050706,0.20379126,-0.09935147,-0.17206514,0.027847921,0.057015687,-0.23878546,-0.15406907,-0.1351639,0.13589202,-0.040568627,0.05973995,-0.053042535,-0.030111702,0.0694455,-0.013606764,-0.06651057,0.013821642,-0.026143976,-0.0518946,-0.009588022,-0.05132154,3.0,0.645411,0.95230776,3.0,0.012218017,-3.0,3.0,0.67167044,-3.0,-3.0,-0.71962667,1.3733809,3.0,0.6264048,1.05198,3.0,-0.05918088,-3.0,3.0,0.7654513,-3.0,-3.0,-0.7605995,1.3162322
2025-06-06 11:41:03.807,-0.0141573725,0.041146014,0.030059235,0.05747194,-0.1389396,0.008133454,0.0,0.0,0.0,0.0,0.22111143,0.09142619,0.23586926,0.20860317,-0.09923304,-0.1647426,0.023664808,0.03785522,-0.22852565,-0.14927569,-0.14356476,0.13455106,0.03937428,0.025563931,0.051770322,0.04637147,-0.062410194,-0.0077223573,0.007906385,-0.064321324,0.0793604,-0.061449703,0.053937275,-0.051466525,3.0,0.6264048,1.05198,3.0,-0.05918088,-3.0,3.0,0.7654513,-3.0,-3.0,-0.7605995,1.3162322,3.0,0.65768623,0.9327625,3.0,0.038488615,-3.0,3.0,0.6417212,-3.0,-3.0,-0.68035513,1.3556619
2025-06-06 11:41:03.827,-0.022888843,0.001962796,-0.04091024,0.072340794,-0.08881796,-0.015872974,0.0,0.0,0.0,0.0,0.2035506,0.092595704,0.22366685,0.20223564,-0.08289533,-0.16043492,0.02513601,0.041824937,-0.23318084,-0.14713702,-0.13871142,0.13567436,-0.058627654,0.012143399,-0.059321392,-0.0605206,-0.011205779,-0.060086794,-0.017573902,0.02179553,-0.054904852,0.0021904558,0.07134054,0.057808466,3.0,0.65768623,0.9327625,3.0,0.038488615,-3.0,3.0,0.6417212,-3.0,-3.0,-0.68035513,1.3556619,3.0,0.6865236,1.3155619,3.0,-0.30221844,-3.0,3.0,1.1426595,-3.0,-3.0,-0.83374405,1.4108851
2025-06-06 11:41:03.847,-0.07463537,0.011960851,0.00942702,0.11724512,-0.103870384,0.039608207,0.0,0.0,0.0,0.0,0.21953835,0.09904027,0.22171006,0.20226306,-0.090810925,-0.17012495,0.02739305,0.045908656,-0.22790441,-0.13470986,-0.14017639,0.14831293,0.054657567,0.08004397,0.04593643,-0.015760792,-0.058016248,0.04827615,0.059671815,0.07667052,-0.022581033,-0.07050902,0.056463346,0.033781394,3.0,0.6865236,1.3155619,3.0,-0.30221844,-3.0,3.0,1.1426595,-3.0,-3.0,-0.83374405,1.4108851,3.0,0.50491,1.1172904,3.0,-0.15633926,-3.0,3.0,0.9234071,-3.0,-3.0,-0.73741794,1.4023497
2025-06-06 11:41:03.870,-0.04468354,-0.036058012,-0.022704754,0.06290245,-0.11502294,0.03485846,0.0,0.0,0.0,0.0,0.2204728,0.107995644,0.23064676,0.2089462,-0.08703922,-0.16859213,0.018118786,0.04603913,-0.23507363,-0.14692692,-0.1251512,0.14382754,0.028384287,0.065499246,0.046190076,-0.026913226,-0.0170635,0.06473465,-0.007050264,-0.026104856,-0.07306809,0.06277061,0.0056551164,-0.042051673,3.0,0.50491,1.1172904,3.0,-0.15633926,-3.0,3.0,0.9234071,-3.0,-3.0,-0.73741794,1.4023497,3.0,0.70388335,1.1810457,3.0,-0.24412176,-3.0,3.0,1.022085,-3.0,-3.0,-0.7882866,1.4433293
2025-06-06 11:41:03.887,-0.011297777,-0.061587423,0.060976837,0.13185263,-0.11572361,-0.035098318,0.0,0.0,0.0,0.0,0.21722953,0.10806929,0.22962594,0.21096636,-0.099532574,-0.16794883,0.026937949,0.052767243,-0.23926967,-0.14752261,-0.13590959,0.13481392,0.07517258,-0.056521755,0.0024294276,0.036783613,0.059335355,0.019736823,0.025778284,-0.021691531,-0.07615628,0.010879325,-0.058426775,-0.02425828,3.0,0.70388335,1.1810457,3.0,-0.24412176,-3.0,3.0,1.022085,-3.0,-3.0,-0.7882866,1.4433293,3.0,0.49337345,0.7413611,3.0,0.088020295,-3.0,3.0,0.58731633,-3.0,-3.0,-0.63121927,1.2892835
2025-06-06 11:41:03.907,0.021324936,-0.00013257084,-0.032400124,0.13488396,-0.0914488,-0.015251645,0.0,0.0,0.0,0.0,0.22154216,0.09421256,0.22999597,0.20000373,-0.09041763,-0.16484632,0.023024429,0.0484956,-0.23663443,-0.14543672,-0.12399944,0.1318562,0.022424072,-0.07095946,0.016638651,0.016936723,-0.066295505,-0.02630606,0.06339768,0.0035045263,0.016620135,0.013627814,-0.017042302,0.049669728,3.0,0.49337345,0.7413611,3.0,0.088020295,-3.0,3.0,0.58731633,-3.0,-3.0,-0.63121927,1.2892835,3.0,0.81851995,1.2982373,3.0,-0.32593003,-3.0,3.0,1.094917,-3.0,-3.0,-0.83711165,1.492795
2025-06-06 11:41:03.928,0.004759968,-0.014193421,-0.015123113,0.053475253,-0.07365303,0.025056673,0.0,0.0,0.0,0.0,0.20830712,0.115240544,0.23643398,0.21022603,-0.09882855,-0.17386949,0.02758903,0.05764207,-0.24611527,-0.15090668,-0.13361236,0.14246659,-0.0459508,0.04449009,0.010406883,-0.047257885,0.02289919,0.06191003,-0.02525476,0.014633213,0.0380074,-0.01574119,0.051150966,0.04720382,3.0,0.81851995,1.2982373,3.0,-0.32593003,-3.0,3.0,1.094917,-3.0,-3.0,-0.83711165,1.492795,3.0,0.46989363,1.063067,3.0,-0.26711398,-3.0,3.0,1.0250486,-3.0,-3.0,-0.75027573,1.3977729
2025-06-06 11:41:03.948,-0.05545682,0.0055777775,-0.009579281,0.07160021,-0.12586156,-0.0056715966,0.0,0.0,0.0,0.0,0.22298636,0.1008922,0.24106729,0.21486886,-0.092871495,-0.15486304,0.011154848,0.052670345,-0.23298518,-0.1526734,-0.12459448,0.13723062,0.07668046,0.038035568,-0.036584344,-0.041468646,-0.042343944,-0.0644865,-0.013308382,0.024087176,0.07022445,0.030088978,-0.014226307,-0.07197389,3.0,0.46989363,1.063067,3.0,-0.26711398,-3.0,3.0,1.0250486,-3.0,-3.0,-0.75027573,1.3977729,3.0,0.6473694,1.189232,3.0,-0.22691888,-3.0,3.0,1.0839229,-3.0,-3.0,-0.7856029,1.555498
2025-06-06 11:41:03.969,-0.029124541,-0.008671654,0.003562185,0.071015686,-0.13001315,0.016769947,0.0,0.0,0.0,0.0,0.20795631,0.100697875,0.24565497,0.2080822,-0.08874994,-0.15605654,0.025664905,0.06440954,-0.24595818,-0.15296389,-0.14057045,0.13927567,0.040787756,-0.030049467,0.051729396,-0.0047413893,-0.061115116,-0.055101164,-5.058786e-05,0.027762718,-0.063804895,-0.0687435,-0.048545953,-0.041303378,3.0,0.6473694,1.189232,3.0,-0.22691888,-3.0,3.0,1.0839229,-3.0,-3.0,-0.7856029,1.555498,3.0,0.5339884,1.2022117,3.0,-0.23389173,-3.0,3.0,1.079281,-3.0,-3.0,-0.7808193,1.6263164
2025-06-06 11:41:04.060,-0.03409354,-0.06555265,0.07085646,0.116834655,-0.1017468,-0.013701144,0.0,0.0,0.0,0.0,0.20805833,0.10564123,0.2413098,0.22043203,-0.104093894,-0.15313251,0.017608363,0.06088873,-0.24048483,-0.14940758,-0.1317613,0.15062022,0.029610226,0.028706744,0.039154377,0.024264432,-0.05791824,0.058393415,-0.029324533,-0.05960551,-0.032275796,-0.009007019,0.05934747,0.07932977,3.0,0.5339884,1.2022117,3.0,-0.23389173,-3.0,3.0,1.079281,-3.0,-3.0,-0.7808193,1.6263164,3.0,0.54565704,0.7678913,3.0,0.1340678,-3.0,3.0,0.4689663,-3.0,-3.0,-0.5963239,1.3277364
2025-06-06 11:41:04.094,0.08481854,-0.0121206045,0.036543116,0.13464354,-0.11983086,-0.030939108,0.0,0.0,0.0,0.0,0.21726263,0.10320687,0.24012598,0.21956356,-0.104880035,-0.16897118,0.007550185,0.06395126,-0.23373015,-0.13509572,-0.13295251,0.15060522,-0.06865942,0.0294902,-0.08155219,-0.017517919,-0.00970322,0.027187021,-0.045593407,-0.040954072,0.032288786,-0.054432154,0.04480819,0.04758614,3.0,0.54565704,0.7678913,3.0,0.1340678,-3.0,3.0,0.4689663,-3.0,-3.0,-0.5963239,1.3277364,3.0,0.73829395,0.98468417,3.0,-0.08192721,-3.0,3.0,0.7107971,-3.0,-3.0,-0.743724,1.2024328
2025-06-06 11:41:04.114,0.046992857,-0.0042936606,0.013412445,0.07314379,-0.114580505,0.037248384,0.0,0.0,0.0,0.0,0.20361634,0.10229195,0.22851738,0.21509442,-0.096357256,-0.16544324,0.019351505,0.054897312,-0.23612297,-0.14905997,-0.12550472,0.15049662,0.040529642,0.066936605,-0.010715566,-0.009062286,0.024175577,0.0021373814,0.067242935,-0.08856549,0.08487906,-0.057634275,-0.0017546782,0.024337664,3.0,0.73829395,0.98468417,3.0,-0.08192721,-3.0,3.0,0.7107971,-3.0,-3.0,-0.743724,1.2024328,3.0,0.64053303,1.0301243,3.0,-0.09236014,-3.0,3.0,0.7804903,-3.0,-3.0,-0.71791315,1.2880025
2025-06-06 11:41:04.138,0.050000023,0.000565575,-0.03133004,0.050639648,-0.075727955,-0.031078044,0.0,0.0,0.0,0.0,0.21565609,0.099270485,0.22979784,0.217558,-0.103579715,-0.18028127,0.0048134155,0.053752303,-0.23237267,-0.15203942,-0.12131374,0.13391414,0.06765423,0.02968057,-0.0045991065,-0.068763584,0.046660297,0.016892532,-0.05126701,0.018499091,0.026116094,-0.059866045,-0.007796136,0.012142766,3.0,0.64053303,1.0301243,3.0,-0.09236014,-3.0,3.0,0.7804903,-3.0,-3.0,-0.71791315,1.2880025,3.0,0.67691964,1.3583943,3.0,-0.39119282,-3.0,3.0,1.1832057,-3.0,-3.0,-0.8384903,1.5015162
2025-06-06 11:41:04.154,-0.01915857,0.0041762046,-0.0013059491,0.033453893,-0.1595507,-0.006523544,0.0,0.0,0.0,0.0,0.22007081,0.10214646,0.22496003,0.21094404,-0.100173645,-0.16641155,0.025827073,0.056681734,-0.23787865,-0.14192344,-0.13805923,0.14300774,-0.0432577,-0.027450925,0.07170043,-0.013154669,0.046489768,0.040475205,-0.029394237,0.0028384763,0.026119698,-0.0726833,0.062307518,-0.035893615,3.0,0.67691964,1.3583943,3.0,-0.39119282,-3.0,3.0,1.1832057,-3.0,-3.0,-0.8384903,1.5015162,3.0,0.4570222,0.92591614,3.0,-0.12882799,-3.0,3.0,0.9295945,-3.0,-3.0,-0.7459086,1.3530061
2025-06-06 11:41:04.175,-0.028372837,0.036154546,0.0021557582,0.045714986,-0.13129574,0.014805092,0.0,0.0,0.0,0.0,0.21490395,0.10907231,0.2265016,0.20901887,-0.10843474,-0.1747334,0.008637384,0.04401157,-0.22862917,-0.15028945,-0.12517221,0.14405307,-0.00878636,-0.0077442136,-0.03654311,0.036361225,-0.006474777,-0.015135995,-0.066251576,-0.058328103,-0.025581755,0.015279018,-0.03447313,0.049701333,3.0,0.4570222,0.92591614,3.0,-0.12882799,-3.0,3.0,0.9295945,-3.0,-3.0,-0.7459086,1.3530061,3.0,0.6660837,1.1343431,3.0,-0.14313829,-3.0,3.0,0.9468547,-3.0,-3.0,-0.7833523,1.4535134
2025-06-06 11:41:04.195,0.006195823,-0.047073495,0.05234693,0.08172835,-0.15126769,-0.04066088,0.0,0.0,0.0,0.0,0.22249061,0.11386859,0.23534353,0.21127479,-0.10205906,-0.1652587,0.008999469,0.04367266,-0.2345094,-0.14142929,-0.12974647,0.14507529,-0.06506579,-0.0067162192,-0.000481008,0.055790327,-0.027185978,-0.041605573,-0.034068257,-0.05210222,-0.06334104,0.07208273,0.008414728,-0.060182426,3.0,0.6660837,1.1343431,3.0,-0.14313829,-3.0,3.0,0.9468547,-3.0,-3.0,-0.7833523,1.4535134,3.0,0.53625643,0.7678216,3.0,0.07935859,-3.0,3.0,0.6388897,-3.0,-3.0,-0.66113156,1.2649271
2025-06-06 11:41:04.215,-0.0038522105,-0.006711661,-0.01619256,0.09900253,-0.092049405,-0.0135634,0.0,0.0,0.0,0.0,0.21206082,0.10782161,0.2335404,0.21578655,-0.11030178,-0.16129035,0.015769605,0.055998936,-0.23968881,-0.1374943,-0.1230262,0.13157341,-0.041646063,-0.058004387,0.018854002,-0.050524447,0.041529965,-0.0812535,-0.038276423,-0.0560777,-0.066334695,-0.0035917223,-0.0554968,0.0009831783,3.0,0.53625643,0.7678216,3.0,0.07935859,-3.0,3.0,0.6388897,-3.0,-3.0,-0.66113156,1.2649271,3.0,0.7160529,1.2489058,3.0,-0.28247198,-3.0,3.0,1.1256716,-3.0,-3.0,-0.8601162,1.428107
2025-06-06 11:41:04.237,-0.048054293,0.017855696,-0.032671884,0.110487364,-0.106835,0.04732768,0.0,0.0,0.0,0.0,0.20253499,0.119083606,0.23045811,0.220261,-0.098402396,-0.15711431,0.016641213,0.044644628,-0.2408105,-0.14967813,-0.12473924,0.14490317,-0.07227623,-0.021104202,0.069094256,0.018818714,-0.028067712,-0.023569815,-0.03507302,-0.016248316,-0.0415795,0.015392247,-0.049184747,-0.051072523,3.0,0.7160529,1.2489058,3.0,-0.28247198,-3.0,3.0,1.1256716,-3.0,-3.0,-0.8601162,1.428107,2.9395077,0.49858248,1.2010242,3.0,-0.33227074,-3.0,3.0,1.2417418,-3.0,-3.0,-0.8559542,1.5252539
2025-06-06 11:41:04.255,-0.025715843,-0.07437314,0.060296997,0.0383401,-0.11972003,0.041795406,0.0,0.0,0.0,0.0,0.21574198,0.11357539,0.23899944,0.22308992,-0.10337819,-0.16104473,0.016137028,0.06586505,-0.24008545,-0.14537627,-0.14755158,0.14613163,-0.066391334,0.0240559,-0.00020378141,-0.0118228085,0.033135485,-0.038459253,0.057487085,0.07032362,0.039211273,0.06429144,-0.033824604,0.003099508,2.9395077,0.49858248,1.2010242,3.0,-0.33227074,-3.0,3.0,1.2417418,-3.0,-3.0,-0.8559542,1.5252539,3.0,0.50777817,0.92080605,3.0,-0.009524759,-3.0,3.0,0.711673,-3.0,-3.0,-0.70790505,1.4018928
2025-06-06 11:41:04.275,-0.021586565,0.004479246,0.051727872,0.08171994,-0.11874382,-0.02315091,0.0,0.0,0.0,0.0,0.20810917,0.10612145,0.23291676,0.21078524,-0.092564195,-0.15440443,0.011423555,0.050138153,-0.25190803,-0.1369022,-0.14099431,0.14247833,-0.016947623,-0.02595043,0.07324499,0.029459463,0.035822153,-0.024550704,-0.006834606,-0.048902623,0.031537056,0.06794315,-0.027531618,-0.010425982,3.0,0.50777817,0.92080605,3.0,-0.009524759,-3.0,3.0,0.711673,-3.0,-3.0,-0.70790505,1.4018928,3.0,0.69655234,0.76025844,3.0,0.124344915,-3.0,3.0,0.51226324,-3.0,-3.0,-0.690931,1.2332323
2025-06-06 11:41:04.295,0.044009205,0.024733478,-0.035182837,0.098472044,-0.09479215,0.029582461,0.0,0.0,0.0,0.0,0.20849179,0.10802902,0.2226437,0.21750596,-0.11086282,-0.16455229,0.020493966,0.0475272,-0.24665819,-0.14233392,-0.14008728,0.14612591,0.017014595,-0.04754576,0.02826916,-0.017771222,-0.038136683,-0.049508188,-0.054498658,0.033669204,0.08853863,0.0045461208,-0.0013734044,0.010037165,3.0,0.69655234,0.76025844,3.0,0.124344915,-3.0,3.0,0.51226324,-3.0,-3.0,-0.690931,1.2332323,3.0,0.76901793,1.3104066,3.0,-0.41168347,-3.0,3.0,1.1466049,-3.0,-3.0,-0.8613187,1.4340606
2025-06-06 11:41:04.315,-0.07172294,0.039982285,-0.03755956,0.07585458,-0.08468363,0.039751086,0.0,0.0,0.0,0.0,0.2078656,0.122853346,0.22065179,0.21644247,-0.09283321,-0.1710424,0.016572518,0.053135928,-0.24430636,-0.1457583,-0.13772564,0.14727442,0.058384825,0.043809906,-0.026089218,-0.0054476177,-0.0032181635,-0.0568674,-0.05236235,0.01817892,0.06702109,-0.006608147,-0.01110435,-0.038002096,3.0,0.76901793,1.3104066,3.0,-0.41168347,-3.0,3.0,1.1466049,-3.0,-3.0,-0.8613187,1.4340606,2.9129674,0.4647596,1.2169402,3.0,-0.35202983,-3.0,3.0,1.264566,-3.0,-3.0,-0.8088017,1.5865425
2025-06-06 11:41:04.338,-0.05039286,-0.010713908,-0.024165032,0.061977852,-0.09765094,0.0080111055,0.0,0.0,0.0,0.0,0.20464687,0.12524188,0.2374134,0.21269675,-0.10188804,-0.16033937,0.014590263,0.061714657,-0.23659194,-0.14811453,-0.14499761,0.13932654,-0.03325999,0.0505532,0.038346205,0.031065669,-0.06890743,-0.061326914,0.06710427,0.045781616,0.005428669,-0.052713733,-0.032172967,0.0387274,2.9129674,0.4647596,1.2169402,3.0,-0.35202983,-3.0,3.0,1.264566,-3.0,-3.0,-0.8088017,1.5865425,2.7480476,0.5291834,1.4021777,3.0,-0.3938267,-3.0,3.0,1.3119413,-3.0,-3.0,-0.8483339,1.772371
2025-06-06 11:41:04.355,-0.058864467,-0.09619285,0.043433342,0.1081783,-0.13269255,-0.01579382,0.0,0.0,0.0,0.0,0.21808837,0.123807184,0.23401204,0.22243516,-0.113891155,-0.1509935,0.0034759599,0.072423294,-0.24921879,-0.14855635,-0.14027482,0.16679576,0.03887153,-0.00425804,-0.022576503,-0.017745085,0.008412198,0.08869885,0.051140822,0.017283428,-0.07425722,0.04941049,0.02729308,0.072551906,2.7480476,0.5291834,1.4021777,3.0,-0.3938267,-3.0,3.0,1.3119413,-3.0,-3.0,-0.8483339,1.772371,3.0,0.41692424,0.99851555,3.0,-0.14739418,-3.0,3.0,0.7888936,-3.0,-3.0,-0.62745243,1.5266547
2025-06-06 11:41:04.375,0.04786951,0.02279521,0.03945963,0.04993294,-0.10757312,0.04889686,0.0,0.0,0.0,0.0,0.2133809,0.10984013,0.24933797,0.21453254,-0.110767424,-0.14864205,0.013650872,0.06706372,-0.24464482,-0.13620438,-0.13875374,0.15646298,-0.013175908,0.014062499,0.015524359,0.066139504,0.06818167,-0.01882807,-0.01785186,-0.025038518,-0.0008090348,-0.055799745,0.023471145,0.011096569,3.0,0.41692424,0.99851555,3.0,-0.14739418,-3.0,3.0,0.7888936,-3.0,-3.0,-0.62745243,1.5266547,3.0,0.71861154,0.9459891,3.0,0.02382544,-3.0,3.0,0.6531229,-3.0,-3.0,-0.6744647,1.3955472
2025-06-06 11:41:04.395,-0.0021764385,0.014527673,0.023865797,0.060490225,-0.14818405,0.010396234,0.0,0.0,0.0,0.0,0.20635206,0.11795786,0.23216759,0.21632989,-0.10179585,-0.15662865,-0.002087621,0.06811249,-0.23706248,-0.14236288,-0.13650978,0.15547177,0.013547391,-0.0051346193,-0.0035800359,-0.0017086035,0.05343355,-0.062037837,-0.04453204,0.01803706,0.054344475,0.032082707,0.07482662,-0.04738019,3.0,0.71861154,0.9459891,3.0,0.02382544,-3.0,3.0,0.6531229,-3.0,-3.0,-0.6744647,1.3955472,3.0,0.6803082,0.98430866,3.0,-0.11607517,-3.0,3.0,0.7847892,-3.0,-3.0,-0.7028741,1.2424188
2025-06-06 11:41:04.415,0.022479571,-0.004406336,-0.030050103,0.11530992,-0.076204464,0.0017531237,0.0,0.0,0.0,0.0,0.21393736,0.109225646,0.23974113,0.22069049,-0.119403005,-0.16403668,5.817384e-06,0.05553529,-0.23502742,-0.13405764,-0.13335142,0.1539734,-0.054918934,0.020460712,-0.005244655,0.04859154,0.024485918,-0.06977172,0.06754958,0.024022266,-0.026232477,0.047044482,0.0076817297,-0.043877974,3.0,0.6803082,0.98430866,3.0,-0.11607517,-3.0,3.0,0.7847892,-3.0,-3.0,-0.7028741,1.2424188,3.0,0.680903,1.2980808,3.0,-0.3794134,-3.0,3.0,1.2515292,-3.0,-3.0,-0.8414676,1.4296381
2025-06-06 11:41:04.437,-0.066922784,-0.02746607,0.06052964,0.09675351,-0.14961562,0.046100352,0.0,0.0,0.0,0.0,0.21125467,0.10617858,0.23918198,0.22407177,-0.10765792,-0.16041808,0.013292851,0.053561665,-0.24573936,-0.14810185,-0.122753374,0.14894226,0.06327132,-0.06273333,-0.043012623,-0.00567504,-0.026887618,0.06534175,0.0058546457,0.018942546,0.023587303,-0.076120734,-0.0048017306,-0.057253208,3.0,0.680903,1.2980808,3.0,-0.3794134,-3.0,3.0,1.2515292,-3.0,-3.0,-0.8414676,1.4296381,3.0,0.43998057,0.7551548,3.0,0.05065221,-3.0,3.0,0.6525116,-3.0,-3.0,-0.61951476,1.2622724
2025-06-06 11:41:04.455,0.07378132,-0.0045648157,0.0006604095,0.0569789,-0.120798565,0.0043833344,0.0,0.0,0.0,0.0,0.21071643,0.11025351,0.22667162,0.21196157,-0.1079687,-0.16994178,0.018557467,0.049737725,-0.23270229,-0.13667503,-0.13391547,0.13681495,-0.028127182,-0.052141223,0.030157859,-0.061903037,0.073331885,-0.028320152,0.06507394,-0.013387546,-0.002875391,0.023728294,-0.013020634,-0.010537639,3.0,0.43998057,0.7551548,3.0,0.05065221,-3.0,3.0,0.6525116,-3.0,-3.0,-0.61951476,1.2622724,3.0,0.7818124,1.1126634,3.0,-0.19267195,-3.0,3.0,0.91119105,-3.0,-3.0,-0.80646807,1.3678663
2025-06-06 11:41:04.476,-0.02289381,-0.025404172,0.035761703,0.03015258,-0.122606315,0.036967006,0.0,0.0,0.0,0.0,0.20581129,0.12294933,0.24090555,0.21181647,-0.107494615,-0.16034749,0.008047755,0.058563106,-0.2411159,-0.1480391,-0.12928732,0.14296214,-0.06370131,0.05950622,-0.0063553904,0.067310095,0.027307114,-0.055486005,-0.026416842,-0.07735656,0.03152572,-0.0021937462,0.068067096,-0.041470733,3.0,0.7818124,1.1126634,3.0,-0.19267195,-3.0,3.0,0.91119105,-3.0,-3.0,-0.80646807,1.3678663,3.0,0.5185125,0.81877494,3.0,0.026749555,-3.0,3.0,0.6986757,-3.0,-3.0,-0.6568766,1.2256396
2025-06-06 11:41:04.496,-0.0009683449,0.071440294,0.027647188,0.029255252,-0.11350983,0.020248823,0.0,0.0,0.0,0.0,0.21307103,0.11426118,0.23537011,0.21063131,-0.11311689,-0.17820425,0.015661143,0.03731778,-0.24163182,-0.14319906,-0.12059975,0.13088891,-0.0002680618,0.0300279,-0.08256132,-0.054884948,0.048138134,0.019123418,0.020850286,0.03746489,0.037054993,-0.015252159,0.0032486005,0.017591342,3.0,0.5185125,0.81877494,3.0,0.026749555,-3.0,3.0,0.6986757,-3.0,-3.0,-0.6568766,1.2256396,3.0,0.7313488,1.036562,3.0,-0.05632296,-3.0,3.0,0.7238617,-3.0,-3.0,-0.7450826,1.2332667
2025-06-06 11:41:04.518,-0.03242016,0.039805245,-0.050900176,0.10094007,-0.13427892,-0.01281369,0.0,0.0,0.0,0.0,0.20345457,0.1174412,0.21655169,0.22336248,-0.10954522,-0.17610897,0.0071394998,0.04547079,-0.24159525,-0.14462543,-0.13124673,0.1331004,0.029587524,-0.026715895,-0.058798693,0.0038836913,0.06508354,-0.051719807,-0.05279762,0.011107363,0.039379887,0.02996425,0.04597733,0.0026030603,3.0,0.7313488,1.036562,3.0,-0.05632296,-3.0,3.0,0.7238617,-3.0,-3.0,-0.7450826,1.2332667,3.0,0.65635717,1.2924026,3.0,-0.40164047,-3.0,3.0,1.2428921,-3.0,-3.0,-0.83865374,1.4072106
2025-06-06 11:41:04.536,-0.072602816,-0.023126174,0.013593443,0.06687683,-0.15680978,-0.044971373,0.0,0.0,0.0,0.0,0.20396857,0.12182282,0.21757846,0.20845066,-0.1023139,-0.16406158,0.00901161,0.054323692,-0.23823619,-0.14738625,-0.1302325,0.13396482,0.071639694,-0.006356652,0.030500947,-0.03864847,-0.013205375,-0.00621611,-0.03692149,-0.0032952586,-0.02427107,-0.019533543,-0.023471687,0.08089206,3.0,0.65635717,1.2924026,3.0,-0.40164047,-3.0,3.0,1.2428921,-3.0,-3.0,-0.83865374,1.4072106,3.0,0.42888367,1.0093743,3.0,-0.1613366,-3.0,3.0,0.996194,-3.0,-3.0,-0.7629472,1.4247301
2025-06-06 11:41:04.556,-0.037277095,-0.055663884,0.012247629,0.09481769,-0.14792444,-0.020580402,0.0,0.0,0.0,0.0,0.1981705,0.115131624,0.229348,0.21532194,-0.118776314,-0.17391457,0.0072100763,0.041624777,-0.24260642,-0.15160204,-0.13409807,0.13100271,-0.039665513,0.06433467,0.025998395,0.030705316,-0.043928523,-0.06371342,-0.06645654,-0.059615027,0.022955773,0.018522486,-0.007858088,-0.018706348,3.0,0.42888367,1.0093743,3.0,-0.1613366,-3.0,3.0,0.996194,-3.0,-3.0,-0.7629472,1.4247301,3.0,0.63623846,1.0664896,3.0,-0.1501379,-3.0,3.0,0.93939984,-3.0,-3.0,-0.777001,1.4927268
2025-06-06 11:41:04.576,-0.024746811,-0.032609742,0.046360496,0.04106372,-0.16252661,-0.031528313,0.0,0.0,0.0,0.0,0.21122856,0.1139337,0.24122861,0.21558502,-0.114423774,-0.16304913,0.00941959,0.062872134,-0.25305486,-0.14147402,-0.12894103,0.14795126,-0.064426966,0.015864767,-0.02285939,-0.038945027,-0.06270277,0.032957975,0.05134883,-0.043620236,0.05422209,0.039373107,-0.06493544,0.01993696,3.0,0.63623846,1.0664896,3.0,-0.1501379,-3.0,3.0,0.93939984,-3.0,-3.0,-0.777001,1.4927268,3.0,0.5795901,0.880467,3.0,0.0012916662,-3.0,3.0,0.7264305,-3.0,-3.0,-0.6898057,1.2917638
2025-06-06 11:41:04.596,0.0155269755,-0.04908219,0.012276362,0.034081463,-0.13658738,-0.03477824,0.0,0.0,0.0,0.0,0.20308302,0.116795726,0.23584598,0.20770517,-0.11090982,-0.17705281,0.016800292,0.042700768,-0.24500886,-0.1485477,-0.14031848,0.13655041,-0.045339722,-0.0035020246,0.05198556,0.067813456,0.00818257,-0.030548474,0.017822528,-0.05748114,-0.016049238,0.017367437,-0.04437388,-0.04617294,3.0,0.5795901,0.880467,3.0,0.0012916662,-3.0,3.0,0.7264305,-3.0,-3.0,-0.6898057,1.2917638,3.0,0.7187404,1.0019668,3.0,-0.1351487,-3.0,3.0,0.8605836,-3.0,-3.0,-0.77835536,1.3183779
2025-06-06 11:41:04.619,0.031305928,-0.037679557,-0.025444018,0.05087223,-0.122163475,-0.018526368,0.0,0.0,0.0,0.0,0.20108263,0.12435052,0.23784988,0.2248398,-0.1147218,-0.17938882,0.014070687,0.044930723,-0.24008088,-0.14560412,-0.13988574,0.14467134,0.019138262,-0.007725517,0.0068258643,-0.050694283,0.045732442,-0.06752682,0.07345572,-0.031309564,-0.010012523,0.05682141,0.021962477,0.031616725,3.0,0.7187404,1.0019668,3.0,-0.1351487,-3.0,3.0,0.8605836,-3.0,-3.0,-0.77835536,1.3183779,3.0,0.61718583,1.2294967,3.0,-0.3740642,-3.0,3.0,1.2056224,-3.0,-3.0,-0.79133224,1.511302
2025-06-06 11:41:04.636,-0.069517404,-0.020030659,0.0046844278,0.06282621,-0.14340992,0.044926036,0.0,0.0,0.0,0.0,0.21337722,0.111837745,0.22853409,0.20869294,-0.11013392,-0.17541468,0.020908894,0.05465867,-0.25318065,-0.14531489,-0.13050172,0.14354338,-0.061535865,0.061269432,0.07748457,-0.021798825,-0.0231065,0.044374947,0.06380521,0.08697144,-0.036085796,0.047174636,-0.018282235,0.03382815,3.0,0.61718583,1.2294967,3.0,-0.3740642,-3.0,3.0,1.2056224,-3.0,-3.0,-0.79133224,1.511302,3.0,0.5539294,1.078637,3.0,-0.23082384,-3.0,3.0,1.0422627,-3.0,-3.0,-0.7828582,1.4007021
2025-06-06 11:41:04.656,-0.046792194,-0.043590542,-0.013011029,0.05404074,-0.11635185,-0.010861529,0.0,0.0,0.0,0.0,0.21491075,0.11000191,0.23772278,0.2242754,-0.11100107,-0.16106008,0.01891989,0.05113806,-0.24253754,-0.14953813,-0.1360954,0.1448364,0.03152844,-0.026004186,-0.036231037,-0.0003802999,0.032482058,-0.012438148,-0.011733925,0.07783708,0.038357943,-0.068547115,-0.010723099,-0.035940155,3.0,0.5539294,1.078637,3.0,-0.23082384,-3.0,3.0,1.0422627,-3.0,-3.0,-0.7828582,1.4007021,3.0,0.600252,1.2168604,3.0,-0.310068,-3.0,3.0,1.161981,-3.0,-3.0,-0.82745713,1.495418
2025-06-06 11:41:04.676,-0.049307197,-0.06235187,0.004192506,0.11998124,-0.14275405,0.0044402764,0.0,0.0,0.0,0.0,0.2108541,0.10774976,0.25004023,0.21931861,-0.11068968,-0.1550382,0.022109337,0.06099741,-0.24391489,-0.15372081,-0.14349853,0.15006095,-0.04149662,0.011202003,0.029340291,-0.065495096,-0.070048645,-0.06872981,-0.027327403,-0.052692465,-0.027782362,0.034570877,-0.04109387,0.060918484,3.0,0.600252,1.2168604,3.0,-0.310068,-3.0,3.0,1.161981,-3.0,-3.0,-0.82745713,1.495418,3.0,0.47275436,1.1362771,3.0,-0.27340636,-3.0,3.0,1.1623907,-3.0,-3.0,-0.8014675,1.5943184
2025-06-06 11:41:04.696,-0.032237682,-0.04170978,0.06584735,0.09307928,-0.08253322,0.046874158,0.0,0.0,0.0,0.0,0.21791185,0.1223609,0.24214472,0.21043932,-0.1099185,-0.15611868,0.019286403,0.074549966,-0.26135778,-0.14484818,-0.13747092,0.15437905,-0.0689434,-0.059464168,-0.03525404,0.020047294,0.063701674,0.065727144,0.024654271,0.03870059,0.049554862,-0.04069159,-0.07111596,-0.03700895,3.0,0.47275436,1.1362771,3.0,-0.27340636,-3.0,3.0,1.1623907,-3.0,-3.0,-0.8014675,1.5943184,3.0,0.5486233,0.81094474,3.0,0.06480743,-3.0,3.0,0.60987145,-3.0,-3.0,-0.68639535,1.2986317
2025-06-06 11:41:04.719,0.08425154,-0.0039817477,-0.0139847575,0.11035028,-0.13524748,-0.0033753333,0.0,0.0,0.0,0.0,0.20612858,0.120142,0.24182314,0.20843872,-0.11379519,-0.16072883,0.0030468437,0.06864659,-0.251123,-0.14477628,-0.1357803,0.1483972,0.058837097,-0.0652724,-0.0052548423,0.06706745,-0.010721286,-0.06478573,-0.027179517,0.019031802,0.023582313,0.06389319,-0.016149912,-0.002168406,3.0,0.5486233,0.81094474,3.0,0.06480743,-3.0,3.0,0.60987145,-3.0,-3.0,-0.68639535,1.2986317,3.0,0.78220373,1.2441674,3.0,-0.3467294,-3.0,3.0,1.0709617,-3.0,-3.0,-0.8162923,1.5210845
2025-06-06 11:41:04.736,-0.0031375883,0.012614552,0.04579408,0.1105837,-0.08370417,0.047833,0.0,0.0,0.0,0.0,0.20531131,0.10889992,0.2528678,0.2096286,-0.11730787,-0.16006264,0.01037435,0.053028233,-0.25586548,-0.13823652,-0.1450365,0.14015278,-0.021184076,0.04746232,-0.008606303,0.027637446,-0.026803056,-0.05952161,0.061666325,-0.016671056,-0.014263102,0.049988512,0.052298777,-0.040583562,3.0,0.78220373,1.2441674,3.0,-0.3467294,-3.0,3.0,1.0709617,-3.0,-3.0,-0.8162923,1.5210845,3.0,0.4553514,0.8173451,3.0,0.01290283,-3.0,3.0,0.722023,-3.0,-3.0,-0.601628,1.4325192
2025-06-06 11:41:04.756,0.043121066,0.016841235,0.037181657,0.06722351,-0.09001317,-0.0072181006,0.0,0.0,0.0,0.0,0.20156999,0.11789958,0.244991,0.20884426,-0.115145706,-0.1703837,0.013777033,0.05666551,-0.24483426,-0.13653864,-0.12783626,0.14629532,-0.05440251,0.053701513,0.01240278,0.00076208106,-0.06830456,-0.012217631,-0.02508014,-0.06849423,-0.056192584,-0.029789936,0.05515927,-0.058370177,3.0,0.4553514,0.8173451,3.0,0.01290283,-3.0,3.0,0.722023,-3.0,-3.0,-0.601628,1.4325192,3.0,0.7356461,0.9716223,3.0,-0.018040221,-3.0,3.0,0.702138,-3.0,-3.0,-0.67797333,1.3582995
2025-06-06 11:41:04.776,-0.008929028,0.054122932,0.03497466,0.067707285,-0.09567751,-0.0022001758,0.0,0.0,0.0,0.0,0.20951304,0.11268595,0.2350433,0.21575934,-0.11927758,-0.17936881,0.003907345,0.054043632,-0.23778863,-0.13498291,-0.12965724,0.15389009,-0.024992025,-0.06689282,-0.036508843,-0.040355235,-0.050796177,-0.07655985,-0.029768545,0.04149423,-0.01282195,-0.045079775,0.013952025,-0.011898122,3.0,0.7356461,0.9716223,3.0,-0.018040221,-3.0,3.0,0.702138,-3.0,-3.0,-0.67797333,1.3582995,3.0,0.6223013,1.0797923,3.0,-0.1270059,-3.0,3.0,0.913406,-3.0,-3.0,-0.70583797,1.368149
2025-06-06 11:41:04.797,0.028025534,0.025394136,-0.011956313,0.10132137,-0.09038628,-0.016614052,0.0,0.0,0.0,0.0,0.20399162,0.10752176,0.24027751,0.22605534,-0.11886485,-0.17411147,0.019823715,0.04596199,-0.24650468,-0.14017914,-0.119636945,0.14105271,-0.06058376,0.005980187,-0.03848967,-0.05091407,0.03191476,-0.07570204,0.042780053,-0.020981729,0.0019901062,-0.020677943,0.00086350983,0.039033327,3.0,0.6223013,1.0797923,3.0,-0.1270059,-3.0,3.0,0.913406,-3.0,-3.0,-0.70583797,1.368149,3.0,0.5979511,1.2331494,3.0,-0.27289712,-3.0,3.0,1.0966586,-3.0,-3.0,-0.78065807,1.4919965
2025-06-06 11:41:04.819,-0.003938245,0.00559483,0.03764126,0.11325169,-0.10588444,0.044394996,0.0,0.0,0.0,0.0,0.20218648,0.11134926,0.2299881,0.2233701,-0.114911236,-0.17566983,0.006261097,0.040653028,-0.25047013,-0.13743868,-0.11854799,0.14759545,-0.07050119,0.024853889,-0.05914785,-0.042127565,-0.074742794,0.051615506,0.06470107,-0.02893845,0.010160751,0.015249984,-0.052295495,-0.05410047,3.0,0.5979511,1.2331494,3.0,-0.27289712,-3.0,3.0,1.0966586,-3.0,-3.0,-0.78065807,1.4919965,3.0,0.5321852,0.9220693,3.0,-0.01696321,-3.0,3.0,0.76529795,-3.0,-3.0,-0.66923183,1.3952875
2025-06-06 11:41:04.837,0.003410667,-0.022110282,0.00056487025,0.058993395,-0.11050897,0.048208743,0.0,0.0,0.0,0.0,0.19722135,0.11941549,0.22511145,0.22175163,-0.1174353,-0.17920421,0.017266208,0.049324505,-0.24410509,-0.1376156,-0.13411921,0.15520118,0.045157515,-0.058182932,-0.014459566,-0.07611751,-0.027421849,0.054086644,0.008565168,0.008181366,0.0167695,0.018528508,-0.057022337,0.065748885,3.0,0.5321852,0.9220693,3.0,-0.01696321,-3.0,3.0,0.76529795,-3.0,-3.0,-0.66923183,1.3952875,3.0,0.7406119,1.1903099,3.0,-0.25951904,-3.0,3.0,0.9776223,-3.0,-3.0,-0.75065243,1.4708543
2025-06-06 11:41:04.857,-0.0028315329,0.0032245852,-0.05089988,0.06738872,-0.16061673,-0.028385784,0.0,0.0,0.0,0.0,0.20569678,0.11499799,0.23998523,0.2107368,-0.10807563,-0.1698128,0.011090279,0.05725845,-0.24964808,-0.13886213,-0.13342485,0.1519258,0.07456468,0.0653226,0.045056757,0.014160742,-0.022768268,0.074668474,-0.043353837,-0.06744881,0.022318268,-0.010411797,-0.03697802,0.008775918,3.0,0.7406119,1.1903099,3.0,-0.25951904,-3.0,3.0,0.9776223,-3.0,-3.0,-0.75065243,1.4708543,3.0,0.6314238,1.2333156,3.0,-0.4116449,-3.0,3.0,1.2176151,-3.0,-3.0,-0.7962283,1.4596406
2025-06-06 11:41:04.877,-0.0157822,-0.055791292,0.010097235,0.06270526,-0.13627213,-0.0134008415,0.0,0.0,0.0,0.0,0.20878677,0.11166394,0.23746556,0.2209314,-0.120605245,-0.16828503,0.007923096,0.05577205,-0.24281408,-0.14682305,-0.12779543,0.15396763,-0.06910655,0.016241577,0.039526325,-0.06861811,0.064109206,-0.01876244,0.033272382,-0.020439519,-0.057965454,-0.002548243,-0.053046152,0.0067373146,3.0,0.6314238,1.2333156,3.0,-0.4116449,-3.0,3.0,1.2176151,-3.0,-3.0,-0.7962283,1.4596406,3.0,0.45346403,1.0222224,3.0,-0.2324506,-3.0,3.0,1.1142236,-3.0,-3.0,-0.7921554,1.4247005
2025-06-06 11:41:04.897,0.017642597,-0.016169725,-0.01221444,0.10114342,-0.10215376,0.04469253,0.0,0.0,0.0,0.0,0.21061605,0.12212211,0.25153437,0.22348629,-0.102344796,-0.16136923,0.010417506,0.050901826,-0.2527222,-0.13611826,-0.12911436,0.14052424,-0.022352379,-0.029658703,0.034558427,0.05022315,0.069670364,0.013460771,-0.057382684,0.03626461,-0.01597473,0.040122557,0.055944152,-0.0108890105,3.0,0.45346403,1.0222224,3.0,-0.2324506,-3.0,3.0,1.1142236,-3.0,-3.0,-0.7921554,1.4247005,3.0,0.64134836,1.0989827,3.0,-0.27026746,-3.0,3.0,1.0152798,-3.0,-3.0,-0.7951391,1.4595087
2025-06-06 11:41:04.919,-0.004235884,0.015391536,-0.031060383,0.083186865,-0.10925206,0.049071148,0.0,0.0,0.0,0.0,0.20256627,0.118470624,0.2383893,0.22475363,-0.12094717,-0.16785684,0.008009245,0.05757721,-0.25383016,-0.14030054,-0.1327066,0.13924125,0.01390814,-0.002356404,-0.05844535,0.021078257,0.03754706,-0.048651207,-0.039612945,-0.022570455,-0.040546246,0.044087518,-0.06053452,-0.07274237,3.0,0.64134836,1.0989827,3.0,-0.27026746,-3.0,3.0,1.0152798,-3.0,-3.0,-0.7951391,1.4595087,2.9004369,0.5711643,1.239962,3.0,-0.34852448,-3.0,3.0,1.2431092,-3.0,-3.0,-0.80864257,1.6377838
2025-06-06 11:41:04.937,0.023768093,-0.03262536,0.002387872,0.08385005,-0.110339046,0.02700668,0.0,0.0,0.0,0.0,0.20110607,0.11106675,0.25895578,0.21867105,-0.122654945,-0.15457033,0.0052985246,0.071401365,-0.26266423,-0.1447276,-0.13105354,0.15616035,0.018405598,0.015931686,0.015360391,0.015592278,-0.047168516,0.01803597,-0.067824855,-0.054632828,-0.024793064,0.035470977,-0.06654876,-0.015603791,2.9004369,0.5711643,1.239962,3.0,-0.34852448,-3.0,3.0,1.2431092,-3.0,-3.0,-0.80864257,1.6377838,2.9846857,0.5034763,1.1267208,3.0,-0.27741218,-3.0,3.0,1.030021,-3.0,-3.0,-0.71726745,1.6758127
2025-06-06 11:41:04.957,0.013959081,0.0029130578,-0.0018783216,0.07531532,-0.12958796,0.030830398,0.0,0.0,0.0,0.0,0.2013056,0.116542034,0.25428355,0.22416225,-0.12084967,-0.16401912,0.011592961,0.06937664,-0.24695574,-0.14762716,-0.13173258,0.15918644,0.035840288,0.068000615,-0.03849875,0.016862933,-0.062173553,-0.06686609,-0.07003525,-0.049007438,-0.056590877,0.026155522,0.078755125,0.019389674,2.9846857,0.5034763,1.1267208,3.0,-0.27741218,-3.0,3.0,1.030021,-3.0,-3.0,-0.71726745,1.6758127,3.0,0.6057715,1.1732587,3.0,-0.25464162,-3.0,3.0,1.0407971,-3.0,-3.0,-0.6822687,1.7042645
2025-06-06 11:41:04.977,-0.025653936,0.03833019,0.03972324,0.10747834,-0.14397773,-0.04923089,0.0,0.0,0.0,0.0,0.2139318,0.11785523,0.2552562,0.22276554,-0.11252713,-0.15630558,0.018446393,0.07228035,-0.26160905,-0.1470663,-0.13292879,0.1565078,0.007656095,0.06982595,-0.07240595,-0.024479007,-0.05652848,0.012697279,-0.029469047,-0.058453713,0.06835348,-0.022052614,0.054622743,-0.060794245,3.0,0.6057715,1.1732587,3.0,-0.25464162,-3.0,3.0,1.0407971,-3.0,-3.0,-0.6822687,1.7042645,3.0,0.5569301,0.85811543,3.0,-0.010680672,-3.0,3.0,0.7052743,-3.0,-3.0,-0.5966074,1.3656864
2025-06-06 11:41:04.997,0.08538544,0.06478826,-0.013032837,0.07704246,-0.09137701,-0.025969923,0.0,0.0,0.0,0.0,0.2087946,0.11073412,0.24852496,0.21006665,-0.11553734,-0.15874206,0.012499794,0.06328372,-0.26181045,-0.14382288,-0.123341836,0.15399246,0.057862543,-0.014261373,0.043923095,0.007879557,0.06323542,-0.010823396,-0.045330666,-0.09309169,0.02986975,-0.031210316,-0.0073718377,-0.055914298,3.0,0.5569301,0.85811543,3.0,-0.010680672,-3.0,3.0,0.7052743,-3.0,-3.0,-0.5966074,1.3656864,3.0,0.7652972,1.125047,3.0,-0.24063233,-3.0,3.0,0.9177681,-3.0,-3.0,-0.74719614,1.4122483
2025-06-06 11:41:05.019,0.041356683,0.03113398,-0.037463907,0.057466958,-0.12737183,0.0064806864,0.0,0.0,0.0,0.0,0.20616391,0.112181306,0.24316776,0.21053115,-0.1145712,-0.167945,0.0016703772,0.050405644,-0.25979587,-0.14797416,-0.13269593,0.15498058,0.023416884,-0.07010645,0.062125973,0.07454952,0.0228418,0.06761375,-0.01734622,-0.0076829763,-0.02717556,0.015757678,-0.015820581,0.012639058,3.0,0.7652972,1.125047,3.0,-0.24063233,-3.0,3.0,0.9177681,-3.0,-3.0,-0.74719614,1.4122483,3.0,0.6540782,1.163805,3.0,-0.3780137,-3.0,3.0,1.1671326,-3.0,-3.0,-0.7864158,1.4444616
2025-06-06 11:41:05.037,-0.020547498,0.025595628,0.055251997,0.12454748,-0.07563961,0.019226987,0.0,0.0,0.0,0.0,0.1991677,0.10735489,0.23594046,0.22412394,-0.12814939,-0.17667143,0.0035784766,0.06457643,-0.25939044,-0.13734739,-0.1256661,0.15487361,-0.010981706,0.009246714,-0.06140321,0.05043739,0.059250947,-0.06525483,0.03088965,-0.012327367,-0.06197874,0.008721112,-0.05632122,0.044202402,3.0,0.6540782,1.163805,3.0,-0.3780137,-3.0,3.0,1.1671326,-3.0,-3.0,-0.7864158,1.4444616,3.0,0.44381994,0.88482374,3.0,-0.007015463,-3.0,3.0,0.7840262,-3.0,-3.0,-0.65780175,1.4108472
2025-06-06 11:41:05.057,0.035296023,0.032567862,0.008985842,0.072069936,-0.11976835,-0.043397587,0.0,0.0,0.0,0.0,0.20173308,0.11407808,0.2376176,0.21298233,-0.12288359,-0.1612428,0.006399328,0.04569653,-0.24227373,-0.14917733,-0.13410439,0.15566616,0.05261823,0.05700622,-0.0439036,-0.05656354,-0.007840352,-0.05292134,-0.05015641,-0.044699885,0.0364988,0.07113282,-0.013826745,0.048006568,3.0,0.44381994,0.88482374,3.0,-0.007015463,-3.0,3.0,0.7840262,-3.0,-3.0,-0.65780175,1.4108472,3.0,0.7324488,1.162191,3.0,-0.18394004,-3.0,3.0,0.8813071,-3.0,-3.0,-0.74348646,1.4907694
2025-06-06 11:41:05.077,-0.010160918,0.06199065,-0.015881784,0.12172646,-0.113366395,-0.010481273,0.0,0.0,0.0,0.0,0.2000885,0.107423194,0.2348626,0.22967196,-0.11245402,-0.16456008,0.0043085576,0.05328316,-0.25505605,-0.14426339,-0.11886191,0.15640703,0.03768106,0.049213134,-0.01212236,0.0017662175,-0.04938778,-0.01259047,-0.003356065,-0.0073738084,-0.0379892,-0.0648604,0.022102479,0.039435096,3.0,0.7324488,1.162191,3.0,-0.18394004,-3.0,3.0,0.8813071,-3.0,-3.0,-0.74348646,1.4907694,2.9696555,0.58757937,1.2715409,3.0,-0.31082562,-3.0,3.0,1.1347269,-3.0,-3.0,-0.75546086,1.5348275
2025-06-06 11:41:05.098,-0.01068843,0.0114009315,0.009924891,0.12095591,-0.11803939,-0.02956821,0.0,0.0,0.0,0.0,0.20290661,0.10036977,0.23571676,0.22756007,-0.12128234,-0.16387986,0.017843284,0.048201773,-0.25327337,-0.15354696,-0.12142687,0.15848249,0.004914989,0.0068576615,0.0784443,-0.039971758,0.032981094,-0.05512469,-0.07031955,-0.048618894,-0.07747634,-0.05524523,0.047366485,0.057269767,2.9696555,0.58757937,1.2715409,3.0,-0.31082562,-3.0,3.0,1.1347269,-3.0,-3.0,-0.75546086,1.5348275,3.0,0.48152757,1.0737346,3.0,-0.1985469,-3.0,3.0,0.9860503,-3.0,-3.0,-0.7276849,1.5243645
2025-06-06 11:41:05.119,-0.0023335353,0.0027861951,-0.007804653,0.07054176,-0.13518244,-0.002735297,0.0,0.0,0.0,0.0,0.19804887,0.11065696,0.2461606,0.22767687,-0.1318839,-0.16899654,0.016350912,0.05059614,-0.24430737,-0.14698282,-0.12644464,0.16158386,0.039993078,-0.037200898,0.01250178,-0.07502865,-0.030798707,0.076782964,-0.042365376,0.03165727,0.049352482,-0.0008242735,-0.017579144,0.02867053,3.0,0.48152757,1.0737346,3.0,-0.1985469,-3.0,3.0,0.9860503,-3.0,-3.0,-0.7276849,1.5243645,3.0,0.6803583,1.1609589,3.0,-0.3061969,-3.0,3.0,1.0479032,-3.0,-3.0,-0.75563776,1.516721
2025-06-06 11:41:05.138,-0.053640734,0.019752305,0.032253936,0.083189234,-0.108836375,0.0081969295,0.0,0.0,0.0,0.0,0.21637335,0.1198598,0.2359418,0.22769566,-0.13192287,-0.1670404,0.01566881,0.0672001,-0.2597969,-0.14555374,-0.13754758,0.16304116,-0.067510456,0.05953278,-0.013878104,-0.01665447,-0.050298627,-0.043926764,-0.010918544,0.07496068,-0.002550363,0.04659829,-0.01845237,0.038732238,3.0,0.6803583,1.1609589,3.0,-0.3061969,-3.0,3.0,1.0479032,-3.0,-3.0,-0.75563776,1.516721,3.0,0.5326374,1.0602089,3.0,-0.18515778,-3.0,3.0,1.0054706,-3.0,-3.0,-0.7364427,1.434051
2025-06-06 11:41:05.158,-0.011338205,-0.05020385,0.022461386,0.12962261,-0.1448363,0.044255875,0.0,0.0,0.0,0.0,0.20120844,0.114191815,0.2421718,0.21496853,-0.13267265,-0.1615514,0.0021707916,0.06331739,-0.258116,-0.15292372,-0.13841285,0.14516535,0.013747013,-0.06479831,-0.0573342,-0.015159023,0.05783392,0.007641459,-0.017826743,-0.059833236,0.028818803,0.043214425,0.005550446,-0.004503109,3.0,0.5326374,1.0602089,3.0,-0.18515778,-3.0,3.0,1.0054706,-3.0,-3.0,-0.7364427,1.434051,3.0,0.6022746,0.9637702,3.0,-0.14687568,-3.0,3.0,0.8656689,-3.0,-3.0,-0.6887145,1.4402372
