openverse-orca/OrcaGym/log/simulation_log_20250719_144216.csv
timestamp,sim_time,physics_step,control_step,imu_angle_roll,imu_angle_pitch,imu_angle_yaw,imu_angular_velocity_roll,imu_angular_velocity_pitch,imu_angular_velocity_yaw,imu_acc_x,imu_acc_y,imu_acc_z,fl_joint1_pos,fl_joint1_vel,fl_joint1_torque,fl_joint2_pos,fl_joint2_vel,fl_joint2_torque,fl_joint3_pos,fl_joint3_vel,fl_joint3_torque,fr_joint1_pos,fr_joint1_vel,fr_joint1_torque,fr_joint2_pos,fr_joint2_vel,fr_joint2_torque,fr_joint3_pos,fr_joint3_vel,fr_joint3_torque,hl_joint1_pos,hl_joint1_vel,hl_joint1_torque,hl_joint2_pos,hl_joint2_vel,hl_joint2_torque,hl_joint3_pos,hl_joint3_vel,hl_joint3_torque,hr_joint1_pos,hr_joint1_vel,hr_joint1_torque,hr_joint2_pos,hr_joint2_vel,hr_joint2_torque,hr_joint3_pos,hr_joint3_vel,hr_joint3_torque,fl_force_x,fl_force_y,fl_force_z,fr_force_x,fr_force_y,fr_force_z,hl_force_x,hl_force_y,hl_force_z,hr_force_x,hr_force_y,hr_force_z,fl_hip_action,fl_thigh_action,fl_calf_action,fr_hip_action,fr_thigh_action,fr_calf_action,hl_hip_action,hl_thigh_action,hl_calf_action,hr_hip_action,hr_thigh_action,hr_calf_action
2025-07-19 14:42:16.571,0.0,0,0,-0.028762497,-0.047028627,0.001948,-0.011140911,0.040738076,0.0481184,2.258146,-0.4303639,0.0,0.0,0.0046946816,0.0057304297,-0.004283828,0.0055717737,-0.0061918157,0.0011642115,-0.0058736913,-0.00041149714,-0.0029009397,0.008968695,0.004762087,-0.0025982426,-0.021114003,0.008759133,0.06655343,-0.00026229632,-0.018820086,-0.043652244,-0.03859927,0.058350675,0.014127982,-0.045842584,-0.06565212,-0.053793937,0.0,0.0,0.0,0.0,0.0,0.0,0.0,0.0,0.0,0.0,0.0,0.0,1.9601841,1.736187,0.7571793,-0.6448655,2.0,0.5709668,-0.19206157,-1.4849739,2.0,0.22071543,-0.5953994,0.1028548
2025-07-19 14:42:16.581,0.02,20,1,-0.048781626,-0.0042704074,0.034083605,-0.025499016,0.016360004,0.036443368,0.0,0.0,0.0,0.0,0.032016087,0.03306022,0.012973729,-0.020399496,0.02382002,0.007231472,-0.01012112,-0.04039357,0.04198522,-0.002825926,-0.030282255,0.008422985,0.13892353,0.10752183,-0.035679057,-0.08636206,0.15260749,0.046380285,-0.008924186,-0.0901451,0.13952063,0.013873516,-0.15035443,0.06586295,1.9601841,1.736187,0.7571793,-0.6448655,2.0,0.5709668,-0.19206157,-1.4849739,2.0,0.22071543,-0.5953994,0.1028548,1.1302787,-2.0,0.53437597,1.5280896,-2.0,0.5167281,0.46537927,1.2807219,1.4679321,-1.4197799,2.0,-0.20732759
2025-07-19 14:42:16.600,0.04,40,2,-0.26746103,0.032047488,-0.1484006,0.009649882,0.028457077,-0.023313692,0.0,0.0,0.0,0.00013741339,0.078025594,0.03398393,0.017969232,-0.0128513975,0.048935,0.027821619,0.007642311,-0.023469003,0.06780918,-0.025825813,-0.025048163,-0.0024641338,0.13573849,-0.05449811,0.0549783,0.09079301,-0.04445633,-0.026180921,0.057585243,0.15063387,0.108239636,-0.09670808,0.18967782,-0.057074364,1.1302787,-2.0,0.53437597,1.5280896,-2.0,0.5167281,0.46537927,1.2807219,1.4679321,-1.4197799,2.0,-0.20732759,0.6557834,-2.0,-0.04783279,-0.78240734,-0.9060517,0.8742537,0.764823,-1.01574,1.5668752,-1.9407398,1.5304282,0.9881965
2025-07-19 14:42:16.620,0.06,60,3,0.10562089,-0.031367894,0.16940728,0.020305427,0.012681922,0.011174468,0.0,0.0,0.0,0.0012895633,0.07950032,-0.06405807,0.029358853,-0.012425614,0.024890037,0.038821727,0.025581783,-0.025130935,0.1074519,-0.067029625,0.06250806,0.021401495,-0.00792872,-0.32599583,0.054032564,-0.051044736,-0.09699446,0.105862655,0.007768812,-0.13572563,0.10974695,-0.07957667,0.24881159,0.045530457,0.6557834,-2.0,-0.04783279,-0.78240734,-0.9060517,0.8742537,0.764823,-1.01574,1.5668752,-1.9407398,1.5304282,0.9881965,0.6622871,-0.9361628,-0.0111662485,0.033238083,-0.7858588,0.51718503,-0.3628905,2.0,2.0,-0.89590883,-1.3265779,2.0
2025-07-19 14:42:16.641,0.08,80,4,0.061801974,0.15008877,-0.17557186,-0.03964803,-0.017363938,0.0216015,0.0,0.0,0.0,0.0003498735,0.09158521,-0.13719054,0.011068518,-0.020540781,-0.009160466,0.048375238,0.017220361,-0.015319042,0.1325116,-0.0933772,0.09292004,0.06500451,0.00555663,-0.055924166,0.028207084,-0.01833694,-0.09515633,0.0005439025,-0.0154654905,0.039578274,0.048306774,-0.018367391,-0.07352119,0.08899665,0.6622871,-0.9361628,-0.0111662485,0.033238083,-0.7858588,0.51718503,-0.3628905,2.0,2.0,-0.89590883,-1.3265779,2.0,-0.5100261,-2.0,1.4431506,-0.44243592,-0.94539934,1.1857386,1.1514093,0.40938702,1.7768544,-0.23743355,-0.6295201,2.0
2025-07-19 14:42:16.661,0.1,100,5,0.14234602,0.1818739,-0.067653455,0.012636592,-0.039422967,-0.0013397285,0.0,0.0,0.0,0.0011750594,0.05503126,-0.2217387,0.047620177,-0.0232955,-0.058752947,0.0759779,0.040287424,0.013184716,0.14624591,-0.07633972,0.029142223,0.105357416,0.013677456,-0.15133774,0.052741468,0.021764869,-0.15344569,0.025274163,-0.015090936,0.02747281,0.008768366,0.005703576,-0.0758157,0.12628,-0.5100261,-2.0,1.4431506,-0.44243592,-0.94539934,1.1857386,1.1514093,0.40938702,1.7768544,-0.23743355,-0.6295201,2.0,-0.30794832,-0.43563893,2.0,-1.9238302,0.10296863,0.28017935,1.3172897,0.8910335,2.0,0.07139415,0.87804854,2.0
2025-07-19 14:42:16.681,0.12000000000000001,120,6,0.08834282,-0.34017,-0.026285289,0.0019223018,-0.0058530755,0.004172737,0.0,0.0,0.0,0.0032363683,0.034343638,-0.25408795,0.09539813,-0.06700543,-0.05856991,0.05665296,0.08132573,0.0671506,0.17283334,-0.075363435,0.037914336,0.14649822,-0.038745806,0.048278417,0.027383354,-0.10987306,0.010552673,0.026461504,0.11028627,0.22195174,0.08151209,0.059473325,0.14173704,0.0414601,-0.30794832,-0.43563893,2.0,-1.9238302,0.10296863,0.28017935,1.3172897,0.8910335,2.0,0.07139415,0.87804854,2.0,-0.30611387,-0.48073536,0.89123416,-1.6698228,0.01128659,0.46172425,0.6592158,-1.6651158,2.0,1.2760082,-2.0,2.0
2025-07-19 14:42:16.701,0.14,140,7,0.080971725,0.012366042,0.03997178,0.017783185,0.036859296,0.02501455,0.0,0.0,0.0,0.00357384,0.02976562,-0.25024772,0.085665315,-0.097114965,-0.050904434,0.0681268,0.07779075,0.051564474,0.21165943,-0.039939817,0.055496074,0.17593801,-0.032337535,0.07187392,0.013991405,-0.046907004,-0.047091145,-0.016903961,0.06789484,-0.12276316,0.015832864,0.1063953,-0.1008881,0.04811136,-0.30611387,-0.48073536,0.89123416,-1.6698228,0.01128659,0.46172425,0.6592158,-1.6651158,2.0,1.2760082,-2.0,2.0,-0.99142385,-0.69074154,0.3773327,0.0627594,-1.2794212,1.2031807,1.5844513,-0.012202818,2.0,-0.31551158,0.06394017,1.7906557
2025-07-19 14:42:16.721,0.16,160,8,-0.0712144,-0.0015836178,0.00030257725,0.06847137,-0.048731845,-0.014023339,0.0,0.0,0.0,0.0033106857,0.015225675,-0.24407859,0.07718229,-0.10854306,-0.05301724,0.07546217,0.11741243,0.05256101,0.21213172,-0.027315253,0.050510623,0.18822926,-0.022953924,0.0022321958,-0.022191698,0.0087750135,-0.09340298,0.055775777,0.07944956,-0.061843812,0.1174396,-0.024051232,0.06292655,0.024351042,-0.99142385,-0.69074154,0.3773327,0.0627594,-1.2794212,1.2031807,1.5844513,-0.012202818,2.0,-0.31551158,0.06394017,1.7906557,-0.045321286,-0.6396931,0.37395883,-1.1899073,-1.4364355,1.9215993,0.7120578,-0.40317222,2.0,0.41583174,-0.15600276,1.7596921
2025-07-19 14:42:16.741,0.18,180,9,-0.09799825,0.13797592,0.030487016,-0.028002732,0.023939442,-0.011406527,0.0,0.0,0.0,0.00344129,0.020425187,-0.2626412,0.067742094,-0.115521275,-0.11051879,0.11915544,0.108988106,0.017966265,0.23895241,-0.02486807,0.027670564,0.20897897,0.0410918,0.04759682,-0.099976316,-0.03801331,-0.16605967,0.058756243,-0.042852804,-0.04918383,0.018251179,0.03272773,-0.027505983,0.03378671,-0.045321286,-0.6396931,0.37395883,-1.1899073,-1.4364355,1.9215993,0.7120578,-0.40317222,2.0,0.41583174,-0.15600276,1.7596921,-0.6915306,-0.050346464,1.0755191,-1.0006016,-0.64820296,2.0,0.44648942,-0.32221863,2.0,-0.038140886,0.6061747,1.6016768
2025-07-19 14:42:16.762,0.19999999999999998,200,10,-0.020183627,-0.06701859,0.11869099,0.058096055,-0.032120936,-0.00499674,0.0,0.0,0.0,0.0037069926,0.005828578,-0.26329345,0.089277,-0.12838104,-0.14216867,0.1547244,0.10799861,-0.009679822,0.24872471,-0.030710658,0.058110237,0.21045972,-0.10740385,0.047732677,0.017878477,-0.060180373,-0.08072611,0.12150598,-0.004040222,-0.08569838,-0.004963493,0.045445736,0.016608391,0.0630615,-0.6915306,-0.050346464,1.0755191,-1.0006016,-0.64820296,2.0,0.44648942,-0.32221863,2.0,-0.038140886,0.6061747,1.6016768,0.6286702,0.6115199,0.43059307,-0.7426626,-0.68449014,1.9749285,0.3192711,0.24927561,2.0,0.437016,-0.3702386,0.92625505
2025-07-19 14:42:16.782,0.21999999999999997,220,11,-0.10845677,0.011012193,-0.11831777,0.02832853,0.0019880154,0.047713555,0.0,0.0,0.0,0.00238455,0.0050090137,-0.21537217,0.07476187,-0.12504275,-0.16396554,0.17699647,0.10793572,0.011533933,0.25141287,-0.016145587,0.07372302,0.1981298,-0.021045277,0.08826395,-0.021074006,0.055019386,-0.065241896,0.11028337,0.019448515,0.043183982,0.06505679,-0.01976048,-0.041791435,0.045864705,0.6286702,0.6115199,0.43059307,-0.7426626,-0.68449014,1.9749285,0.3192711,0.24927561,2.0,0.437016,-0.3702386,0.92625505,-0.8363383,0.6180404,0.060936626,-0.96172005,-0.8652498,2.0,0.5519418,-1.7223482,2.0,1.5856966,1.0371851,0.22182894
2025-07-19 14:42:16.802,0.23999999999999996,240,12,-0.0041256077,-0.061082643,0.09934943,0.006109951,-0.017528823,-0.02152186,0.0,0.0,0.0,0.003465585,-0.0026897523,-0.1630893,0.043296862,-0.13917284,-0.18724354,0.19409095,0.11636056,0.00038742158,0.27675983,0.023335159,0.10664887,0.17643428,-0.041028045,0.17944583,-0.0035662625,-0.0072687087,-0.13329107,0.055913936,0.07822861,-0.014441221,0.07089699,0.024990521,0.2266392,-0.107826166,-0.8363383,0.6180404,0.060936626,-0.96172005,-0.8652498,2.0,0.5519418,-1.7223482,2.0,1.5856966,1.0371851,0.22182894,0.36475644,0.19098726,-2.0,-0.02288425,-0.44918776,2.0,-0.87779474,-2.0,2.0,1.714894,-1.0593231,-1.5523477
2025-07-19 14:42:16.822,0.25999999999999995,260,13,0.1777195,0.15233181,0.08450108,0.035555422,-0.02176129,-0.0011371663,0.0,0.0,0.0,0.0034445373,0.0051317983,-0.12201395,-0.0032225833,-0.13759226,-0.2074395,0.20524728,0.10985753,-0.051585328,0.28691015,0.06739922,0.1266625,0.107466556,0.032401845,0.13486801,-0.21726762,0.0016813873,0.021534672,-0.016363807,0.021604992,-0.124425605,-0.012703926,0.120082095,-0.10994849,-0.1306642,0.36475644,0.19098726,-2.0,-0.02288425,-0.44918776,2.0,-0.87779474,-2.0,2.0,1.714894,-1.0593231,-1.5523477,0.12844148,0.3439395,-1.5028626,0.70641077,0.49064437,1.4296354,-0.34631243,-1.7061061,2.0,-0.6227592,0.056414872,-2.0
2025-07-19 14:42:16.847,0.27999999999999997,280,14,0.02248638,0.19080089,0.14413938,-0.03687638,0.029048923,0.048135728,0.0,0.0,0.0,0.0022944624,0.0017552288,-0.07551023,-0.050763264,-0.11185785,-0.18443686,0.1946285,0.09156422,-0.07989315,0.29198942,0.04133977,0.08972549,0.034846917,-0.004184971,0.11390944,-0.08179492,0.13278428,0.13233607,-0.030326212,0.030770855,-0.16817765,0.006580502,-0.019244177,-0.10759045,-0.11589574,0.12844148,0.3439395,-1.5028626,0.70641077,0.49064437,1.4296354,-0.34631243,-1.7061061,2.0,-0.6227592,0.056414872,-2.0,0.77430844,-2.0,-0.803378,1.0995959,0.42153165,0.24943092,-0.95534736,0.4041038,2.0,-1.7708675,-0.39445683,-1.4197555
2025-07-19 14:42:16.862,0.3,300,15,-0.054712873,-0.017586848,-0.023800783,-0.027128952,0.035355765,-0.03757694,0.0,0.0,0.0,0.0010212262,0.025346944,-0.08619659,-0.066812195,-0.07350385,-0.14828753,0.1594203,0.059899174,-0.08683705,0.27488023,-0.0139805935,0.058328617,-0.022670632,0.095422566,-0.21344909,0.04351418,0.12925434,0.17572175,-0.07787976,-0.11393248,0.16704562,-0.04325189,-0.14818329,-0.105746135,-0.15930666,0.77430844,-2.0,-0.803378,1.0995959,0.42153165,0.24943092,-0.95534736,0.4041038,2.0,-1.7708675,-0.39445683,-1.4197555,0.14881012,-1.8822556,2.0,0.24826062,-0.065772936,-1.6330191,0.13506511,-0.35095593,2.0,-1.300618,-1.8257146,1.3835391
2025-07-19 14:42:16.883,0.32,320,16,0.14283176,0.21206854,-0.017934892,-0.008075587,0.029162446,0.027822776,0.0,0.0,0.0,0.0009955894,0.024059525,-0.20343152,0.0039514434,-0.06585897,-0.11085984,0.097946964,0.06056735,-0.07644335,0.29190665,-0.042322744,-0.033966046,0.02373253,-0.062175635,-0.19407032,0.18925503,0.042269304,0.07300316,-0.12303761,-0.020393915,-0.05423251,0.036495727,-0.08410166,-0.2783101,0.02777283,0.14881012,-1.8822556,2.0,0.24826062,-0.065772936,-1.6330191,0.13506511,-0.35095593,2.0,-1.300618,-1.8257146,1.3835391,0.13354287,-0.7705937,2.0,-0.47392565,0.34649202,-1.3304517,0.9060283,2.0,2.0,0.6291089,0.9391492,2.0
2025-07-19 14:42:16.905,0.34,340,17,-0.00530336,-0.2222201,0.083120465,-0.08148624,0.036526684,-0.013197298,0.0,0.0,0.0,0.0007584722,0.03470711,-0.239506,0.034793008,-0.06334811,-0.080254875,0.046040542,0.061603848,-0.038590312,0.28365138,-0.02225614,-0.07991406,0.07530023,0.057715945,0.028333135,0.050872516,-0.0067178025,0.13555118,-0.16252479,0.06538833,0.21134315,0.04551748,-0.0031343275,0.10315953,0.15427116,0.13354287,-0.7705937,2.0,-0.47392565,0.34649202,-1.3304517,0.9060283,2.0,2.0,0.6291089,0.9391492,2.0,-0.0962967,-1.106653,2.0,-1.3314399,-0.20427617,-1.0143877,1.2635843,1.3034257,1.9390277,0.38239753,-1.7702198,2.0
2025-07-19 14:42:16.922,0.36000000000000004,360,18,0.13283987,-0.11101247,0.03358798,-0.024801515,0.03445583,0.02776484,0.0,0.0,0.0,-0.00045362627,0.032128192,-0.27068436,0.087933905,-0.08024352,-0.06825151,0.0012526928,0.09818476,0.03804549,0.28368506,-0.019808726,-0.10981627,0.112482496,-0.016407738,-0.091366634,0.16442585,-0.03632772,-0.03501861,-0.01203635,0.01423789,0.25418627,-0.036477916,0.0479083,-0.11775225,0.13799055,-0.0962967,-1.106653,2.0,-1.3314399,-0.20427617,-1.0143877,1.2635843,1.3034257,1.9390277,0.38239753,-1.7702198,2.0,-0.05427149,-0.42900044,2.0,-1.5679386,0.95201474,-1.1615981,1.2728566,0.12693934,2.0,-0.25420278,-0.624969,2.0
2025-07-19 14:42:16.942,0.38000000000000006,380,19,0.1435441,-0.11118124,-0.022263542,0.016974276,0.057363488,0.03211205,0.0,0.0,0.0,-0.001271016,0.020288434,-0.27582043,0.12019799,-0.11452949,-0.024840126,-0.033625808,0.11998495,0.075267926,0.30214486,-0.019443903,-0.13773416,0.14815263,0.010879584,0.0024974411,0.022832746,-0.0028993464,0.19038919,-0.045208573,-0.012536058,0.021546777,-0.030268686,-0.08208651,-0.004695478,0.11158752,-0.05427149,-0.42900044,2.0,-1.5679386,0.95201474,-1.1615981,1.2728566,0.12693934,2.0,-0.25420278,-0.624969,2.0,-0.38740566,-0.18987972,1.4341332,-1.5042806,-0.32335386,0.08790938,1.9896725,0.30489746,2.0,-0.031306796,-0.18001455,2.0
2025-07-19 14:42:16.965,0.4000000000000001,400,20,-0.050014026,-0.15943357,-0.00344703,-0.010136803,0.010460595,0.04113949,0.0,0.0,0.0,-0.0013498096,0.021611348,-0.27457848,0.11640681,-0.12889776,-0.021180479,-0.010661978,0.15125273,0.081766956,0.30544654,-0.026341366,-0.13307682,0.16199325,-0.016898183,0.0112445075,-0.02031651,-0.07006488,0.0025213251,0.04163551,0.15813561,0.04292448,-0.034860265,0.044327397,0.059966803,0.047044836,-0.38740566,-0.18987972,1.4341332,-1.5042806,-0.32335386,0.08790938,1.9896725,0.30489746,2.0,-0.031306796,-0.18001455,2.0,-0.85537326,-0.32375503,0.8199653,-1.7752138,-0.7889846,1.031024,1.3873266,-0.5451965,2.0,0.10307086,-0.50375557,2.0
2025-07-19 14:42:16.983,0.4200000000000001,420,21,0.0928336,-0.03491642,0.00064723974,0.007314369,0.0039735152,-0.00723544,0.0,0.0,0.0,-0.0005053174,0.0035730733,-0.24866611,0.114155985,-0.16223328,-0.055249937,0.0089729745,0.16840796,0.03838918,0.30146423,-0.038517974,-0.12676233,0.1887176,0.045882083,0.10098544,-0.005848693,-0.100741826,-0.11241171,0.0140877,-0.027660817,-0.0850516,0.03725828,-0.0049266494,0.018951444,-0.017881272,-0.85537326,-0.32375503,0.8199653,-1.7752138,-0.7889846,1.031024,1.3873266,-0.5451965,2.0,0.10307086,-0.50375557,2.0,-0.82152796,-1.1485434,0.43097413,-1.03802,-1.6302009,1.9419595,1.0782782,-0.38168904,2.0,-0.4090891,0.6211014,2.0
2025-07-19 14:42:17.003,0.4400000000000001,440,22,0.124041304,0.011687548,0.073048145,0.015955064,0.01104428,-0.038955573,0.0,0.0,0.0,-0.00012264671,-0.010350226,-0.26206982,0.09870195,-0.18066268,-0.15537906,0.07228616,0.16710699,0.007518491,0.30882502,-0.048764102,-0.109190494,0.20652917,-0.004377005,-0.09910057,-0.030881736,-0.08870547,-0.20125337,0.16000634,-0.0041880417,-0.038637638,0.038308434,-0.031773865,0.033101395,0.036830693,-0.82152796,-1.1485434,0.43097413,-1.03802,-1.6302009,1.9419595,1.0782782,-0.38168904,2.0,-0.4090891,0.6211014,2.0,-0.10801935,0.3223291,1.4461639,-1.3553714,-0.2457142,2.0,0.2583107,0.054386895,2.0,-0.6928876,0.81496197,2.0
2025-07-19 14:42:17.050,0.46000000000000013,460,23,-0.17569773,-0.21025628,0.10300581,0.003282718,0.07642419,-0.01995813,0.0,0.0,0.0,-0.0012713396,-0.0065374295,-0.25282896,0.12588723,-0.18959711,-0.17030348,0.10812699,0.15170012,0.012539743,0.29732683,-0.06883455,-0.038812403,0.21484542,0.05156234,0.15171312,-0.035549477,-0.043257963,0.02917098,0.10950458,-0.05073038,-0.044086266,-0.022050066,-0.11200591,0.15934257,0.043622784,-0.10801935,0.3223291,1.4461639,-1.3553714,-0.2457142,2.0,0.2583107,0.054386895,2.0,-0.6928876,0.81496197,2.0,1.141441,-0.57856804,-0.2833941,-0.652908,-1.5406811,2.0,-0.2540728,-0.6509517,2.0,0.3885798,-1.5587142,0.8131015
2025-07-19 14:42:17.164,0.48000000000000015,480,24,-0.16320398,0.3362944,-0.038735423,0.052815586,0.037577122,0.015759805,0.0,0.0,0.0,-0.0027925426,0.02761421,-0.24651782,0.09770026,-0.18068512,-0.19701168,0.14570439,0.11815255,-0.026749222,0.3137264,-0.058474693,-0.022042276,0.18922889,0.047057174,0.06980605,-0.031940125,0.04199344,-0.044569116,0.115988694,-0.09723738,-0.15105206,0.0046978206,0.09841634,-0.08518967,-0.02149078,1.141441,-0.57856804,-0.2833941,-0.652908,-1.5406811,2.0,-0.2540728,-0.6509517,2.0,0.3885798,-1.5587142,0.8131015,-0.77650976,-0.3807812,0.45044917,-0.14639537,-0.6748939,2.0,0.59789705,0.318072,2.0,0.11377973,1.3382936,1.3099041
2025-07-19 14:42:17.182,0.5000000000000001,500,25,-0.24951875,-0.060193177,0.024605503,-0.023460448,-0.0037075307,-0.013499307,0.0,0.0,0.0,-0.0038459953,0.034954034,-0.22709315,0.08359377,-0.16476825,-0.20710754,0.1651907,0.1151213,-0.012794683,0.3068952,-0.04223922,0.0137642585,0.18513957,-0.08641857,0.06866501,-0.08025499,-0.0045374497,0.011655192,0.083445504,0.055517156,0.07335669,0.0642116,-0.057190116,0.100775704,0.040301207,-0.77650976,-0.3807812,0.45044917,-0.14639537,-0.6748939,2.0,0.59789705,0.318072,2.0,0.11377973,1.3382936,1.3099041,0.60470915,-0.32836878,0.45728868,-0.9288594,-1.2866323,2.0,0.09197732,-2.0,2.0,0.890944,0.26264632,-0.043252066
2025-07-19 14:42:17.203,0.5200000000000001,520,26,0.10083895,0.17937724,-0.05823534,-0.0090299575,0.029869363,-0.026885075,0.0,0.0,0.0,-0.003923797,0.049961265,-0.21792708,0.07640075,-0.15261152,-0.23597988,0.20063192,0.11876927,-0.01821541,0.30917764,-0.02332288,0.03536792,0.15701099,0.031187939,0.055970404,-0.086019464,-0.07585037,-0.16436943,0.0142375855,-0.09765305,-0.060930524,-0.009814828,0.044019885,0.045208547,-0.11707402,0.60470915,-0.32836878,0.45728868,-0.9288594,-1.2866323,2.0,0.09197732,-2.0,2.0,0.890944,0.26264632,-0.043252066,-0.6018902,1.1776657,-0.43166164,-0.59114194,1.1719621,2.0,0.13720676,-1.5223104,2.0,0.8707154,1.4418623,-0.63016766
2025-07-19 14:42:17.223,0.5400000000000001,540,27,0.042578418,-0.12443411,0.03730746,0.019761853,-0.053155802,0.049568016,0.0,0.0,0.0,-0.0033013127,0.026905235,-0.18617098,0.042081345,-0.16125783,-0.22682367,0.21107385,0.09809091,-0.050599754,0.32290164,0.01823459,0.10518049,0.115419954,-0.0608905,0.13421255,-0.0649762,-0.017306125,0.075686604,0.06337441,-0.060925063,-0.076969504,0.06651154,0.025430419,0.29142535,-0.12499595,-0.6018902,1.1776657,-0.43166164,-0.59114194,1.1719621,2.0,0.13720676,-1.5223104,2.0,0.8707154,1.4418623,-0.63016766,0.52225673,0.5759372,-1.8156998,0.31744486,0.14175215,2.0,-0.48612472,-1.9631193,2.0,1.3885536,-0.27384108,-2.0
2025-07-19 14:42:17.247,0.5600000000000002,560,28,-0.017910827,0.17298238,0.06777591,0.012470361,-0.05684117,0.0063573,0.0,0.0,0.0,-0.0039423048,0.04060582,-0.11339098,-0.014799042,-0.15853034,-0.22514868,0.2111419,0.08267546,-0.08836995,0.322116,0.052901134,0.14343882,0.044236537,0.0075009814,0.118135914,-0.18336916,0.11129384,0.096010976,-0.020295588,0.032206025,-0.1286592,0.053485088,0.12518947,-0.018941589,-0.15986252,0.52225673,0.5759372,-1.8156998,0.31744486,0.14175215,2.0,-0.48612472,-1.9631193,2.0,1.3885536,-0.27384108,-2.0,0.31529638,-0.2662691,-1.4433746,0.7485006,0.77364355,1.2544147,-0.3533503,-1.8949858,2.0,-0.6352482,-0.7132221,-2.0
2025-07-19 14:42:17.266,0.5800000000000002,580,29,0.009074598,0.1911569,0.09100067,0.015787559,0.03331644,-0.022953993,0.0,0.0,0.0,-0.0047057853,0.04472917,-0.095338665,-0.042817254,-0.1416198,-0.19066554,0.21137126,0.083984524,-0.107379876,0.3232211,0.035116248,0.066434436,-0.012081186,-0.044996966,0.03604267,-0.07490967,-0.025953248,0.12280614,-0.08398761,0.023190683,-0.0934116,0.025938764,-0.056543432,-0.11542756,-0.114606105,0.31529638,-0.2662691,-1.4433746,0.7485006,0.77364355,1.2544147,-0.3533503,-1.8949858,2.0,-0.6352482,-0.7132221,-2.0,0.79299057,-2.0,-0.830628,1.1038715,0.5023758,-0.1653476,-0.7282165,-0.5291392,2.0,-1.887557,-0.51635826,-1.0977765
2025-07-19 14:42:17.285,0.6000000000000002,600,30,0.034676183,0.07193575,0.03594496,-0.04819459,-0.051011868,-0.038303457,0.0,0.0,0.0,-0.0056231795,0.046014257,-0.15835218,-0.06080036,-0.11042819,-0.13433109,0.15647823,0.05999351,-0.118233375,0.30953133,-0.020127447,0.01874004,-0.04860518,0.0616844,-0.20760876,-0.09256001,0.040409505,0.110356376,-0.15171462,-0.08119055,-0.051411137,0.00094354316,-0.17703852,-0.18617527,-0.018940412,0.79299057,-2.0,-0.830628,1.1038715,0.5023758,-0.1653476,-0.7282165,-0.5291392,2.0,-1.887557,-0.51635826,-1.0977765,0.4606742,-0.6085808,1.9537364,0.75141466,0.265737,-1.350273,-0.0328329,1.7819453,2.0,-1.1460718,-0.27997112,1.5414828
2025-07-19 14:42:17.305,0.6200000000000002,620,31,0.022544488,-0.07428922,-0.1293359,-0.038222156,-0.03632272,0.03992498,0.0,0.0,0.0,-0.0063760555,0.05786845,-0.19011351,-0.008364231,-0.06606397,-0.102397665,0.083987005,0.04837226,-0.0935307,0.30832106,-0.059424475,-0.0024304956,0.0056382054,0.029214803,-0.05529384,0.10002282,0.10893111,0.14320135,-0.13772246,0.04779182,0.2029635,0.019834574,-0.054383263,0.0025375152,0.14131859,0.4606742,-0.6085808,1.9537364,0.75141466,0.265737,-1.350273,-0.0328329,1.7819453,2.0,-1.1460718,-0.27997112,1.5414828,-0.07409671,-2.0,1.7029936,-0.38455614,-0.21808977,-0.8857234,0.70985144,-0.7047642,1.3909806,0.14963943,-1.6610943,2.0
2025-07-19 14:42:17.325,0.6400000000000002,640,32,0.43462762,-0.0015637334,0.0780983,-0.036208183,-0.0013929502,0.008061371,0.0,0.0,0.0,-0.00554949,0.049009513,-0.22397837,0.029375343,-0.06912655,-0.079654746,0.06305037,0.054933283,-0.081138074,0.2907533,-0.051581156,-0.08988355,0.055936445,-0.035052165,-0.17934175,0.09524889,-0.078693,0.02978686,-0.06786325,0.05860107,-0.09734243,-0.09980456,-0.009532989,-0.34824613,0.14563896,-0.07409671,-2.0,1.7029936,-0.38455614,-0.21808977,-0.8857234,0.70985144,-0.7047642,1.3909806,0.14963943,-1.6610943,2.0,0.6453887,0.043922722,2.0,-0.5159594,0.71914154,-0.9089049,1.3985912,2.0,2.0,-0.99621934,2.0,2.0
2025-07-19 14:42:17.348,0.6600000000000003,660,33,-0.051582485,-0.29456186,0.078227356,-0.035256833,0.036656667,0.0107149,0.0,0.0,0.0,-0.006119004,0.052617095,-0.23578306,0.08207963,-0.075027965,-0.05007284,0.013025437,0.08557075,-0.06592044,0.29379317,-0.06373283,-0.10023639,0.10724927,0.049973346,-0.0051623634,0.10799547,-0.023843506,0.19417119,-0.06483952,0.13490987,0.10871624,-0.043336447,-0.11198087,0.09546249,0.14125346,0.6453887,0.043922722,2.0,-0.5159594,0.71914154,-0.9089049,1.3985912,2.0,2.0,-0.99621934,2.0,2.0,0.5274073,-1.05108,1.752586,-1.1703095,-0.2062667,-0.62823606,1.1905363,1.2847106,2.0,-0.0050939554,-1.0628613,2.0
2025-07-19 14:42:17.365,0.6800000000000003,680,34,0.12489689,-0.12129903,-0.010263122,-0.009614445,0.036157668,-0.00087368296,0.0,0.0,0.0,-0.007311902,0.062207747,-0.24497232,0.10349226,-0.090918705,-0.03723025,0.0006541386,0.10334434,0.01308988,0.30026746,-0.06813396,-0.120140105,0.12749402,0.07781515,-0.08868128,0.12524639,-0.0022726757,-0.006506183,-0.116883144,0.013798377,0.3098449,-0.0013283495,-0.017223166,-0.07903472,0.11294864,0.5274073,-1.05108,1.752586,-1.1703095,-0.2062667,-0.62823606,1.1905363,1.2847106,2.0,-0.0050939554,-1.0628613,2.0,-0.23651877,-1.0504825,2.0,-1.5183533,0.5668646,-1.0498749,1.0530311,-0.3510631,2.0,-0.09404754,-0.7333238,2.0
2025-07-19 14:42:17.385,0.7000000000000003,700,35,0.3405112,0.033601075,0.125311,0.02398585,0.0676866,0.02777185,0.0,0.0,0.0,-0.0077717663,0.06464886,-0.2722258,0.14628756,-0.110001884,-0.011793736,-0.04077908,0.10855098,0.033726573,0.30095804,-0.06526232,-0.15036806,0.17580242,0.006817739,-0.06979099,0.023935972,-0.061970025,0.15866505,-0.094973244,-0.014970053,-0.09746234,-0.034480892,-0.051655617,-0.099681474,0.11562101,-0.23651877,-1.0504825,2.0,-1.5183533,0.5668646,-1.0498749,1.0530311,-0.3510631,2.0,-0.09404754,-0.7333238,2.0,0.3503316,0.5118084,1.9811591,-1.160036,-0.2549385,0.06231705,1.7332054,2.0,2.0,-1.0177978,-0.015735447,2.0
2025-07-19 14:42:17.405,0.7200000000000003,720,36,-0.076600485,-0.2326708,-0.008863991,-0.010739212,-0.00029310558,0.041577186,0.0,0.0,0.0,-0.009843086,0.06674467,-0.27857307,0.16841577,-0.13911057,0.004313018,-0.029633822,0.15657964,0.06781394,0.30609417,-0.07090864,-0.13189003,0.17681652,-0.017723916,0.035693355,0.11818151,0.035963673,0.06657865,0.06879232,0.083355226,0.26400572,-0.05515101,-0.055858947,0.075834446,0.017413223,0.3503316,0.5118084,1.9811591,-1.160036,-0.2549385,0.06231705,1.7332054,2.0,2.0,-1.0177978,-0.015735447,2.0,0.05087,-1.1182323,1.4154245,-1.8924204,-0.8674658,0.077590086,0.70266736,-1.4264542,2.0,0.34863937,-1.2970397,2.0
2025-07-19 14:42:17.425,0.7400000000000003,740,37,0.21556823,0.27213937,0.13847764,-0.03637835,0.014482051,-0.026211677,0.0,0.0,0.0,-0.010905283,0.06427884,-0.29725325,0.17307556,-0.15905195,-0.031886905,-0.01825498,0.13687438,0.06574471,0.31493032,-0.07397698,-0.1579772,0.20057015,-0.06007401,-0.1486374,0.00042055536,-0.15345113,-0.10184252,0.086229846,0.011049686,-0.21773271,0.03269048,0.08248484,-0.13658156,0.019424353,0.05087,-1.1182323,1.4154245,-1.8924204,-0.8674658,0.077590086,0.70266736,-1.4264542,2.0,0.34863937,-1.2970397,2.0,-0.33281904,1.1295655,1.7517501,-0.97233725,-0.25941017,1.4466864,1.3651903,1.9173366,2.0,-1.925238,0.63422227,2.0
2025-07-19 14:42:17.447,0.7600000000000003,760,38,-0.17455843,-0.32914898,0.012500562,-0.0041258745,0.09227549,-0.019532029,0.0,0.0,0.0,-0.011769997,0.047439575,-0.28475076,0.171341,-0.17492846,-0.05081573,0.014413899,0.15843995,0.09114776,0.30296963,-0.104420274,-0.12420854,0.22488116,-0.053321265,0.00679828,0.042043727,0.0056011016,-0.011861285,0.09534602,0.05605954,0.14646941,0.06249372,-0.13334054,0.07518854,0.046428885,-0.33281904,1.1295655,1.7517501,-0.97233725,-0.25941017,1.4466864,1.3651903,1.9173366,2.0,-1.925238,0.63422227,2.0,0.6138612,-0.12421048,0.58730453,-1.4980325,-1.3378308,1.2027122,0.102355264,-1.0383725,2.0,0.282147,-0.7043663,1.8199977
2025-07-19 14:42:17.465,0.7800000000000004,780,39,-0.12007079,0.19675364,-0.05293944,-0.037624575,0.07619942,0.0035765404,0.0,0.0,0.0,-0.012500913,0.074543566,-0.26349586,0.14780602,-0.17784724,-0.089707874,0.039838158,0.13116576,0.090153374,0.299955,-0.119169995,-0.12557325,0.23543984,0.113142505,0.103972994,-0.0023000774,-0.0053760167,-0.13304394,0.09025482,-0.039271917,-0.17436159,0.02019635,0.07945058,-0.10363291,-0.02168344,0.6138612,-0.12421048,0.58730453,-1.4980325,-1.3378308,1.2027122,0.102355264,-1.0383725,2.0,0.282147,-0.7043663,1.8199977,-1.2083389,-0.86790365,0.89476055,-0.9503194,-0.91301864,2.0,0.8345224,0.22132008,2.0,-0.5576253,2.0,1.5031973
2025-07-19 14:42:17.486,0.8000000000000004,800,40,-0.13468124,-0.06575628,0.028418763,0.023330547,0.03392461,0.035152115,0.0,0.0,0.0,-0.011629992,0.050260063,-0.25362957,0.15498847,-0.17649037,-0.124738894,0.084265105,0.1435761,0.07992638,0.3089791,-0.10427466,-0.09640454,0.22119665,-0.00710271,-0.08122627,0.011774024,-0.048856422,-0.037288435,0.089107156,-0.0076968144,-0.05916336,-0.011622063,-0.028837256,0.10682459,0.05382736,-1.2083389,-0.86790365,0.89476055,-0.9503194,-0.91301864,2.0,0.8345224,0.22132008,2.0,-0.5576253,2.0,1.5031973,0.80261755,0.19836953,0.97451514,-1.5779444,-0.7765467,1.7586128,0.3745024,-1.015756,2.0,-0.006396466,0.9441502,1.3000349
2025-07-19 14:42:17.506,0.8200000000000004,820,41,-0.21914925,-0.04124105,0.068785764,0.02589248,0.052934762,0.044704773,0.0,0.0,0.0,-0.011853972,0.071711384,-0.22605105,0.14522743,-0.20192946,-0.15170047,0.11891989,0.12060667,0.039320346,0.31880048,-0.09049671,-0.007489982,0.22003041,0.04281609,0.024408773,-0.008540904,0.0046236264,-0.050549887,0.09582975,-0.03210134,-0.20345005,-0.060589425,0.03175062,0.1278792,0.04321165,0.80261755,0.19836953,0.97451514,-1.5779444,-0.7765467,1.7586128,0.3745024,-1.015756,2.0,-0.006396466,0.9441502,1.3000349,0.5737506,-0.097629815,0.13543117,-0.48675227,-0.7618166,2.0,0.058333956,-0.2730836,2.0,0.16976488,-0.2598155,0.45187318
2025-07-19 14:42:17.526,0.8400000000000004,840,42,-0.26157063,0.056570783,0.002297575,0.027167842,0.041153103,-0.03723342,0.0,0.0,0.0,-0.0133417575,0.07866689,-0.20959905,0.13162376,-0.18860275,-0.1842416,0.16004255,0.10605595,-0.0055519966,0.31071526,-0.07473146,-0.004107871,0.2016015,-0.05254714,0.0052180616,-0.102109425,0.06854606,-0.05200132,0.025622534,-0.02664866,-0.072728366,0.030505,0.02287397,-0.04913928,0.007017658,0.5737506,-0.097629815,0.13543117,-0.48675227,-0.7618166,2.0,0.058333956,-0.2730836,2.0,0.16976488,-0.2598155,0.45187318,0.14706507,0.38626343,0.40445378,-0.47781527,-0.5039656,2.0,0.15902066,-0.41334298,2.0,0.46709543,1.2719886,0.022374896
2025-07-19 14:42:17.546,0.8600000000000004,860,43,-0.008701028,-0.19650206,0.10668908,0.051893942,-0.045302756,-0.020556567,0.0,0.0,0.0,-0.0136062745,0.06750639,-0.15302761,0.09801235,-0.17417304,-0.18272941,0.18557447,0.09873328,-0.018186558,0.31156468,-0.055736825,0.037922233,0.16008309,0.041365527,0.0640925,-0.04673558,-0.0154625345,-0.036794968,0.11078378,0.061260287,-0.052929204,0.03484238,0.08838017,0.09674297,-0.11853952,0.14706507,0.38626343,0.40445378,-0.47781527,-0.5039656,2.0,0.15902066,-0.41334298,2.0,0.46709543,1.2719886,0.022374896,1.1065007,0.54812473,-0.1084438,0.076974034,-0.4364102,2.0,-0.43787506,-0.9350162,2.0,0.57497215,0.111539096,-1.8059472
2025-07-19 14:42:17.566,0.8800000000000004,880,44,-0.018345186,0.054924514,-0.007838773,0.056694783,-0.010427275,-0.026232071,0.0,0.0,0.0,-0.015067427,0.08325608,-0.09464776,0.08159546,-0.14752738,-0.19137551,0.19762681,0.08991981,-0.041176137,0.3178981,-0.036162686,0.047941618,0.093478814,-0.023019562,0.09622203,-0.1001665,0.025570203,0.004806845,-0.01789415,0.019353459,0.025291417,-0.006478582,0.10343609,0.024105994,-0.23513265,1.1065007,0.54812473,-0.1084438,0.076974034,-0.4364102,2.0,-0.43787506,-0.9350162,2.0,0.57497215,0.111539096,-1.8059472,0.5496404,-1.0747387,-0.41674697,0.73611873,0.5865555,1.7337633,-0.021089323,-2.0,2.0,0.14311603,-0.5148493,-2.0
2025-07-19 14:42:17.586,0.9000000000000005,900,45,0.042322505,0.17389157,0.16073349,0.0066998997,-0.027602982,-0.017636957,0.0,0.0,0.0,-0.016011711,0.09116976,-0.09606558,0.053075757,-0.13479213,-0.18413398,0.20223086,0.088423096,-0.050297488,0.32978088,-0.017395144,0.012009841,0.024985148,0.01626,-0.11097854,-0.05774561,0.03757486,-0.023234885,-0.057378653,-0.061404545,-0.023284404,-0.045252364,0.03416359,-0.16725588,-0.22401127,0.5496404,-1.0747387,-0.41674697,0.73611873,0.5865555,1.7337633,-0.021089323,-2.0,2.0,0.14311603,-0.5148493,-2.0,1.199024,-0.5434744,0.47186258,0.74559194,1.9934058,-0.6091766,-0.8815336,0.3943725,2.0,-1.275124,0.60121924,-0.26326776
2025-07-19 14:42:17.606,0.9200000000000005,920,46,0.0018717796,-0.22349277,0.00070473907,0.009025597,0.03255637,0.020847714,0.0,0.0,0.0,-0.017266687,0.10092894,-0.11961663,0.059513457,-0.09555179,-0.13204531,0.14777747,0.056945994,-0.039273888,0.31332144,-0.058678385,0.020934919,0.00898211,0.014081588,-0.012894341,0.02344885,0.061718144,0.16992904,-0.13294242,-0.09827048,0.055230126,-0.007838167,-0.012409317,0.078766815,-0.069740415,1.199024,-0.5434744,0.47186258,0.74559194,1.9934058,-0.6091766,-0.8815336,0.3943725,2.0,-1.275124,0.60121924,-0.26326776,0.960775,-2.0,0.72404194,1.0656879,-0.08216198,-0.5012333,-0.3006744,0.53747284,1.3651192,-1.5522377,-2.0,0.4413041
2025-07-19 14:42:17.626,0.9400000000000005,940,47,-0.07109813,0.09854317,-0.18774259,0.02855872,-0.018227695,0.01062649,0.0,0.0,0.0,-0.01774123,0.1233501,-0.19523901,0.077430755,-0.055423465,-0.09475412,0.114059664,0.04755096,0.015116684,0.2971075,-0.08878539,0.0018461343,0.025832007,-0.04236066,-0.3271933,0.007541994,0.048690833,0.055896822,-0.122006804,-0.07518069,0.16932885,-0.115895405,-0.013314974,-0.15244246,0.006084322,0.960775,-2.0,0.72404194,1.0656879,-0.08216198,-0.5012333,-0.3006744,0.53747284,1.3651192,-1.5522377,-2.0,0.4413041,-0.4583837,-1.4218116,2.0,-0.016700268,-0.113004774,-1.8119688,0.49124423,-0.7068925,1.4951887,0.067464896,-0.43184876,2.0
2025-07-19 14:42:17.649,0.9600000000000005,960,48,0.31905624,0.10504206,0.0697932,0.029622609,0.0109794345,0.009770273,0.0,0.0,0.0,-0.015285849,0.09471088,-0.25700855,0.104689755,-0.047382385,-0.07587824,0.032375652,0.046095256,0.0059234565,0.27642834,-0.06834181,-0.044315983,0.067830905,-0.06774894,-0.16554666,0.02596808,0.06334427,-0.032636587,-0.14716691,-0.057598986,-0.02075977,-0.0057146396,0.06811418,-0.04869976,0.07663727,-0.4583837,-1.4218116,2.0,-0.016700268,-0.113004774,-1.8119688,0.49124423,-0.7068925,1.4951887,0.067464896,-0.43184876,2.0,0.3054596,1.8220568,2.0,-0.67734396,1.7514906,-0.9925843,1.6562841,2.0,2.0,-0.16362879,-0.79082507,2.0
2025-07-19 14:42:17.667,0.9800000000000005,980,49,0.05291892,0.0049347775,-0.062331982,-0.0013075748,0.051686622,0.024245463,0.0,0.0,0.0,-0.014043,0.0932981,-0.2922622,0.12440381,-0.054877114,-0.05934765,-0.005681095,0.09363171,0.035837166,0.28832588,-0.061241228,-0.07885639,0.10441588,-0.03149803,0.0042098267,0.10511159,0.039809007,0.13079226,-0.16086227,0.05986765,0.14447786,0.008350297,0.03229076,-0.059500325,0.076476105,0.3054596,1.8220568,2.0,-0.67734396,1.7514906,-0.9925843,1.6562841,2.0,2.0,-0.16362879,-0.79082507,2.0,-0.6966617,-0.10672906,2.0,-1.2281003,0.1297349,-1.9118162,2.0,0.5139505,2.0,1.041356,-1.1040102,2.0
2025-07-19 14:42:17.686,1.0000000000000004,1000,50,0.14293522,-0.0025089043,-0.13393703,0.034751758,-0.027340615,0.023668235,0.0,0.0,0.0,-0.012998494,0.10023404,-0.2908149,0.14778352,-0.075890705,-0.03394382,-0.04273405,0.119139716,0.06694009,0.29454708,-0.055968028,-0.11225523,0.14293697,-0.014670909,-0.0359981,0.0685703,-0.12849589,0.08106372,-0.13646811,0.050211314,0.026340023,0.081031926,0.0055190604,-0.050032273,0.0071914177,-0.6966617,-0.10672906,2.0,-1.2281003,0.1297349,-1.9118162,2.0,0.5139505,2.0,1.041356,-1.1040102,2.0,-1.1814202,0.27972624,1.2601899,-1.6016711,-0.10208103,0.03797499,2.0,-0.2084722,2.0,0.56730914,0.36332816,2.0
2025-07-19 14:42:17.706,1.0200000000000005,1020,51,0.020331528,-0.25847855,0.033556346,0.050346386,-0.017693976,-0.0002452336,0.0,0.0,0.0,-0.011236509,0.06686683,-0.25433898,0.15245172,-0.117626935,-0.022973843,-0.042663213,0.15657888,0.059361238,0.2973032,-0.048226878,-0.095029995,0.16911311,-0.058949836,0.13039914,0.036136046,-0.01574884,0.0014191621,0.0022687693,0.06821936,-0.13279614,-0.040064223,0.019885156,0.018796923,0.09425902,-1.1814202,0.27972624,1.2601899,-1.6016711,-0.10208103,0.03797499,2.0,-0.2084722,2.0,0.56730914,0.36332816,2.0,-0.3300335,-0.29884467,0.19545025,-1.3287481,-1.5798155,1.4721714,1.7137992,0.094702885,2.0,-0.012894743,-0.17665088,2.0
2025-07-19 14:42:17.726,1.0400000000000005,1040,52,0.14249407,0.0069216248,0.04190238,0.05102818,0.052848145,-0.03815088,0.0,0.0,0.0,-0.011428426,0.040917076,-0.23664588,0.1335291,-0.13554698,-0.0922944,0.011654305,0.19663645,0.04309922,0.29168263,-0.05287861,-0.09367338,0.18744451,-0.06388775,0.09488412,-0.0011914135,-0.01562557,-0.21753559,0.09346207,0.05842519,-0.03426279,-0.034288194,-0.043585233,0.04243655,0.10107857,-0.3300335,-0.29884467,0.19545025,-1.3287481,-1.5798155,1.4721714,1.7137992,0.094702885,2.0,-0.012894743,-0.17665088,2.0,-0.55691874,-1.3662465,0.8320968,-0.91957235,-1.899539,2.0,0.35284588,-1.0392394,2.0,-0.1614604,-0.00076664984,1.8826101
2025-07-19 14:42:17.752,1.0600000000000005,1060,53,0.115881406,0.06919287,0.08980459,0.0033834274,0.05429474,-0.01541639,0.0,0.0,0.0,-0.011457619,0.028832398,-0.24958165,0.12857048,-0.14008515,-0.19107592,0.055840652,0.17714125,-0.00095919176,0.29349783,-0.04840435,-0.07767897,0.19329436,0.024244772,-0.008183556,0.062231306,-0.030431159,-0.27634126,0.117617,-0.0007360046,-0.1764623,-0.03097207,0.07380112,0.037298083,0.027274784,-0.55691874,-1.3662465,0.8320968,-0.91957235,-1.899539,2.0,0.35284588,-1.0392394,2.0,-0.1614604,-0.00076664984,1.8826101,0.23921433,0.88403344,0.7109622,-0.8624213,0.61978245,2.0,0.25147277,1.5945343,2.0,-0.33206236,0.045266315,2.0
2025-07-19 14:42:17.768,1.0800000000000005,1080,54,-0.14838527,-0.08828076,-0.030486839,0.027665554,0.035553645,-0.017622313,0.0,0.0,0.0,-0.012867454,0.033280864,-0.228866,0.121203266,-0.15684025,-0.20309846,0.09122089,0.14452687,-0.0067687794,0.30998725,-0.04534433,-0.056946862,0.21761544,0.004981239,0.079405695,0.054581016,0.0017797316,0.090560906,0.039742053,-0.026502887,0.1408395,-0.002074653,0.064356305,0.014952989,-0.033996735,0.23921433,0.88403344,0.7109622,-0.8624213,0.61978245,2.0,0.25147277,1.5945343,2.0,-0.33206236,0.045266315,2.0,0.14629218,-0.0044510067,0.7893105,-0.5975754,-2.0,1.9273696,0.04052689,-1.2767154,2.0,0.79489934,-0.30358505,0.5950797
2025-07-19 14:42:17.787,1.1000000000000005,1100,55,-0.1341672,0.18346186,-0.1187476,0.03610587,0.043266207,0.040000148,0.0,0.0,0.0,-0.0136442855,0.044093434,-0.19776422,0.10410024,-0.14395653,-0.23441179,0.1265411,0.13401239,-0.026819352,0.29811007,-0.0308157,-0.053900093,0.19824827,-0.018293787,0.1371398,-0.04215453,-0.010009998,-0.06738666,0.06223235,-0.04994492,-0.1424752,0.039554544,0.003040244,-0.08433945,0.016675156,0.14629218,-0.0044510067,0.7893105,-0.5975754,-2.0,1.9273696,0.04052689,-1.2767154,2.0,0.79489934,-0.30358505,0.5950797,-1.2734716,-0.09690037,-0.5420574,-0.9896722,-0.143385,2.0,0.65149736,0.09652166,2.0,1.1290699,2.0,-0.15340345
2025-07-19 14:42:17.932,1.1200000000000006,1120,56,-0.24729094,-0.19326223,0.097011425,0.047913596,0.02685378,0.00897779,0.0,0.0,0.0,-0.012518786,0.026046477,-0.1675431,0.07749111,-0.15533149,-0.21510121,0.1501689,0.11997147,-0.045681383,0.2983243,-0.00012617886,-0.010347872,0.15170561,-0.03529401,0.016637435,-0.053407054,-0.012829246,0.10738835,0.012510285,-0.0052720956,0.015600267,-0.019716008,0.10245219,0.21980697,-0.058371406,-1.2734716,-0.09690037,-0.5420574,-0.9896722,-0.143385,2.0,0.65149736,0.09652166,2.0,1.1290699,2.0,-0.15340345,0.8487791,0.32044804,-0.15148821,-0.03897366,-1.4656867,1.9215655,-0.45551392,-2.0,1.9805578,0.8953876,0.54080975,-1.8772697
2025-07-19 14:42:17.985,1.1400000000000006,1140,57,0.0010486934,0.17029023,-0.072914995,-0.011527979,0.010301804,0.006396988,0.0,0.0,0.0,-0.013234176,0.04236464,-0.1319906,0.05492291,-0.1386233,-0.22880636,0.1907396,0.09479677,-0.049564898,0.30783054,0.034352224,0.0464452,0.07231074,0.0790203,0.061445992,-0.10083804,-0.040682625,-0.033869356,0.007493437,-0.08120605,0.035688,0.04807044,0.016023396,0.04055042,-0.110784836,0.8487791,0.32044804,-0.15148821,-0.03897366,-1.4656867,1.9215655,-0.45551392,-2.0,1.9805578,0.8953876,0.54080975,-1.8772697,-0.30806646,0.11500561,-0.4512134,-0.09050289,1.4521744,1.934919,0.26072213,-1.9919531,2.0,0.44300103,0.61273783,-2.0
2025-07-19 14:42:18.005,1.1600000000000006,1160,58,0.030044531,-0.04582175,0.046813525,-0.021830473,-0.0057762577,0.013444094,0.0,0.0,0.0,-0.012645905,0.030553555,-0.09977498,0.02515225,-0.12834783,-0.22865543,0.19461006,0.0872354,-0.061315972,0.3090755,0.033313375,0.077823915,0.014368547,0.020057185,-0.007928399,-0.037453484,0.0026092264,0.11517064,0.026455395,-0.015786955,-0.13370623,-0.008174765,0.046152525,0.15859975,-0.21489877,-0.30806646,0.11500561,-0.4512134,-0.09050289,1.4521744,1.934919,0.26072213,-1.9919531,2.0,0.44300103,0.61273783,-2.0,0.6177193,-0.6242621,-0.9784861,0.42977166,1.2033623,1.2941428,-0.24759516,-1.536089,2.0,0.015146828,-0.83564997,-2.0
2025-07-19 14:42:18.025,1.1800000000000006,1180,59,0.063096404,0.12583558,0.08186918,0.024262141,0.018574208,-0.020705711,0.0,0.0,0.0,-0.012861224,0.031434726,-0.09857621,0.00352855,-0.108134426,-0.18959159,0.19447556,0.08739513,-0.09637199,0.32394627,0.039466966,0.039090715,-0.03519574,-0.002018742,-0.13871463,-0.036543105,0.03338993,0.13424842,-0.050357256,-0.09104468,-0.05810615,0.06629021,0.031854834,-0.18524009,-0.094366804,0.6177193,-0.6242621,-0.9784861,0.42977166,1.2033623,1.2941428,-0.24759516,-1.536089,2.0,0.015146828,-0.83564997,-2.0,0.98330843,-0.61801696,0.43312037,0.9306476,1.1914366,-0.82623875,-0.47602025,-0.30371317,2.0,-1.7632858,0.48361224,-1.1524423
2025-07-19 14:42:18.049,1.2000000000000006,1200,60,0.048976798,-0.098331705,0.044812955,-0.045607008,-0.002175704,-0.0019453885,0.0,0.0,0.0,-0.01464511,0.050445378,-0.13893682,0.010447447,-0.07970912,-0.13059375,0.12238242,0.07259443,-0.11111784,0.31467718,-0.008498938,0.041597687,-0.06376817,0.020201538,-0.07502438,0.07436235,0.07686052,0.14412895,-0.10726958,-0.036033034,0.07352773,-0.00043104505,-0.12930828,0.03913004,-0.020636257,0.98330843,-0.61801696,0.43312037,0.9306476,1.1914366,-0.82623875,-0.47602025,-0.30371317,2.0,-1.7632858,0.48361224,-1.1524423,0.66537166,-1.7320681,1.2077562,1.391714,0.021831159,-0.8114018,-0.12836379,0.7187334,2.0,-1.6523324,-2.0,0.87533134
2025-07-19 14:42:18.068,1.2200000000000006,1220,61,-0.119400166,0.15736231,-0.18892114,-0.05526306,-0.03479201,-0.041272055,0.0,0.0,0.0,-0.015971348,0.068105035,-0.20125942,0.051566724,-0.036633007,-0.091332905,0.07909189,0.061576888,-0.06179013,0.3008822,-0.06728416,-0.001172326,-0.037936527,-0.04181943,-0.213099,0.050271854,0.07911117,-0.018527746,-0.09639382,-0.003252481,0.14597872,-0.036507323,-0.067698255,-0.24767114,0.10355045,0.66537166,-1.7320681,1.2077562,1.391714,0.021831159,-0.8114018,-0.12836379,0.7187334,2.0,-1.6523324,-2.0,0.87533134,-0.20211247,-1.8554077,2.0,-0.2358877,0.13038304,-1.350433,0.9519045,-0.5852981,1.9916922,0.31137508,-0.071232915,2.0
2025-07-19 14:42:18.086,1.2400000000000007,1240,62,0.25647512,-0.019928599,0.19894977,-0.06375022,0.054975063,-0.017168203,0.0,0.0,0.0,-0.014595572,0.06447993,-0.28280148,0.07800976,-0.048329316,-0.06858258,0.033859324,0.08109803,-0.06783819,0.31522462,-0.04708716,-0.01831151,0.014036401,-0.05422609,-0.23629071,0.13497321,-0.097611114,0.062275648,-0.12520953,0.04793701,-0.02185157,0.013916329,0.010303094,0.017784623,0.20205835,-0.20211247,-1.8554077,2.0,-0.2358877,0.13038304,-1.350433,0.9519045,-0.5852981,1.9916922,0.31137508,-0.071232915,2.0,0.5017654,1.7525723,2.0,-0.6137694,1.469617,-0.8314196,1.5913607,2.0,2.0,-0.09611242,-1.3207924,2.0
2025-07-19 14:42:18.106,1.2600000000000007,1260,63,-0.10152385,-0.20660916,0.043983966,-0.028890114,0.014956259,-0.0031844405,0.0,0.0,0.0,-0.01599354,0.06915964,-0.31269592,0.11286694,-0.061254203,-0.02771446,0.0022357202,0.108230494,-0.0352923,0.30298784,-0.039117314,-0.077763714,0.06845219,-0.055719383,-0.026057333,0.007141392,-0.06534159,0.21655013,-0.04695303,0.07339715,0.21117054,-0.03259623,-0.065351486,-0.18778653,0.1353978,0.5017654,1.7525723,2.0,-0.6137694,1.469617,-0.8314196,1.5913607,2.0,2.0,-0.09611242,-1.3207924,2.0,-0.3339077,-0.18901265,2.0,-0.7364931,-0.96061254,-2.0,1.7187408,1.0024464,2.0,0.26391762,-1.2755992,2.0
2025-07-19 14:42:18.127,1.2800000000000007,1280,64,-0.035286594,-0.12550442,-0.09931487,0.024593484,-0.0252092,-0.027528929,0.0,0.0,0.0,-0.018354474,0.06731286,-0.30392295,0.14305563,-0.06660691,-0.008587544,-0.064248666,0.13855039,0.04296257,0.30087534,-0.045827094,-0.12673785,0.12413644,-0.07419086,-0.010318828,0.063714206,-0.053429913,-0.08474716,-0.16439809,0.08912335,0.2133581,0.04478269,-0.013351423,-0.12459197,0.13751186,-0.3339077,-0.18901265,2.0,-0.7364931,-0.96061254,-2.0,1.7187408,1.0024464,2.0,0.26391762,-1.2755992,2.0,-0.3607104,-0.516205,1.9871941,-1.6027389,0.77667254,-0.79474324,1.8729186,-0.79274684,2.0,0.58105564,0.14749753,2.0
2025-07-19 14:42:18.146,1.3000000000000007,1300,65,-0.07882892,-0.16742973,0.124874815,0.02393415,0.024265042,-0.013590263,0.0,0.0,0.0,-0.017836997,0.058523938,-0.29049262,0.16519776,-0.09187511,-0.003149098,-0.06654032,0.17488791,0.04480095,0.32116842,-0.026137881,-0.11555847,0.13412923,-0.09685255,0.023489336,0.0019529709,-0.05156316,0.19607887,-0.05946473,0.14329597,-0.06426622,0.05725661,0.05358675,-0.004929026,-0.029496796,-0.3607104,-0.516205,1.9871941,-1.6027389,0.77667254,-0.79474324,1.8729186,-0.79274684,2.0,0.58105564,0.14749753,2.0,0.024425998,0.2261849,1.1403385,-1.1338043,-0.55149,0.92218214,1.9599162,0.45147446,2.0,-0.7430244,-1.2860943,2.0
2025-07-19 14:42:18.168,1.3200000000000007,1320,66,-0.013600364,-0.049326524,-0.23154818,0.044417582,-0.005923237,0.035399202,0.0,0.0,0.0,-0.019020116,0.046577252,-0.24973844,0.1505926,-0.11516723,-0.0143695045,-0.028106386,0.18686981,0.07116769,0.3194687,-0.03754897,-0.12810497,0.15764967,0.046350326,0.13017057,-0.05483691,-0.00045801667,-0.03965246,0.13893214,0.11823272,0.056344785,0.053903084,-0.08567473,0.022562537,0.053129453,0.024425998,0.2261849,1.1403385,-1.1338043,-0.55149,0.92218214,1.9599162,0.45147446,2.0,-0.7430244,-1.2860943,2.0,-1.3641772,-1.7580113,-0.1444208,-2.0,-2.0,1.3346066,1.5998098,-1.2573884,2.0,1.0804724,0.9869094,2.0
2025-07-19 14:42:18.186,1.3400000000000007,1340,67,0.13168992,0.06568224,0.21241374,0.050574973,0.040941745,-0.03375583,0.0,0.0,0.0,-0.018093502,0.021438483,-0.2502683,0.123461954,-0.15386769,-0.09147329,0.009119509,0.20931403,0.030926548,0.3160478,-0.032006323,-0.11533653,0.1852362,-0.09346517,-0.082955785,-0.063273884,-0.041775066,-0.2812112,0.12770085,0.057276156,-0.23951665,-0.00943896,0.09300387,0.026840495,0.08951522,-1.3641772,-1.7580113,-0.1444208,-2.0,-2.0,1.3346066,1.5998098,-1.2573884,2.0,1.0804724,0.9869094,2.0,-0.19618306,0.20016149,0.8225794,-0.19529757,-0.941771,2.0,0.06675162,-0.23510046,2.0,-1.6908399,0.072803795,2.0
2025-07-19 14:42:18.206,1.3600000000000008,1360,68,0.10208315,-0.13439713,-0.15632965,-0.00896645,0.06283576,0.029384142,0.0,0.0,0.0,-0.018359628,0.0039948,-0.22184278,0.11804502,-0.13532233,-0.15219125,0.05901778,0.18143587,-0.0012753408,0.3122659,-0.058082454,-0.091140635,0.2026027,-0.016882766,0.07836501,0.037219208,0.07423508,-0.06430511,0.14596896,-0.019142503,-0.05929389,0.024241058,-0.15142341,0.109337986,0.040834952,-0.19618306,0.20016149,0.8225794,-0.19529757,-0.941771,2.0,0.06675162,-0.23510046,2.0,-1.6908399,0.072803795,2.0,0.2941695,-0.38627225,-0.63758546,-1.3771142,-0.7278817,2.0,0.41721895,-0.6057394,2.0,0.9042874,0.60967004,1.4545957
2025-07-19 14:42:18.228,1.3800000000000008,1380,69,-0.068403184,0.11397197,0.08052703,0.0029764108,-0.004956638,-0.008379073,0.0,0.0,0.0,-0.017938863,0.025424523,-0.20443897,0.0784851,-0.15454005,-0.19207314,0.10668101,0.15743674,-0.05426147,0.30876285,-0.043034222,-0.034527052,0.20072418,-0.020496719,0.08027722,-0.10283544,-0.10209638,-0.008108908,0.08430734,0.024871338,-0.14835869,-0.046914198,0.14263801,0.19780017,0.012092306,0.2941695,-0.38627225,-0.63758546,-1.3771142,-0.7278817,2.0,0.41721895,-0.6057394,2.0,0.9042874,0.60967004,1.4545957,0.10413203,-0.61713904,-0.0048986115,0.12314661,-2.0,2.0,0.050706707,-1.2464324,2.0,0.25903118,0.031907544,-0.1062582
2025-07-19 14:42:18.248,1.4000000000000008,1400,70,0.1859727,0.2730374,0.058673512,-0.013708903,0.028700858,0.017974824,0.0,0.0,0.0,-0.018989628,0.018926088,-0.22571528,0.07455212,-0.12657328,-0.21002889,0.12844868,0.13479133,-0.11840286,0.31544292,-0.028416108,-0.0126574645,0.16815251,0.02534607,0.023137093,-0.11575739,0.011626426,-0.05745205,0.03750856,-0.007940407,-0.16405506,0.05910386,0.088865675,-0.03912783,-0.11212466,0.10413203,-0.61713904,-0.0048986115,0.12314661,-2.0,2.0,0.050706707,-1.2464324,2.0,0.25903118,0.031907544,-0.1062582,0.06876364,1.8460264,-0.0038042702,0.034971222,0.6701576,2.0,0.32844284,1.8433264,2.0,0.20959616,1.0338918,0.30830395
2025-07-19 14:42:18.267,1.4200000000000008,1420,71,-0.23847339,-0.057828527,0.010502913,0.035823636,0.039998703,-0.01170058,0.0,0.0,0.0,-0.020545522,0.02224383,-0.18568288,0.051667623,-0.11048448,-0.21744548,0.15680633,0.13682164,-0.11819293,0.3199245,-0.024783695,0.03781835,0.13640642,0.022882871,0.17573088,0.01905608,0.048415992,0.08019014,0.076339185,-0.010230782,0.17743263,0.0071346886,0.08430018,0.17918864,-0.039149016,0.06876364,1.8460264,-0.0038042702,0.034971222,0.6701576,2.0,0.32844284,1.8433264,2.0,0.20959616,1.0338918,0.30830395,1.008994,-0.6304677,0.061661836,0.42552254,-1.1210928,2.0,0.07176908,-1.4295826,1.1989388,1.0110344,-1.3312167,-2.0
2025-07-19 14:42:18.287,1.4400000000000008,1440,72,0.05812166,0.2926402,-0.08708092,-0.044904627,0.023063172,-0.028474437,0.0,0.0,0.0,-0.021107122,0.060190316,-0.18007648,0.036468014,-0.095003374,-0.22844124,0.19493225,0.12166819,-0.097156145,0.30277756,-0.0018135117,0.04864303,0.06073996,0.11614507,-0.029617222,-0.059066042,0.12321882,-0.03508876,0.035755124,-0.047340784,-0.09537426,0.007796165,0.027769674,-0.20939845,-0.24771127,1.008994,-0.6304677,0.061661836,0.42552254,-1.1210928,2.0,0.07176908,-1.4295826,1.1989388,1.0110344,-1.3312167,-2.0,-0.2839677,1.5610416,-0.26715136,-0.16800645,1.4438894,1.2446176,0.53204405,-0.033084232,2.0,-0.41511655,1.8784548,-0.8741893
2025-07-19 14:42:18.306,1.4600000000000009,1460,73,-0.13673322,-0.19963083,-0.009530902,-0.037502993,0.049666483,-0.04183581,0.0,0.0,0.0,-0.020190991,0.03253837,-0.14676905,0.012127962,-0.09111304,-0.20995896,0.1839809,0.124315575,-0.08725282,0.2999766,-0.007191152,0.051724803,0.018315159,-0.059673063,0.18112224,-0.020121358,0.031849116,0.16570789,0.029365124,0.059481498,0.03708848,-0.015572357,-0.07125583,0.10430894,-0.0345285,-0.2839677,1.5610416,-0.26715136,-0.16800645,1.4438894,1.2446176,0.53204405,-0.033084232,2.0,-0.41511655,1.8784548,-0.8741893,0.31739148,-1.1508577,-0.079096034,-0.11098908,0.26914173,1.1454766,0.6406429,-0.8768675,1.6459628,0.49771082,-0.23310858,-2.0
2025-07-19 14:42:18.326,1.4800000000000009,1480,74,-0.03858182,-0.02412869,0.14116642,0.022891145,-0.020982485,-0.01110325,0.0,0.0,0.0,-0.019439662,0.046154283,-0.12621015,0.008726627,-0.09206123,-0.15226002,0.16632733,0.11819322,-0.08583868,0.28294718,0.016843706,0.056672674,-0.030311394,0.028829979,-0.063948594,-0.078174494,0.021398963,0.06806389,0.05493244,0.053074438,-0.014137774,0.0012999071,0.09809135,-0.0071770987,-0.13552536,0.31739148,-1.1508577,-0.079096034,-0.11098908,0.26914173,1.1454766,0.6406429,-0.8768675,1.6459628,0.49771082,-0.23310858,-2.0,1.1927313,-0.06775302,0.0155764185,0.6409941,0.46792582,-0.05690404,-0.44101802,0.12834184,1.9382968,-0.7975154,-0.6620774,-0.8658187
2025-07-19 14:42:18.348,1.5000000000000009,1500,75,-0.058621153,-0.106111936,-0.08108989,-0.03952374,0.04092696,-0.0044337176,0.0,0.0,0.0,-0.021254765,0.060478717,-0.12604326,0.019581683,-0.070434086,-0.100187086,0.13096088,0.11191459,-0.082941204,0.2865919,-0.005733148,-0.008932465,-0.048675586,0.09625102,-0.010618294,-0.018355612,0.106357746,0.14452407,-0.054959502,-0.1141611,0.11649932,-0.03599768,-0.059196044,-0.10901739,0.002790439,1.1927313,-0.06775302,0.0155764185,0.6409941,0.46792582,-0.05690404,-0.44101802,0.12834184,1.9382968,-0.7975154,-0.6620774,-0.8658187,0.05380115,-1.5269861,1.2233049,0.4617225,-0.8457917,-0.8077878,0.014186151,-0.63437194,1.8963538,-1.3504525,-0.75471467,0.17713244
2025-07-19 14:42:18.368,1.520000000000001,1520,76,0.25950554,0.033556238,0.013191051,-0.038354903,-0.037457466,-0.024396345,0.0,0.0,0.0,-0.021421222,0.061092656,-0.17031544,0.04194038,-0.060365584,-0.075091586,0.08960645,0.097280286,-0.08337393,0.29710227,-0.051095005,-0.06511542,-0.02792133,-0.050569244,-0.2790872,0.047804985,0.078978166,0.050137416,-0.045369938,0.043950055,-0.10031416,0.07613553,-0.1001056,-0.08049458,0.032288577,0.05380115,-1.5269861,1.2233049,0.4617225,-0.8457917,-0.8077878,0.014186151,-0.63437194,1.8963538,-1.3504525,-0.75471467,0.17713244,0.3578349,0.031627715,1.7037678,-0.02715367,0.049735997,-0.6093379,0.82439125,2.0,2.0,0.0032703718,0.39148998,2.0
2025-07-19 14:42:18.387,1.540000000000001,1540,77,-0.06266951,-0.16642423,-0.049231406,-0.023086576,0.03923646,0.014369105,0.0,0.0,0.0,-0.020806892,0.056101054,-0.18774801,0.08077934,-0.050808836,-0.06439826,0.062012024,0.11237846,-0.054279886,0.28989166,-0.044734772,-0.041127004,0.026097385,-0.057936363,0.045515947,0.022364179,0.05136028,0.022909272,-0.05664182,0.07174361,0.21307749,-0.056638148,-0.056149438,0.037825815,0.09922682,0.3578349,0.031627715,1.7037678,-0.02715367,0.049735997,-0.6093379,0.82439125,2.0,2.0,0.0032703718,0.39148998,2.0,-0.21705869,-1.6556177,1.9573661,-1.3718041,-0.45274648,-0.26755813,1.31467,0.41664103,1.6586117,0.65560126,-0.67694,2.0
2025-07-19 14:42:18.407,1.560000000000001,1560,78,0.22020909,0.11074776,0.001946286,0.03214368,-0.007019563,0.029571997,0.0,0.0,0.0,-0.02031464,0.062386718,-0.21779363,0.11477369,-0.07000424,-0.066344716,0.036007013,0.113802746,-0.026824346,0.2801255,-0.025564762,-0.06407865,0.0756349,0.021618184,-0.02037534,0.08140048,0.0012936763,-0.08080181,-0.11171807,0.0084158005,0.058480904,-0.08528814,-9.462393e-07,-0.1299365,0.070221595,-0.21705869,-1.6556177,1.9573661,-1.3718041,-0.45274648,-0.26755813,1.31467,0.41664103,1.6586117,0.65560126,-0.67694,2.0,-0.4018261,-0.40405247,2.0,-1.9001707,0.7533424,-0.1441794,1.6182854,1.2528262,2.0,-0.45009476,0.56574714,2.0
2025-07-19 14:42:18.427,1.580000000000001,1580,79,-0.13131158,-0.2596374,0.12460614,0.04662361,-0.0266073,0.013929164,0.0,0.0,0.0,-0.020014463,0.043208223,-0.21732931,0.14324892,-0.11796182,-0.034686863,0.035451047,0.15200943,0.07035776,0.28419718,-0.048167568,-0.042946376,0.09728505,-0.042106707,-0.0440308,0.015101637,-0.08612222,0.22808069,0.00046866573,0.10164006,0.255072,0.056729358,0.012780328,0.1575409,0.051730067,-0.4018261,-0.40405247,2.0,-1.9001707,0.7533424,-0.1441794,1.6182854,1.2528262,2.0,-0.45009476,0.56574714,2.0,0.4997887,-0.7859105,1.3105259,-1.3124205,-0.600268,-0.21917844,0.83480865,-1.224764,2.0,0.3582058,-2.0,2.0
2025-07-19 14:42:18.447,1.600000000000001,1600,80,0.07038391,0.25359648,0.10512635,-0.017300135,0.0025736722,0.024769524,0.0,0.0,0.0,-0.021101587,0.043816205,-0.23134829,0.14285697,-0.12674528,-0.040030602,0.010681017,0.14553538,0.06782548,0.28840467,-0.036943622,-0.03994134,0.1436652,-0.042338684,-0.041541453,0.07906424,-0.022802303,-0.1535836,-0.022234192,0.03204318,-0.073291905,0.025625171,0.04658431,-0.068031736,0.13940646,0.4997887,-0.7859105,1.3105259,-1.3124205,-0.600268,-0.21917844,0.83480865,-1.224764,2.0,0.3582058,-2.0,2.0,-0.21349895,0.18837345,1.6033503,-0.48439693,0.18202665,0.81909424,1.253912,0.92016274,2.0,-0.9775706,-1.0199184,2.0
2025-07-19 14:42:18.473,1.620000000000001,1620,81,-0.0021905806,-0.105363466,-0.12824455,0.014944164,0.070933275,-0.036077343,0.0,0.0,0.0,-0.023061918,0.053695023,-0.24109295,0.16088615,-0.13381895,-0.04194474,0.027844857,0.1616027,0.09814657,0.29298797,-0.049467497,-0.082958,0.16395345,0.019536821,0.053648558,0.038829826,0.05164548,0.09789672,-0.035786387,0.07656943,0.075887695,-0.0017944754,-0.11947062,-0.045035407,0.08341875,-0.21349895,0.18837345,1.6033503,-0.48439693,0.18202665,0.81909424,1.253912,0.92016274,2.0,-0.9775706,-1.0199184,2.0,-0.042361766,-1.2840984,0.7238199,-1.9761292,-1.9043728,0.57967854,1.330685,-0.8146536,2.0,0.4821136,0.4473556,2.0
2025-07-19 14:42:18.487,1.640000000000001,1640,82,0.18432198,0.10203809,0.20066707,-0.028863708,0.022277648,-0.041172367,0.0,0.0,0.0,-0.021863803,0.043856826,-0.25582784,0.14173722,-0.15592559,-0.033785135,0.03709711,0.1626545,0.07996768,0.29575536,-0.046155177,-0.08060523,0.17513958,-0.03515631,-0.101980165,0.034841217,-0.010140282,-0.009331702,0.008459589,0.09830174,-0.22759277,-0.059949685,0.114353515,0.09356998,-0.005725671,-0.042361766,-1.2840984,0.7238199,-1.9761292,-1.9043728,0.57967854,1.330685,-0.8146536,2.0,0.4821136,0.4473556,2.0,-0.55893886,-0.5238929,1.1672562,-0.37746176,-1.5690029,1.9674009,0.42676374,0.6367875,2.0,-1.6756353,-1.2304168,2.0
2025-07-19 14:42:18.525,1.660000000000001,1660,83,-0.017287185,0.013755017,-0.17245391,-0.028842196,0.08005892,0.0126432385,0.0,0.0,0.0,-0.022587158,0.04020143,-0.2623497,0.15606806,-0.1620837,-0.0823685,0.086582415,0.15897535,0.08052249,0.3013488,-0.07013728,-0.08403667,0.19896035,-0.036485434,-0.056001775,-0.053667895,0.02754361,-0.04507701,0.05461417,-0.058982182,0.16154845,0.058213905,-0.09146931,-0.021812208,0.051643915,-0.55893886,-0.5238929,1.1672562,-0.37746176,-1.5690029,1.9674009,0.42676374,0.6367875,2.0,-1.6756353,-1.2304168,2.0,-0.0020291656,-1.8329337,0.8768464,-1.3480018,-1.1612,1.7853898,0.5773967,-1.6548975,2.0,0.46498966,-0.21239415,2.0
2025-07-19 14:42:18.548,1.680000000000001,1680,84,0.12975107,0.24366571,0.06843769,0.035168514,0.0520136,0.008828748,0.0,0.0,0.0,-0.021732371,0.030316412,-0.2857155,0.14407043,-0.16662803,-0.1282656,0.11623233,0.14511207,0.05633607,0.2972498,-0.070446566,-0.08823805,0.22917585,-0.046463143,-0.19465238,0.024280015,-0.030546864,-0.19241086,0.14491978,-0.006451514,-0.22495574,-0.04919098,0.08392403,-0.036068287,0.070193954,-0.0020291656,-1.8329337,0.8768464,-1.3480018,-1.1612,1.7853898,0.5773967,-1.6548975,2.0,0.46498966,-0.21239415,2.0,-0.75261617,1.3195715,1.6885414,-1.3072723,0.36770514,2.0,0.6407391,1.3421094,2.0,-1.2793479,1.6976181,2.0
2025-07-19 14:42:18.565,1.700000000000001,1700,85,-0.16605487,-0.35562778,0.059967313,0.013777529,0.053678554,-0.034527037,0.0,0.0,0.0,-0.021493377,0.013584744,-0.2858485,0.16671324,-0.17902811,-0.12037079,0.14906882,0.13834088,0.047361966,0.3064235,-0.09235215,-0.032923732,0.24127948,-0.13438489,0.14612496,-0.029105099,-0.018807024,0.19114862,0.015290512,0.024486028,0.083070785,-0.047465373,-0.048881356,0.16083567,0.1071116,-0.75261617,1.3195715,1.6885414,-1.3072723,0.36770514,2.0,0.6407391,1.3421094,2.0,-1.2793479,1.6976181,2.0,1.3239352,-1.2378807,-0.108181,-0.8062945,-2.0,1.402723,-0.024969436,-1.612446,2.0,0.5722121,-0.9245155,-0.081031635
2025-07-19 14:42:18.586,1.720000000000001,1720,86,-0.0068039894,0.17838489,-0.075583,0.012196568,0.002282876,-0.0033490153,0.0,0.0,0.0,-0.022150865,0.038536385,-0.29401422,0.13559069,-0.17294055,-0.12598361,0.15986982,0.12349222,0.031531233,0.309567,-0.06876797,-0.031271692,0.19569919,0.151759,-0.15411821,-0.14085466,0.017629204,-0.13670813,0.014106472,-0.021174684,-0.16995783,0.030689007,0.025664821,-0.17423262,-0.15769608,1.3239352,-1.2378807,-0.108181,-0.8062945,-2.0,1.402723,-0.024969436,-1.612446,2.0,0.5722121,-0.9245155,-0.081031635,-1.1816653,2.0,0.96779174,-0.8632715,1.1953734,1.5832974,0.5892744,1.4202652,2.0,-0.83438075,2.0,0.7093801
2025-07-19 14:42:18.605,1.740000000000001,1740,87,-0.2149675,-0.42936373,0.054453675,0.074163176,0.06329043,-0.047818355,0.0,0.0,0.0,-0.021902973,0.021075618,-0.3002105,0.13782829,-0.17307952,-0.13527392,0.16755538,0.10494397,0.044155385,0.31290677,-0.06837592,0.0037481552,0.18241772,-0.14745054,0.16760987,-0.04581951,-0.013112612,0.1968552,0.050643098,-0.0551133,0.10223974,-0.013681914,-0.053579193,0.2261214,0.010742146,-1.1816653,2.0,0.96779174,-0.8632715,1.1953734,1.5832974,0.5892744,1.4202652,2.0,-0.83438075,2.0,0.7093801,1.1850681,-0.8567599,-0.17543244,-0.28541034,-2.0,1.5816559,0.16557333,-1.4795115,1.7240573,1.0215487,-0.8096857,-1.905547
2025-07-19 14:42:18.625,1.7600000000000011,1760,88,-0.3360946,0.34189317,0.038792294,0.019124648,-0.011707552,-0.022576582,0.0,0.0,0.0,-0.021563409,0.032027297,-0.28655648,0.09711246,-0.1598851,-0.12941334,0.18015361,0.09124812,0.04197688,0.30858657,-0.033310965,0.029132,0.10563035,0.023948235,-0.101296395,-0.0970385,-0.016636942,-0.094530895,0.08377622,-0.104085386,-0.12232432,-0.08059645,0.11042156,-0.14349851,-0.13911474,1.1850681,-0.8567599,-0.17543244,-0.28541034,-2.0,1.5816559,0.16557333,-1.4795115,1.7240573,1.0215487,-0.8096857,-1.905547,-0.20217648,1.9412735,0.5027978,-0.32953992,1.066514,1.1344957,0.11216458,0.4447976,2.0,-0.9150489,1.9154632,-1.2450987
2025-07-19 14:42:18.645,1.7800000000000011,1780,89,-0.32489625,-0.32918763,-0.0641176,0.060385272,0.009311095,0.039910708,0.0,0.0,0.0,-0.021410063,0.033590768,-0.25873798,0.10150884,-0.1375275,-0.07550946,0.17419794,0.0976244,0.043431133,0.29120585,-0.0493616,0.069478944,0.05474793,-0.10092895,0.12879087,-0.07184088,-0.03753623,0.12416346,-0.057436828,-0.057042655,0.112994835,0.015290096,0.016881764,0.13249087,-0.05088037,-0.20217648,1.9412735,0.5027978,-0.32953992,1.066514,1.1344957,0.11216458,0.4447976,2.0,-0.9150489,1.9154632,-1.2450987,0.5063224,-1.2385552,0.28934163,-0.09914181,0.19295138,1.3943084,0.5937383,-1.9311066,1.7552317,0.6166073,-0.69337183,-2.0
2025-07-19 14:42:18.666,1.8000000000000012,1800,90,-0.054524906,0.14278592,0.13978767,-0.010560662,-0.07319901,0.024775896,0.0,0.0,0.0,-0.020960828,0.028976277,-0.24057804,0.08060734,-0.13085464,-0.04675502,0.18804045,0.0883247,0.035130758,0.29692844,-0.026540682,0.08271495,-0.0010581748,0.051246483,0.035780784,-0.044111047,0.09302764,-0.015341671,-0.048633922,0.044300243,-0.0705488,0.031010011,0.0046701543,-0.13450944,-0.11048162,0.5063224,-1.2385552,0.28934163,-0.09914181,0.19295138,1.3943084,0.5937383,-1.9311066,1.7552317,0.6166073,-0.69337183,-2.0,1.2216958,-0.7614801,0.15511775,0.45905215,0.89646333,-0.27710697,-0.42946297,-0.6891971,2.0,-1.0030652,-0.040694565,-0.26387924
2025-07-19 14:42:18.686,1.8200000000000012,1820,91,0.18599205,0.007079372,0.092517145,0.043855317,-0.014236662,-0.034697574,0.0,0.0,0.0,-0.021540463,0.05844138,-0.2508079,0.06423871,-0.10600007,-0.0074207075,0.12935366,0.08396992,0.025956735,0.2877608,-0.048266158,0.05666879,-0.018493615,0.13878125,-0.032367233,-0.036583107,-0.03621855,0.15737852,-0.11896014,-0.0053147604,-0.12766646,0.0053845905,-0.038288184,-0.07644451,-0.033502214,1.2216958,-0.7614801,0.15511775,0.45905215,0.89646333,-0.27710697,-0.42946297,-0.6891971,2.0,-1.0030652,-0.040694565,-0.26387924,0.6404685,-0.6371031,1.0589902,1.3333133,-1.4926548,-0.19295153,0.022733368,2.0,2.0,-1.37912,-0.8444215,1.1475304
2025-07-19 14:42:18.706,1.8400000000000012,1840,92,-0.067187116,0.2038982,-0.18409884,0.041581113,-0.024512464,0.03829901,0.0,0.0,0.0,-0.022721346,0.08196869,-0.26861686,0.07825381,-0.09380864,0.0035676905,0.10084457,0.08124655,0.03663265,0.2966158,-0.08484741,-0.008823059,0.009414529,0.0319083,0.052739285,0.02962416,0.092694074,-0.045955073,0.008337336,-0.07184599,0.060204055,-0.06661871,-0.13795833,-0.13477406,0.067990236,0.6404685,-0.6371031,1.0589902,1.3333133,-1.4926548,-0.19295153,0.022733368,2.0,2.0,-1.37912,-0.8444215,1.1475304,-0.7005185,-1.7007339,1.6974666,-0.5658399,-1.191401,-0.11133515,0.598469,-0.52247995,1.4997216,-0.39507908,0.95431674,2.0
2025-07-19 14:42:18.726,1.8600000000000012,1860,93,0.24756849,0.013068542,0.0292714,-0.034932725,0.014183695,0.032004263,0.0,0.0,0.0,-0.020928653,0.06610258,-0.2926399,0.12312847,-0.10063253,-0.02010829,0.09198394,0.08964119,0.040334947,0.27495748,-0.083392754,9.901195e-05,0.06874071,-0.08387931,-0.18622623,0.0029050633,-0.067047976,-0.011063973,-0.013120382,0.060822047,-0.015031193,-0.021321045,-0.038464237,0.1285368,0.1029267,-0.7005185,-1.7007339,1.6974666,-0.5658399,-1.191401,-0.11133515,0.598469,-0.52247995,1.4997216,-0.39507908,0.95431674,2.0,0.10477722,0.86944705,1.53574,-1.9838481,0.5639029,0.036747612,1.3012687,1.1905638,2.0,-0.020598762,-1.0354633,2.0
2025-07-19 14:42:18.749,1.8800000000000012,1880,94,0.101700455,0.13029687,-0.027058572,-0.0037272188,0.00059875933,0.0072104,0.0,0.0,0.0,-0.020567346,0.058742456,-0.302088,0.13443689,-0.13566229,0.0017229221,0.079653256,0.096926674,0.055456612,0.29089764,-0.07897438,-0.022516575,0.101583414,0.06793085,-0.009571951,0.08501824,-0.026222393,0.12878026,-0.05522889,0.09142843,0.1504718,-0.058414046,0.060887627,-0.053152114,0.15706776,0.10477722,0.86944705,1.53574,-1.9838481,0.5639029,0.036747612,1.3012687,1.1905638,2.0,-0.020598762,-1.0354633,2.0,-0.6060034,0.04151769,2.0,-1.2756981,-1.7507144,-0.62156147,1.8553413,0.024889689,2.0,0.35124654,-0.7854004,2.0
2025-07-19 14:42:18.766,1.9000000000000012,1900,95,0.03826475,0.037811834,-0.054187864,-0.020394016,-0.037122007,0.045218688,0.0,0.0,0.0,-0.020871107,0.053359818,-0.31469235,0.15433866,-0.14847353,-0.014207779,0.049753565,0.1323081,0.06442216,0.2920478,-0.05963901,-0.057073265,0.1503341,-0.078218564,-0.015388261,0.045233946,-0.031551834,-0.13926367,-0.037047323,0.15105043,-0.08171587,0.07663905,0.014898585,-0.07304487,0.090684645,-0.6060034,0.04151769,2.0,-1.2756981,-1.7507144,-0.62156147,1.8553413,0.024889689,2.0,0.35124654,-0.7854004,2.0,-1.0994617,0.33217895,1.0400132,-1.895021,-0.06861958,0.59449476,1.7877775,0.8472064,2.0,0.27983242,-0.19018379,2.0
2025-07-19 14:42:18.786,1.9200000000000013,1920,96,-0.13969089,-0.18011637,-0.04083852,0.036460653,-0.043466207,0.008056722,0.0,0.0,0.0,-0.01928016,0.023338756,-0.278108,0.14169063,-0.18369143,-0.037139874,0.057794277,0.16985027,0.09026894,0.29957578,-0.06506865,-0.06615172,0.16209881,-0.010753157,0.13242297,-0.03023817,-0.10980657,-0.00929296,-0.0018109918,0.082416914,0.14651969,0.058507603,0.005074086,0.04499094,-0.01942286,-1.0994617,0.33217895,1.0400132,-1.895021,-0.06861958,0.59449476,1.7877775,0.8472064,2.0,0.27983242,-0.19018379,2.0,-0.78707635,-1.0084836,0.23229188,-1.1625029,-1.8197256,1.1648232,1.0110139,-2.0,2.0,0.67532784,-0.5072228,1.7677978
2025-07-19 14:42:18.806,1.9400000000000013,1940,97,0.056622222,0.23208436,0.18785265,-0.023418706,0.026274852,-0.0488221,0.0,0.0,0.0,-0.018784687,-0.00439687,-0.29406568,0.120127894,-0.18278341,-0.089182764,0.07870116,0.1706833,0.078911215,0.29308045,-0.04457497,-0.089343525,0.17904021,-0.007927493,-0.11223556,-0.026958542,-0.03970186,-0.2779348,0.03613326,0.07098751,-0.24478443,-0.024641942,0.0019986406,-0.001330099,0.09300501,-0.78707635,-1.0084836,0.23229188,-1.1625029,-1.8197256,1.1648232,1.0110139,-2.0,2.0,0.67532784,-0.5072228,1.7677978,-0.2608458,1.7198546,0.61100703,-0.30852577,0.36927152,2.0,0.29856208,0.9050557,2.0,-1.8885401,-0.16972831,2.0
2025-07-19 14:42:18.828,1.9600000000000013,1960,98,-0.08002962,-0.19401605,-0.0046964344,-0.010731588,-0.023421995,-0.0019582747,0.0,0.0,0.0,-0.020206856,-0.0069005284,-0.2710453,0.10897509,-0.16448542,-0.11500617,0.11231125,0.15794723,0.08679964,0.29260197,-0.076609135,-0.09930927,0.19040611,0.0404776,0.15904097,-0.056312274,0.10510022,0.079452805,0.032720935,-0.07184625,0.08934102,-0.052336823,-0.14672105,0.07325844,-0.021706404,-0.2608458,1.7198546,0.61100703,-0.30852577,0.36927152,2.0,0.29856208,0.9050557,2.0,-1.8885401,-0.16972831,2.0,0.7652197,-1.2051225,0.05897444,-0.8331997,-2.0,1.9356108,-0.3652763,-1.3403592,2.0,-0.039131485,-0.83025074,0.69854265
2025-07-19 14:42:18.848,1.9800000000000013,1980,99,0.14866911,0.2577379,-0.018651778,0.025461344,-0.025129436,0.0026504332,0.0,0.0,0.0,-0.020836648,0.017629437,-0.28760424,0.100446746,-0.16436158,-0.14124413,0.13939081,0.12537566,0.06430097,0.30490705,-0.071533374,-0.10615079,0.18980579,0.09779821,-0.03299042,-0.006478719,0.0766016,-0.27297148,0.13274662,-0.062101275,-0.23805936,0.014523508,0.061012585,-0.11180451,-0.015785601,0.7652197,-1.2051225,0.05897444,-0.8331997,-2.0,1.9356108,-0.3652763,-1.3403592,2.0,-0.039131485,-0.83025074,0.69854265,-0.88152003,1.5883222,1.1426502,-0.85723585,1.2347872,2.0,0.4492382,1.7828221,2.0,-0.55643225,2.0,1.8289078
2025-07-19 14:42:18.866,2.0000000000000013,2000,100,-0.30854693,-0.24224952,0.041231032,-0.006963236,-0.042233698,0.007002585,0.0,0.0,0.0,-0.019955875,0.021886466,-0.28463393,0.10265281,-0.16138701,-0.15655771,0.16925968,0.108988665,0.07425695,0.30190146,-0.07758191,-0.11420806,0.19414288,0.023794284,0.056485124,-0.040790092,0.047534678,0.12187139,0.12267032,-0.053537335,0.08319253,0.0126677165,-0.04072969,0.13723594,0.03478311,-0.88152003,1.5883222,1.1426502,-0.85723585,1.2347872,2.0,0.4492382,1.7828221,2.0,-0.55643225,2.0,1.8289078,0.9298428,0.50405735,0.74235195,-0.8369373,-1.7878602,1.5686207,0.054756545,-1.2577479,2.0,0.40430096,0.11402851,-0.040207073
2025-07-19 14:42:18.886,2.0200000000000014,2020,101,-0.20911846,0.07532561,-0.025267314,0.014092,-0.04897846,0.012819251,0.0,0.0,0.0,-0.020542854,0.040112987,-0.25102058,0.083308995,-0.15000768,-0.17139395,0.18340652,0.093411684,0.07128755,0.3044947,-0.07893788,-0.07709932,0.16352405,0.100919195,0.107412614,-0.059082095,0.068557836,-0.083762206,-0.021366077,-0.030166706,0.0023074988,0.07440234,-0.014198234,0.11176208,-0.087956086,0.9298428,0.50405735,0.74235195,-0.8369373,-1.7878602,1.5686207,0.054756545,-1.2577479,2.0,0.40430096,0.11402851,-0.040207073,-0.34434167,-0.57682663,0.1460182,-0.906635,-0.120936245,1.9852397,-0.06463394,-1.5779138,2.0,0.25182468,-0.009627044,-0.86391276
2025-07-19 14:42:18.906,2.0400000000000014,2040,102,0.10910768,0.03679069,0.13339257,-0.036902983,0.002481987,0.013452324,0.0,0.0,0.0,-0.020990457,0.025612336,-0.2455125,0.07687894,-0.15612695,-0.17671843,0.20836237,0.07746835,0.042424873,0.30395496,-0.06099631,-0.06457082,0.100365855,-0.032300297,-0.002732562,-0.029232657,-0.007941643,0.104823284,-0.009961557,-0.013014065,-0.022814367,-0.045130156,0.0789018,0.01841042,-0.10945368,-0.34434167,-0.57682663,0.1460182,-0.906635,-0.120936245,1.9852397,-0.06463394,-1.5779138,2.0,0.25182468,-0.009627044,-0.86391276,0.8729892,-0.57038206,0.5222962,-0.16412538,0.14361414,0.92881745,-0.410414,-1.312949,2.0,-0.44048256,0.39795887,-0.5193805
2025-07-19 14:42:18.941,2.0600000000000014,2060,103,0.016819086,0.019247327,0.09844854,-0.03475388,-0.021031264,-0.011546666,0.0,0.0,0.0,-0.023285896,0.0430471,-0.24932313,0.07631845,-0.16327903,-0.14158416,0.17575352,0.07561862,0.025981667,0.31562728,-0.050335724,-0.019946473,0.07029499,0.060627766,-0.042557,-0.04925819,0.08844148,0.07028119,-0.019644238,-0.041029807,0.00050053484,-0.023120135,-0.069811784,0.14483923,-0.015351154,0.8729892,-0.57038206,0.5222962,-0.16412538,0.14361414,0.92881745,-0.410414,-1.312949,2.0,-0.44048256,0.39795887,-0.5193805,1.4542366,-0.5662693,0.6066733,0.1746644,0.6609633,0.72300524,-0.26689556,-0.2598308,2.0,-0.523528,-1.452517,-0.5946203
2025-07-19 14:42:18.992,2.0800000000000014,2080,104,0.015498098,0.09509378,-0.048110258,-0.0021851175,-0.047229536,-0.0272508,0.0,0.0,0.0,-0.025559636,0.06305444,-0.2514388,0.07780935,-0.13978866,-0.09884112,0.1643452,0.067452975,0.011928975,0.32626298,-0.062498517,-0.049385834,0.054977935,0.14908046,-0.036644883,-0.04296171,0.002449367,0.11046363,-0.1053391,-0.07783125,-0.02462576,0.06555217,0.038293134,-0.20664948,-0.046038795,1.4542366,-0.5662693,0.6066733,0.1746644,0.6609633,0.72300524,-0.26689556,-0.2598308,2.0,-0.523528,-1.452517,-0.5946203,0.376762,-1.2172878,1.0516857,0.3108102,-0.6074161,-0.23169035,0.18415335,0.45202115,2.0,-1.0332046,0.81813157,0.91511244
2025-07-19 14:42:19.004,2.1000000000000014,2100,105,-0.037630104,-0.010888243,-0.11246561,0.040765174,0.023423363,0.039836265,0.0,0.0,0.0,-0.025575213,0.071634814,-0.26349446,0.091972634,-0.11388667,-0.08194013,0.12771273,0.06950685,0.037379432,0.3121655,-0.07446986,-0.049337283,0.056846894,-0.0044216686,-0.05676465,0.04116987,0.07592006,-0.040678702,-0.039847065,0.010405284,0.0113110645,0.041865077,-0.0024760137,0.046521075,0.08336182,0.376762,-1.2172878,1.0516857,0.3108102,-0.6074161,-0.23169035,0.18415335,0.45202115,2.0,-1.0332046,0.81813157,0.91511244,0.23003605,-0.2100603,1.3769886,-1.5416987,0.841461,0.82187605,1.183458,0.35769883,2.0,-0.070125125,1.103076,1.1912929
2025-07-19 14:42:19.024,2.1200000000000014,2120,106,-0.06304499,-0.26409185,0.059280924,-0.005968337,-0.05529085,-0.026882881,0.0,0.0,0.0,-0.024416547,0.07952413,-0.27391708,0.10514773,-0.14303504,-0.052020982,0.12689514,0.09308068,0.050915882,0.31817845,-0.061594505,0.023048945,0.07572255,0.055916313,0.065426886,0.02224472,-0.044668835,0.18021387,-0.033626523,0.003113977,0.10247634,-0.028033854,-0.001738262,0.21345998,0.114987954,0.23003605,-0.2100603,1.3769886,-1.5416987,0.841461,0.82187605,1.183458,0.35769883,2.0,-0.070125125,1.103076,1.1912929,0.557024,-1.0585403,1.0985669,-0.9828713,-1.447618,0.041267432,0.48766556,-1.2871174,2.0,0.6334798,-2.0,1.0653924
2025-07-19 14:42:19.044,2.1400000000000015,2140,107,0.27990213,0.10682437,-0.023813404,-0.032466426,0.030210258,-0.0140152015,0.0,0.0,0.0,-0.02537364,0.08270048,-0.29325423,0.12116436,-0.14667705,-0.054366555,0.09922591,0.09109709,0.047649134,0.30744097,-0.041577403,0.043155506,0.09970524,-0.032555364,-0.038358934,-0.011359215,0.061345812,-0.19303997,0.008270625,-0.027853807,-0.1675351,0.00087247044,0.072217576,-0.03179705,0.076636314,0.557024,-1.0585403,1.0985669,-0.9828713,-1.447618,0.041267432,0.48766556,-1.2871174,2.0,0.6334798,-2.0,1.0653924,-0.331919,0.5592063,0.67511255,-0.42595273,0.649561,1.3240904,1.3505307,1.6877394,2.0,-0.4114811,0.24683839,2.0
2025-07-19 14:42:19.069,2.1600000000000015,2160,108,-0.04886042,-0.19101702,0.05065311,0.01046449,-0.012028026,0.00565491,0.0,0.0,0.0,-0.026021503,0.069456905,-0.29253358,0.11388284,-0.13092905,-0.042372983,0.11615446,0.104971506,0.061105795,0.3154662,-0.04662872,0.04491801,0.11313777,-0.031745523,0.05505486,0.0046610334,0.08807045,0.11002845,0.008911248,0.063205004,0.24337539,0.022138115,0.035224594,0.022490954,0.036460232,-0.331919,0.5592063,0.67511255,-0.42595273,0.649561,1.3240904,1.3505307,1.6877394,2.0,-0.4114811,0.24683839,2.0,0.39993367,-0.8417804,1.7263128,-0.83541095,-2.0,0.27832153,0.2315019,-2.0,1.5552744,0.45720288,-1.6463718,1.6554825
2025-07-19 14:42:19.084,2.1800000000000015,2180,109,0.06820119,0.0946844,0.0011681559,0.035230886,0.041365217,-0.042094156,0.0,0.0,0.0,-0.026734093,0.06971774,-0.30149898,0.11583491,-0.14172845,-0.040174786,0.103790864,0.10951214,0.05020451,0.29842854,-0.032654487,0.015353904,0.1526628,0.07087178,-0.10736266,0.11224307,-0.025686538,-0.05949023,0.00031615671,-0.10606547,-0.15529814,-0.0911952,0.020951152,-0.08262776,0.07557871,0.39993367,-0.8417804,1.7263128,-0.83541095,-2.0,0.27832153,0.2315019,-2.0,1.5552744,0.45720288,-1.6463718,1.6554825,0.08753657,0.4629293,1.5280435,-0.42077386,0.12772414,0.5227651,1.3783709,1.9722261,2.0,-1.180251,0.77391124,2.0
2025-07-19 14:42:19.104,2.2000000000000015,2200,110,-0.21191797,-0.2582106,-0.01084496,0.08193615,0.030253988,-0.026300274,0.0,0.0,0.0,-0.026618795,0.059997093,-0.28262228,0.13611934,-0.11800207,-0.053849448,0.09788485,0.13008557,0.06904283,0.3068339,-0.062833175,0.033054866,0.16217802,0.05446913,0.17172876,0.07792657,0.036757335,0.11080635,-0.07997251,-0.00033496853,0.09999738,0.033796716,-0.00230089,0.07616716,0.023275597,0.08753657,0.4629293,1.5280435,-0.42077386,0.12772414,0.5227651,1.3783709,1.9722261,2.0,-1.180251,0.77391124,2.0,0.5105127,-1.566699,0.6659342,-1.2737781,-1.5093191,0.78934824,0.5055741,-0.7440136,2.0,0.12957114,-1.4501532,1.5847224
2025-07-19 14:42:19.124,2.2200000000000015,2220,111,0.15222606,0.25093827,-0.04589043,-0.0049621235,0.018359471,0.0011479204,0.0,0.0,0.0,-0.025670983,0.07794023,-0.27359104,0.13774244,-0.14269891,-0.091671005,0.11613002,0.110411346,0.06720852,0.309029,-0.06758277,0.048334453,0.17844805,0.07773527,-0.1444676,0.011103164,-0.09777438,-0.17546277,0.010415386,0.0022553895,-0.23422797,-0.054903176,0.087232955,-0.14345011,0.038135197,0.5105127,-1.566699,0.6659342,-1.2737781,-1.5093191,0.78934824,0.5055741,-0.7440136,2.0,0.12957114,-1.4501532,1.5847224,-1.3284596,0.6388951,1.6131352,-1.1173776,0.47341684,1.1948344,1.3230925,2.0,2.0,-0.7468544,1.5781286,2.0
2025-07-19 14:42:19.145,2.2400000000000015,2240,112,-0.066745445,-0.4383628,0.10653698,0.003971367,-0.021027481,0.049855363,0.0,0.0,0.0,-0.025311053,0.05148352,-0.30292225,0.13796827,-0.14996092,-0.111496575,0.10891669,0.13130194,0.0613757,0.29666,-0.08049432,0.05805046,0.20252024,-0.039081834,0.057633273,0.0005727971,-0.011565279,0.025163712,-0.025645882,-0.020246284,0.21877244,-0.012583357,-0.078205526,0.18790911,0.040015377,-1.3284596,0.6388951,1.6131352,-1.1173776,0.47341684,1.1948344,1.3230925,2.0,2.0,-0.7468544,1.5781286,2.0,1.2593957,-0.23472175,0.55136937,-0.745731,-0.6369662,0.625735,-0.04587827,-1.6811606,2.0,0.6498341,-2.0,1.2047443
2025-07-19 14:42:19.165,2.2600000000000016,2260,113,0.00021219537,0.24423136,-0.058725893,0.064539574,0.01235041,-0.034114342,0.0,0.0,0.0,-0.026168559,0.0860544,-0.27740943,0.12768307,-0.14408311,-0.10547612,0.110636495,0.123012125,0.059834532,0.3022173,-0.06797432,0.08529907,0.20486231,0.08601707,0.048787296,-0.09440725,-0.02086617,-0.010161889,-0.06025824,-0.0040338133,-0.14034659,0.053698666,0.083595954,-0.07807088,-0.019821852,1.2593957,-0.23472175,0.55136937,-0.745731,-0.6369662,0.625735,-0.04587827,-1.6811606,2.0,0.6498341,-2.0,1.2047443,-0.22393799,-0.52865535,-0.016665999,0.25179595,-0.88721544,1.6279479,1.3178629,0.30503038,2.0,-0.18568999,0.32788175,1.3425833
2025-07-19 14:42:19.191,2.2800000000000016,2280,114,-0.055755,0.0323274,0.0009447965,0.006527268,-0.062228214,-0.022951253,0.0,0.0,0.0,-0.026628597,0.09608166,-0.2535804,0.11055659,-0.12571742,-0.14158747,0.13484931,0.1397405,0.07139091,0.30009732,-0.04814788,0.097993046,0.20167887,-0.07620288,0.029914962,-0.07477915,0.069504015,-0.012682404,0.06214078,0.048290312,0.06638903,0.06069694,0.059823144,0.032525707,-0.07225981,-0.22393799,-0.52865535,-0.016665999,0.25179595,-0.88721544,1.6279479,1.3178629,0.30503038,2.0,-0.18568999,0.32788175,1.3425833,0.29782435,-0.7410536,1.3029944,-0.8804774,-1.6591065,1.8681594,0.2025586,-2.0,1.718807,0.40957636,-0.4755783,0.95186096
2025-07-19 14:42:19.211,2.3000000000000016,2300,115,0.23332949,0.103810504,-0.11790829,-0.008684283,-0.049328737,0.031148193,0.0,0.0,0.0,-0.026475852,0.08258976,-0.2620364,0.097465806,-0.14368777,-0.19302592,0.17331399,0.12642221,0.043229826,0.31102988,-0.054431148,0.06851413,0.18940997,0.06304545,-0.050007127,-0.037686255,0.000892648,-0.2432981,0.10052791,-0.027135454,-0.07665792,-0.066931225,0.025906533,-0.08444824,0.049386144,0.29782435,-0.7410536,1.3029944,-0.8804774,-1.6591065,1.8681594,0.2025586,-2.0,1.718807,0.40957636,-0.4755783,0.95186096,-0.64175355,1.7520478,0.6769182,-1.1967151,2.0,1.8226281,0.8269466,0.013084929,2.0,0.47659612,1.5647904,1.4590578
2025-07-19 14:42:19.231,2.3200000000000016,2320,116,-0.122985646,-0.18142635,0.100197524,0.04466685,0.03141118,0.039115775,0.0,0.0,0.0,-0.025297808,0.06725951,-0.26638234,0.09839493,-0.15336916,-0.20387997,0.17201778,0.12719353,0.048353318,0.31329986,-0.027947415,0.07762857,0.18775368,-0.06870844,0.116513394,-0.02105316,-0.087724134,0.029096078,-0.030276649,0.077458926,-0.059561227,0.045184806,0.047779452,0.076553635,-0.032372624,-0.64175355,1.7520478,0.6769182,-1.1967151,2.0,1.8226281,0.8269466,0.013084929,2.0,0.47659612,1.5647904,1.4590578,0.95031345,1.7724628,0.017744418,-0.27818796,-0.5246822,1.2003616,0.12236633,-0.85742754,2.0,1.040924,-0.12951374,0.41087502
2025-07-19 14:42:19.252,2.3400000000000016,2340,117,0.056001425,0.22524713,0.034755025,0.0520497,-0.05567404,-0.015773844,0.0,0.0,0.0,-0.025252644,0.084661886,-0.18797204,0.08696801,-0.13669379,-0.19755818,0.17770657,0.1242438,0.0040893974,0.30721828,0.0028206578,0.08715799,0.1718953,0.0325159,0.22790925,-0.05187604,0.0954381,-0.04797093,0.032138187,-0.034487706,-0.07034359,0.017314736,0.1372615,-0.094491065,-0.05224986,0.95031345,1.7724628,0.017744418,-0.27818796,-0.5246822,1.2003616,0.12236633,-0.85742754,2.0,1.040924,-0.12951374,0.41087502,0.1888825,-0.45876417,0.08015782,0.23241542,-0.93515366,1.7395617,0.5817659,-0.29611027,2.0,-0.16810745,1.3109924,-0.9468862
2025-07-19 14:42:19.268,2.3600000000000017,2360,118,-0.019381134,0.042498965,0.019477237,0.03847701,-0.0018019555,0.035687473,0.0,0.0,0.0,-0.025424307,0.08177987,-0.15384786,0.06521294,-0.11565609,-0.23913814,0.1929784,0.11084976,-0.0082121445,0.32254067,-0.0015652055,0.12757054,0.11221179,0.010503603,-0.043737397,0.016565338,-0.01842474,-0.06913995,0.08575725,-0.06916149,-0.07667858,-0.029432418,0.005613004,0.260255,-0.17435393,0.1888825,-0.45876417,0.08015782,0.23241542,-0.93515366,1.7395617,0.5817659,-0.29611027,2.0,-0.16810745,1.3109924,-0.9468862,0.77774405,1.3755617,-0.63193744,0.007522314,1.0540675,2.0,-0.075613655,-0.3482704,2.0,0.5795556,-1.0561383,-1.650957
2025-07-19 14:42:19.285,2.3800000000000017,2380,119,0.03848149,0.03160454,-0.02190401,0.016263224,0.014036298,0.01607448,0.0,0.0,0.0,-0.025308033,0.085886694,-0.10344733,0.034541465,-0.11720375,-0.24616666,0.19608149,0.10820823,-0.037411038,0.32253674,0.007014335,0.14571688,0.05923753,-0.022583872,0.16842484,-0.016532449,0.03211116,-0.07456879,0.0442963,-0.057581782,-0.087077424,0.03819406,0.05702341,-0.05001175,-0.1399942,0.77774405,1.3755617,-0.63193744,0.007522314,1.0540675,2.0,-0.075613655,-0.3482704,2.0,0.5795556,-1.0561383,-1.650957,1.4031035,-0.5090635,-0.9840346,1.083748,1.1060305,1.48991,0.08096651,-1.8630629,2.0,-0.52260756,-0.40322775,-2.0
2025-07-19 14:42:19.305,2.4000000000000017,2400,120,-0.059438877,0.11508918,0.010977527,-0.057703324,0.022957647,-0.0066416874,0.0,0.0,0.0,-0.024737084,0.11469229,-0.09050963,0.016573608,-0.09372352,-0.2343591,0.20612116,0.09843516,-0.046920203,0.3130218,-0.007232433,0.08096856,-0.00029319586,0.091098264,-0.025347028,-0.08493278,0.11555968,0.08233241,-0.050278343,0.016488971,-0.09445219,-0.05777697,-0.028923064,-0.12737392,-0.09623511,1.4031035,-0.5090635,-0.9840346,1.083748,1.1060305,1.48991,0.08096651,-1.8630629,2.0,-0.52260756,-0.40322775,-2.0,1.1853095,-1.7411938,-0.38793248,0.8487371,1.8766409,-0.40508017,-0.78691816,-0.73345417,2.0,-1.5207843,-0.19753185,-0.62585694
2025-07-19 14:42:19.325,2.4200000000000017,2420,121,0.18643925,-0.013287802,0.08849633,0.03143616,0.0057783243,-0.039202645,0.0,0.0,0.0,-0.02454289,0.12877856,-0.16933061,-0.007252092,-0.060952805,-0.1928162,0.13946018,0.09121132,-0.081138425,0.31364527,-0.031355325,0.049556598,-0.02373828,0.0961612,-0.28140497,-0.026931612,0.072181255,0.16397004,-0.09047849,-0.12553063,-0.12980102,-0.05865354,-0.0393075,-0.12799242,-5.4783788e-05,1.1853095,-1.7411938,-0.38793248,0.8487371,1.8766409,-0.40508017,-0.78691816,-0.73345417,2.0,-1.5207843,-0.19753185,-0.62585694,1.0858151,0.11546156,2.0,1.2017611,0.7350016,-1.4448113,-0.06875559,2.0,2.0,-0.96330583,-0.44574976,1.5673019
2025-07-19 14:42:19.350,2.4400000000000017,2440,122,-0.21001033,-0.053038284,-0.124325916,-0.018202754,-0.021818556,0.011493808,0.0,0.0,0.0,-0.025913699,0.13904865,-0.20275083,0.04765183,-0.02579828,-0.13762079,0.07275221,0.07380406,-0.085758075,0.30831882,-0.06356975,0.01552913,0.015778296,-0.029725816,0.13118614,0.11930878,0.029680885,0.18947214,-0.09065489,-0.053603537,0.13860324,-0.026648695,-0.09269752,-0.0594803,0.06980539,1.0858151,0.11546156,2.0,1.2017611,0.7350016,-1.4448113,-0.06875559,2.0,2.0,-0.96330583,-0.44574976,1.5673019,-0.15109435,-2.0,0.8470985,0.049110472,-0.28978437,-0.91834116,0.27891758,-0.41270933,0.60054594,-0.5154408,-1.596858,2.0
2025-07-19 14:42:19.365,2.4600000000000017,2460,123,0.24750036,0.08560087,0.027702684,0.022822246,-0.009745904,0.007616973,0.0,0.0,0.0,-0.025798596,0.11226421,-0.23574914,0.069217175,-0.021397742,-0.10498158,0.038836878,0.070685364,-0.06587887,0.27580604,-0.07700458,-0.07266377,0.060701545,-0.055720985,-0.095843,-0.008492436,-0.0041387286,-0.03690549,-0.16437653,-0.04316765,0.0082075475,-0.107319325,-0.049115658,-0.29948965,0.062405106,-0.15109435,-2.0,0.8470985,0.049110472,-0.28978437,-0.91834116,0.27891758,-0.41270933,0.60054594,-0.5154408,-1.596858,2.0,0.365239,0.1510906,1.8720922,-0.2765956,0.9150763,-1.4790059,1.3593887,2.0,1.7253002,-0.7611871,1.6291085,2.0
2025-07-19 14:42:19.386,2.4800000000000018,2480,124,-0.16536538,-0.24556726,-0.0051222956,-0.047037784,0.010554945,0.0071586105,0.0,0.0,0.0,-0.025971392,0.09871196,-0.25582805,0.100373216,-0.020670198,-0.060938857,-0.0046252315,0.09295309,-0.037286744,0.25932115,-0.08028743,-0.10051349,0.098953746,-0.07203827,0.015202543,0.13463049,0.009541367,0.27659103,-0.11225939,0.003379184,0.23460168,-0.0002694497,-0.0662311,0.085107625,0.032406,0.365239,0.1510906,1.8720922,-0.2765956,0.9150763,-1.4790059,1.3593887,2.0,1.7253002,-0.7611871,1.6291085,2.0,0.09855172,-1.432565,1.9698794,-1.3981582,0.020976577,-1.3005873,1.2288201,-0.18416215,1.9707711,0.3115953,-1.3784319,2.0
2025-07-19 14:42:19.405,2.5000000000000018,2500,125,0.15469381,0.14068976,0.10092778,0.023470765,0.019807639,0.029771239,0.0,0.0,0.0,-0.0260349,0.10350231,-0.26600808,0.123243324,-0.050115824,-0.040502705,-0.04202204,0.11314369,-0.02808929,0.2752208,-0.08314338,-0.11652963,0.14968354,-0.08351472,-0.14795081,0.076944925,-0.13827074,0.021392494,-0.021311387,-0.027622635,0.0054196715,0.08041116,-0.008287911,-0.09817389,0.10388894,0.09855172,-1.432565,1.9698794,-1.3981582,0.020976577,-1.3005873,1.2288201,-0.18416215,1.9707711,0.3115953,-1.3784319,2.0,0.06752664,0.6650115,2.0,-1.0572526,0.886177,-0.20760092,1.550887,2.0,2.0,-0.5717748,-0.570397,2.0
2025-07-19 14:42:19.427,2.520000000000002,2520,126,0.06143235,-0.09861128,-0.036312867,0.0033421575,0.022225471,0.018582895,0.0,0.0,0.0,-0.028013822,0.09778331,-0.28925723,0.15541618,-0.084013134,0.021406395,-0.038885433,0.13467512,0.02061714,0.28739494,-0.07759133,-0.14581604,0.17690122,-0.042049464,-0.029690519,0.009267071,-0.07961018,0.19693594,0.07462733,0.0207068,0.23985992,-0.04425276,-0.040922035,-0.071172394,0.08645223,0.06752664,0.6650115,2.0,-1.0572526,0.886177,-0.20760092,1.550887,2.0,2.0,-0.5717748,-0.570397,2.0,0.024403125,-0.533723,2.0,-1.7271546,-1.079514,-1.0752994,1.7548188,-0.024850328,2.0,0.44254357,-0.18036294,2.0
2025-07-19 14:42:19.448,2.540000000000002,2540,127,-0.103241675,-0.0706843,0.008458331,-0.0039237663,-0.022772694,0.027566588,0.0,0.0,0.0,-0.029169397,0.09541128,-0.28029773,0.17424671,-0.109497465,0.03139297,-0.066001385,0.1780605,0.030412355,0.29125482,-0.07428623,-0.14048746,0.18944775,-0.036002163,0.015916193,0.08694767,-0.07981704,-0.15718956,-0.026569514,0.036582157,-0.0100640105,-0.021212056,-0.043425698,-0.016744925,-0.014088872,0.024403125,-0.533723,2.0,-1.7271546,-1.079514,-1.0752994,1.7548188,-0.024850328,2.0,0.44254357,-0.18036294,2.0,-0.74148834,0.28844234,1.491078,-1.8860658,0.33728114,0.6167558,1.6625701,0.37145236,2.0,-0.22971594,-0.77555776,2.0
2025-07-19 14:42:19.466,2.560000000000002,2560,128,0.05554243,-0.07809262,-0.06010978,0.063121356,0.050200053,-0.04130079,0.0,0.0,0.0,-0.029083556,0.06588595,-0.26200172,0.17283759,-0.13714646,0.03011692,-0.048518788,0.1838638,0.05230382,0.29669884,-0.07856657,-0.14467843,0.19796623,-0.111074306,0.059491694,-0.016192682,-0.11448624,0.11319377,0.06758065,0.006182984,0.037854362,0.026612733,0.042759713,-0.056378186,-0.007931649,-0.74148834,0.28844234,1.491078,-1.8860658,0.33728114,0.6167558,1.6625701,0.37145236,2.0,-0.22971594,-0.77555776,2.0,-0.43993732,-1.2455802,0.75224257,-1.7401453,-2.0,0.69557875,2.0,-0.40661827,2.0,0.025610216,1.122057,2.0
2025-07-19 14:42:19.486,2.580000000000002,2580,129,0.118013404,0.021178942,0.14133522,0.02373051,-0.009834393,-0.038416523,0.0,0.0,0.0,-0.02809898,0.05131071,-0.26293635,0.16603006,-0.18145646,0.0016884328,-0.018777201,0.20858297,0.025577074,0.29038435,-0.06443849,-0.11007575,0.21094355,-0.001925716,-0.036147904,-0.016609462,0.008657424,-0.13682131,0.13299519,0.056008462,-0.067734346,0.0012032028,0.078088105,0.14062151,0.08498716,-0.43993732,-1.2455802,0.75224257,-1.7401453,-2.0,0.69557875,2.0,-0.40661827,2.0,0.025610216,1.122057,2.0,-0.097213715,-0.9460266,0.6371725,-0.8915857,-1.7344468,1.9405888,0.33263054,-0.9221291,2.0,-1.0433232,-1.7878802,2.0
2025-07-19 14:42:19.506,2.600000000000002,2600,130,0.3591125,0.13671331,0.004773307,0.024061887,0.045679998,-0.04136469,0.0,0.0,0.0,-0.028803684,0.033533715,-0.28671354,0.141735,-0.1818658,-0.124418095,0.0485547,0.1939512,-0.0332885,0.29303676,-0.07716105,-0.12912366,0.22893316,-0.05179166,0.0039387587,-0.008653372,-0.047677238,-0.373581,0.07973819,-0.006289127,-0.18077849,0.063634895,-0.10555697,-0.090870984,0.037014585,-0.097213715,-0.9460266,0.6371725,-0.8915857,-1.7344468,1.9405888,0.33263054,-0.9221291,2.0,-1.0433232,-1.7878802,2.0,-0.4452114,0.3182217,0.62665457,-0.76174825,0.4661266,2.0,0.85401005,2.0,2.0,-0.31556678,1.0004737,2.0
2025-07-19 14:42:19.528,2.620000000000002,2620,131,-0.22501047,-0.16883944,0.05775701,0.013593097,0.062077977,-0.041975368,0.0,0.0,0.0,-0.029235022,0.033112198,-0.2573912,0.13315576,-0.17655396,-0.16289784,0.08224252,0.18251443,-0.028889505,0.29124716,-0.09713376,-0.11009581,0.23874101,0.03246328,0.15663563,0.03811267,-0.048184354,-0.013551692,0.04425292,0.05197909,0.12725596,0.027304431,0.01744774,0.19965628,0.076202914,-0.4452114,0.3182217,0.62665457,-0.76174825,0.4661266,2.0,0.85401005,2.0,2.0,-0.31556678,1.0004737,2.0,0.98449254,-0.7273046,0.06443423,-0.347938,-2.0,2.0,-0.3640062,-1.7744446,2.0,0.49200666,-1.0688798,0.5683067
2025-07-19 14:42:19.550,2.640000000000002,2640,132,-0.028707836,0.43815458,0.013786472,0.030698339,0.02965268,0.026201045,0.0,0.0,0.0,-0.029315604,0.05576205,-0.25522143,0.10409465,-0.16028272,-0.20312484,0.12985846,0.14757258,-0.046946727,0.2999717,-0.06870579,-0.10169818,0.21920806,0.1168038,0.02728028,-0.001857634,0.029126948,-0.13310727,0.07076818,-0.033706583,-0.09290943,0.06582963,0.11373038,-0.033868525,0.021362463,0.98449254,-0.7273046,0.06443423,-0.347938,-2.0,2.0,-0.3640062,-1.7744446,2.0,0.49200666,-1.0688798,0.5683067,-0.3105674,0.7064851,0.51273537,-0.059713975,0.74702746,2.0,0.38589117,0.531588,2.0,-0.30882704,0.9139073,1.484017
2025-07-19 14:42:19.570,2.660000000000002,2660,133,-0.40650174,-0.15311119,0.04197214,-0.0320883,-0.0119463885,-0.013735434,0.0,0.0,0.0,-0.029464614,0.05681088,-0.22586064,0.088673,-0.14468315,-0.1795108,0.15072179,0.12523313,-0.037895333,0.30309162,-0.057891287,-0.08367722,0.20660588,0.014166279,0.21797237,-0.088168204,-0.013663334,0.07446503,0.0660228,-0.062334593,0.19622244,0.022099497,0.03167608,0.17572688,-0.06758181,-0.3105674,0.7064851,0.51273537,-0.059713975,0.74702746,2.0,0.38589117,0.531588,2.0,-0.30882704,0.9139073,1.484017,1.3529308,-1.5070355,0.117938936,-0.4227513,-1.9291471,1.965826,-0.37110183,-2.0,1.7813014,0.7287428,-1.313468,-0.3651107
2025-07-19 14:42:19.591,2.680000000000002,2680,134,0.04486002,0.32057473,0.019984763,-0.026868543,-0.037819136,-0.011759269,0.0,0.0,0.0,-0.02961754,0.09339167,-0.21311152,0.078177035,-0.13470958,-0.20377584,0.1750253,0.11114879,-0.03976639,0.308857,-0.04830604,-0.041019157,0.17867103,0.03222582,-0.0713976,-0.034095064,0.066773,-0.04105484,0.07401324,-0.10032612,-0.08633673,-0.065272376,0.020363348,-0.059289616,-0.14508456,1.3529308,-1.5070355,0.117938936,-0.4227513,-1.9291471,1.965826,-0.37110183,-2.0,1.7813014,0.7287428,-1.313468,-0.3651107,-0.24456003,-0.11645959,0.51511174,-0.015705422,0.37455955,1.5865331,0.44050542,0.26013258,2.0,-0.55821276,1.0333028,0.7874045
2025-07-19 14:42:19.609,2.700000000000002,2700,135,-0.19036238,-0.18890226,0.03371855,-0.042671196,-0.037755515,0.007428937,0.0,0.0,0.0,-0.030254912,0.074621126,-0.19824944,0.074688286,-0.11588566,-0.17483763,0.18012066,0.10529053,-0.035660326,0.30248138,-0.040503606,-0.014401331,0.16314653,-0.042370297,0.0012124623,0.054871693,0.055461876,0.10319365,-0.0029432522,0.06712722,0.0185928,-0.059226792,-0.020113003,0.15198264,-0.05228954,-0.24456003,-0.11645959,0.51511174,-0.015705422,0.37455955,1.5865331,0.44050542,0.26013258,2.0,-0.55821276,1.0333028,0.7874045,1.0984052,-0.6342662,0.7159906,-0.6257267,-0.7956564,1.5063962,0.22460881,-0.7736498,2.0,0.31905627,-0.5348782,-0.014883237
2025-07-19 14:42:19.626,2.720000000000002,2720,136,0.13178006,0.16179411,-0.0117868865,0.017719002,-0.03696295,0.03795617,0.0,0.0,0.0,-0.03058877,0.098382495,-0.2037262,0.08118569,-0.11214976,-0.18464181,0.19278833,0.09219784,-0.035311602,0.30406627,-0.022615602,-0.010393172,0.12428816,0.060647395,-0.0998875,0.032222524,-0.019328853,-0.040723685,0.057009716,0.04743299,-0.09092894,-0.045744494,-0.027613513,-0.123786055,-0.07835756,1.0984052,-0.6342662,0.7159906,-0.6257267,-0.7956564,1.5063962,0.22460881,-0.7736498,2.0,0.31905627,-0.5348782,-0.014883237,0.0860697,0.8222258,1.3207575,-0.5732945,0.7408145,1.2880586,0.840244,1.193231,2.0,-0.48658413,2.0,0.9730709
2025-07-19 14:42:19.648,2.740000000000002,2740,137,-0.2868513,-0.33584243,-0.007533672,0.031369973,0.03125854,-0.015875366,0.0,0.0,0.0,-0.030774808,0.097502254,-0.19242291,0.10409588,-0.11665209,-0.14895344,0.19292538,0.096791536,-0.00026906352,0.29776496,-0.0475474,0.014646254,0.12463584,-0.060414232,0.10264864,0.07942811,-0.0476057,0.15821229,0.014858658,0.01004818,0.16240399,-0.072968766,-0.051743623,0.14439543,0.04226581,0.0860697,0.8222258,1.3207575,-0.5732945,0.7408145,1.2880586,0.840244,1.193231,2.0,-0.48658413,2.0,0.9730709,0.92226684,-1.6111007,0.98739284,-0.9351824,-0.8574175,0.5839942,0.43792495,-1.6139542,1.553969,0.6643189,-0.7277068,-0.699196
2025-07-19 14:42:19.668,2.760000000000002,2760,138,0.13153069,0.160647,-0.018287094,-0.012417997,-0.025081765,-0.015999123,0.0,0.0,0.0,-0.030148702,0.10625784,-0.19801308,0.11376768,-0.13958067,-0.14823513,0.17627116,0.09789349,0.023708614,0.2932006,-0.02075586,0.032045364,0.09965236,0.111386046,-0.12510052,-0.046203237,-0.036039423,0.008186175,-0.06586359,0.014267957,0.009749656,-0.016633626,-0.00022328456,-0.01783046,-0.15905303,0.92226684,-1.6111007,0.98739284,-0.9351824,-0.8574175,0.5839942,0.43792495,-1.6139542,1.553969,0.6643189,-0.7277068,-0.699196,0.069422245,0.010543585,0.7923922,-0.34098256,0.9255851,0.57360005,0.39901024,-0.29901156,2.0,-0.63960546,0.606314,-0.14397924
2025-07-19 14:42:19.691,2.780000000000002,2780,139,0.025229417,-0.21257786,0.025505062,0.053778026,-0.04972904,-0.025711488,0.0,0.0,0.0,-0.029251888,0.09830535,-0.18057574,0.1111609,-0.13570464,-0.12875077,0.15626399,0.09236413,0.009999759,0.30606794,-0.02602609,0.04761746,0.07732081,0.045753088,0.13001916,-0.032426745,0.05099535,0.05483412,-0.05904464,-0.0038678818,-0.07529472,0.04054138,0.017387824,0.05363199,0.022926614,0.069422245,0.010543585,0.7923922,-0.34098256,0.9255851,0.57360005,0.39901024,-0.29901156,2.0,-0.63960546,0.606314,-0.14397924,1.137088,-1.253861,-0.07883456,0.031061329,-0.25482056,0.6705019,0.43035677,0.48766294,2.0,-0.07018795,-0.5936884,-0.48384923
2025-07-19 14:42:19.706,2.800000000000002,2800,140,-0.03543874,0.043415084,-0.03952682,0.02256562,-0.038724266,-0.049812924,0.0,0.0,0.0,-0.029709369,0.10403487,-0.18444027,0.08241935,-0.12350477,-0.12291038,0.14416999,0.10255918,0.033128887,0.29880527,-0.020391509,0.03844615,0.04836234,0.002385479,-0.023804322,0.013378223,0.03360697,-0.044780627,-0.08381274,-0.053968944,0.100580715,-0.05612281,-0.04574366,-0.19665037,-0.05721961,1.137088,-1.253861,-0.07883456,0.031061329,-0.25482056,0.6705019,0.43035677,0.48766294,2.0,-0.07018795,-0.5936884,-0.48384923,0.0956009,-0.908258,2.0,-0.65067637,0.47941807,0.17085394,0.6699914,-0.43960008,1.9515816,-0.7419008,1.2475336,0.9409346
2025-07-19 14:42:19.727,2.820000000000002,2820,141,0.064913325,-0.20678523,0.1543153,0.035508256,0.027681906,-0.04505356,0.0,0.0,0.0,-0.02892139,0.09378422,-0.22700037,0.10717678,-0.117928535,-0.076259986,0.12587953,0.092965014,0.039036606,0.30258417,-0.048696738,0.028141446,0.067895606,-0.009580764,-0.113326214,0.15245149,-0.002745681,0.06483593,-0.084987506,-0.025587305,-0.042791095,0.0789051,0.028162824,0.078988776,0.04278744,0.0956009,-0.908258,2.0,-0.65067637,0.47941807,0.17085394,0.6699914,-0.43960008,1.9515816,-0.7419008,1.2475336,0.9409346,1.2034208,-0.15422302,1.6945254,-0.90809107,0.8568339,-0.8094318,0.6455836,2.0,2.0,-0.18380451,-1.0415782,2.0
2025-07-19 14:42:19.747,2.840000000000002,2840,142,-0.039216623,-0.06832052,-0.04604876,0.0377455,0.0021148648,-0.010163287,0.0,0.0,0.0,-0.030583506,0.12438943,-0.21123494,0.14093752,-0.13226457,-0.017794726,0.07370962,0.098716676,0.06523661,0.30703145,-0.031920057,0.045438297,0.09485419,0.0504461,0.04881471,0.09732192,-0.0018362749,0.13696507,-0.03867053,0.010223271,0.12326325,-0.0392849,0.07667919,-0.08896622,0.041928057,1.2034208,-0.15422302,1.6945254,-0.90809107,0.8568339,-0.8094318,0.6455836,2.0,2.0,-0.18380451,-1.0415782,2.0,-0.17188987,-1.9637997,1.4678882,-0.5817051,-1.6402926,-0.3422346,0.75757265,0.124796435,1.6416229,0.09090955,-1.1801337,2.0
2025-07-19 14:42:19.818,2.860000000000002,2860,143,0.31226987,0.104564294,0.0038640092,-0.023670863,0.06408077,0.024843415,0.0,0.0,0.0,-0.031390637,0.10605154,-0.2291308,0.14720626,-0.13451964,-0.022753218,0.058412395,0.10354191,0.07797325,0.28742272,-0.041474976,0.0023432835,0.14503148,-0.024722436,-0.10718835,0.002794565,-0.035900336,-0.11853531,-0.09146148,0.042042077,-0.074494235,0.02876611,0.04720137,-0.085301384,0.16141738,-0.17188987,-1.9637997,1.4678882,-0.5817051,-1.6402926,-0.3422346,0.75757265,0.124796435,1.6416229,0.09090955,-1.1801337,2.0,-0.14641196,-0.21992624,1.6871655,-1.2482985,0.29742968,0.13564214,1.1770746,1.8063319,2.0,-0.653915,-0.09526062,2.0
2025-07-19 14:42:19.970,2.880000000000002,2880,144,0.048937637,-0.15604474,0.031010473,-0.006955443,0.036081117,-0.017566223,0.0,0.0,0.0,-0.031226084,0.1017297,-0.2279746,0.16131133,-0.14254646,-0.009123198,0.03378982,0.12626696,0.13485576,0.2886803,-0.05284931,0.0059174015,0.16038242,-0.11647141,0.08625637,-0.008615727,0.025637774,0.09280286,0.053946637,0.0950705,0.16221556,-0.041208576,0.013359926,0.0035526261,0.08884877,-0.14641196,-0.21992624,1.6871655,-1.2482985,0.29742968,0.13564214,1.1770746,1.8063319,2.0,-0.653915,-0.09526062,2.0,0.5975933,-1.7306855,0.9249504,-1.4194607,-1.4745419,0.2664936,0.73182344,-0.94313526,2.0,0.08279244,-1.1115668,2.0
2025-07-19 14:42:20.024,2.900000000000002,2900,145,0.30804867,0.2853682,0.0425728,-0.030603062,0.020627176,0.04957184,0.0,0.0,0.0,-0.03157972,0.106975906,-0.22858973,0.15322387,-0.15228397,-0.033884287,0.039117366,0.13138159,0.13747247,0.29967645,-0.05547574,-0.023981797,0.19508131,-0.005760991,-0.19212191,-0.0058287946,-0.08577953,-0.17886561,-0.058210526,0.053171743,-0.18989669,-0.035372905,0.0072026663,-0.10302149,0.026177874,0.5975933,-1.7306855,0.9249504,-1.4194607,-1.4745419,0.2664936,0.73182344,-0.94313526,2.0,0.08279244,-1.1115668,2.0,-1.0869527,0.5157489,2.0,-1.1066425,0.29204947,0.9982109,1.2030512,1.9341764,2.0,-1.2743793,0.64271295,2.0
2025-07-19 14:42:20.044,2.920000000000002,2920,146,-0.14109491,-0.32411847,0.13459599,0.06364932,0.09081152,-0.012724048,0.0,0.0,0.0,-0.032254748,0.077753924,-0.25306574,0.18158312,-0.1681589,-0.06101519,0.0501836,0.14162922,0.16177092,0.30390018,-0.07492801,-0.016516358,0.20581725,-0.13028274,0.10133522,0.09535258,0.039912924,0.025152663,0.0975404,0.058236293,0.17283268,0.02283412,-0.084876485,0.0706492,-0.03214354,-1.0869527,0.5157489,2.0,-1.1066425,0.29204947,0.9982109,1.2030512,1.9341764,2.0,-1.2743793,0.64271295,2.0,1.4929717,-0.8547249,0.50649667,-1.0562047,-1.1610242,0.6159108,-0.094023265,-1.281094,2.0,0.060071237,-2.0,1.5335293
2025-07-19 14:42:20.066,2.940000000000002,2940,147,0.015927384,0.36074534,-0.03096065,0.06021843,0.05829739,-0.0330984,0.0,0.0,0.0,-0.033314027,0.10435301,-0.26176,0.16476467,-0.17822127,-0.08170573,0.055432655,0.11395306,0.16273479,0.31592834,-0.06846138,-0.01984677,0.22174737,0.07287815,-0.04507104,-0.111447416,0.03955552,-0.18467306,-0.033712786,-0.11892505,-0.055448085,0.08002614,0.01602286,-0.0773566,0.0049181636,1.4929717,-0.8547249,0.50649667,-1.0562047,-1.1610242,0.6159108,-0.094023265,-1.281094,2.0,0.060071237,-2.0,1.5335293,-0.63684654,-0.2534392,1.3736016,-0.23213209,0.12263787,1.6948271,0.6425012,-0.2769327,2.0,-0.7511326,0.10328281,2.0
