openverse-orca/OrcaGym/log/simulation_log_20250721_131114.csv
timestamp,sim_time,physics_step,control_step,imu_angle_roll,imu_angle_pitch,imu_angle_yaw,imu_angular_velocity_roll,imu_angular_velocity_pitch,imu_angular_velocity_yaw,imu_acc_x,imu_acc_y,imu_acc_z,fl_joint1_pos,fl_joint1_vel,fl_joint1_torque,fl_joint2_pos,fl_joint2_vel,fl_joint2_torque,fl_joint3_pos,fl_joint3_vel,fl_joint3_torque,fr_joint1_pos,fr_joint1_vel,fr_joint1_torque,fr_joint2_pos,fr_joint2_vel,fr_joint2_torque,fr_joint3_pos,fr_joint3_vel,fr_joint3_torque,hl_joint1_pos,hl_joint1_vel,hl_joint1_torque,hl_joint2_pos,hl_joint2_vel,hl_joint2_torque,hl_joint3_pos,hl_joint3_vel,hl_joint3_torque,hr_joint1_pos,hr_joint1_vel,hr_joint1_torque,hr_joint2_pos,hr_joint2_vel,hr_joint2_torque,hr_joint3_pos,hr_joint3_vel,hr_joint3_torque,fl_force_x,fl_force_y,fl_force_z,fr_force_x,fr_force_y,fr_force_z,hl_force_x,hl_force_y,hl_force_z,hr_force_x,hr_force_y,hr_force_z,fl_hip_action,fl_thigh_action,fl_calf_action,fr_hip_action,fr_thigh_action,fr_calf_action,hl_hip_action,hl_thigh_action,hl_calf_action,hr_hip_action,hr_thigh_action,hr_calf_action
2025-07-21 13:11:14.393,0.0,0,0,-0.04120439,-0.048777662,-0.018067027,0.044219207,-0.043489497,-0.016379083,1.4505247,-0.1704626,0.0,0.0,-0.0010914478,0.00046228184,0.007216889,0.008064399,-0.008728925,-0.00802818,0.004907873,0.009533082,0.0038819632,-0.0050431797,0.008278649,-0.0025827612,0.030644998,0.005711516,-0.012531318,0.036552265,-0.04292095,-0.01043955,0.04676208,0.05964642,0.060794055,-0.04346789,0.04172761,0.011594522,0.0,0.0,0.0,0.0,0.0,0.0,0.0,0.0,0.0,0.0,0.0,0.0,1.0,1.0,1.0,-1.0,1.0,-1.0,1.0,-1.0,1.0,1.0,1.0,1.0
2025-07-21 13:11:14.405,0.02,20,1,0.13695703,0.0919867,0.048243143,-0.017474357,-0.023922643,-0.026507676,0.0,0.0,0.0,0.0,0.02409994,0.01695243,0.014348617,-0.032290354,0.052291565,-0.02804169,0.027844265,-0.04774036,0.029010652,0.015828999,0.04984485,0.031296697,0.084816486,0.07314006,0.072458625,-0.13217394,0.20450078,-0.031721074,-0.004775087,-0.044285096,0.02554683,0.02942632,0.09114554,0.05016854,1.0,1.0,1.0,-1.0,1.0,-1.0,1.0,-1.0,1.0,1.0,1.0,1.0,1.0,-1.0,1.0,1.0,-1.0,-1.0,0.9021804,1.0,-1.0,-1.0,1.0,1.0
2025-07-21 13:11:14.426,0.04,40,2,0.12037665,0.08854984,-0.06147547,-0.026901042,-0.0020968327,-0.0020896217,0.0,0.0,0.0,-0.00085041614,0.04242063,0.028699312,0.037367743,0.00468606,0.051831163,-0.04121577,0.05170855,-0.030028634,-0.00086733984,0.000114936054,0.117639475,0.03937312,0.078082636,-0.089098796,0.028171647,0.15303905,-0.056071524,-0.015796795,0.12119991,0.0751977,-0.055740822,-0.02642366,0.08221901,0.09233279,1.0,-1.0,1.0,1.0,-1.0,-1.0,0.9021804,1.0,-1.0,-1.0,1.0,1.0,1.0,-1.0,-1.0,-1.0,-1.0,1.0,1.0,1.0,-1.0,1.0,1.0,1.0
2025-07-21 13:11:14.443,0.06,60,3,0.0073687853,0.02414022,0.06058559,0.0038004073,0.042301126,0.04252112,0.0,0.0,0.0,-0.00037372104,0.059033345,0.018230155,0.01643891,-0.022361554,-0.031408425,-0.023633655,0.06702172,0.05057285,-0.035629444,0.032637715,0.16867664,0.05040668,0.08915772,-0.1987843,-0.015069815,-0.033398025,-0.22120823,0.08800359,0.08341403,0.22360073,-0.012588357,0.040101014,0.15313856,0.065481864,1.0,-1.0,-1.0,-1.0,-1.0,1.0,1.0,1.0,-1.0,1.0,1.0,1.0,1.0,1.0,-1.0,-1.0,-1.0,1.0,-1.0,-1.0,1.0,-1.0,-1.0,1.0
2025-07-21 13:11:14.463,0.08,80,4,-0.31212208,-0.090722136,-0.17389973,-0.0380857,-0.04541775,-0.03185395,0.0,0.0,0.0,-0.00016659117,0.08260117,0.02336742,-0.025567777,-0.057352114,-0.08193888,0.00322001,0.034215663,0.051103294,0.009417358,0.004185599,0.16215709,0.074724436,0.07371956,0.16496763,-0.06839315,-0.033332516,-0.19406928,0.09940923,-0.10683975,-0.21085173,0.08195273,-0.0957471,-0.05883389,-0.02795161,1.0,1.0,-1.0,-1.0,-1.0,1.0,-1.0,-1.0,1.0,-1.0,-1.0,1.0,-1.0,-1.0,-1.0,-1.0,-1.0,1.0,1.0,1.0,1.0,1.0,1.0,1.0
2025-07-21 13:11:14.483,0.1,100,5,-0.12796168,-0.022466237,-0.10446486,-0.0318793,0.032662123,0.038568895,0.0,0.0,0.0,0.0024680065,0.06239139,0.013262481,-0.04066688,-0.07582307,-0.13599302,0.027748298,0.038345978,0.040072944,0.024627028,0.018351788,0.18463472,0.093742,-0.078700714,-0.021924427,-0.032076363,-0.07762529,-0.14066198,0.09267581,0.11909389,0.007917339,0.05308097,0.059756897,0.109766,0.010249907,-1.0,-1.0,-1.0,-1.0,-1.0,1.0,1.0,1.0,1.0,1.0,1.0,1.0,1.0,1.0,-1.0,-1.0,-1.0,1.0,-1.0,1.0,1.0,1.0,1.0,-1.0
2025-07-21 13:11:14.509,0.12000000000000001,120,6,-0.07391618,-0.04811426,-0.24315414,0.04279748,0.03144727,0.005802248,0.0,0.0,0.0,0.004638375,0.06759515,0.022432407,-0.05927729,-0.08869265,-0.19180183,0.05949554,0.018950563,0.09910748,0.046135835,0.05095623,0.22985451,0.05672115,-0.0034565,0.15969607,0.0101860585,-0.021740926,-0.059689842,0.09777925,-0.093899526,0.17277493,0.08818818,0.017345227,0.024088955,-0.046686728,1.0,1.0,-1.0,-1.0,-1.0,1.0,-1.0,1.0,1.0,1.0,1.0,-1.0,-0.2846995,-1.0,-1.0,0.5523955,-1.0,1.0,1.0,-1.0,1.0,-1.0,1.0,-1.0
2025-07-21 13:11:14.526,0.14,140,7,-0.04517619,-0.15261675,-0.07212481,-0.024028217,0.021761052,0.035327528,0.0,0.0,0.0,0.008325304,0.0635751,0.036905658,-0.0821605,-0.09079382,-0.21852101,0.06531159,0.023868335,0.09925881,0.06321509,0.029381337,0.25127637,0.009682345,-0.060200993,-0.06732745,-0.061320357,-0.015895827,-0.14464498,0.026085226,0.11422938,-0.102187134,0.06054802,-0.023203969,0.1485286,-0.0593325,-0.2846995,-1.0,-1.0,0.5523955,-1.0,1.0,1.0,-1.0,1.0,-1.0,1.0,-1.0,-1.0,1.0,-1.0,-1.0,1.0,1.0,1.0,1.0,1.0,1.0,-1.0,1.0
2025-07-21 13:11:14.543,0.16,160,8,0.21225713,0.15736115,0.004858174,0.017848797,-0.042123254,0.016151475,0.0,0.0,0.0,0.011109926,0.042864315,0.0586057,-0.10544066,-0.10865375,-0.218572,0.0650166,0.048656743,0.1111643,0.062433816,0.04295243,0.23471558,0.03563281,-0.028150886,0.09573982,-0.021770682,-0.026591072,0.049610145,-0.038397364,0.011104273,0.19231334,0.09282229,-0.0027390958,-0.096059375,0.009025498,-1.0,1.0,-1.0,-1.0,1.0,1.0,1.0,1.0,1.0,1.0,-1.0,1.0,1.0,-1.0,-1.0,1.0,-1.0,1.0,-1.0,-1.0,1.0,-1.0,1.0,-1.0
2025-07-21 13:11:14.563,0.18,180,9,-0.02456859,0.11232713,-0.15188561,0.03901378,-0.034647677,0.0070914137,0.0,0.0,0.0,0.011926534,0.063483015,0.09079549,-0.108568944,-0.09586552,-0.22064622,0.08369745,0.039778553,0.13904296,0.0864943,0.020922638,0.2478832,0.014716426,0.08209322,-0.0587983,0.017355561,0.109745316,-0.075544074,0.06275581,-0.07238809,-0.025922403,0.01597941,-0.090181604,0.1375313,-0.1026338,1.0,-1.0,-1.0,1.0,-1.0,1.0,-1.0,-1.0,1.0,-1.0,1.0,-1.0,-1.0,-1.0,-1.0,-1.0,0.65395653,1.0,1.0,-1.0,1.0,1.0,-1.0,-1.0
2025-07-21 13:11:14.583,0.19999999999999998,200,10,-0.13254447,0.052021597,0.14960657,0.031835645,-0.0030364199,0.0050821933,0.0,0.0,0.0,0.014475468,0.027690614,0.02698903,-0.1147488,-0.11895136,-0.2175032,0.08666691,0.049460728,0.0935704,0.098342754,0.04153793,0.20866254,-0.014246396,-0.011849678,-0.15071161,0.0058810543,-0.02266051,0.002482109,0.015017274,0.06930099,-0.11680168,-0.030947091,0.07839315,-0.20289226,-0.07975511,-1.0,-1.0,-1.0,-1.0,0.65395653,1.0,1.0,-1.0,1.0,1.0,-1.0,-1.0,1.0,-1.0,1.0,-0.7912981,-1.0,1.0,-1.0,1.0,1.0,-1.0,1.0,-1.0
2025-07-21 13:11:14.609,0.21999999999999997,220,11,0.05434812,0.29966068,-0.11374894,-0.025823012,-0.052436307,-0.011456509,0.0,0.0,0.0,0.013624183,0.03635893,-0.052727018,-0.074171945,-0.119586706,-0.24230984,0.09907947,0.022244835,0.10365127,0.09722167,0.017791593,0.20996957,-0.049462296,0.110009156,-0.19855154,0.05886503,-0.056525778,-0.062840134,0.027985822,-0.1523419,0.16073525,-0.0142021505,-0.09648578,0.048840698,0.014290578,1.0,-1.0,1.0,-0.7912981,-1.0,1.0,-1.0,1.0,1.0,-1.0,1.0,-1.0,-0.027576732,1.0,-1.0,-1.0,0.90492284,0.48311418,1.0,-1.0,-0.4063108,-1.0,-1.0,-1.0
2025-07-21 13:11:14.626,0.23999999999999996,240,12,0.017897243,0.011468978,0.06780667,-0.050481085,0.012579068,-0.033040162,0.0,0.0,0.0,0.014363676,0.031623065,-0.040158264,-0.087284006,-0.13579158,-0.23077203,0.08208703,0.036740627,0.11853577,0.0685364,-0.017958336,0.18820229,-0.06273447,-0.06492958,0.054371934,-0.04502691,0.03746868,-0.006736447,0.042230375,0.10341062,-0.075728506,-0.13173935,-0.0052539525,-0.17094836,-0.007823596,-0.027576732,1.0,-1.0,-1.0,0.90492284,0.48311418,1.0,-1.0,-0.4063108,-1.0,-1.0,-1.0,1.0,-1.0,1.0,1.0,-1.0,1.0,1.0,1.0,1.0,-1.0,1.0,-1.0
2025-07-21 13:11:14.643,0.25999999999999995,260,13,0.23121102,-0.08376051,-0.056689877,-0.02721172,-0.013142089,-0.008041065,0.0,0.0,0.0,0.014772042,0.047966585,-0.06304385,-0.044583812,-0.11457157,-0.2545997,0.09129744,0.07774386,0.13461824,0.08185381,-0.049071517,0.17167409,-0.087164894,0.03739173,-0.13299936,0.13367188,0.034501255,-0.14763494,0.097189985,0.0970415,0.14651695,0.09359933,-0.05488815,0.087001115,0.0076638465,1.0,-1.0,1.0,1.0,-1.0,1.0,1.0,1.0,1.0,-1.0,1.0,-1.0,1.0,1.0,-1.0,-1.0,1.0,1.0,1.0,-1.0,1.0,-0.2696769,-1.0,0.68064064
2025-07-21 13:11:14.664,0.27999999999999997,280,14,0.021287315,-0.04959786,0.06317118,-0.00969915,0.007140612,-0.03594295,0.0,0.0,0.0,0.01532727,0.06119589,-0.059124593,-0.06286034,-0.1074688,-0.25554585,0.091528475,0.09952618,0.12765332,0.09309651,-0.05037622,0.15974887,-0.053240757,0.05397255,0.1973992,-0.010537697,-0.056789,-0.007149563,0.058936063,0.075213335,-0.011483312,0.055808373,-0.010720582,-0.18139142,0.0888077,1.0,1.0,-1.0,-1.0,1.0,1.0,1.0,-1.0,1.0,-0.2696769,-1.0,0.68064064,1.0,-1.0,-1.0,1.0,-1.0,1.0,-1.0,-1.0,1.0,-1.0,1.0,-1.0
2025-07-21 13:11:14.684,0.3,300,15,-0.22798626,0.060874157,-0.011170209,-0.008133955,0.04500525,3.9375733e-05,0.0,0.0,0.0,0.015307768,0.09644684,-0.070924625,-0.08369739,-0.11146158,-0.26799524,0.10821257,0.095851615,0.09981224,0.110807374,-0.06031234,0.15268275,-0.0604371,0.009091369,-0.10723814,-0.008180918,-0.04978631,-0.0347558,0.064021505,-0.01353605,-0.084806606,-0.020118807,-0.071138814,0.024173038,-0.022516714,1.0,-1.0,-1.0,1.0,-1.0,1.0,-1.0,-1.0,1.0,-1.0,1.0,-1.0,1.0,-1.0,1.0,-1.0,1.0,1.0,1.0,1.0,1.0,-1.0,-1.0,-1.0
2025-07-21 13:11:14.709,0.32,320,16,0.066851996,0.016734049,-0.03753436,-0.065458976,0.030218715,-0.019244766,0.0,0.0,0.0,0.014787406,0.1080905,-0.12901583,-0.03615225,-0.12596875,-0.25638607,0.10949795,0.11034074,0.09541519,0.11645839,-0.07791936,0.13685295,-0.07903408,-0.011792398,-0.08280225,0.12738745,-0.057028655,-0.013490486,0.002455044,0.03276609,0.12395236,0.016751364,-0.08118582,-0.13777946,-0.0583034,1.0,-1.0,1.0,-1.0,1.0,1.0,1.0,1.0,1.0,-1.0,-1.0,-1.0,1.0,-1.0,1.0,1.0,-1.0,1.0,-1.0,-1.0,1.0,-1.0,1.0,-1.0
2025-07-21 13:11:14.726,0.34,340,17,-0.03416055,-0.054708425,-0.09863868,-0.07133652,-0.035604868,0.021563275,0.0,0.0,0.0,0.0148756495,0.11254578,-0.17274006,-0.0044053462,-0.106586725,-0.28483638,0.121319115,0.0749029,0.108125485,0.11810546,-0.09289964,0.124505565,-0.09158448,0.0099503165,-0.18195602,0.05993053,0.019171579,-0.10412192,0.0248887,0.0014754836,-0.04836807,0.0036168648,-0.044975422,0.12804373,-0.08840831,1.0,-1.0,1.0,1.0,-1.0,1.0,-1.0,-1.0,1.0,-1.0,1.0,-1.0,1.0,1.0,0.8556234,-1.0,1.0,1.0,1.0,1.0,1.0,-1.0,-1.0,1.0
2025-07-21 13:11:14.744,0.36000000000000004,360,18,0.17924191,0.10571305,-0.08764459,-0.017098757,0.019082202,-0.024170008,0.0,0.0,0.0,0.015963731,0.11891665,-0.167907,0.004479282,-0.123474054,-0.2782744,0.10391632,0.09716805,0.14783657,0.12600826,-0.12052171,0.115184225,-0.049705185,0.073105745,0.0732732,0.022088604,0.0099168,0.095085226,-0.011489724,0.036602724,0.08080339,0.06666911,-0.08721498,-0.20775051,0.060293313,1.0,1.0,0.8556234,-1.0,1.0,1.0,1.0,1.0,1.0,-1.0,-1.0,1.0,1.0,-1.0,-1.0,1.0,-1.0,1.0,-1.0,-1.0,1.0,-1.0,1.0,-1.0
2025-07-21 13:11:14.764,0.38000000000000006,380,19,-0.1760132,0.014738781,-0.15451814,-0.07852551,0.0068063308,0.043929722,0.0,0.0,0.0,0.017644947,0.12133996,-0.16961521,-0.008921289,-0.10601345,-0.27422112,0.10783776,0.082487874,0.1624669,0.12756047,-0.11156157,0.12211395,-0.06801698,0.07857325,-0.08614944,-0.13147365,0.049883768,-0.012526636,0.059008874,-0.09436004,-0.0073448895,0.089461565,-0.014453777,0.086205766,-0.082671285,1.0,-1.0,-1.0,1.0,-1.0,1.0,-1.0,-1.0,1.0,-1.0,1.0,-1.0,-1.0,-1.0,1.0,-1.0,1.0,1.0,1.0,-1.0,1.0,1.0,-1.0,-1.0
2025-07-21 13:11:14.784,0.4000000000000001,400,20,-0.1767123,0.033794295,0.17309472,-0.05761289,-0.013338566,0.019512415,0.0,0.0,0.0,0.019915005,0.10022303,-0.20081766,0.020032613,-0.13529024,-0.2933399,0.11625856,0.105259895,0.12017248,0.1362385,-0.08816069,0.11241346,-0.07614465,-0.13085963,-0.108714215,-0.0136691695,-0.11091726,-0.04672748,0.04840054,0.04511929,-0.10841942,0.02931255,0.043225627,-0.07528998,-0.014885532,-1.0,-1.0,1.0,-1.0,1.0,1.0,1.0,-1.0,1.0,1.0,-1.0,-1.0,1.0,1.0,0.5490766,-1.0,1.0,-0.12395696,-1.0,1.0,1.0,-1.0,1.0,-1.0
2025-07-21 13:11:14.809,0.4200000000000001,420,21,0.16315612,0.40338582,-0.053434405,-0.06584301,-0.023362981,0.04879868,0.0,0.0,0.0,0.01968064,0.096393816,-0.20153405,0.020924238,-0.13330272,-0.24976167,0.0885789,0.086861864,0.1150769,0.13598421,-0.08303832,0.122562096,-0.093593515,0.08138033,0.15257213,0.08495785,0.00034206343,0.09948402,-0.13273418,-0.0540092,0.15600465,0.036877155,-0.09081537,0.05038202,0.013221643,1.0,1.0,0.5490766,-1.0,1.0,-0.12395696,-1.0,1.0,1.0,-1.0,1.0,-1.0,1.0,-1.0,1.0,1.0,-1.0,-1.0,1.0,-1.0,0.9585,-1.0,-1.0,1.0
2025-07-21 13:11:14.826,0.4400000000000001,440,22,-0.12829705,-0.2803772,-0.124537274,-0.0014913405,-0.018175198,-0.04238475,0.0,0.0,0.0,0.019892506,0.12379794,-0.20365109,0.040338755,-0.10659678,-0.2604668,0.03322646,0.08611457,0.12931663,0.1306754,-0.10000676,0.091858715,-0.07656413,0.02278093,-0.13363388,-0.0050860127,0.1316045,-0.0853779,-0.1516483,0.09186733,-0.10227197,0.083797604,0.043455265,-0.19125503,0.07860585,1.0,-1.0,1.0,1.0,-1.0,-1.0,1.0,-1.0,0.9585,-1.0,-1.0,1.0,1.0,-1.0,0.13379031,-1.0,1.0,-1.0,-1.0,1.0,1.0,-1.0,1.0,1.0
2025-07-21 13:11:14.844,0.46000000000000013,460,23,-0.021359866,0.13055815,-0.089388825,-0.07343539,0.015502119,-0.03208286,0.0,0.0,0.0,0.022750253,0.11681236,-0.23128594,0.042732615,-0.120183595,-0.24556641,-0.0016764302,0.051501546,0.1357851,0.13736051,-0.12032225,0.07549211,-0.03773213,-0.024994034,-0.13612202,-0.06572468,-0.06729737,0.03973885,-0.07682637,-0.023052566,0.11349038,-0.059717994,-0.05460001,0.00548215,0.017544605,1.0,-1.0,0.13379031,-1.0,1.0,-1.0,-1.0,1.0,1.0,-1.0,1.0,1.0,1.0,-1.0,-1.0,1.0,1.0,-1.0,-1.0,-1.0,-1.0,-1.0,1.0,1.0
2025-07-21 13:11:14.864,0.48000000000000015,480,24,0.107314415,-0.14458354,-0.05020081,-0.02295264,-0.023948777,0.033700228,0.0,0.0,0.0,0.025326177,0.13202594,-0.26713872,0.014351247,-0.09494913,-0.20165144,-0.03700712,0.040678203,0.18173048,0.07833793,-0.1335193,0.12558272,-0.0180352,0.04107916,-0.033605665,-0.07539559,0.080193974,0.096902065,-0.14193179,-0.077799514,0.08753835,-0.14143693,-0.027818186,0.089617595,0.09936251,1.0,-1.0,-1.0,1.0,1.0,-1.0,-1.0,-1.0,-1.0,-1.0,1.0,1.0,1.0,-1.0,1.0,-1.0,1.0,-1.0,1.0,1.0,-1.0,-1.0,-1.0,1.0
2025-07-21 13:11:14.885,0.5000000000000001,500,25,0.16798113,-0.18562344,-0.028428273,-0.065437354,-0.02426673,0.0036346866,0.0,0.0,0.0,0.026428962,0.13494445,-0.30622825,0.027331116,-0.09348636,-0.13916343,-0.052039903,0.06142087,0.207044,0.04137302,-0.13923714,0.116594054,0.020065002,0.0602916,-0.055423163,0.069438316,0.03334069,0.17098215,-0.06974441,0.11121049,0.14757453,-0.097179934,-0.01989048,-0.15709062,0.053839084,1.0,-1.0,1.0,-1.0,1.0,-1.0,1.0,1.0,-1.0,-1.0,-1.0,1.0,1.0,1.0,1.0,-1.0,-1.0,-1.0,-1.0,-1.0,-1.0,-1.0,1.0,1.0
2025-07-21 13:11:14.909,0.5200000000000001,520,26,-0.13105066,-0.068280645,-0.046958074,-0.050762862,-0.025791192,0.011416953,0.0,0.0,0.0,0.026389984,0.15471227,-0.2762877,0.04631921,-0.11729603,-0.10514183,-0.07245047,0.024305627,0.21655382,0.016648792,-0.14203535,0.122996055,0.03866678,0.08189645,0.23046449,0.10695444,-0.056895513,-0.13411754,0.017089296,-0.028380215,0.025545532,-0.11268912,-0.0062693907,0.024438646,-0.015303493,1.0,1.0,1.0,-1.0,-1.0,-1.0,-1.0,-1.0,-1.0,-1.0,1.0,1.0,-1.0,-1.0,1.0,-1.0,-1.0,1.0,1.0,1.0,-1.0,1.0,-1.0,1.0
2025-07-21 13:11:14.926,0.5400000000000001,540,27,-0.14364883,-0.22605215,0.19852217,-0.0046730763,0.008209712,-0.036422458,0.0,0.0,0.0,0.026603153,0.14508823,-0.2523091,0.055205178,-0.12650588,-0.16383263,-0.042569984,0.035821933,0.22862463,-0.016886365,-0.113932975,0.10836328,0.06364874,0.05372767,0.016041148,-0.008695148,-0.03058903,-0.15034585,0.09378188,0.108630955,0.15824053,-0.04692059,0.0863309,-0.015285623,0.12591162,-1.0,-1.0,1.0,-1.0,-1.0,1.0,1.0,1.0,-1.0,1.0,-1.0,1.0,1.0,1.0,1.0,-1.0,-1.0,-1.0,-1.0,-1.0,-1.0,-1.0,1.0,1.0
2025-07-21 13:11:14.945,0.5600000000000002,560,28,-0.071877606,0.044037394,-0.010699617,-0.03657839,0.03559373,-0.034641787,0.0,0.0,0.0,0.025163827,0.16024962,-0.24726817,0.07709018,-0.13764627,-0.21129103,-0.054662768,0.020586194,0.22191215,-0.04424074,-0.13275962,0.13426092,0.07705094,0.030766657,-0.040843748,-0.04411286,-0.09709164,-0.036111046,-0.06341817,-0.0736128,-0.06829539,0.019716123,-0.07024615,0.19012937,0.09090704,1.0,1.0,1.0,-1.0,-1.0,-1.0,-1.0,-1.0,-1.0,-1.0,1.0,1.0,-1.0,-1.0,1.0,-1.0,-1.0,1.0,1.0,1.0,-1.0,1.0,-1.0,1.0
2025-07-21 13:11:14.965,0.5800000000000002,580,29,0.0075363633,-0.122654736,0.07786704,0.048503447,0.038647175,-0.04599031,0.0,0.0,0.0,0.024272725,0.1451017,-0.27337873,0.083178714,-0.14562914,-0.24494982,-0.034413304,0.038339954,0.21723399,-0.07075539,-0.0911717,0.14074916,0.077036604,-0.0855106,-0.06426956,0.06960301,-0.07199129,-0.091698214,0.10556708,0.024805993,0.058558606,-0.07589662,0.0518667,-0.07881606,0.043168295,-1.0,-1.0,1.0,-1.0,-1.0,1.0,1.0,1.0,-1.0,1.0,-1.0,1.0,1.0,1.0,-1.0,-1.0,-1.0,-1.0,-1.0,-1.0,-0.2624588,-1.0,1.0,1.0
2025-07-21 13:11:14.986,0.6000000000000002,600,30,-0.06968288,0.0055540837,-0.0040606926,-0.004095195,0.029652799,0.025504626,0.0,0.0,0.0,0.023162393,0.15295945,-0.25037223,0.044665378,-0.16062737,-0.27948138,-0.045315053,-0.0019968548,0.20124605,-0.057324626,-0.10026757,0.15551476,0.09466756,0.088060066,0.14191864,-0.07907193,-0.024981577,-0.019458398,-0.025479257,-0.10778417,-0.15650247,0.08223523,-0.03649215,0.05921393,-0.03611421,1.0,1.0,-1.0,-1.0,-1.0,-1.0,-1.0,-1.0,-0.2624588,-1.0,1.0,1.0,-1.0,-1.0,0.61814165,-1.0,-1.0,1.0,1.0,1.0,-1.0,1.0,-1.0,1.0
2025-07-21 13:11:15.009,0.6200000000000002,620,31,-0.020367293,-0.19909197,0.11246804,0.032788318,-0.009946326,-0.0047167293,0.0,0.0,0.0,0.022746732,0.14287663,-0.24788378,0.038889986,-0.14930281,-0.3030862,-0.012095312,0.025114393,0.19089809,-0.070572875,-0.08483569,0.16660921,0.093582034,0.031715237,-0.07505062,0.06121459,0.02957721,-0.13388112,0.08402476,0.066601604,0.076091126,0.016159521,0.09269938,-0.01409213,0.08893454,-1.0,-1.0,0.61814165,-1.0,-1.0,1.0,1.0,1.0,-1.0,1.0,-1.0,1.0,1.0,1.0,-1.0,-1.0,-1.0,1.0,-1.0,-1.0,-1.0,-1.0,1.0,1.0
2025-07-21 13:11:15.026,0.6400000000000002,640,32,-0.04118603,0.08557538,0.112904705,-0.024984434,-0.020043485,-0.039102193,0.0,0.0,0.0,0.02142721,0.14219365,-0.22344156,-0.0081584295,-0.1617767,-0.32075563,0.004098623,0.009161476,0.16648172,-0.09461248,-0.10368434,0.2094565,0.11163021,0.08949046,0.06168577,-0.057960097,-0.09391998,0.014902716,-0.007946665,-0.05022119,-0.12748383,0.0014176089,0.024072068,0.16175848,0.021589424,1.0,1.0,-1.0,-1.0,-1.0,1.0,-1.0,-1.0,-1.0,-1.0,1.0,1.0,-1.0,1.0,1.0,-1.0,-1.0,1.0,1.0,1.0,-1.0,1.0,-1.0,1.0
2025-07-21 13:11:15.046,0.6600000000000003,660,33,0.23470655,0.12098633,-0.04058142,0.015959773,-0.02821836,0.007388068,0.0,0.0,0.0,0.01939577,0.13322456,-0.19507077,0.014290905,-0.15696181,-0.33038953,0.04223034,0.020943426,0.19453806,-0.11163607,-0.06926726,0.19839603,0.1210762,-0.02910046,0.024368307,0.11206036,-0.019463215,0.0030591488,0.057647973,0.12727176,0.14908697,-0.10775064,0.0063211876,0.055853352,0.043368164,-1.0,1.0,1.0,-1.0,-1.0,1.0,1.0,1.0,-1.0,1.0,-1.0,1.0,1.0,-1.0,-1.0,-1.0,-1.0,-1.0,-1.0,-1.0,-1.0,1.0,0.035422713,1.0
2025-07-21 13:11:15.066,0.6800000000000003,680,34,-0.25133654,-0.15183482,0.14556433,-0.020457856,0.022049671,-0.014712839,0.0,0.0,0.0,0.019107867,0.1487091,-0.2081383,-0.017636934,-0.1717928,-0.35139355,0.0036115043,0.006935872,0.17055924,-0.106370606,-0.049586874,0.17519043,0.118043914,-0.037723057,-0.14127176,-0.07960631,-0.0073516327,-0.07797856,-0.059063297,-0.07654465,-0.19560611,-0.04223847,0.03171461,-0.06559798,0.047409344,1.0,-1.0,-1.0,-1.0,-1.0,-1.0,-1.0,-1.0,-1.0,1.0,0.035422713,1.0,-1.0,1.0,-0.13990784,-1.0,-0.15465464,1.0,1.0,1.0,-1.0,-1.0,1.0,1.0
2025-07-21 13:11:15.087,0.7000000000000003,700,35,0.09425085,0.33326322,0.13730584,0.011719102,-0.032885242,0.0036034472,0.0,0.0,0.0,0.018264543,0.112656705,-0.21102719,-0.02238361,-0.16350003,-0.32051325,0.02780056,0.020356068,0.19184078,-0.11642996,-0.053152792,0.20685256,0.11558923,-0.045464847,0.14390469,0.026269114,0.05250014,0.089656495,0.11802295,0.01569905,0.09564124,0.044748865,-0.030682676,0.17614341,0.0051602335,-1.0,1.0,-0.13990784,-1.0,-0.15465464,1.0,1.0,1.0,-1.0,-1.0,1.0,1.0,1.0,0.38311666,-1.0,-1.0,-1.0,1.0,1.0,-1.0,1.0,1.0,-1.0,0.13858536
2025-07-21 13:11:15.110,0.7200000000000003,720,36,-0.0040023406,-0.17275952,0.07885337,-0.0440359,0.0202984,0.0027545576,0.0,0.0,0.0,0.01570367,0.1343878,-0.16964039,-0.0650393,-0.18121628,-0.3307421,0.03717118,0.058260728,0.16363944,-0.08038684,-0.03291124,0.20875141,0.110269696,0.11213779,0.16760668,-0.0067285937,-0.04749507,-0.0063056424,-0.010620379,0.07701878,-0.117112726,0.18171747,0.023102317,-0.08276313,-0.038925763,1.0,0.38311666,-1.0,-1.0,-1.0,1.0,1.0,-1.0,1.0,1.0,-1.0,0.13858536,-1.0,-1.0,-1.0,-1.0,-1.0,1.0,-1.0,1.0,1.0,1.0,1.0,-1.0
2025-07-21 13:11:15.127,0.7400000000000003,740,37,-0.13059907,0.15653375,0.039580524,-0.016277166,-0.017126711,0.017640144,0.0,0.0,0.0,0.013965045,0.105893716,-0.17533359,-0.087580234,-0.17821352,-0.34897593,0.06764693,0.038684636,0.17609559,-0.04803337,-0.007905847,0.2382765,0.06700704,-0.15445708,-0.055467516,-0.020529233,-0.008450653,-0.100062974,-0.012377168,-0.11306652,0.12012283,0.040516004,0.009704704,0.069634534,-0.08057872,-1.0,-1.0,-1.0,-1.0,-1.0,1.0,-1.0,1.0,1.0,1.0,1.0,-1.0,1.0,1.0,-1.0,-1.0,1.0,1.0,1.0,-1.0,1.0,-1.0,1.0,-1.0
2025-07-21 13:11:15.146,0.7600000000000003,760,38,0.005679335,-0.08694138,0.18224768,-0.003871344,0.013630226,-0.041165657,0.0,0.0,0.0,0.012363779,0.10326313,-0.14542843,-0.099812075,-0.18843994,-0.32206783,0.07133443,0.04182766,0.16929778,-0.008309566,-0.03287586,0.28690344,0.025797537,0.0077716927,0.11362639,-0.046969682,-0.084050454,0.014333875,0.011451498,-0.009360084,-0.06029144,0.045116834,-0.12035038,0.11555609,-0.10316715,1.0,1.0,-1.0,-1.0,1.0,1.0,1.0,-1.0,1.0,-1.0,1.0,-1.0,-0.47829133,-1.0,1.0,-0.98952967,-1.0,1.0,1.0,1.0,1.0,1.0,-1.0,-1.0
2025-07-21 13:11:15.166,0.7800000000000004,780,39,-0.08249447,0.0864553,0.119444005,-0.0054137744,0.010807569,-0.02813465,0.0,0.0,0.0,0.0101217255,0.09165038,-0.15251833,-0.06137101,-0.1937557,-0.3379089,0.08209338,0.06859609,0.1705052,0.017803159,-0.011764152,0.25712314,-0.01131385,-0.10757459,-0.011122496,0.09554511,-0.077941485,-0.026897516,-0.004222816,0.12503487,0.08445841,0.09792834,0.12226069,-0.1959764,0.005829613,-0.47829133,-1.0,1.0,-0.98952967,-1.0,1.0,1.0,1.0,1.0,1.0,-1.0,-1.0,1.0,1.0,-1.0,0.99031967,1.0,1.0,-1.0,-1.0,1.0,-1.0,1.0,-1.0
2025-07-21 13:11:15.189,0.8000000000000004,800,40,0.13699198,0.22375675,0.07930141,-0.04950529,-0.022526484,0.041664563,0.0,0.0,0.0,0.0071009244,0.112135306,-0.1200296,-0.07738952,-0.18178813,-0.33640745,0.08188942,0.058932234,0.1883373,0.044721127,-0.01284107,0.24857433,-0.035223715,0.002386263,0.13029882,-0.075805515,0.02262613,-0.010536943,-0.018548401,-0.0997256,0.033785056,-0.0071949493,-0.07137898,0.049443297,-0.07579494,1.0,1.0,-1.0,0.99031967,1.0,1.0,-1.0,-1.0,1.0,-1.0,1.0,-1.0,1.0,-1.0,0.4129756,1.0,-1.0,1.0,1.0,-1.0,1.0,-1.0,-1.0,-1.0
2025-07-21 13:11:15.209,0.8200000000000004,820,41,0.035792384,-0.21557425,-0.05038282,-0.042915575,0.005723106,0.034143887,0.0,0.0,0.0,0.005536205,0.1142122,-0.10096762,-0.058867373,-0.13284,-0.34371406,0.10189081,0.06929191,0.15036312,0.05202611,-0.050713055,0.2189112,-0.054505337,0.035017125,-0.16713427,0.023163652,0.10187561,-0.017636256,-0.0032934402,-0.0037794714,-0.15206543,0.017984156,-0.10900405,-0.2478684,-0.07687414,1.0,-1.0,0.4129756,1.0,-1.0,1.0,1.0,-1.0,1.0,-1.0,-1.0,-1.0,1.0,-1.0,1.0,-1.0,1.0,1.0,1.0,1.0,1.0,-1.0,-1.0,1.0
2025-07-21 13:11:15.226,0.8400000000000004,840,42,0.07263334,-0.05159738,-0.10120548,0.011318639,0.055525303,0.026517993,0.0,0.0,0.0,0.006104079,0.12125084,-0.16470467,-0.024025463,-0.14605483,-0.32538602,0.10329495,0.089660496,0.16577666,0.06358178,-0.058832135,0.12681273,-0.0115742665,0.08114947,-0.066925004,0.0579939,-0.024125328,0.07835309,0.045449756,-0.01963647,0.08219228,0.039476477,-0.047906745,-0.13936606,0.13545024,1.0,-1.0,1.0,-1.0,1.0,1.0,1.0,1.0,1.0,-1.0,-1.0,1.0,1.0,1.0,-1.0,0.75626594,1.0,1.0,-1.0,-1.0,1.0,-1.0,1.0,-1.0
2025-07-21 13:11:15.246,0.8600000000000004,860,43,0.030136518,0.07492223,-0.09594682,-0.049301513,-0.016764134,0.044122584,0.0,0.0,0.0,0.0065169376,0.122294895,-0.1505282,-0.03653151,-0.13067538,-0.31073588,0.101687856,0.09834417,0.17773472,0.07714034,-0.08457634,0.12328153,-0.047172956,-0.058015622,0.22777148,-0.09976305,0.036408126,0.09437885,0.005446696,-0.036940515,-0.061815664,0.020907464,-0.056022283,0.0976324,-0.09969294,1.0,1.0,-1.0,0.75626594,1.0,1.0,-1.0,-1.0,1.0,-1.0,1.0,-1.0,1.0,-1.0,-1.0,1.0,-1.0,1.0,1.0,-1.0,1.0,0.62733513,-1.0,-1.0
2025-07-21 13:11:15.266,0.8800000000000004,880,44,-0.09809016,-0.39801314,-0.008071449,-0.0409772,-0.026155675,-0.047745638,0.0,0.0,0.0,0.007590618,0.15173835,-0.14673832,-0.07112636,-0.093571275,-0.30693713,0.108850636,0.10038345,0.15257546,0.09652201,-0.045684647,0.107936256,-0.050529357,-0.031228438,-0.14595027,0.0027213623,0.030355236,-0.11470697,-0.011093277,0.07484146,-0.16417713,-0.028754106,0.09487227,-0.24833667,0.0137466695,1.0,-1.0,-1.0,1.0,-1.0,1.0,1.0,-1.0,1.0,0.62733513,-1.0,-1.0,1.0,-1.0,1.0,-1.0,1.0,1.0,1.0,1.0,1.0,-1.0,1.0,1.0
2025-07-21 13:11:15.292,0.9000000000000005,900,45,0.21115778,0.07439546,0.09649366,-0.015735386,0.058985237,-0.010231182,0.0,0.0,0.0,0.008288169,0.1504263,-0.19550091,-0.033646572,-0.093437046,-0.31163135,0.109076455,0.12690781,0.16343619,0.11562148,-0.063157715,0.096383125,-0.025242142,0.0028372917,-0.055232707,0.10634079,-0.0054993737,0.16490692,-0.058619574,0.01672366,0.113045335,0.06474597,-0.04964342,0.1782403,0.14337976,1.0,-1.0,1.0,-1.0,1.0,1.0,1.0,1.0,1.0,-1.0,1.0,1.0,1.0,1.0,1.0,0.23695178,-1.0,-1.0,-1.0,-1.0,1.0,-1.0,-1.0,-1.0
2025-07-21 13:11:15.309,0.9200000000000005,920,46,-0.20766763,0.02074936,-0.13247404,-0.050243683,0.007270534,-0.037645813,0.0,0.0,0.0,0.0076075555,0.14949942,-0.1883726,0.0024698738,-0.08317036,-0.31448108,0.056918833,0.083619215,0.16109946,0.12185805,-0.09138652,0.07513907,-0.046839293,0.07495093,0.16904242,0.02468032,-0.034793578,0.009371862,-0.04276528,-0.05870147,-0.10902911,0.04245769,-0.10981091,-0.1391279,-0.02811041,1.0,1.0,1.0,0.23695178,-1.0,-1.0,-1.0,-1.0,1.0,-1.0,-1.0,-1.0,1.0,-1.0,-1.0,-1.0,1.0,-1.0,0.3338336,1.0,1.0,1.0,1.0,1.0
2025-07-21 13:11:15.327,0.9400000000000005,940,47,0.0073828194,-0.050729383,0.08141206,-0.03428504,-0.017658053,-0.0030201366,0.0,0.0,0.0,0.008802648,0.15659168,-0.17282125,-0.024350189,-0.10041383,-0.3007467,0.019640354,0.09509371,0.1922853,0.11924576,-0.05831653,0.06876004,-0.012490445,0.027794594,-0.15276302,-0.09866896,0.00468939,0.13975495,-0.13436309,0.01917688,0.056932606,0.02082404,0.0536436,0.07449014,0.0025629867,1.0,-1.0,-1.0,-1.0,1.0,-1.0,0.3338336,1.0,1.0,1.0,1.0,1.0,1.0,1.0,1.0,1.0,-1.0,-0.5742174,-1.0,-1.0,-0.17140295,-1.0,1.0,1.0
2025-07-21 13:11:15.347,0.9600000000000005,960,48,0.0017430641,0.051330812,-0.16757323,-0.02089978,7.018201e-05,-0.027795995,0.0,0.0,0.0,0.009349818,0.16541786,-0.18178606,0.007139266,-0.086497016,-0.29114848,0.0063792416,0.07387142,0.21214095,0.09024413,-0.080261126,0.1185575,-0.0061080325,0.09980157,0.03688467,0.069727376,0.046506695,-0.031277843,0.004671547,-0.12960802,-0.03277891,-0.036057845,-0.04942056,0.09097433,0.0742693,1.0,1.0,1.0,1.0,-1.0,-0.5742174,-1.0,-1.0,-0.17140295,-1.0,1.0,1.0,1.0,-1.0,-1.0,-1.0,1.0,0.1307518,1.0,1.0,-1.0,1.0,-1.0,1.0
2025-07-21 13:11:15.367,0.9800000000000005,980,49,-0.010276497,-0.4289788,-0.019890772,-0.0020522028,0.01682089,-0.0009796527,0.0,0.0,0.0,0.011250683,0.16954868,-0.20840468,-0.027188933,-0.101597644,-0.2673383,-0.010798665,0.075193055,0.2450443,0.057445876,-0.054227456,0.11100147,0.027104326,-0.01794294,-0.06597414,-0.0864631,-0.026857225,0.13578692,0.05452493,0.03554369,0.12055767,-0.049364004,0.03844131,-0.056777567,0.13955623,1.0,-1.0,-1.0,-1.0,1.0,0.1307518,1.0,1.0,-1.0,1.0,-1.0,1.0,-1.0,-0.77136904,0.88430995,1.0,-1.0,1.0,-1.0,-1.0,1.0,-1.0,1.0,1.0
2025-07-21 13:11:15.392,1.0000000000000004,1000,50,0.04932259,0.19921105,-0.07878202,0.049272925,0.05662484,0.00043691378,0.0,0.0,0.0,0.012164988,0.15043041,-0.2460492,0.0013599967,-0.093962714,-0.2791592,0.0120116845,0.04987703,0.22171105,0.06341709,-0.07760406,0.14015792,0.03627514,-0.010532969,-0.03859361,0.059155274,0.09390822,-0.052526556,0.046968613,-0.04542003,-0.17011423,-0.009605312,-0.065848686,0.07084393,0.0882407,-1.0,-0.77136904,0.88430995,1.0,-1.0,1.0,-1.0,-1.0,1.0,-1.0,1.0,1.0,1.0,1.0,-1.0,-1.0,1.0,-1.0,1.0,1.0,-1.0,1.0,-1.0,1.0
2025-07-21 13:11:15.409,1.0200000000000005,1020,51,0.23353428,-0.27068317,-0.12930693,-0.021238435,0.045178086,-0.004510656,0.0,0.0,0.0,0.01343681,0.14529712,-0.19796596,-0.0329715,-0.10551856,-0.2405766,-0.015542163,0.06499294,0.22326815,0.02676989,-0.04546586,0.15359125,0.06725264,-0.040334716,0.13149048,-0.07542391,0.0046102987,0.22050755,-0.042074166,-0.016352896,0.038843203,-0.17203991,0.046416923,-0.023552576,0.039627466,1.0,1.0,-1.0,-1.0,1.0,-1.0,1.0,1.0,-1.0,1.0,-1.0,1.0,-1.0,-1.0,-1.0,-1.0,-1.0,1.0,-1.0,0.77382874,1.0,-1.0,1.0,1.0
2025-07-21 13:11:15.430,1.0400000000000005,1040,52,-0.21713029,0.17182784,-0.061548375,-0.03107552,0.019083004,0.028073018,0.0,0.0,0.0,0.015085635,0.12239676,-0.1773611,-0.048935093,-0.10831011,-0.24083662,0.021303194,0.037070684,0.23359351,0.03816837,-0.06293796,0.16550906,0.068645105,-0.055839058,0.0038891037,-0.016800558,0.038445897,-0.0156009635,-0.003720732,-0.15668888,0.09620751,0.06621202,-0.025577836,0.15456817,-0.041573454,-1.0,-1.0,-1.0,-1.0,-1.0,1.0,-1.0,0.77382874,1.0,-1.0,1.0,1.0,1.0,1.0,-1.0,-1.0,-1.0,-1.0,1.0,-1.0,1.0,-0.75971,-1.0,-1.0
2025-07-21 13:11:15.450,1.0600000000000005,1060,53,-0.16795254,-0.016727243,-0.16303518,-0.03693185,0.041738153,0.030469935,0.0,0.0,0.0,0.016503919,0.13036497,-0.15247706,-0.08023334,-0.13423608,-0.2728576,-0.0019098882,0.050389543,0.203151,0.065093644,-0.067587964,0.1532522,0.046455886,0.03208077,0.022328474,-0.040615246,0.015280952,0.00030905672,-0.116835006,0.07236257,-0.27495763,0.044255838,-0.05963596,-0.12460328,-0.12829393,1.0,1.0,-1.0,-1.0,-1.0,-1.0,1.0,-1.0,1.0,-0.75971,-1.0,-1.0,0.015314652,-1.0,-0.7629471,-1.0,-1.0,1.0,1.0,1.0,1.0,1.0,1.0,1.0
2025-07-21 13:11:15.475,1.0800000000000005,1080,54,0.1078307,0.03375193,0.08513785,0.04828266,0.005018292,-0.048683595,0.0,0.0,0.0,0.018257812,0.10496099,-0.17429574,-0.080272086,-0.14353469,-0.2957684,0.00855231,0.07396915,0.18953013,0.06660534,-0.045587372,0.16941038,0.055995226,-0.06343841,-0.17487559,-0.064414024,-0.048235632,-0.068735,0.09795751,0.12014052,0.00806252,0.047910582,0.07845882,0.14219165,-0.03281462,0.015314652,-1.0,-0.7629471,-1.0,-1.0,1.0,1.0,1.0,1.0,1.0,1.0,1.0,1.0,1.0,-1.0,-1.0,0.12013869,1.0,-1.0,-1.0,1.0,-1.0,1.0,-1.0
2025-07-21 13:11:15.492,1.1000000000000005,1100,55,-0.06514731,0.17865464,0.026486957,-0.035662968,0.0064293146,-0.0017197202,0.0,0.0,0.0,0.018088896,0.11903258,-0.15825747,-0.093530245,-0.15091519,-0.29256833,0.02310755,0.055379625,0.20053029,0.078447215,-0.054821298,0.21301939,0.014248172,-0.012379814,0.21282259,-0.04202508,0.008397433,-0.061141945,0.019556018,-0.039771903,-0.0027257123,-0.022795351,-0.09354481,0.064293265,-0.09843207,1.0,1.0,-1.0,-1.0,0.12013869,1.0,-1.0,-1.0,1.0,-1.0,1.0,-1.0,1.0,-1.0,-1.0,1.0,-1.0,1.0,1.0,-1.0,1.0,1.0,-1.0,-1.0
2025-07-21 13:11:15.510,1.1200000000000006,1120,56,-0.028065309,-0.57708764,0.045186915,-0.03735742,0.021267548,-0.014485167,0.0,0.0,0.0,0.017677989,0.1319371,-0.15413216,-0.11778503,-0.12633163,-0.3222315,0.029471077,0.09042734,0.16548355,0.098534085,-0.018775532,0.18028551,-0.019542065,-0.021989625,-0.14299494,0.027341947,0.15420127,-0.040575296,-0.02614207,-0.0051232344,-0.023041464,0.0055619795,0.073477976,-0.19703387,-0.012868374,1.0,-1.0,-1.0,1.0,-1.0,1.0,1.0,-1.0,1.0,1.0,-1.0,-1.0,1.0,-1.0,1.0,-1.0,1.0,-0.6499749,1.0,-1.0,1.0,-1.0,1.0,1.0
2025-07-21 13:11:15.530,1.1400000000000006,1140,57,-0.040163975,-0.06934702,0.16756639,0.044702243,-0.02307996,0.037777916,0.0,0.0,0.0,0.016911024,0.12791999,-0.21469532,-0.068179995,-0.1429302,-0.29978704,0.004242286,0.10280167,0.11893691,0.113783024,-0.04883704,0.17255004,0.011160392,0.0712834,-0.061207928,0.061785147,0.010632609,0.077792116,-0.15021795,0.088105805,-0.05594099,0.023163438,-0.045601193,0.13813636,0.05772215,1.0,-1.0,1.0,-1.0,1.0,-0.6499749,1.0,-1.0,1.0,-1.0,1.0,1.0,1.0,1.0,1.0,-1.0,-1.0,-1.0,1.0,1.0,-1.0,-1.0,-1.0,1.0
2025-07-21 13:11:15.550,1.1600000000000006,1160,58,0.14676492,0.032174062,-0.0838591,-0.020071015,0.071471706,0.0469224,0.0,0.0,0.0,0.014845398,0.13642439,-0.22431992,-0.048579447,-0.15253097,-0.307355,-0.017006146,0.114785306,0.15227814,0.067248955,-0.060814977,0.14259511,0.04885123,-0.014880258,0.07173944,0.06945518,-0.053471975,-0.034274973,-0.026300266,0.08834066,0.091349475,-0.09157777,-0.03954068,-0.08191533,0.063432224,1.0,1.0,1.0,-1.0,-1.0,-1.0,1.0,1.0,-1.0,-1.0,-1.0,1.0,1.0,-1.0,-1.0,-1.0,-0.94368184,1.0,-1.0,-1.0,1.0,1.0,1.0,1.0
2025-07-21 13:11:15.575,1.1800000000000006,1180,59,-0.41190848,0.15074652,0.13399489,0.060300365,-0.016568769,0.028175257,0.0,0.0,0.0,0.014546604,0.15160002,-0.24358675,-0.055689394,-0.15056868,-0.31668812,0.0121839475,0.09922432,0.13915059,0.06969479,-0.039257873,0.13560951,0.05297904,-0.016194932,-0.15425353,-0.052470732,0.017071556,-0.111820005,0.029333748,-0.0035071664,-0.11796646,0.011603021,0.08542586,0.015925568,-0.033704553,1.0,-1.0,-1.0,-1.0,-0.94368184,1.0,-1.0,-1.0,1.0,1.0,1.0,1.0,0.90712875,1.0,-1.0,-1.0,1.0,1.0,1.0,1.0,1.0,-1.0,1.0,-1.0
2025-07-21 13:11:15.592,1.2000000000000006,1200,60,0.20456535,0.17012368,0.07812817,-0.035213485,0.028491117,-0.044672053,0.0,0.0,0.0,0.013851554,0.14430441,-0.23011914,-0.08411306,-0.17278033,-0.31600124,0.024638511,0.096232764,0.15881284,0.08128468,-0.05764921,0.18449755,0.017034994,0.062975936,0.071228795,0.02004446,-0.036611892,0.004145283,0.041701723,0.083457306,0.08790029,0.066321954,0.013504785,0.07537053,-0.043543044,0.90712875,1.0,-1.0,-1.0,1.0,1.0,1.0,1.0,1.0,-1.0,1.0,-1.0,1.0,-1.0,1.0,1.0,-1.0,1.0,1.0,-1.0,1.0,-1.0,-1.0,-1.0
2025-07-21 13:11:15.610,1.2200000000000006,1220,61,0.011812869,-0.09872642,0.010628224,-0.009078697,0.014444384,-0.0015051799,0.0,0.0,0.0,0.0126273455,0.16105595,-0.22000712,-0.040093526,-0.13524294,-0.3160684,0.052646425,0.11731171,0.15150927,0.10029538,-0.06719614,0.16731505,-0.0019295608,0.0034963856,-0.024546394,0.057963803,0.07639964,-0.1242881,0.0689283,-0.014363836,-0.013398214,-0.03347831,-0.07366287,-0.19851497,-0.121824,1.0,-1.0,1.0,1.0,-1.0,1.0,1.0,-1.0,1.0,-1.0,-1.0,-1.0,1.0,-0.56360966,1.0,-1.0,1.0,1.0,-1.0,1.0,1.0,-1.0,1.0,1.0
2025-07-21 13:11:15.630,1.2400000000000007,1240,62,0.10102345,0.2805068,0.039226152,0.015267832,-0.02628144,0.02812319,0.0,0.0,0.0,0.012192029,0.1554468,-0.22186078,-0.0063598226,-0.15942137,-0.30951023,0.059748277,0.09520249,0.18938616,0.097643524,-0.09273487,0.13492432,0.012710267,0.017927367,0.020218246,0.0076945964,0.023478946,0.05581209,-0.041441724,-0.075169355,0.12668642,0.049545757,0.015535337,0.00021580672,0.112715304,1.0,-0.56360966,1.0,-1.0,1.0,1.0,-1.0,1.0,1.0,-1.0,1.0,1.0,1.0,-1.0,-1.0,1.0,-1.0,1.0,-1.0,-1.0,-0.72556376,-1.0,1.0,-1.0
2025-07-21 13:11:15.650,1.2600000000000007,1260,63,0.013587162,-0.091358565,-0.10773315,-0.024960974,0.047356967,-0.03525013,0.0,0.0,0.0,0.011764737,0.17023516,-0.25912845,-0.037990637,-0.13854179,-0.3028069,0.07259917,0.07266807,0.21184008,0.0697649,-0.10560368,0.18969178,-0.026137704,-0.053075913,-0.08534797,-0.11228524,0.04151049,-0.07458993,0.0928451,-0.011965848,0.008480079,-0.017496994,-0.02790561,0.15655479,-0.11621411,1.0,-1.0,-1.0,1.0,-1.0,1.0,-1.0,-1.0,-0.72556376,-1.0,1.0,-1.0,-1.0,1.0,-1.0,-1.0,0.16200243,1.0,1.0,-1.0,1.0,1.0,-1.0,-1.0
2025-07-21 13:11:15.676,1.2800000000000007,1280,64,-0.036092505,-0.19589835,0.16591094,0.016471013,-0.035379976,-0.017650543,0.0,0.0,0.0,0.012031702,0.114792325,-0.23527245,-0.053569674,-0.14851652,-0.29894736,0.07342735,0.07933872,0.18997574,0.09124373,-0.066182256,0.1736041,-0.042574406,-0.09467134,0.15915571,-0.09664266,-0.071312904,0.118282005,-0.037599858,0.030521754,-0.062270425,-0.013258479,0.13455737,-0.096947186,-0.10274975,-1.0,1.0,-1.0,-1.0,0.16200243,1.0,1.0,-1.0,1.0,1.0,-1.0,-1.0,1.0,-1.0,-1.0,1.0,-1.0,0.5994651,-1.0,-1.0,1.0,-1.0,1.0,-1.0
2025-07-21 13:11:15.693,1.3000000000000007,1300,65,-0.24135308,-0.14440247,-0.03429871,-0.022931011,-0.019171702,-0.0014059973,0.0,0.0,0.0,0.010426652,0.11822115,-0.22227527,-0.065608464,-0.14544599,-0.3263508,0.06654217,0.068220034,0.13224372,0.10847664,-0.08233318,0.17669348,-0.058367893,0.00044175083,-0.043044336,-0.11201355,0.07070016,-0.012082481,-0.05717151,-0.040115707,-0.19118729,-0.039324928,-0.0138598485,0.057805687,0.024820613,1.0,-1.0,-1.0,1.0,-1.0,0.5994651,-1.0,-1.0,1.0,-1.0,1.0,-1.0,-0.30790883,1.0,1.0,-1.0,1.0,1.0,1.0,1.0,1.0,1.0,-1.0,1.0
2025-07-21 13:11:15.710,1.3200000000000007,1320,66,0.19347116,0.2320552,-0.032673135,-0.043388657,-0.025082337,0.042477753,0.0,0.0,0.0,0.009893335,0.10409848,-0.24797092,-0.056061048,-0.14890356,-0.29891682,0.08518259,0.087813,0.15706494,0.10819374,-0.05140145,0.17515846,-0.029647088,-0.14767231,0.088278145,0.061045043,-0.0024842424,0.1059057,0.02103229,0.018603895,0.17473269,-0.020465704,0.15059349,-0.06855327,0.16686168,-0.30790883,1.0,1.0,-1.0,1.0,1.0,1.0,1.0,1.0,1.0,-1.0,1.0,1.0,-1.0,-1.0,-1.0,-1.0,-1.0,-1.0,-1.0,1.0,-1.0,1.0,-1.0
2025-07-21 13:11:15.731,1.3400000000000007,1340,67,-0.20370324,0.29886103,-0.11662119,-0.05746518,-0.008410309,-0.005955655,0.0,0.0,0.0,0.009534948,0.113508396,-0.26124445,-0.07592217,-0.15145677,-0.30115882,0.04309941,0.06653232,0.16860159,0.111926936,-0.062014017,0.18809414,-0.04459319,0.045661006,-0.12988512,0.012508666,0.010179101,0.0066499524,-0.05700385,-0.042488955,-0.026116531,-0.002476035,-0.03365186,0.14697105,-0.084577784,1.0,-1.0,-1.0,-1.0,-1.0,-1.0,-1.0,-1.0,1.0,-1.0,1.0,-1.0,1.0,0.8078651,1.0,-1.0,1.0,-1.0,1.0,-1.0,-1.0,0.96793824,-1.0,1.0
2025-07-21 13:11:15.751,1.3600000000000008,1360,68,-0.11552714,-0.37131646,0.08907944,-0.03372324,-0.042118415,0.023683507,0.0,0.0,0.0,0.0105634825,0.13625848,-0.24851649,-0.031858545,-0.16694424,-0.29240644,0.0021825468,0.07478517,0.13507669,0.08602699,-0.039410204,0.15742277,-0.03546417,0.08862159,0.10168831,0.015745489,0.032524444,0.14759094,-0.14608799,0.023986317,-0.2035961,-0.12378158,0.122089006,-0.13839099,0.024561362,1.0,0.8078651,1.0,-1.0,1.0,-1.0,1.0,-1.0,-1.0,0.96793824,-1.0,1.0,1.0,-1.0,0.790422,-1.0,-1.0,-0.34371072,0.9833334,1.0,-1.0,-1.0,1.0,1.0
2025-07-21 13:11:15.776,1.3800000000000008,1380,69,0.012380043,-0.0714025,0.07330636,-0.03498706,-0.044464216,0.0009635141,0.0,0.0,0.0,0.010153808,0.14059655,-0.23337862,-0.007034673,-0.17285714,-0.29592893,-0.0007498227,0.089497134,0.12217744,0.028245104,-0.060322743,0.1679957,0.011092643,0.07678027,-0.06712963,-0.007772055,-0.067575544,-0.10950374,0.01864795,0.006181096,0.08596258,-0.08437915,-0.022858541,0.14633757,0.06776308,1.0,-1.0,0.790422,-1.0,-1.0,-0.34371072,0.9833334,1.0,-1.0,-1.0,1.0,1.0,0.97226626,1.0,-1.0,-1.0,-1.0,1.0,1.0,0.6680646,-1.0,1.0,-1.0,1.0
2025-07-21 13:11:15.792,1.4000000000000008,1400,70,0.0927931,-0.11917451,-0.0057224273,0.0062489687,0.010477273,-0.027210865,0.0,0.0,0.0,0.009414955,0.15124819,-0.2089228,-0.030459343,-0.17587183,-0.31925973,0.0079565765,0.11170833,0.1536212,-0.0030500987,-0.032279864,0.1706949,0.02500025,-0.04438018,0.02461688,-0.1496443,0.046322092,-0.033133816,-0.0016598749,-0.009523066,0.05341045,-0.06317991,0.10151942,-0.14676616,0.03062267,0.97226626,1.0,-1.0,-1.0,-1.0,1.0,1.0,0.6680646,-1.0,1.0,-1.0,1.0,-1.0,0.46150035,-1.0,-1.0,-1.0,1.0,-1.0,-0.08890509,1.0,-1.0,1.0,1.0
2025-07-21 13:11:15.811,1.4200000000000008,1420,71,0.19260564,0.26948786,-0.025761485,0.0009474347,-0.019353434,0.02814008,0.0,0.0,0.0,0.008608388,0.11265303,-0.17570059,-0.05886169,-0.18161835,-0.33572108,0.042627882,0.06955111,0.12290059,0.034147885,-0.052275136,0.1696515,0.041441172,-0.17566456,0.11242173,-0.04995917,-0.089378,-0.0787355,0.031850643,-0.03540084,-0.0039570737,0.032164756,-0.010581435,0.17392145,-0.00061974267,-1.0,0.46150035,-1.0,-1.0,-1.0,1.0,-1.0,-0.08890509,1.0,-1.0,1.0,1.0,1.0,1.0,-1.0,-1.0,-1.0,1.0,1.0,-1.0,1.0,1.0,-1.0,-1.0
2025-07-21 13:11:15.831,1.4400000000000008,1440,72,-0.016617998,-0.14808597,0.044845056,-0.00084186584,-0.02707217,0.02121787,0.0,0.0,0.0,0.009306094,0.12645668,-0.09420166,-0.07967426,-0.16691078,-0.35129267,0.04561917,0.07131545,0.09540118,0.055808324,-0.03025747,0.17210825,0.008253151,0.042117056,0.19081959,-0.06026778,-0.06323989,-0.11746717,0.024803909,0.101117104,-0.16635725,0.08659691,0.11808271,0.04232705,-0.0125428485,1.0,1.0,-1.0,-1.0,-1.0,1.0,1.0,-1.0,1.0,1.0,-1.0,-1.0,-1.0,-1.0,-1.0,-1.0,-1.0,1.0,1.0,1.0,1.0,1.0,1.0,-1.0
2025-07-21 13:11:15.852,1.4600000000000009,1460,73,0.03847723,0.13021947,0.09870207,-0.050373115,0.038747884,0.019601779,0.0,0.0,0.0,0.008864358,0.10607922,-0.08899895,-0.091693774,-0.17702654,-0.37099254,0.06929576,0.08911997,0.09628419,0.07002701,0.014256306,0.21318062,-0.025776457,-0.11680297,0.013344872,0.006358706,-0.07202292,0.037464652,0.018929826,-0.009632016,0.07950917,-0.0046810745,0.03762279,0.09608492,-0.10164803,-1.0,-1.0,-1.0,-1.0,-1.0,1.0,1.0,1.0,1.0,1.0,1.0,-1.0,1.0,1.0,-1.0,-1.0,-1.0,1.0,0.43747035,-1.0,1.0,1.0,0.57633364,-1.0
2025-07-21 13:11:15.876,1.4800000000000009,1480,74,-0.14604624,-0.115880124,0.077026136,-0.046128124,-0.038828507,-0.021155998,0.0,0.0,0.0,0.006701021,0.115289375,-0.032612804,-0.10951882,-0.19141772,-0.3755799,0.08301249,0.09731733,0.10020581,0.07391585,0.03577892,0.22318488,-0.034226242,0.057410486,0.23809162,-0.017308835,-0.07956148,-0.04432943,0.0009887065,-0.039330438,-0.06361774,0.07061976,0.09462326,-0.01913097,-0.06825217,1.0,1.0,-1.0,-1.0,-1.0,1.0,0.43747035,-1.0,1.0,1.0,0.57633364,-1.0,-1.0,-1.0,-1.0,-1.0,-1.0,1.0,1.0,1.0,1.0,1.0,1.0,-1.0
2025-07-21 13:11:15.893,1.5000000000000009,1500,75,-0.047366504,0.24577844,0.075478934,0.040835958,-0.04407067,0.035292804,0.0,0.0,0.0,0.004804528,0.08325645,-0.020488324,-0.11820123,-0.20865503,-0.39502305,0.09357832,0.11206277,0.11753085,0.08811259,0.05903294,0.25697634,-0.059403077,-0.115893394,-0.067200124,-0.08770394,-0.09777781,-0.011810251,0.050878838,0.011735167,0.097188205,0.052644886,0.016551265,0.111209005,-0.10353935,-1.0,-1.0,-1.0,-1.0,-1.0,1.0,1.0,1.0,1.0,1.0,1.0,-1.0,1.0,1.0,-1.0,-1.0,1.0,1.0,-1.0,-1.0,1.0,-1.0,1.0,-1.0
2025-07-21 13:11:15.911,1.520000000000001,1520,76,-0.09830531,0.33204138,0.09698796,-0.029862368,0.014880218,-0.004420765,0.0,0.0,0.0,0.0021426722,0.09024471,0.029361187,-0.11961673,-0.20696415,-0.37798375,0.08463845,0.103283845,0.11767159,0.10854252,0.020551683,0.28779322,-0.0782494,0.071269594,0.25077853,-0.051027235,0.0029933916,0.014442187,0.034446705,-0.10462885,-0.016150834,0.08040079,-0.12181018,0.08497011,0.036000073,1.0,1.0,-1.0,-1.0,1.0,1.0,-1.0,-1.0,1.0,-1.0,1.0,-1.0,0.4791996,-1.0,1.0,1.0,-1.0,1.0,1.0,1.0,1.0,1.0,-1.0,-1.0
2025-07-21 13:11:15.932,1.540000000000001,1540,77,0.1397744,-0.29190287,-0.100720085,-0.04301794,-0.010322551,0.026038717,0.0,0.0,0.0,0.0009087112,0.09332702,0.04203864,-0.087060705,-0.1860206,-0.3806472,0.10715422,0.121986724,0.15914038,0.11101637,0.047170967,0.26151147,-0.08655314,0.07982489,-0.012241355,0.11666978,0.06965685,-0.04591425,-0.03650375,0.007337564,0.121714376,0.034663722,0.035257597,-0.14762934,-0.05506264,0.4791996,-1.0,1.0,1.0,-1.0,1.0,1.0,1.0,1.0,1.0,-1.0,-1.0,1.0,-1.0,-1.0,-1.0,1.0,1.0,-1.0,-1.0,1.0,-1.0,-1.0,-1.0
2025-07-21 13:11:15.952,1.560000000000001,1560,78,-0.25699443,-0.030966397,-0.06790021,-0.048718143,0.012081704,-0.0011275159,0.0,0.0,0.0,0.0014619168,0.111498274,0.00096981274,-0.09423681,-0.18605606,-0.38621342,0.089050926,0.07863069,0.13764274,0.10548968,0.007933401,0.20876932,-0.09807757,-0.009007037,-0.11381049,-0.07490673,-0.008566388,0.04852251,-0.0061910246,-0.08057678,-0.044357844,0.020130802,-0.007537783,-0.17555445,0.000119711265,1.0,-1.0,-1.0,-1.0,1.0,1.0,-1.0,-1.0,1.0,-1.0,-1.0,-1.0,1.0,-1.0,0.42663282,1.0,1.0,1.0,1.0,1.0,1.0,-1.0,-1.0,-1.0
2025-07-21 13:11:15.976,1.580000000000001,1580,79,0.28107664,-0.11912818,-0.039268304,-0.039128356,0.033558935,-0.035978235,0.0,0.0,0.0,0.0036491314,0.11930485,-0.05307832,-0.073899075,-0.1594341,-0.3776857,0.09199082,0.10003006,0.17610243,0.12083577,-0.0039774287,0.12878603,-0.10679898,0.053976316,-0.0985441,0.0088171605,0.11336263,0.0085504595,-0.0628086,0.052666996,0.10779353,-0.034666307,-0.04844295,-0.21489036,-0.09297347,1.0,-1.0,0.42663282,1.0,1.0,1.0,1.0,1.0,1.0,-1.0,-1.0,-1.0,1.0,-1.0,1.0,-1.0,1.0,1.0,-1.0,-1.0,1.0,-1.0,1.0,-1.0
2025-07-21 13:11:15.992,1.600000000000001,1600,80,0.09153059,0.20909606,0.10962144,0.010255141,-0.049416862,0.029842598,0.0,0.0,0.0,0.005661767,0.1314398,-0.11250015,-0.0263145,-0.16014072,-0.35226557,0.09338641,0.054313246,0.17156592,0.12688734,-0.03891211,0.100072175,-0.113526225,0.060949814,-0.13831852,0.15339582,-0.015012134,0.04447023,-0.01945477,-0.05350297,0.0272354,0.0064999796,-0.012001872,0.023863113,-0.038309753,1.0,-1.0,1.0,-1.0,1.0,1.0,-1.0,-1.0,1.0,-1.0,1.0,-1.0,1.0,-1.0,1.0,1.0,1.0,0.09564836,1.0,-1.0,1.0,-1.0,1.0,-1.0
2025-07-21 13:11:16.012,1.620000000000001,1620,81,0.23564939,-0.088934526,0.23883262,-0.05320812,0.022769175,-0.012454304,0.0,0.0,0.0,0.0044937455,0.13571677,-0.1764446,-0.0056724977,-0.14189129,-0.27196345,0.088971525,0.082411274,0.14181562,0.13215446,-0.061723236,0.13964118,-0.14019184,-0.03599117,-0.15420324,0.13440442,0.11917651,0.12726276,-0.06487567,0.08620977,-0.012000275,-0.040439136,-0.085003145,0.07552946,0.051938094,1.0,-1.0,1.0,1.0,1.0,0.09564836,1.0,-1.0,1.0,-1.0,1.0,-1.0,1.0,1.0,1.0,1.0,0.1046928,-1.0,-1.0,-1.0,1.0,-1.0,-1.0,1.0
2025-07-21 13:11:16.032,1.640000000000001,1640,82,-0.058753096,-0.08551121,0.03300231,-0.0808373,-0.005449232,0.03487726,0.0,0.0,0.0,0.00039579798,0.14772232,-0.1583476,0.033261385,-0.09395004,-0.21913965,0.037223764,0.088972926,0.12615028,0.14851321,-0.08453689,0.11715894,-0.09134017,-0.045880187,0.10675251,0.09164812,0.1501902,0.04673363,-0.04329326,-0.07474344,-0.08252639,-0.025817513,-0.07255202,-0.10893575,0.17970082,1.0,1.0,1.0,1.0,0.1046928,-1.0,-1.0,-1.0,1.0,-1.0,-1.0,1.0,1.0,-1.0,-1.0,1.0,1.0,-1.0,-1.0,1.0,-1.0,-1.0,1.0,1.0
2025-07-21 13:11:16.053,1.660000000000001,1660,83,0.13524672,0.10485003,0.0053142607,-0.052873604,0.061507102,-0.004578714,0.0,0.0,0.0,-0.002137788,0.15874246,-0.16129956,0.0018910427,-0.07033143,-0.17122371,-0.0068504116,0.051906664,0.16047974,0.0865967,-0.09287704,0.10919906,-0.04600717,0.052653346,-0.049623337,-0.093148105,0.15040961,0.0957423,-0.08326953,-0.046944227,0.14735018,-0.1942698,-0.0012538686,0.11745708,0.036326833,1.0,-1.0,-1.0,1.0,1.0,-1.0,-1.0,1.0,-1.0,-1.0,1.0,1.0,1.0,-1.0,-0.96183425,-1.0,-1.0,-1.0,1.0,1.0,-1.0,-1.0,-1.0,1.0
2025-07-21 13:11:16.076,1.680000000000001,1680,84,-0.117234126,-0.22998887,-0.10025162,-0.06354724,0.05579852,-0.036165394,0.0,0.0,0.0,-0.0033150804,0.15186429,-0.20641927,-0.023005517,-0.07226641,-0.1643841,-0.025411451,0.06980783,0.19418384,0.044630907,-0.105766065,0.097227395,-0.025443958,-0.024362663,-0.15922968,-0.060864393,-0.073093176,-0.08465659,-0.11253308,0.051406126,0.14453372,-0.16110669,0.030522605,-0.16326967,0.09953746,1.0,-1.0,-0.96183425,-1.0,-1.0,-1.0,1.0,1.0,-1.0,-1.0,-1.0,1.0,1.0,-1.0,1.0,-1.0,1.0,1.0,-1.0,-1.0,1.0,-1.0,1.0,1.0
2025-07-21 13:11:16.093,1.700000000000001,1700,85,-0.16140933,0.038309112,0.06512293,0.014353995,0.008743493,-0.011803524,0.0,0.0,0.0,-0.002925515,0.1499449,-0.24210785,0.009403618,-0.09815503,-0.16687754,-0.023854338,0.042490527,0.18183541,0.059008148,-0.11649181,0.11560012,0.017886944,0.031507567,-0.1533282,0.007560608,-0.035152685,-0.043067385,-0.010060041,-0.06076484,-0.117196016,-0.019192062,0.01984014,0.13466352,0.04772734,1.0,-1.0,1.0,-1.0,1.0,1.0,-1.0,-1.0,1.0,-1.0,1.0,1.0,1.0,1.0,1.0,1.0,1.0,-1.0,1.0,1.0,-1.0,-1.0,-1.0,1.0
2025-07-21 13:11:16.112,1.720000000000001,1720,86,0.3158127,-0.23270746,-0.098155595,-0.06143091,0.024312168,0.007970044,0.0,0.0,0.0,-0.0028093527,0.1594008,-0.20923655,0.031852547,-0.07169203,-0.14270517,-0.052211612,0.055380456,0.20341453,0.016390253,-0.12274455,0.10862774,0.03768732,-0.038708907,0.13086964,0.058528256,0.080963634,0.0751169,-0.059392832,-0.00203828,0.1437041,-0.030827863,-0.022256263,-0.10515353,0.123535365,1.0,1.0,1.0,1.0,1.0,-1.0,1.0,1.0,-1.0,-1.0,-1.0,1.0,1.0,-1.0,-1.0,-1.0,-1.0,-1.0,-1.0,-1.0,-1.0,-1.0,1.0,1.0
2025-07-21 13:11:16.132,1.740000000000001,1740,87,-0.24406296,0.06885997,0.023415616,-0.018455833,-0.005219071,0.0028618625,0.0,0.0,0.0,-0.0026067584,0.16059402,-0.20070894,-0.007971804,-0.08494252,-0.13488218,-0.05656003,0.04082736,0.21646576,-0.0049152533,-0.12873137,0.099787466,0.04637546,-0.058100805,-0.047110952,-0.04471357,-0.068639934,-0.15039824,-0.033923082,-0.12371528,-0.10850214,-0.11844555,-0.084658496,0.10946909,-0.01171056,1.0,-1.0,-1.0,-1.0,-1.0,-1.0,-1.0,-1.0,-1.0,-1.0,1.0,1.0,1.0,-1.0,1.0,-1.0,-1.0,1.0,1.0,1.0,-1.0,1.0,-1.0,1.0
2025-07-21 13:11:16.155,1.7600000000000011,1760,88,-0.03566134,-0.34513992,0.093238726,-0.0062850895,0.046230283,0.02618171,0.0,0.0,0.0,-0.0028311783,0.1752119,-0.24033436,0.01722509,-0.09116962,-0.18342113,-0.032689247,0.070102856,0.2447312,-0.043039013,-0.108991876,0.09613182,0.07921063,-0.033410028,-0.021811401,0.11866734,-0.018644068,-0.18419518,0.13045281,0.07010044,0.057203345,-0.071681835,0.07698861,-0.1163205,0.0931276,1.0,-1.0,1.0,-1.0,-1.0,1.0,1.0,1.0,-1.0,1.0,-1.0,1.0,1.0,1.0,-1.0,-1.0,-1.0,1.0,-1.0,-1.0,-1.0,-1.0,1.0,1.0
2025-07-21 13:11:16.176,1.7800000000000011,1780,89,0.011421481,-0.01547161,-0.022605758,-0.029737614,-0.0052238456,-0.0471442,0.0,0.0,0.0,-0.004368831,0.17066349,-0.22109374,-0.025353651,-0.107990235,-0.22050193,-0.014499493,0.03620526,0.22220863,-0.06091802,-0.101191,0.12444177,0.080035456,0.011541776,0.10980119,-0.11605007,-0.10697844,-0.06634038,0.02076669,-0.12291915,-0.08535211,-0.04199934,-0.06163714,0.13252456,0.0024712414,1.0,1.0,-1.0,-1.0,-1.0,1.0,-1.0,-1.0,-1.0,-1.0,1.0,1.0,-1.0,-1.0,-1.0,-1.0,-1.0,1.0,1.0,1.0,-1.0,1.0,-1.0,1.0
2025-07-21 13:11:16.193,1.8000000000000012,1800,90,0.012221959,-0.07753325,0.09444271,0.016328659,0.07367888,-0.0047415104,0.0,0.0,0.0,-0.0054532634,0.15550299,-0.22902183,-0.046013307,-0.11549267,-0.25750604,0.02364745,0.03992943,0.21480975,-0.08433022,-0.07291526,0.12362519,0.106868364,-0.050893582,-0.13379307,-0.04338107,0.003563758,-0.014308896,0.06798518,0.117830075,0.051468823,-0.107818566,0.10308165,-0.13119747,0.051113192,-1.0,-1.0,-1.0,-1.0,-1.0,1.0,1.0,1.0,-1.0,1.0,-1.0,1.0,1.0,1.0,1.0,-0.036582753,-1.0,-1.0,-1.0,-1.0,1.0,-1.0,1.0,1.0
2025-07-21 13:11:16.213,1.8200000000000012,1820,91,-0.25122336,0.1918716,-0.037053566,-0.037351962,-0.0017003263,0.02486462,0.0,0.0,0.0,-0.007446833,0.14449883,-0.24181336,-0.028059987,-0.11344354,-0.27926075,-0.00032813736,0.025349284,0.20532131,-0.048364043,-0.09380837,0.14686362,0.10615761,0.036018398,-0.059349135,0.037645288,0.10372158,-0.049025062,0.0023934308,-0.08015715,-0.111212894,0.020506248,-0.10465609,0.1738537,0.039469846,1.0,1.0,1.0,-0.036582753,-1.0,-1.0,-1.0,-1.0,1.0,-1.0,1.0,1.0,1.0,-1.0,1.0,-1.0,1.0,-0.89022666,1.0,1.0,-1.0,1.0,-1.0,1.0
2025-07-21 13:11:16.234,1.8400000000000012,1840,92,-0.1276958,-0.138116,-0.039175637,-0.02503978,-0.0035515032,-0.038157143,0.0,0.0,0.0,-0.006976869,0.16903901,-0.27937812,-4.8265272e-05,-0.11001885,-0.25988823,-0.0289654,0.039988052,0.21634804,-0.06631438,-0.05740146,0.14784251,0.11026896,0.010870466,-0.13252766,0.04087391,0.058256444,0.1815673,-0.046784893,0.004486531,0.10325765,-0.004649938,0.04048002,-0.09307914,0.053827547,1.0,-1.0,1.0,-1.0,1.0,-0.89022666,1.0,1.0,-1.0,1.0,-1.0,1.0,1.0,1.0,1.0,-1.0,-1.0,1.0,-1.0,1.0,-1.0,-1.0,1.0,1.0
2025-07-21 13:11:16.259,1.8600000000000012,1860,93,0.14200035,0.0951428,-0.10918471,-0.010436017,0.050180107,0.011945562,0.0,0.0,0.0,-0.0069934498,0.16432102,-0.27142042,0.025174273,-0.124203265,-0.2429771,-0.01365833,0.006349597,0.26406857,-0.09077275,-0.08156128,0.17298464,0.124226466,-0.055680547,0.018554524,0.054685406,-0.013987892,0.006846671,0.13385233,-0.058617417,0.11227378,-0.09689677,-0.032643702,0.113159835,0.0038503883,1.0,1.0,1.0,-1.0,-1.0,1.0,-1.0,1.0,-1.0,-1.0,1.0,1.0,1.0,-1.0,-1.0,-1.0,-1.0,-1.0,1.0,-1.0,-1.0,1.0,-1.0,1.0
2025-07-21 13:11:16.273,1.8800000000000012,1880,94,-0.10382878,-0.25560102,-0.014043826,-0.02716572,0.060678836,0.020791322,0.0,0.0,0.0,-0.0056006922,0.16564351,-0.26966825,-0.00044469518,-0.1408544,-0.27185965,-0.039294783,0.039485347,0.21226038,-0.1053116,-0.04699935,0.15051074,0.12879385,0.07417739,-0.073429614,-0.079660505,0.02291501,-0.13835877,0.005951734,0.0672095,-0.17775765,-0.04626102,0.09470022,-0.117119126,0.06441646,1.0,-1.0,-1.0,-1.0,-1.0,-1.0,1.0,-1.0,-1.0,1.0,-1.0,1.0,-1.0,1.0,-1.0,-1.0,-1.0,1.0,1.0,1.0,1.0,-1.0,1.0,1.0
2025-07-21 13:11:16.293,1.9000000000000012,1900,95,0.10664453,0.30035678,-0.0021478112,0.013902517,0.028463857,-0.021106511,0.0,0.0,0.0,-0.0048398417,0.15287177,-0.26696974,-0.04283678,-0.14286813,-0.2998187,-0.001331005,0.04732634,0.19090568,-0.0577861,-0.066526406,0.1764835,0.1114563,-0.04954618,0.09545846,-0.123692684,-0.0018335754,-0.018245181,0.011529941,-0.012243898,0.11165938,0.034058332,-0.015831776,0.17336234,-0.08404854,-1.0,1.0,-1.0,-1.0,-1.0,1.0,1.0,1.0,1.0,-1.0,1.0,1.0,1.0,1.0,-1.0,-1.0,-1.0,1.0,1.0,-1.0,1.0,1.0,-1.0,-1.0
2025-07-21 13:11:16.319,1.9200000000000013,1920,96,-0.03553718,-0.08605639,0.013101741,-0.046628136,-0.014396052,-0.012597444,0.0,0.0,0.0,-0.005168003,0.15751192,-0.21562092,-0.0786992,-0.14425436,-0.31464913,0.0155315995,0.071778156,0.17463483,-0.011831641,-0.051665872,0.21258259,0.071796216,0.010104457,0.15650514,-0.003886977,-0.01828915,0.0036165186,0.11661373,0.012452075,-0.097655036,0.043943323,0.060251173,0.003228937,-0.11022338,1.0,1.0,-1.0,-1.0,-1.0,1.0,1.0,-1.0,1.0,1.0,-1.0,-1.0,-1.0,-1.0,-1.0,-1.0,-1.0,1.0,0.8387186,1.0,1.0,1.0,1.0,-1.0
2025-07-21 13:11:16.339,1.9400000000000013,1940,97,0.02193495,0.09552186,0.19883971,0.022584403,0.054584805,-0.03382812,0.0,0.0,0.0,-0.005408908,0.13192044,-0.21936634,-0.08827189,-0.15979375,-0.34644368,0.04692022,0.08798988,0.18248923,0.0037011674,-0.035547264,0.24446955,0.04301808,-0.067243084,-0.029928802,-0.05045002,-0.07153876,-0.060122017,0.11766141,0.084237024,0.11575373,0.07579817,0.060158633,0.052204505,-0.105095945,-1.0,-1.0,-1.0,-1.0,-1.0,1.0,0.8387186,1.0,1.0,1.0,1.0,-1.0,1.0,1.0,-0.51197416,-1.0,-1.0,1.0,-1.0,-1.0,1.0,-1.0,1.0,-1.0
2025-07-21 13:11:16.359,1.9600000000000013,1960,98,-0.21324024,0.19003862,0.007316516,-0.011842646,-0.026661158,0.030683855,0.0,0.0,0.0,-0.007917452,0.11675589,-0.21127714,-0.07963832,-0.17773078,-0.34542722,0.050312255,0.06958796,0.18724106,0.020406945,-0.04325436,0.2582576,-0.0020687776,-0.017083447,0.19549677,0.06436068,-0.1103567,-0.1192675,0.09892469,-0.12364369,-0.13004307,0.088198185,-0.08685371,0.032412305,-0.017916553,1.0,1.0,-0.51197416,-1.0,-1.0,1.0,-1.0,-1.0,1.0,-1.0,1.0,-1.0,-1.0,-1.0,-1.0,-1.0,-1.0,1.0,1.0,1.0,1.0,1.0,-1.0,-1.0
2025-07-21 13:11:16.376,1.9800000000000013,1980,99,-0.05594685,0.17350169,0.040690213,-0.027932195,-0.023780135,-0.048982322,0.0,0.0,0.0,-0.008700864,0.106849484,-0.18809602,-0.09850677,-0.18350676,-0.37287545,0.06819227,0.09326364,0.20229584,0.048186637,-0.015569406,0.2496919,-0.024076942,-0.15206034,0.03220906,-0.05595404,-0.035948064,0.03696018,-0.04402597,0.094100006,0.042048763,0.10637481,0.057923365,-0.104159795,-0.07585685,-1.0,-1.0,-1.0,-1.0,-1.0,1.0,1.0,1.0,1.0,1.0,-1.0,-1.0,1.0,1.0,-1.0,0.9466651,-1.0,1.0,-1.0,-1.0,1.0,-1.0,1.0,-1.0
2025-07-21 13:11:16.395,2.0000000000000013,2000,100,0.11454287,0.03639571,-0.08385417,-0.009474426,0.004489362,0.024597012,0.0,0.0,0.0,-0.009286718,0.09854549,-0.15549904,-0.117234595,-0.16665454,-0.369118,0.08026966,0.05597689,0.20583667,0.06070807,-0.03446014,0.2325475,-0.05171828,0.07323805,0.23484662,0.04693062,0.027880408,-0.08476498,-0.0483242,-0.14170823,0.022739964,-0.016579792,0.0043728338,0.13471001,-0.10121315,1.0,1.0,-1.0,0.9466651,-1.0,1.0,-1.0,-1.0,1.0,-1.0,1.0,-1.0,-1.0,-1.0,-1.0,-1.0,-1.0,1.0,1.0,-1.0,1.0,1.0,-1.0,-1.0
2025-07-21 13:11:16.414,2.0200000000000014,2020,101,-0.2526002,-0.035712466,0.19323696,-0.006526878,-0.0081010815,-0.023340829,0.0,0.0,0.0,-0.007943527,0.07717935,-0.15264761,-0.12190738,-0.17129138,-0.38329947,0.08635685,0.08133547,0.16166858,0.07629952,-0.017769974,0.22148345,-0.06599698,-0.072888955,-0.07771711,0.03128555,-0.025171895,0.0014938074,0.04906223,0.025995243,-0.15051131,0.027668893,0.09887643,-0.040156543,-0.039933138,-1.0,-1.0,-1.0,-1.0,-1.0,1.0,1.0,-1.0,1.0,1.0,-1.0,-1.0,1.0,1.0,1.0,-1.0,1.0,1.0,-0.6250885,1.0,1.0,0.040433746,1.0,-1.0
2025-07-21 13:11:16.434,2.0400000000000014,2040,102,0.24090421,0.22283266,-0.04885208,-0.03025652,-0.018412778,0.0112759005,0.0,0.0,0.0,-0.009742995,0.09358422,-0.148214,-0.09337264,-0.1740546,-0.37441254,0.08988396,0.06401655,0.1660012,0.09744125,-0.012139101,0.24967898,-0.08766303,0.08830288,0.053522233,0.104898386,0.064190894,0.03161355,0.06540389,-0.021833355,0.07917313,-0.024280412,0.0049311873,0.15118186,-0.07642169,1.0,1.0,1.0,-1.0,1.0,1.0,-0.6250885,1.0,1.0,0.040433746,1.0,-1.0,1.0,1.0,-1.0,-1.0,-1.0,1.0,1.0,-1.0,1.0,1.0,-1.0,-1.0
2025-07-21 13:11:16.460,2.0600000000000014,2060,103,-0.0426766,-0.16386428,0.013946221,0.01362254,-0.023015292,0.038045716,0.0,0.0,0.0,-0.010937384,0.110566564,-0.09410647,-0.10266391,-0.17944516,-0.37936398,0.102490716,0.07581892,0.17064363,0.10479288,0.00725596,0.22901653,-0.090064764,-0.007819026,0.18785791,0.03833173,-0.0588625,-0.091415256,0.003669922,0.11235538,-0.08612014,0.037547275,0.09119388,-0.084668286,0.010284932,1.0,1.0,-1.0,-1.0,-1.0,1.0,1.0,-1.0,1.0,1.0,-1.0,-1.0,-1.0,-1.0,-1.0,-1.0,0.65687263,1.0,-1.0,1.0,1.0,1.0,1.0,-1.0
2025-07-21 13:11:16.476,2.0800000000000014,2080,104,0.0074115875,0.18332137,0.049265403,-0.02562781,0.016263863,0.031997316,0.0,0.0,0.0,-0.011806796,0.06860242,-0.062080875,-0.1052498,-0.1836616,-0.3575517,0.110350005,0.061321698,0.20024657,0.107749194,0.0429408,0.25360227,-0.11806345,-0.10742521,-0.027605224,0.0542714,0.017141247,0.034786943,0.06999677,-0.04212291,0.14270428,-0.03089434,0.050768856,0.08128751,-0.071820036,-1.0,-1.0,-1.0,-1.0,0.65687263,1.0,-1.0,1.0,1.0,1.0,1.0,-1.0,1.0,1.0,-1.0,1.0,-1.0,1.0,1.0,-1.0,1.0,-1.0,1.0,-1.0
2025-07-21 13:11:16.495,2.1000000000000014,2100,105,0.12316552,-0.35951483,0.011486093,-0.06896339,0.019995967,-0.022288963,0.0,0.0,0.0,-0.013565258,0.08776072,-0.044423815,-0.120328076,-0.15075147,-0.3627729,0.11045523,0.076815255,0.2063847,0.10867829,0.024806619,0.27933455,-0.11186285,0.062793955,0.17315914,-0.0536686,0.10346101,-0.08584495,-0.041802432,0.02665526,0.04926187,0.0036222674,-0.041221194,0.027178155,0.00019940833,1.0,1.0,-1.0,1.0,-1.0,1.0,1.0,-1.0,1.0,-1.0,1.0,-1.0,1.0,-1.0,1.0,-1.0,-1.0,1.0,1.0,-1.0,1.0,1.0,-1.0,1.0
2025-07-21 13:11:16.514,2.1200000000000014,2120,106,-0.15743743,-0.17164655,0.098387614,0.024694296,0.032065667,0.042165942,0.0,0.0,0.0,-0.01411562,0.09294157,-0.034437213,-0.08242372,-0.15342732,-0.38529304,0.11263662,0.09110549,0.16781291,0.13156775,0.03879907,0.25505918,-0.06322078,-0.020062385,-0.14721665,0.15847029,-0.029377941,-0.054573044,0.062469363,0.09871346,-0.061658077,0.06600022,0.06628331,-0.23384148,0.18138821,1.0,-1.0,1.0,-1.0,-1.0,1.0,1.0,-1.0,1.0,1.0,-1.0,1.0,1.0,-1.0,-1.0,-1.0,1.0,1.0,-1.0,1.0,1.0,-1.0,1.0,-0.9068739
2025-07-21 13:11:16.537,2.1400000000000015,2140,107,-0.0021818085,0.31861356,-0.022600535,0.006698936,-0.030023204,0.012783962,0.0,0.0,0.0,-0.014786837,0.11210538,-0.08983382,-0.09137579,-0.15754326,-0.35847378,0.10703721,0.066282995,0.18746169,0.12749049,0.0060805967,0.24397399,-0.091399565,0.04706603,-0.18915655,-0.061876502,-0.038887653,0.107014254,-0.07312649,-0.13465227,0.09247875,-0.018928457,-0.052507915,0.04959348,-0.06317272,1.0,-1.0,-1.0,-1.0,1.0,1.0,-1.0,1.0,1.0,-1.0,1.0,-0.9068739,1.0,-1.0,1.0,1.0,-1.0,1.0,1.0,-1.0,1.0,-1.0,-1.0,-1.0
2025-07-21 13:11:16.560,2.1600000000000015,2160,108,0.009685461,-0.22730577,-0.028938238,-0.034549825,0.002631972,0.039843816,0.0,0.0,0.0,-0.015290871,0.11714201,-0.13966167,-0.062873535,-0.12810233,-0.3626236,0.122170515,0.09160222,0.18091522,0.12918855,-0.024288928,0.2005744,-0.10085534,0.07664313,-0.17765343,0.049485277,0.059842076,0.009431485,0.0625632,-0.0074736616,-0.10087915,0.07857672,-0.08097868,-0.24196291,-0.042797945,1.0,-1.0,1.0,1.0,-1.0,1.0,1.0,-1.0,1.0,-1.0,-1.0,-1.0,1.0,0.34105533,1.0,-1.0,1.0,0.9618189,0.017527265,1.0,1.0,-1.0,1.0,1.0
2025-07-21 13:11:16.576,2.1800000000000015,2180,109,0.21081446,0.3675219,-0.0013529139,-0.05014202,0.059492815,0.01169233,0.0,0.0,0.0,-0.015104634,0.13792215,-0.14167549,-0.03349743,-0.14446759,-0.3471657,0.12725787,0.07547677,0.21678397,0.1412533,-0.050010856,0.20510647,-0.052429248,-0.04648368,0.13029058,0.05657321,0.029777734,0.094406255,0.04248375,-0.028796779,0.04292502,-0.041754358,-0.08723572,0.043595683,0.16901001,1.0,0.34105533,1.0,-1.0,1.0,0.9618189,0.017527265,1.0,1.0,-1.0,1.0,1.0,1.0,-1.0,-1.0,1.0,-1.0,1.0,1.0,-1.0,1.0,-1.0,-1.0,-1.0
2025-07-21 13:11:16.595,2.2000000000000015,2200,110,0.07829125,-0.24131255,-0.12142955,-0.023287084,-0.02318593,0.0075249025,0.0,0.0,0.0,-0.0148824975,0.14866406,-0.16433498,-0.046829708,-0.119775824,-0.35829723,0.12006585,0.09665132,0.21443622,0.14506379,-0.058085572,0.1894117,-0.06427698,-0.0097837625,-0.054377235,-0.047835663,0.13440476,-0.006650952,-0.029546939,0.0060042543,-0.11109026,-0.0037050357,-0.060333196,-0.2221763,-0.105284706,1.0,-1.0,-1.0,1.0,-1.0,1.0,1.0,-1.0,1.0,-1.0,-1.0,-1.0,1.0,-1.0,1.0,-1.0,1.0,1.0,1.0,1.0,1.0,-1.0,-1.0,1.0
2025-07-21 13:11:16.614,2.2200000000000015,2220,111,-0.015480628,-0.1913815,-0.1552396,-0.003456784,0.04481185,-0.034840364,0.0,0.0,0.0,-0.014514985,0.14418209,-0.22250578,-0.0032598588,-0.120378695,-0.34502447,0.11048187,0.117086045,0.24031156,0.1418243,-0.07690207,0.107020766,-0.031064216,-0.013406693,-0.03176837,0.1230401,-0.093318075,-0.010294283,-0.076171555,0.019094326,0.02225449,0.03461323,-0.076314345,-0.110895485,0.10213395,1.0,-1.0,1.0,-1.0,1.0,1.0,1.0,1.0,1.0,-1.0,-1.0,1.0,1.0,0.612791,-1.0,-1.0,1.0,1.0,-1.0,-1.0,1.0,-1.0,1.0,-1.0
2025-07-21 13:11:16.634,2.2400000000000015,2240,112,-0.09243961,0.09016849,-0.079843305,-0.023984654,0.07180396,0.012745203,0.0,0.0,0.0,-0.011984534,0.15167923,-0.20037663,-0.042848177,-0.13154744,-0.31619227,0.116694756,0.074272476,0.23841818,0.15009393,-0.10552066,0.11996671,-0.053547665,-0.015515279,0.1283907,-0.104395725,-0.07805481,0.13501129,0.05799345,-0.044719998,0.022944465,0.0668053,-0.056000166,0.13394707,-0.11326836,1.0,0.612791,-1.0,-1.0,1.0,1.0,-1.0,-1.0,1.0,-1.0,1.0,-1.0,1.0,-1.0,-0.36488765,1.0,-1.0,1.0,1.0,-1.0,1.0,-1.0,-1.0,-1.0
2025-07-21 13:11:16.659,2.2600000000000016,2260,113,-0.11058162,-0.25657126,-0.0016218073,0.02087753,0.055564556,0.028326724,0.0,0.0,0.0,-0.010005306,0.16265818,-0.18481596,-0.039391387,-0.11832605,-0.32298118,0.12629804,0.0942544,0.20596822,0.14068982,-0.10715624,0.1080298,-0.07131262,0.111538105,-0.098775275,-0.067296244,0.030441975,-0.11070042,0.036051195,0.11366495,-0.13603182,-0.0013791149,0.022778811,-0.109074466,-0.10943995,1.0,-1.0,-0.36488765,1.0,-1.0,1.0,1.0,-1.0,1.0,-1.0,-1.0,-1.0,1.0,-1.0,1.0,-1.0,1.0,1.0,1.0,1.0,1.0,-1.0,-1.0,1.0
2025-07-21 13:11:16.678,2.2800000000000016,2280,114,0.07883195,0.093600154,0.06115686,0.016541036,0.0342667,0.00309886,0.0,0.0,0.0,-0.009098771,0.17316656,-0.21789642,-0.0063388254,-0.12902538,-0.3150978,0.1264984,0.116527125,0.21837975,0.14323081,-0.117048495,0.009218571,-0.034498822,-0.01478956,-0.09614599,0.00676595,-0.017219065,-0.0006049052,0.02942441,0.06222106,0.07551141,0.056800604,-0.06763544,-0.24720569,0.11736523,1.0,-1.0,1.0,-1.0,1.0,1.0,1.0,1.0,1.0,-1.0,-1.0,1.0,1.0,1.0,1.0,1.0,1.0,-0.49928218,-1.0,-1.0,1.0,-1.0,1.0,-1.0
2025-07-21 13:11:16.695,2.3000000000000016,2300,115,0.08669189,0.41619432,-0.033979207,-0.0035693466,0.052644905,0.033422854,0.0,0.0,0.0,-0.009259295,0.16857353,-0.22239804,0.013943747,-0.11959273,-0.26201373,0.0786514,0.092622586,0.23171033,0.15130892,-0.12961568,0.0098723285,-0.05726061,-0.06586841,0.060223445,0.07422322,0.006003489,0.16621968,-0.16303848,-0.13018776,0.046858065,0.057574414,-0.07476307,0.042955626,-0.115298696,1.0,1.0,1.0,1.0,1.0,-0.49928218,-1.0,-1.0,1.0,-1.0,1.0,-1.0,1.0,-1.0,1.0,1.0,-1.0,-1.0,-1.0,-1.0,1.0,-1.0,1.0,1.0
2025-07-21 13:11:16.715,2.3200000000000016,2320,116,-0.10713078,-0.028167266,-0.08904797,-0.06960426,0.038651057,0.024315767,0.0,0.0,0.0,-0.00921162,0.17367783,-0.23800695,0.027147619,-0.08721387,-0.26836473,0.039315052,0.052328963,0.22533062,0.1564838,-0.14388011,0.044933073,-0.03276776,0.040715136,-0.15548077,-0.012035741,0.053342633,-0.095500015,-0.07493434,-0.026067365,2.1661435e-06,0.08102885,-0.081358664,0.09143598,0.14246136,1.0,-1.0,1.0,1.0,-1.0,-1.0,-1.0,-1.0,1.0,-1.0,1.0,1.0,1.0,-1.0,1.0,-1.0,1.0,-1.0,1.0,1.0,-1.0,-1.0,1.0,1.0
2025-07-21 13:11:16.738,2.3400000000000016,2340,117,0.082700044,0.019269671,0.08221545,-0.028306432,0.026155215,-0.01894095,0.0,0.0,0.0,-0.007695396,0.17267978,-0.26881596,0.060868718,-0.08855599,-0.24037652,0.0048662564,0.072865546,0.2646961,0.0995402,-0.14073166,0.10140145,0.0059634433,0.031378064,-0.077811494,0.010335595,-0.028131906,0.10887486,-0.05774841,0.038147464,0.14140634,-0.105067275,-0.079032995,0.110093445,0.048111968,1.0,-1.0,1.0,-1.0,1.0,-1.0,1.0,1.0,-1.0,-1.0,1.0,1.0,1.0,0.3227839,1.0,-1.0,-1.0,-1.0,-1.0,-1.0,-1.0,-1.0,0.693822,1.0
2025-07-21 13:11:16.759,2.3600000000000017,2360,118,-0.25102952,0.28071967,-0.055852536,0.0087101245,-0.0021202564,-0.010376553,0.0,0.0,0.0,-0.0076662716,0.16579995,-0.2572908,0.071924895,-0.09867872,-0.25594863,-0.023521623,0.037970725,0.24515598,0.06739327,-0.14941837,0.13989931,0.0178108,-0.011858568,0.014121586,-0.038463198,-0.07563135,-0.02949011,-0.10526419,-0.045039915,-0.08909568,-0.07852507,-0.07526771,0.10439134,-0.029902648,1.0,0.3227839,1.0,-1.0,-1.0,-1.0,-1.0,-1.0,-1.0,-1.0,0.693822,1.0,1.0,-1.0,1.0,-1.0,-1.0,1.0,1.0,1.0,-1.0,1.0,-1.0,1.0
2025-07-21 13:11:16.777,2.3800000000000017,2380,119,-0.09658412,-0.21576113,0.108252674,-0.033833686,0.013723452,0.002098782,0.0,0.0,0.0,-0.006830139,0.186234,-0.26253438,0.06842713,-0.107080705,-0.275553,0.0019053746,0.054086413,0.267039,0.0330773,-0.13476466,0.12151833,0.03237543,0.028040865,-0.049633622,0.020556841,-0.024402497,-0.13008124,-0.007467065,0.064732626,0.016102342,-0.08343079,0.0005642987,-0.082150646,0.025127772,1.0,-1.0,1.0,-1.0,-1.0,1.0,1.0,1.0,-1.0,1.0,-1.0,1.0,1.0,1.0,-1.0,-1.0,-1.0,1.0,-1.0,-1.0,-1.0,-1.0,1.0,1.0
2025-07-21 13:11:16.795,2.4000000000000017,2400,120,-0.10794169,0.07387481,0.0447089,-0.06101735,0.0030489487,0.013743962,0.0,0.0,0.0,-0.006225222,0.18044609,-0.24409822,0.036397804,-0.11627053,-0.31115082,0.025339149,0.028840503,0.2521679,-0.00031509533,-0.14930785,0.14556858,0.048238207,0.030965146,0.12587446,-0.043399226,-0.01555804,0.012968209,0.037101623,-0.06485106,-0.121180356,-0.11870295,-0.051698636,0.08225393,0.02002708,1.0,1.0,-1.0,-1.0,-1.0,1.0,-1.0,-1.0,-1.0,-1.0,1.0,1.0,-1.0,-1.0,1.0,-1.0,-1.0,-1.0,1.0,1.0,-1.0,1.0,-1.0,1.0
2025-07-21 13:11:16.815,2.4200000000000017,2420,121,-0.12263324,-0.04819496,0.15451448,-0.016133137,-0.016926855,-0.0066215787,0.0,0.0,0.0,-0.0077930815,0.16330001,-0.23605713,0.059830103,-0.13393877,-0.32820806,0.002317086,0.04393766,0.25132352,-0.026348904,-0.108757675,0.14384823,0.083546266,-0.017163917,-0.10431376,0.019816184,-0.058251873,-0.00906082,-0.03745232,0.04882293,0.0026284298,-0.0047184792,0.03624924,-0.01505902,-0.009759305,-1.0,-1.0,1.0,-1.0,-1.0,-1.0,1.0,1.0,-1.0,1.0,-1.0,1.0,1.0,1.0,-0.09231322,-1.0,-1.0,1.0,-1.0,-1.0,-1.0,-1.0,1.0,1.0
2025-07-21 13:11:16.835,2.4400000000000017,2440,122,0.10084417,0.1141453,0.12654056,-0.026327,-0.029546363,-0.029834531,0.0,0.0,0.0,-0.010404278,0.16233206,-0.21119758,0.030432219,-0.15116175,-0.34967512,0.009963398,0.007934342,0.22751223,-0.045417167,-0.11659932,0.16590266,0.09117975,0.063356176,0.1343665,0.026111048,-0.04833853,-0.0031886348,0.07162693,-0.10378287,-0.1060786,0.022028465,-0.028896889,0.096204005,0.07586853,1.0,1.0,-0.09231322,-1.0,-1.0,1.0,-1.0,-1.0,-1.0,-1.0,1.0,1.0,-1.0,-1.0,1.0,-1.0,-1.0,-1.0,1.0,1.0,-1.0,1.0,-1.0,1.0
2025-07-21 13:11:16.860,2.4600000000000017,2460,123,0.018017437,-0.20418608,0.16481726,-0.05871303,-0.018157832,0.00914306,0.0,0.0,0.0,-0.013373574,0.1520199,-0.22005512,0.04766155,-0.1462585,-0.3612527,-0.01806249,0.020790655,0.21881571,-0.0668046,-0.08615641,0.1809473,0.10032545,0.05345257,0.003133667,0.11280095,-0.07719418,-0.012562463,-0.07499011,0.09381349,0.11518676,-0.06920681,0.019163249,0.0106501235,0.1034806,-1.0,-1.0,1.0,-1.0,-1.0,-1.0,1.0,1.0,-1.0,1.0,-1.0,1.0,1.0,1.0,0.7770899,-1.0,-1.0,1.0,1.0,-1.0,-1.0,-1.0,0.9922079,1.0
2025-07-21 13:11:16.879,2.4800000000000018,2480,124,0.055660903,0.11767773,0.11628474,0.03447951,0.029731194,-0.02389186,0.0,0.0,0.0,-0.016305985,0.16153827,-0.214593,0.056192786,-0.14359765,-0.36521146,0.0031964781,0.055933557,0.19658838,-0.07824376,-0.11152772,0.20016481,0.09709908,0.061777968,0.0615243,0.08140245,0.011726886,-0.0038438048,0.12154794,0.10580372,-0.10934795,-0.049274378,-0.03562762,0.0804115,0.01824232,1.0,1.0,0.7770899,-1.0,-1.0,1.0,1.0,-1.0,-1.0,-1.0,0.9922079,1.0,-1.0,1.0,-1.0,-1.0,-1.0,1.0,1.0,1.0,-1.0,1.0,-1.0,1.0
2025-07-21 13:11:16.897,2.5000000000000018,2500,125,0.11530891,0.045387182,0.13704382,-0.042768106,0.02033985,0.01765847,0.0,0.0,0.0,-0.019968873,0.13021086,-0.15936118,0.01657301,-0.14672013,-0.382936,0.036763526,0.07467459,0.1908102,-0.090125225,-0.08636074,0.21488841,0.11565202,-0.09383148,0.22719511,-0.035284966,-0.05532553,-0.04417517,0.10498244,0.05579032,0.090413034,-0.09337399,0.09183427,-0.08623332,-0.028567923,-1.0,1.0,-1.0,-1.0,-1.0,1.0,1.0,1.0,-1.0,1.0,-1.0,1.0,1.0,1.0,-1.0,-1.0,-1.0,1.0,-1.0,-1.0,1.0,-1.0,1.0,-1.0
2025-07-21 13:11:16.917,2.520000000000002,2520,126,-0.027223459,0.30522352,-0.00089670275,-0.04913291,0.029861096,0.031255964,0.0,0.0,0.0,-0.022566775,0.1441048,-0.07465789,-0.026224738,-0.16295314,-0.38020766,0.062173236,0.03411488,0.19267808,-0.046611834,-0.08900107,0.24756695,0.06390387,-0.0356299,0.13605635,-0.15966764,-0.10118662,-0.05263233,0.05758235,-0.117690384,-0.12902613,0.11505928,-0.047673475,0.15080747,-0.098399624,1.0,1.0,-1.0,-1.0,-1.0,1.0,-1.0,-1.0,1.0,-1.0,1.0,-1.0,-1.0,-1.0,-1.0,-1.0,-1.0,1.0,1.0,1.0,1.0,1.0,-1.0,-1.0
2025-07-21 13:11:16.943,2.540000000000002,2540,127,-0.04911638,-0.04278704,0.116316244,0.0077264425,-0.012454727,-0.038551793,0.0,0.0,0.0,-0.023444578,0.12165591,-0.06810429,-0.04993679,-0.15934552,-0.3988805,0.075794764,0.06873843,0.18124512,-0.018673005,-0.07516805,0.24676692,0.028707696,-0.0072231665,0.04472454,-0.066858724,0.029159477,-0.027760308,0.025159262,0.06050948,0.111241035,0.11114329,0.014559035,-0.059530806,-0.15475826,-1.0,-1.0,-1.0,-1.0,-1.0,1.0,1.0,1.0,1.0,1.0,-1.0,-1.0,1.0,1.0,-1.0,-1.0,-1.0,1.0,-1.0,-1.0,1.0,-1.0,1.0,-1.0
2025-07-21 13:11:16.961,2.560000000000002,2560,128,-0.15257744,0.21320339,-0.051771592,-0.04162433,-0.012652186,0.0028460687,0.0,0.0,0.0,-0.025311766,0.13399144,-0.022108303,-0.07304374,-0.17832015,-0.40878317,0.07838703,0.06437437,0.17245822,0.0042073596,-0.080581725,0.2835914,-0.0022435947,-0.028277984,0.19451365,-0.069068864,-0.03415926,0.03588328,-0.00030200245,0.005791013,0.0053669987,0.038098067,-0.026210496,0.1254238,-0.14995384,1.0,1.0,-1.0,-1.0,-1.0,1.0,-1.0,-1.0,1.0,-1.0,1.0,-1.0,1.0,-1.0,-1.0,-1.0,-1.0,1.0,1.0,-1.0,1.0,1.0,-1.0,-1.0
2025-07-21 13:11:16.978,2.580000000000002,2580,129,-0.23666249,-0.27199543,0.22702596,-0.066420235,-0.021422891,-0.013843592,0.0,0.0,0.0,-0.02660716,0.13351496,-0.02849468,-0.07626514,-0.17430949,-0.41490853,0.0903736,0.08551688,0.13055122,0.036872942,-0.058324736,0.26551163,-0.019948404,0.043357536,-0.20119052,-0.03325462,0.0316482,0.031006165,0.07504359,0.00319574,-0.23710176,0.009717197,0.11265196,-0.05498428,-0.10855731,1.0,-1.0,-1.0,-1.0,-1.0,1.0,1.0,-1.0,1.0,1.0,-1.0,-1.0,-1.0,0.98724085,1.0,-1.0,1.0,1.0,1.0,1.0,1.0,-0.11578007,-0.16815504,-1.0
2025-07-21 13:11:16.996,2.600000000000002,2600,130,0.15837377,0.19876686,0.016140286,-0.018068561,-0.021524241,-0.001238582,0.0,0.0,0.0,-0.02957243,0.12810159,-0.0641262,-0.06679702,-0.19366355,-0.39188755,0.08080568,0.09630171,0.12078435,0.03894651,-0.049781032,0.23441678,-0.037801716,-0.10042627,-0.09845565,0.030834451,0.00534157,0.019873979,0.020192185,0.055933516,0.1886437,0.0989837,-0.017150857,-0.098704286,-0.10423728,-1.0,0.98724085,1.0,-1.0,1.0,1.0,1.0,1.0,1.0,-0.11578007,-0.16815504,-1.0,1.0,-1.0,-1.0,1.0,-1.0,1.0,-1.0,-1.0,1.0,-1.0,1.0,-1.0
2025-07-21 13:11:17.018,2.620000000000002,2620,131,-0.017559461,0.12617345,-0.05936972,-0.01714899,-0.012456337,0.012398525,0.0,0.0,0.0,-0.031592306,0.12000275,-0.111919686,-0.07433787,-0.18820187,-0.40369433,0.09146335,0.08757465,0.12685646,0.068480566,-0.06586498,0.24344376,-0.05832872,0.005075759,-0.16138992,-0.09605225,0.04322488,-0.040482454,-0.01576625,-0.010777408,-0.08184928,0.0057904553,-0.023904763,0.12808499,0.020437863,1.0,-1.0,-1.0,1.0,-1.0,1.0,-1.0,-1.0,1.0,-1.0,1.0,-1.0,1.0,1.0,1.0,-1.0,1.0,1.0,1.0,1.0,1.0,1.0,-1.0,-1.0
2025-07-21 13:11:17.042,2.640000000000002,2640,132,0.20109153,-0.23386526,-0.10442864,-0.08437269,-0.0768736,0.03706965,0.0,0.0,0.0,-0.030709976,0.1399889,-0.10731947,-0.047547836,-0.17481056,-0.3802496,0.09504654,0.10312593,0.17424151,0.08099329,-0.03965845,0.24727696,-0.0877,-0.0034886985,0.1064624,0.070505574,-0.008114633,0.15132767,0.013813493,-0.0021508273,0.15097164,0.11140174,0.009467059,-0.022420429,-0.09954294,1.0,1.0,1.0,-1.0,1.0,1.0,1.0,1.0,1.0,1.0,-1.0,-1.0,1.0,-1.0,-1.0,1.0,-1.0,1.0,-1.0,-1.0,1.0,-1.0,1.0,-1.0
2025-07-21 13:11:17.060,2.660000000000002,2660,133,-0.050976302,-0.15747179,-0.16014463,-0.075223625,-0.048281,-0.027567418,0.0,0.0,0.0,-0.029039416,0.15118602,-0.12930486,-0.06539464,-0.15712984,-0.39382702,0.10691625,0.075545266,0.17631723,0.09766376,-0.055736337,0.25887027,-0.09924821,0.059367266,-0.17448892,-0.07507804,0.05794739,-0.09202243,-0.01791629,-0.033692703,-0.045109287,0.08401551,-0.122106425,0.137455,-0.029213753,1.0,-1.0,-1.0,1.0,-1.0,1.0,-1.0,-1.0,1.0,-1.0,1.0,-1.0,-1.0,1.0,0.112357445,-1.0,1.0,1.0,1.0,-1.0,1.0,1.0,-1.0,-1.0
2025-07-21 13:11:17.078,2.680000000000002,2680,134,-0.10288771,-0.10138322,0.10018926,0.022191841,-0.05559527,0.0042248205,0.0,0.0,0.0,-0.026654026,0.10424158,-0.11955978,-0.05557713,-0.16314673,-0.38758582,0.09635838,0.091007285,0.14722392,0.10115444,-0.03116471,0.2345633,-0.09739582,-0.15709077,0.09280376,-0.009386746,-0.021253629,0.014244031,-0.0012866303,0.015560831,-0.14184247,0.08516979,0.037253514,-0.20744862,-0.013068413,-1.0,1.0,0.112357445,-1.0,1.0,1.0,1.0,-1.0,1.0,1.0,-1.0,-1.0,1.0,-1.0,-1.0,-1.0,-1.0,1.0,-1.0,1.0,1.0,-1.0,1.0,-1.0
2025-07-21 13:11:17.097,2.700000000000002,2700,135,-0.02264139,0.17964587,-0.12986231,-0.032162648,-0.03985894,0.043915264,0.0,0.0,0.0,-0.026696144,0.09787949,-0.12538439,-0.06433546,-0.16922536,-0.38974175,0.108354494,0.06603487,0.14166908,0.105704494,-0.04292665,0.23885202,-0.117721856,-0.0031757161,-0.011047399,-0.09331244,0.023939256,0.005541386,0.04682714,-0.097055666,0.06750633,-0.043090425,-0.017072052,0.050247233,-0.08756682,1.0,-1.0,-1.0,-1.0,-1.0,1.0,-1.0,1.0,1.0,-1.0,1.0,-1.0,-1.0,1.0,-1.0,-1.0,-1.0,1.0,1.0,-1.0,1.0,1.0,-1.0,-1.0
2025-07-21 13:11:17.117,2.720000000000002,2720,136,-0.031123271,0.017100858,0.11669068,-0.038149115,0.009331594,0.010194169,0.0,0.0,0.0,-0.026019642,0.069431074,-0.110766396,-0.08450668,-0.16983774,-0.38831803,0.10544346,0.07927574,0.14515258,0.11208392,-0.011590865,0.21168567,-0.12835051,-0.03400495,0.019104876,-0.07459587,-0.027271507,-0.0035641538,-0.007014839,0.053490277,0.01127239,-0.0076056058,0.08814159,-0.15222327,-0.023594307,-1.0,1.0,-1.0,-1.0,-1.0,1.0,1.0,-1.0,1.0,1.0,-1.0,-1.0,1.0,-1.0,1.0,-0.8132041,-1.0,1.0,-1.0,-1.0,1.0,-1.0,1.0,-1.0
2025-07-21 13:11:17.143,2.740000000000002,2740,137,-0.037484016,0.25847936,-0.10813416,-0.041616626,-0.061910298,-0.02137888,0.0,0.0,0.0,-0.026242612,0.080003016,-0.112903126,-0.06348188,-0.18240684,-0.40741292,0.11711268,0.06302912,0.1300622,0.12127781,-0.040424313,0.19853775,-0.13043356,0.026132599,-0.030120086,0.06035086,0.028387206,-0.025581643,0.04575028,-0.051391322,-0.06354583,-0.002106607,-0.12271698,0.11284731,0.04363804,1.0,-1.0,1.0,-0.8132041,-1.0,1.0,-1.0,-1.0,1.0,-1.0,1.0,-1.0,-1.0,1.0,-1.0,-1.0,1.0,1.0,1.0,1.0,1.0,1.0,-1.0,-1.0
2025-07-21 13:11:17.160,2.760000000000002,2760,138,0.19801913,-0.10963991,-0.04846336,-0.06707695,0.019511867,0.018706506,0.0,0.0,0.0,-0.025315793,0.048042435,-0.08909079,-0.08551168,-0.17471887,-0.3734726,0.121514566,0.083751954,0.15079083,0.1202004,-0.003397094,0.19737428,-0.13681692,-0.169856,0.19745153,-0.07961954,0.054728106,0.08398559,-0.032340094,0.061692767,0.1078201,0.0027960276,0.06157202,-0.06684904,0.060283884,-1.0,1.0,-1.0,-1.0,1.0,1.0,1.0,1.0,1.0,1.0,-1.0,-1.0,1.0,-1.0,-1.0,1.0,-1.0,1.0,-1.0,-1.0,1.0,-1.0,1.0,-1.0
2025-07-21 13:11:17.178,2.780000000000002,2780,139,-0.116189726,-0.076302566,-0.111485235,-0.027817786,-0.020629695,0.0014475727,0.0,0.0,0.0,-0.024643596,0.06262873,-0.09215966,-0.078335896,-0.16240539,-0.38199723,0.11264706,0.08378236,0.15649912,0.13976802,-0.018959446,0.2272488,-0.14679559,0.05650266,-0.1900498,0.032838393,0.09389117,-0.021363338,-0.045786493,-0.06536604,-0.01802431,-0.008998451,-0.03665753,0.082325004,-0.061829474,1.0,-1.0,-1.0,1.0,-1.0,1.0,-1.0,-1.0,1.0,-1.0,1.0,-1.0,1.0,-0.5804072,1.0,-1.0,1.0,1.0,1.0,-1.0,1.0,-1.0,-1.0,-1.0
2025-07-21 13:11:17.198,2.800000000000002,2800,140,-0.048654765,-0.13662131,0.02350037,0.00820596,-0.039775595,-0.010156177,0.0,0.0,0.0,-0.022115428,0.07082122,-0.10441428,-0.042773843,-0.15277617,-0.38746732,0.11614004,0.09244356,0.12336289,0.1313453,-0.058595512,0.20577905,-0.13505042,0.031872064,-0.07372726,0.12219593,0.0050272536,-0.0014646833,-0.012681734,0.002100972,-0.12028017,-0.05383371,0.004100387,-0.22201873,-0.016981903,1.0,-0.5804072,1.0,-1.0,1.0,1.0,1.0,-1.0,1.0,-1.0,-1.0,-1.0,1.0,-1.0,-0.98382944,-1.0,1.0,1.0,0.3057367,1.0,1.0,-1.0,1.0,-1.0
2025-07-21 13:11:17.218,2.820000000000002,2820,141,0.15228374,0.1154537,0.0069294,-0.019928668,0.024010818,0.04018205,0.0,0.0,0.0,-0.021635769,0.080009155,-0.16708136,-0.07323957,-0.17062192,-0.34537396,0.10620613,0.09731069,0.12258076,0.12990734,-0.082895696,0.2020655,-0.13829023,0.04368818,-0.17325868,-0.05112323,-0.031589657,0.12956639,0.026422845,-0.039765324,0.09630479,0.051934026,-0.12221681,0.09582232,-0.00048144662,1.0,-1.0,-0.98382944,-1.0,1.0,1.0,0.3057367,1.0,1.0,-1.0,1.0,-1.0,-1.0,1.0,1.0,1.0,-1.0,1.0,1.0,-1.0,1.0,-1.0,-1.0,-1.0
2025-07-21 13:11:17.243,2.840000000000002,2840,142,0.027299296,-0.14518441,-0.0007276046,-0.027175743,-0.039798506,0.0037864347,0.0,0.0,0.0,-0.022813449,0.06747418,-0.16458912,-0.023909813,-0.15887898,-0.34998396,0.119499564,0.101221696,0.1337979,0.12902826,-0.08423632,0.17602085,-0.13575444,-0.06752047,0.15282317,0.004985014,0.1357101,0.037006654,0.06519749,0.11912304,-0.04348004,0.06580276,-0.09423829,-0.13262463,0.019216483,-1.0,1.0,1.0,1.0,-1.0,1.0,1.0,-1.0,1.0,-1.0,-1.0,-1.0,1.0,-1.0,-1.0,-1.0,-1.0,-1.0,-1.0,1.0,1.0,1.0,-1.0,1.0
2025-07-21 13:11:17.260,2.860000000000002,2860,143,-0.12118173,-0.07808948,-0.07355749,-0.024825351,-0.024248594,-0.02592338,0.0,0.0,0.0,-0.022734374,0.06974417,-0.17116122,-0.052200373,-0.14892001,-0.36409184,0.06348358,0.08338667,0.17377736,0.13537548,-0.062873855,0.074004635,-0.093780115,0.083410606,-0.07703619,-0.12444609,-0.07441013,-0.054912604,-0.15525684,-0.07802918,0.13703029,-0.0642991,0.0976533,-0.181654,0.17691007,1.0,-1.0,-1.0,-1.0,-1.0,-1.0,-1.0,1.0,1.0,1.0,-1.0,1.0,1.0,-1.0,-1.0,0.10593124,1.0,-1.0,-1.0,-0.112934224,1.0,-1.0,1.0,1.0
2025-07-21 13:11:17.278,2.880000000000002,2880,144,-0.061527763,-0.02048875,0.05636942,-0.054416638,0.011447349,0.016102633,0.0,0.0,0.0,-0.02139166,0.09320848,-0.21318358,-0.07047266,-0.12806226,-0.34192985,0.02421244,0.053939164,0.16893654,0.14602149,-0.060844652,0.032217946,-0.05284356,0.06374095,-0.13176998,-0.031753365,0.018189207,0.13693525,-0.15967476,-0.10388332,-0.064142995,0.045728583,-0.071501106,0.030146893,0.07645213,1.0,-1.0,-1.0,0.10593124,1.0,-1.0,-1.0,-0.112934224,1.0,-1.0,1.0,1.0,1.0,-1.0,1.0,1.0,1.0,-1.0,-1.0,1.0,-1.0,-1.0,1.0,1.0
2025-07-21 13:11:17.299,2.900000000000002,2900,145,0.19310267,0.0054874825,-0.07904117,-0.029418627,0.011699281,0.026022077,0.0,0.0,0.0,-0.021368615,0.094665274,-0.24654865,-0.024893306,-0.09543067,-0.30737516,-0.0224484,0.020241037,0.20238322,0.0858143,-0.08535954,0.083313264,-0.023908965,0.042968202,-0.10975645,0.038110074,0.14177048,0.058125384,-0.106071204,0.012197856,0.16396175,-0.057275455,-0.123491496,0.1275554,0.004143985,1.0,-1.0,1.0,1.0,1.0,-1.0,-1.0,1.0,-1.0,-1.0,1.0,1.0,1.0,-1.0,-1.0,-1.0,1.0,-1.0,1.0,1.0,-1.0,-1.0,-1.0,1.0
2025-07-21 13:11:17.321,2.920000000000002,2920,146,0.1060033,-0.17298494,0.0072225416,-0.0015270706,0.032724347,-0.017137915,0.0,0.0,0.0,-0.020953668,0.11203574,-0.26764497,-0.05116531,-0.10816851,-0.23759785,-0.03974989,0.039492495,0.2484148,0.0528171,-0.08565365,0.092865065,-0.005531131,0.040551625,-0.13540746,0.019195963,-0.045664705,0.19593717,0.007320877,0.06242644,0.08835783,-0.12157438,0.026438886,-0.021811066,0.06875945,1.0,-1.0,-1.0,-1.0,1.0,-1.0,1.0,1.0,-1.0,-1.0,-1.0,1.0,1.0,1.0,1.0,0.57440585,-1.0,-1.0,-1.0,-1.0,1.0,-1.0,1.0,1.0
2025-07-21 13:11:17.343,2.940000000000002,2940,147,-0.20353428,-0.026270844,-0.16032578,0.0070728613,0.025695877,0.0074954373,0.0,0.0,0.0,-0.020947983,0.13141552,-0.26703778,-0.031045396,-0.096253216,-0.21970892,-0.06803091,0.02318409,0.24071442,0.06199706,-0.11262159,0.10176684,0.0229398,-0.037435595,0.05236208,0.004837277,0.07468199,-0.07974128,-0.07217199,-0.021597492,-0.02199763,0.021652786,-0.03482364,0.13666971,0.10177949,1.0,1.0,1.0,0.57440585,-1.0,-1.0,-1.0,-1.0,1.0,-1.0,1.0,1.0,1.0,-1.0,1.0,-1.0,1.0,-1.0,1.0,1.0,-1.0,1.0,-1.0,1.0
2025-07-21 13:11:17.359,2.960000000000002,2960,148,-0.104267426,-0.16501501,0.00083146093,-0.038737193,0.028450754,-0.0048543173,0.0,0.0,0.0,-0.018731548,0.14266667,-0.27551323,-0.003238161,-0.093432195,-0.19918615,-0.08638553,0.04724487,0.26524284,0.016386105,-0.08007222,0.09720238,0.038912084,-0.01050559,-0.04999906,0.13552791,0.0032358393,0.05535047,-0.06681158,-0.0025337066,0.058939584,-0.082157664,0.115425095,-0.11710896,0.040506758,1.0,-1.0,1.0,-1.0,1.0,-1.0,1.0,1.0,-1.0,1.0,-1.0,1.0,1.0,1.0,1.0,-1.0,-1.0,1.0,-1.0,1.0,-1.0,-1.0,1.0,1.0
2025-07-21 13:11:17.378,2.980000000000002,2980,149,0.084305055,0.076882936,-0.066296145,-0.013586998,-0.040098,0.01599853,0.0,0.0,0.0,-0.017436763,0.1597952,-0.26968238,0.030418668,-0.117770344,-0.2090675,-0.05902399,0.021850593,0.28560677,-0.012904299,-0.09598024,0.11542465,0.04770453,-0.017055405,0.13391149,0.020644046,-0.08926964,-0.12787122,0.09822939,-0.092548594,-0.0042355275,-0.08393823,0.012647465,0.17371303,-0.02069672,1.0,1.0,1.0,-1.0,-1.0,1.0,-1.0,1.0,-1.0,-1.0,1.0,1.0,-1.0,-1.0,-1.0,-1.0,-1.0,1.0,1.0,-1.0,-1.0,1.0,-1.0,1.0
2025-07-21 13:11:17.398,3.000000000000002,3000,150,-0.07559187,-0.09861871,0.095950104,0.021854848,0.029509682,0.009843682,0.0,0.0,0.0,-0.016213939,0.13879316,-0.27573878,-0.005754055,-0.13100703,-0.2351068,-0.01474642,0.035542477,0.24991915,-0.038300235,-0.059923664,0.12701684,0.0698966,-0.0008475807,-0.08111751,-0.019208364,0.013389057,-0.10703635,0.10145348,0.066809304,-0.2122438,-0.10049313,0.08535438,0.0067039076,0.011567915,-1.0,-1.0,-1.0,-1.0,-1.0,1.0,1.0,-1.0,-1.0,1.0,-1.0,1.0,-1.0,1.0,-1.0,-1.0,-1.0,1.0,1.0,1.0,1.0,-1.0,1.0,1.0
2025-07-21 13:11:17.419,3.0200000000000022,3020,151,0.24052598,0.16179712,0.008947949,-0.0153592555,0.029244099,-0.0069850273,1.5,0.0,0.0,-0.01654184,0.083454154,-0.2524316,-0.039547317,-0.12934114,-0.27078244,0.008628923,0.054991934,0.22570172,-0.010653663,-0.08295252,0.1412784,0.08061286,-0.14837787,0.098841324,-0.044677384,0.010467505,0.007384257,-0.0015776586,0.013388253,0.13794911,0.10158118,-0.07649209,0.17631677,0.06582065,-1.0,1.0,-1.0,-1.0,-1.0,1.0,1.0,1.0,1.0,-1.0,1.0,1.0,1.0,1.0,1.0,-1.0,0.9545249,-1.0,1.0,-1.0,-1.0,-1.0,-1.0,1.0
2025-07-21 13:11:17.443,3.0400000000000023,3040,152,0.08594161,0.04764912,-0.24242489,0.01273165,-0.02689158,-0.03998697,1.5,0.0,0.0,-0.017446771,0.095551506,-0.21985914,-0.013898193,-0.13298064,-0.23185518,-0.014553462,0.07224038,0.21248889,-0.030177606,-0.107175246,0.16253054,0.098019265,0.05789966,0.122835286,0.08490985,0.047905028,0.20477185,-0.06855016,0.10168901,-0.0951713,-0.06272854,-0.106566675,0.03736627,0.08669844,1.0,1.0,1.0,-1.0,0.9545249,-1.0,1.0,-1.0,-1.0,-1.0,-1.0,1.0,-1.0,1.0,1.0,-1.0,-1.0,1.0,1.0,-1.0,-1.0,1.0,1.0,1.0
2025-07-21 13:11:17.461,3.0600000000000023,3060,153,0.032823317,0.16077697,0.030258575,-0.06688626,0.05776905,-0.038081624,1.5,0.0,0.0,-0.014762644,0.100796215,-0.17456031,0.0022705216,-0.14209981,-0.24810317,0.003677559,0.09031824,0.11185207,-0.051212378,-0.1010232,0.19042873,0.10555544,-0.08243587,0.078127496,0.035569523,-0.028279614,-0.1115324,0.00616817,-0.0064847027,-0.22253726,-0.09458453,0.090241686,0.1629923,0.08242026,-1.0,1.0,1.0,-1.0,-1.0,1.0,1.0,-1.0,-1.0,1.0,1.0,1.0,1.0,1.0,1.0,-1.0,-1.0,0.21815224,1.0,-1.0,-1.0,1.0,-1.0,1.0
2025-07-21 13:11:17.480,3.0800000000000023,3080,154,-0.13887382,-0.0911441,0.031003447,-0.00041902676,0.02977848,-0.046329465,1.5,0.0,0.0,-0.01288042,0.11055067,-0.12663949,0.01103025,-0.14288785,-0.2723313,0.016861754,0.1104256,0.058780797,-0.056334928,-0.05881581,0.2069047,0.11578192,0.09752207,0.14597413,-0.017831484,-0.014262424,-0.017006623,0.064889915,0.08484388,-0.096984304,-0.065749705,0.037515238,-0.038256474,0.041038364,1.0,1.0,1.0,-1.0,-1.0,0.21815224,1.0,-1.0,-1.0,1.0,-1.0,1.0,-1.0,1.0,1.0,-1.0,-1.0,1.0,1.0,-1.0,-1.0,1.0,1.0,1.0
2025-07-21 13:11:17.502,3.1000000000000023,3100,155,-0.0411782,0.300293,0.04287094,-0.06715714,-0.02817958,0.013753019,1.5,0.0,0.0,-0.012692625,0.08252967,-0.09455807,0.025027595,-0.14723305,-0.3068198,0.043089055,0.12399769,-0.017842159,-0.07668155,-0.030606309,0.21409748,0.113175936,-0.08007383,0.10937982,0.018188808,-0.005325608,-0.054226168,0.09337063,0.030828595,-0.24912737,-0.08530875,0.11812802,0.11889356,0.05332182,-1.0,1.0,1.0,-1.0,-1.0,1.0,1.0,-1.0,-1.0,1.0,1.0,1.0,1.0,1.0,-1.0,-1.0,-1.0,1.0,1.0,1.0,1.0,1.0,-1.0,1.0
2025-07-21 13:11:17.529,3.1200000000000023,3120,156,0.08206763,-0.15779373,-0.04302167,-0.04976338,-0.016399143,0.034496546,1.5,0.0,0.0,-0.013637416,0.09897683,-0.020738933,-0.004709293,-0.15277284,-0.3199288,0.051882647,0.11813899,-0.034077935,-0.043637905,-0.004176312,0.2358131,0.1285001,0.06198997,0.22451553,-0.053619493,-0.008741913,-0.050573986,-0.027427671,0.09006719,0.15070361,0.10612928,0.12279983,-0.0667255,0.050941743,1.0,1.0,-1.0,-1.0,-1.0,1.0,1.0,1.0,1.0,1.0,-1.0,1.0,1.0,-1.0,-1.0,-1.0,1.0,1.0,-1.0,-1.0,1.0,-1.0,1.0,1.0
2025-07-21 13:11:17.547,3.1400000000000023,3140,157,-0.33650288,0.3173206,0.056382045,0.009107753,0.025325581,0.020060893,1.5,0.0,0.0,-0.013648915,0.10912923,0.008656274,-0.044131197,-0.16932619,-0.28696433,0.076138645,0.09668829,-0.033952504,-0.0022801617,-0.036476776,0.25751558,0.12229437,0.07503266,-0.11475165,-0.032300193,-0.10681872,0.03127477,0.021863556,-0.050835792,-0.0083786845,0.116623715,-0.008575337,0.037145972,0.037045773,1.0,-1.0,-1.0,-1.0,1.0,1.0,-1.0,-1.0,1.0,-1.0,1.0,1.0,1.0,0.38589448,1.0,1.0,1.0,1.0,1.0,1.0,1.0,-1.0,-1.0,-1.0
2025-07-21 13:11:17.567,3.1600000000000024,3160,158,0.22216155,-0.13615292,-0.08685332,0.014796393,-0.014283161,0.0065058265,1.5,0.0,0.0,-0.013433726,0.12118793,0.020145427,-0.014348955,-0.13517308,-0.2571272,0.06802672,0.120239586,-0.01427101,0.013706256,-0.04807197,0.24812314,0.08081066,-0.045933176,0.046469375,0.048766732,0.15867318,0.13117048,-0.01021179,-0.015095631,0.041709434,-0.020202525,-0.11003589,-0.20376356,-0.0635266,1.0,0.38589448,1.0,1.0,1.0,1.0,1.0,1.0,1.0,-1.0,-1.0,-1.0,1.0,-1.0,-1.0,-1.0,1.0,1.0,-1.0,1.0,1.0,-1.0,-1.0,-1.0
2025-07-21 13:11:17.589,3.1800000000000024,3180,159,-0.039900944,0.16384977,-0.17975439,-0.024609627,-0.010233821,-0.005547176,1.5,0.0,0.0,-0.01312761,0.11649416,0.010430393,-0.023336971,-0.15392199,-0.21996078,0.08543528,0.08988297,0.039076194,0.021667108,-0.08100603,0.18610188,0.045785956,0.08612544,-0.17759028,-0.042094503,-0.10675743,0.11634814,0.059797075,-0.05274783,0.13752505,0.037788205,-0.07466779,-0.1399163,-0.07849573,1.0,-1.0,-1.0,-1.0,1.0,1.0,-1.0,1.0,1.0,-1.0,-1.0,-1.0,1.0,-1.0,1.0,1.0,1.0,1.0,1.0,-1.0,1.0,-1.0,-1.0,-1.0
2025-07-21 13:11:17.614,3.2000000000000024,3200,160,0.025817093,-0.42359883,-0.053169437,0.0075106225,0.021450322,0.025894852,1.5,0.0,0.0,-0.011489597,0.1476724,-0.07055847,-0.0040893205,-0.110447265,-0.1751663,0.07682005,0.11927809,0.07090729,0.055511452,-0.085305184,0.124262,0.022130823,0.021360649,-0.11875722,0.06004619,0.09279296,0.10047409,0.033121523,0.12836745,-0.048893742,0.13113584,-0.08702158,-0.101378284,-0.0926027,1.0,-1.0,1.0,1.0,1.0,1.0,1.0,-1.0,1.0,-1.0,-1.0,-1.0,1.0,-1.0,1.0,-1.0,1.0,1.0,-1.0,1.0,1.0,-1.0,-1.0,-0.7514917
2025-07-21 13:11:17.633,3.2200000000000024,3220,161,-0.025164127,0.0607283,-0.115950316,0.02688456,-0.013828156,0.045942176,1.5,0.0,0.0,-0.009509663,0.13483213,-0.13234526,0.022072956,-0.119521596,-0.12696135,0.08354034,0.08696432,0.100972936,0.06741459,-0.10234077,0.04858185,-0.0005695831,-0.05339427,-0.07230016,-5.5165558e-05,-0.09825373,0.14410828,0.084656365,-0.087753616,0.13196763,-0.0072261165,-0.008617813,-0.17794685,-0.0034993403,1.0,-1.0,1.0,-1.0,1.0,1.0,-1.0,1.0,1.0,-1.0,-1.0,-0.7514917,1.0,1.0,0.61920816,1.0,1.0,1.0,-1.0,-1.0,1.0,-1.0,1.0,-1.0
2025-07-21 13:11:17.651,3.2400000000000024,3240,162,0.14461951,0.024514688,-0.033059046,-0.037475254,0.049688134,0.039538465,1.5,0.0,0.0,-0.0074092825,0.13732854,-0.11448731,0.04538906,-0.11841405,-0.05774585,0.09121776,0.067456186,0.13483182,0.08802351,-0.116037555,0.024880294,-0.039800026,0.07504962,0.1789311,0.09406482,0.117552124,0.15805447,-0.037011262,0.00783961,0.089917995,0.05984219,-0.037519284,0.1652598,-0.039390042,1.0,1.0,0.61920816,1.0,1.0,1.0,-1.0,-1.0,1.0,-1.0,1.0,-1.0,1.0,-1.0,1.0,-1.0,-1.0,-1.0,1.0,-1.0,1.0,-1.0,-1.0,1.0
2025-07-21 13:11:17.677,3.2600000000000025,3260,163,-0.3191831,-0.14486024,0.10650393,-0.008702941,-0.015609616,-0.0056659104,1.5,0.0,0.0,-0.006389709,0.14926131,-0.12084468,0.050209183,-0.12488284,-0.043039683,0.051270414,0.07984726,0.10569757,0.08696449,-0.122560516,-0.006516709,-0.012499021,0.06354827,-0.09271821,0.07065128,0.012459273,-0.023016347,-0.052985694,0.02663661,-0.06781651,0.004132957,0.018566096,-0.22988226,0.0971587,1.0,-1.0,1.0,-1.0,-1.0,-1.0,1.0,-1.0,1.0,-1.0,-1.0,1.0,1.0,1.0,1.0,-1.0,1.0,-1.0,1.0,1.0,-1.0,1.0,1.0,1.0
2025-07-21 13:11:17.693,3.2800000000000025,3280,164,0.12799522,0.014771897,0.08966205,0.03449539,0.009470302,-0.0045009824,1.5,0.0,0.0,-0.007019873,0.15146594,-0.1152684,0.059932265,-0.12315599,-0.0075807394,0.002215718,0.08466268,0.13715944,0.06060421,-0.08412622,-0.024104798,0.012359703,0.008374141,0.14512418,0.030885356,-0.075059205,0.1576746,-0.050872758,0.04647152,0.090067655,-0.14973547,0.11129422,0.16515476,0.0638716,1.0,1.0,1.0,-1.0,1.0,-1.0,1.0,1.0,-1.0,1.0,1.0,1.0,0.8495411,-1.0,1.0,-1.0,-1.0,0.62998337,1.0,-1.0,-1.0,-1.0,-1.0,1.0
2025-07-21 13:11:17.711,3.3000000000000025,3300,165,-0.22122672,0.01988532,-0.06266102,0.032861255,0.007909463,0.026237521,1.5,0.0,0.0,-0.008621586,0.15685129,-0.111279696,0.09033146,-0.13974962,-0.00020691998,0.033027574,0.096347675,0.12375692,0.015331734,-0.090993516,-0.0070543243,0.0531221,0.074633874,-0.0367918,-0.022041421,-0.000655684,-0.07323782,-0.031290956,0.0621881,-0.13987832,-0.06053078,-0.0394568,-0.05706143,0.07048993,0.8495411,-1.0,1.0,-1.0,-1.0,0.62998337,1.0,-1.0,-1.0,-1.0,-1.0,1.0,1.0,1.0,1.0,-1.0,-1.0,-1.0,1.0,1.0,-1.0,1.0,1.0,1.0
2025-07-21 13:11:17.731,3.3200000000000025,3320,166,0.10716021,-0.16948976,-0.013271763,0.056309197,0.04229502,0.005457342,1.5,0.0,0.0,-0.008868488,0.17331435,-0.10166586,0.0824758,-0.15371019,-0.018771814,-0.005322525,0.11681944,0.117642246,-0.014258751,-0.0639312,0.0031985778,0.050239686,0.011387194,0.089436464,0.07210483,0.010228592,-0.1468336,-0.076293185,-0.03541918,0.19719823,-0.08912675,0.033692595,0.11859364,0.0050344323,1.0,1.0,1.0,-1.0,-1.0,-1.0,1.0,1.0,-1.0,1.0,1.0,1.0,-1.0,1.0,1.0,-1.0,-1.0,1.0,1.0,-1.0,-1.0,-1.0,1.0,1.0
2025-07-21 13:11:17.752,3.3400000000000025,3340,167,0.057842292,0.3286876,0.06759594,0.0068761897,0.008154305,-0.048815224,1.5,0.0,0.0,-0.007796877,0.14139593,-0.051552903,0.09904244,-0.15236919,-0.101763606,0.025872085,0.12258329,0.1100549,-0.030927286,-0.08579174,0.07305537,0.06222655,-0.03262725,0.2052571,-0.03756461,0.036274113,-0.13295114,0.03293465,0.08305741,-0.1783438,-0.043661706,-0.07039465,0.09513362,0.04692558,-1.0,1.0,1.0,-1.0,-1.0,1.0,1.0,-1.0,-1.0,-1.0,1.0,1.0,1.0,1.0,1.0,-1.0,-1.0,-1.0,1.0,-1.0,-1.0,1.0,-1.0,1.0
2025-07-21 13:11:17.776,3.3600000000000025,3360,168,0.13384603,-0.29547834,-0.120595224,0.0051355604,0.020742286,-0.034702446,1.5,0.0,0.0,-0.0075726057,0.15818766,0.021392284,0.08349407,-0.15089202,-0.15695705,0.0029461451,0.13515167,0.020838212,-0.057857793,-0.083952785,0.08769961,0.07331651,0.078866564,0.10513801,-0.07425767,0.038773946,-0.15581164,-0.027283203,0.056244217,-0.26294345,-0.04742729,0.051713303,-0.008678659,0.011455364,1.0,1.0,1.0,-1.0,-1.0,-1.0,1.0,-1.0,-1.0,1.0,-1.0,1.0,-1.0,1.0,1.0,-1.0,-1.0,1.0,1.0,1.0,-1.0,1.0,1.0,1.0
2025-07-21 13:11:17.795,3.3800000000000026,3380,169,0.301165,-0.07807384,-0.007734222,0.038934164,0.08066614,0.04405631,1.5,0.0,0.0,-0.006556645,0.163356,0.09488022,0.10626751,-0.15503727,-0.19940571,0.015495525,0.13494447,0.02040887,-0.081237435,-0.06514038,0.124275334,0.08218845,-0.026072497,0.145195,0.07136549,-0.058680825,-0.11621385,-0.005505262,0.049588718,0.10778263,-0.03134576,0.06687849,0.094756305,0.007740933,-1.0,1.0,1.0,-1.0,-1.0,1.0,1.0,1.0,-1.0,1.0,1.0,1.0,1.0,-1.0,-1.0,-1.0,-1.0,-1.0,1.0,-1.0,1.0,-1.0,1.0,1.0
2025-07-21 13:11:17.814,3.4000000000000026,3400,170,-0.19526577,0.09566403,0.15655546,-0.016001685,0.086343646,0.03182417,1.5,0.0,0.0,-0.006115888,0.15376821,0.11975343,0.054342173,-0.1538497,-0.23156153,-0.0070178197,0.14893062,-0.008820324,-0.044690296,-0.07771068,0.18059067,0.08709847,-0.022212269,0.0017187699,-0.04114215,0.022581108,-0.16521692,-0.13568982,0.022790197,-0.076231964,0.038279563,0.02814575,0.05993461,0.01735059,1.0,-1.0,-1.0,-1.0,-1.0,-1.0,1.0,-1.0,1.0,-1.0,1.0,1.0,1.0,1.0,1.0,-1.0,1.0,1.0,1.0,1.0,-1.0,1.0,-1.0,1.0
2025-07-21 13:11:17.834,3.4200000000000026,3420,171,-0.04180594,0.10864934,0.0355078,-0.039082963,0.009750416,0.029617857,1.5,0.0,0.0,-0.008073643,0.17198467,0.120323524,0.05696871,-0.15902475,-0.22193556,0.01238449,0.15637736,0.030271806,-0.054566678,-0.047004506,0.19082837,0.106629714,-0.0043162354,0.039823666,0.021776613,-0.031129165,0.16389172,0.027526036,0.009126567,0.11285515,-0.07862492,0.11575629,-0.05550931,0.03160304,1.0,1.0,1.0,-1.0,1.0,1.0,1.0,1.0,-1.0,1.0,-1.0,1.0,1.0,1.0,-1.0,-1.0,-1.0,1.0,-1.0,-1.0,1.0,-1.0,1.0,-0.5628466
2025-07-21 13:11:17.859,3.4400000000000026,3440,172,-0.4699874,0.37835822,0.0568877,0.0027158696,0.033738017,0.00049944624,1.5,0.0,0.0,-0.010231134,0.17686531,0.17841236,0.020893656,-0.1756684,-0.22060184,0.03971513,0.11136861,0.045703467,-0.028851416,-0.060911346,0.20352913,0.07518025,0.009599883,0.16835837,-0.07709459,-0.016575983,-0.06806007,0.04949072,-0.10202473,0.0020456086,0.031229084,-0.00721384,0.139699,-0.054740194,1.0,1.0,-1.0,-1.0,-1.0,1.0,-1.0,-1.0,1.0,-1.0,1.0,-0.5628466,1.0,-1.0,1.0,-1.0,1.0,1.0,1.0,1.0,1.0,1.0,-1.0,1.0
2025-07-21 13:11:17.877,3.4600000000000026,3460,173,-0.14746661,-0.21759798,0.17769629,0.04923446,-0.038484693,-0.019098436,1.5,0.0,0.0,-0.010590894,0.17189781,0.17087637,0.039579786,-0.1629355,-0.20956022,0.050783567,0.119397916,0.086835206,1.3217343e-05,-0.028900376,0.21326776,0.0865563,-0.05766785,-0.107878804,0.0030971186,-0.033875786,0.03790852,0.030366447,0.06246626,0.23709513,0.033307247,0.080441326,-0.14836873,-0.020619707,1.0,-1.0,1.0,-1.0,1.0,1.0,1.0,1.0,1.0,1.0,-1.0,1.0,1.0,1.0,-1.0,-1.0,1.0,1.0,-1.0,-1.0,1.0,-1.0,1.0,-1.0
2025-07-21 13:11:17.893,3.4800000000000026,3480,174,-0.034329332,-0.017883418,0.19641484,-0.0074807256,0.0150663555,0.045304064,1.5,0.0,0.0,-0.012059417,0.16600981,0.19033466,0.018029055,-0.19106102,-0.19137119,0.063558996,0.0819595,0.08661643,0.035216827,-0.047699343,0.22476289,0.049962427,-0.056341797,0.059296783,-0.058364708,-0.021132434,0.09923131,0.057981517,-0.030415507,-0.037243113,0.0545664,-0.11467547,0.049944088,-0.13957581,1.0,1.0,-1.0,-1.0,1.0,1.0,-1.0,-1.0,1.0,-1.0,1.0,-1.0,1.0,-1.0,-0.08258741,1.0,-1.0,1.0,1.0,1.0,1.0,-1.0,-1.0,-1.0
2025-07-21 13:11:17.912,3.5000000000000027,3500,175,0.15753552,-0.29004908,0.013227478,0.05635923,0.0100189755,-0.03706314,1.5,0.0,0.0,-0.015875913,0.18351519,0.2281054,0.0051128813,-0.15284052,-0.17833453,0.06773747,0.10968994,0.13716182,0.040980738,-0.0813069,0.21072504,0.021976672,0.012256357,-0.0145494025,0.061537493,0.12766896,-0.086309426,-0.038003378,0.024063779,0.08361928,6.731849e-05,0.00096682226,-0.16633359,-0.10678451,1.0,-1.0,-0.08258741,1.0,-1.0,1.0,1.0,1.0,1.0,-1.0,-1.0,-1.0,1.0,-1.0,-1.0,-1.0,1.0,1.0,-1.0,1.0,1.0,-1.0,-1.0,-1.0
2025-07-21 13:11:17.932,3.5200000000000027,3520,176,-0.02153747,0.18045104,0.10880087,0.050789114,0.029618595,-0.041769654,1.5,0.0,0.0,-0.018302541,0.18678601,0.21318413,-0.0153865265,-0.1693411,-0.15914986,0.068391666,0.08880227,0.18271437,0.06400569,-0.09899972,0.10183911,-0.0086161,0.006473633,-0.0006382857,-0.018063737,-0.09773387,0.084268495,-0.017413827,-0.0987179,0.12999822,-0.04108448,-0.022301743,-0.27701825,-0.002359384,1.0,-1.0,-1.0,-1.0,1.0,1.0,-1.0,1.0,1.0,-1.0,-1.0,-1.0,1.0,-1.0,-1.0,1.0,1.0,-0.70491,-1.0,1.0,1.0,-1.0,1.0,-1.0
2025-07-21 13:11:17.953,3.5400000000000027,3540,177,0.21238741,0.19971883,0.12031688,-0.0045352187,-0.039656226,0.001182692,1.5,0.0,0.0,-0.01990539,0.17968188,0.1659685,-0.033402152,-0.16386722,-0.108090766,0.036315,0.044941545,0.21176416,0.07440804,-0.10611686,0.07971886,-0.033316243,-0.020216085,-0.23685569,-0.034257326,0.09488268,0.21836856,-0.13438465,-0.12009235,0.14416297,0.09803448,-0.036478285,0.03600855,-0.030753605,1.0,-1.0,-1.0,1.0,1.0,-0.70491,-1.0,1.0,1.0,-1.0,1.0,-1.0,1.0,-1.0,-0.15512198,-1.0,-1.0,-1.0,-1.0,-1.0,1.0,-1.0,-1.0,1.0
2025-07-21 13:11:17.976,3.5600000000000027,3560,178,-0.36490983,-0.14784014,-0.1624345,-0.040190067,-0.0058140806,0.013956778,1.5,0.0,0.0,-0.02177344,0.17629173,0.05803153,-0.039514754,-0.15943125,-0.068103164,0.009132702,0.02126565,0.21705778,0.08906043,-0.10698628,0.06442193,-0.019513281,-0.04527066,-0.12828475,0.014229549,0.020326177,0.042419653,-0.05973121,-0.16720887,-0.16283052,0.032826323,-0.046751596,-0.21105158,0.101378255,1.0,-1.0,-0.15512198,-1.0,-1.0,-1.0,-1.0,-1.0,1.0,-1.0,-1.0,1.0,1.0,1.0,1.0,-1.0,1.0,-1.0,1.0,1.0,-1.0,1.0,1.0,1.0
2025-07-21 13:11:17.994,3.5800000000000027,3580,179,0.14118011,-0.050823316,0.021492064,0.047132272,-0.044027846,-0.0080322,1.5,0.0,0.0,-0.020864036,0.18871576,0.040190365,-0.021383336,-0.17357337,-0.026419107,-0.018579133,0.028386993,0.22770575,0.05579355,-0.08426452,0.08206295,-0.00048251083,0.06576493,0.09313258,0.02118982,-0.034033775,0.122899465,-0.021164505,0.048902977,0.04795154,-0.07693794,0.047343425,0.10560163,-0.032558948,1.0,1.0,1.0,-1.0,1.0,-1.0,1.0,1.0,-1.0,1.0,1.0,1.0,-1.0,-1.0,1.0,-1.0,-1.0,1.0,1.0,-1.0,-1.0,-1.0,-0.60348165,1.0
