openverse-orca/OrcaGym/log/simulation_log_20250721_172847.csv
timestamp,sim_time,physics_step,control_step,imu_angle_roll,imu_angle_pitch,imu_angle_yaw,imu_angular_velocity_roll,imu_angular_velocity_pitch,imu_angular_velocity_yaw,imu_acc_x,imu_acc_y,imu_acc_z,fl_joint1_pos,fl_joint1_vel,fl_joint1_torque,fl_joint2_pos,fl_joint2_vel,fl_joint2_torque,fl_joint3_pos,fl_joint3_vel,fl_joint3_torque,fr_joint1_pos,fr_joint1_vel,fr_joint1_torque,fr_joint2_pos,fr_joint2_vel,fr_joint2_torque,fr_joint3_pos,fr_joint3_vel,fr_joint3_torque,hl_joint1_pos,hl_joint1_vel,hl_joint1_torque,hl_joint2_pos,hl_joint2_vel,hl_joint2_torque,hl_joint3_pos,hl_joint3_vel,hl_joint3_torque,hr_joint1_pos,hr_joint1_vel,hr_joint1_torque,hr_joint2_pos,hr_joint2_vel,hr_joint2_torque,hr_joint3_pos,hr_joint3_vel,hr_joint3_torque,fl_force_x,fl_force_y,fl_force_z,fr_force_x,fr_force_y,fr_force_z,hl_force_x,hl_force_y,hl_force_z,hr_force_x,hr_force_y,hr_force_z,fl_hip_action,fl_thigh_action,fl_calf_action,fr_hip_action,fr_thigh_action,fr_calf_action,hl_hip_action,hl_thigh_action,hl_calf_action,hr_hip_action,hr_thigh_action,hr_calf_action
2025-07-21 17:28:47.471,0.0,0,0,-0.18020843,0.047916368,0.19358979,-0.030843142,-0.028939012,-0.030914217,0.0452919,0.0451627,-0.024290733,1.3762368,0.5200011,0.0,0.0,0.85329676,0.0,0.0,0.009548541,-0.003465358,-0.00199339,-0.005694552,0.006663205,0.004641211,0.0037544125,-0.007372963,-0.0008698304,0.004086745,-0.006972872,0.0066636135,0.024231805,-0.030799337,0.01724666,-0.057730533,0.06047579,0.03584785,0.07037423,0.00291267,-0.020667473,-0.025063321,-0.06901206,0.0575146,0.0,0.0,0.0,0.0,0.0,0.0,0.0,0.0,0.0,0.0,0.0,0.0,1.0,1.0,-1.0,0.5618975,-0.22060898,1.0,-1.0,-0.44287857,1.0,1.0,1.0,0.54226446
2025-07-21 17:28:47.493,0.02,20,1,-0.024454769,0.15101273,-0.24571249,0.35613003,-0.043463428,-0.01759651,-0.021591702,0.015071854,0.049401376,0.0,0.0,0.0,-0.25,0.5,0.0,0.0,0.06236061,0.0577952,-0.07975714,0.045783266,-0.045576666,0.0645629,-0.037811365,-0.06242886,0.07635126,0.061686307,0.034816522,0.036943357,0.13883859,0.24299844,-0.19557606,0.13657528,-0.15744518,0.11170526,-0.119047284,-0.21320242,0.15362862,0.21490383,0.22854519,0.16557395,1.0,1.0,-1.0,0.5618975,-0.22060898,1.0,-1.0,-0.44287857,1.0,1.0,1.0,0.54226446,1.0,-0.6851078,-1.0,1.0,1.0,1.0,-1.0,-0.58115625,1.0,-1.0,-1.0,-1.0
2025-07-21 17:28:47.515,0.04,40,2,0.021168891,0.17179222,-0.11549457,-0.1375161,-0.16501996,-0.11276562,0.052750226,0.022508487,0.025761044,0.0,0.0,0.0,-0.25,0.5,0.0,0.0,0.14699782,0.06551104,-0.1419714,0.055347625,-0.0562499,0.12879452,-0.09183339,-0.113062255,0.14295484,0.06506198,0.05686828,-0.03106315,0.22247209,-0.14090054,-0.13765843,0.05493031,-0.115403675,0.11737816,-0.13172413,-0.2000367,0.088212036,-0.17721182,-0.115461476,-0.2741056,1.0,-0.6851078,-1.0,1.0,1.0,1.0,-1.0,-0.58115625,1.0,-1.0,-1.0,-1.0,1.0,-1.0,-1.0,1.0,1.0,1.0,-1.0,1.0,1.0,-1.0,0.03571747,-1.0
2025-07-21 17:28:47.535,0.06,60,3,0.22379734,0.24891858,-0.06878523,-0.084882006,0.22059764,-0.23668753,0.048943054,0.005934352,0.03018517,0.0,0.0,0.0,-0.25,0.5,0.0,0.0,0.19908781,-0.008550726,-0.18599075,0.0571532,-0.07265264,0.16737486,-0.11921227,-0.12987103,0.18432492,-0.03991133,0.051404893,-0.09743644,0.19560325,-0.23412721,-0.15825899,0.013904427,0.07197859,0.18519183,-0.050504435,0.063097104,0.07081335,-0.18999214,-0.062181886,-0.14891599,1.0,-1.0,-1.0,1.0,1.0,1.0,-1.0,1.0,1.0,-1.0,0.03571747,-1.0,-1.0,-1.0,1.0,1.0,0.26204178,1.0,-1.0,-1.0,1.0,-1.0,1.0,-1.0
2025-07-21 17:28:47.554,0.08,80,4,0.32297486,0.11528538,0.50988775,-0.53644645,0.14326549,-0.103671,0.023357654,0.04271091,0.03236161,0.0,0.0,0.0,-0.25,0.5,0.0,0.0,0.16079614,-0.14351928,-0.10830144,0.041528083,-0.0206458,0.21277148,-0.1652563,-0.105862446,0.23282339,-0.1198335,0.10637166,-0.16674416,-0.24697849,-0.43419936,0.3228887,-0.06924365,0.17769065,0.030703045,-0.09685008,-0.052756436,0.12668104,-0.23247464,0.21831635,-0.08453692,-1.0,-1.0,1.0,1.0,0.26204178,1.0,-1.0,-1.0,1.0,-1.0,1.0,-1.0,-1.0,1.0,1.0,0.8668586,-0.92412496,-1.0,-1.0,1.0,1.0,1.0,-1.0,1.0
2025-07-21 17:28:47.574,0.1,100,5,0.38796318,0.17020807,0.77006483,0.0755601,-0.045266353,-0.39385888,-0.02400406,0.050346352,-0.019991461,0.0,0.0,0.0,-0.25,0.5,0.0,0.0,0.062460814,-0.22765476,-0.015678363,0.07321357,-0.0040045143,0.12739244,-0.20945536,-0.07441175,0.26907936,-0.1008669,0.11150481,-0.089253366,-0.19722858,-0.004822286,0.16355532,0.21251884,0.03379116,-0.25419974,-0.18506077,0.1800375,0.08467202,0.23072252,-0.15608759,0.2740909,-1.0,1.0,1.0,0.8668586,-0.92412496,-1.0,-1.0,1.0,1.0,1.0,-1.0,1.0,-1.0,1.0,1.0,-1.0,1.0,-1.0,1.0,-0.74272823,-1.0,1.0,-1.0,1.0
2025-07-21 17:28:47.592,0.12000000000000001,120,6,0.46571708,0.042793136,0.2903477,0.058907967,-0.26616755,-0.14220068,-0.04419783,0.041219316,0.032024432,0.0,0.0,0.0,-0.25,0.5,0.0,0.0,-0.03483936,-0.206524,0.060285687,0.05579007,0.03965239,0.022284884,-0.19880672,-0.04709153,0.17943709,-0.0048913644,0.003981771,0.012971663,-0.21336038,0.13471965,0.15253936,-0.17934912,0.19436416,-0.2774941,0.22425304,0.08063127,-0.33414128,0.25388554,-0.26083168,0.28510237,-1.0,1.0,1.0,-1.0,1.0,-1.0,1.0,-0.74272823,-1.0,1.0,-1.0,1.0,1.0,-1.0,1.0,-1.0,-0.29710206,-0.44086856,1.0,1.0,-1.0,-0.97359955,-1.0,1.0
2025-07-21 17:28:47.618,0.14,140,7,0.062581144,-0.001230719,-0.35216108,0.29422876,-0.15282574,-0.4264497,0.03178496,-0.0029354226,-0.020484032,0.0,0.0,0.0,-0.25,0.5,0.0,0.0,-0.053172216,-0.18131772,0.14307691,-0.03687547,0.057632793,-0.018468654,-0.09416929,0.016643804,0.072291404,0.018142253,-0.1554504,0.08651802,0.10181244,-0.0011228161,0.14617297,-0.20338126,-0.05127626,-0.016078088,0.3385103,0.17349623,-0.2115524,-0.17608449,-0.4778815,0.2194907,1.0,-1.0,1.0,-1.0,-0.29710206,-0.44086856,1.0,1.0,-1.0,-0.97359955,-1.0,1.0,-0.23695113,-1.0,1.0,-1.0,0.87670445,0.95451885,1.0,-1.0,-1.0,1.0,1.0,1.0
2025-07-21 17:28:47.638,0.16,160,8,-0.059704676,-0.061798874,-0.03652097,-0.13868317,-0.112981245,-0.041537818,-0.035345897,0.0124047175,-0.026783481,0.0,0.0,0.0,-0.25,0.5,0.0,0.0,-0.050730754,-0.21044484,0.18850875,-0.107473955,0.04570104,0.048838094,0.0034173408,0.019423876,-0.034107342,0.03689807,-0.22061853,0.14743933,-0.087314636,-0.13174264,0.18365516,-0.24216239,0.1487448,0.20592079,0.28779468,-0.04864059,-0.15303701,0.10946627,-0.028006023,0.1153273,-0.23695113,-1.0,1.0,-1.0,0.87670445,0.95451885,1.0,-1.0,-1.0,1.0,1.0,1.0,-1.0,1.0,1.0,-1.0,-1.0,-1.0,1.0,0.407998,-1.0,1.0,-1.0,1.0
2025-07-21 17:28:47.657,0.18,180,9,0.17118363,-0.14452246,-0.03495758,-0.0964096,6.483286e-05,-0.14443657,-0.0327867,-0.06547771,0.007575587,0.0,0.0,0.0,-0.25,0.5,0.0,0.0,-0.05178555,-0.2239666,0.23118174,-0.17884716,0.05750096,-0.011556814,0.09120754,0.051167153,-0.10160639,0.046630863,-0.26647976,0.19716327,-0.070397295,-0.064444244,0.11849206,-0.20647267,-0.15482874,-0.19654226,0.20809063,0.21839434,-0.21738565,-0.07461583,-0.1299157,0.16882503,-1.0,1.0,1.0,-1.0,-1.0,-1.0,1.0,0.407998,-1.0,1.0,-1.0,1.0,1.0,1.0,1.0,-0.4078927,-1.0,1.0,1.0,-1.0,-1.0,-1.0,1.0,1.0
2025-07-21 17:28:47.677,0.19999999999999998,200,10,0.41403577,-0.2743369,0.05309847,-0.12879014,0.23568915,-0.374877,-0.008496171,-0.07330904,-0.040985823,0.0,0.0,0.0,-0.25,0.5,0.0,0.0,-0.015520633,-0.19979303,0.26524794,-0.20140588,-0.04028451,0.03895144,0.17733547,0.047946367,-0.17531177,0.00786549,-0.246868,0.23513916,0.14930822,0.15918916,0.06277397,0.023839647,-0.30979443,0.21705711,0.20622899,-0.08551603,-0.1896729,-0.22938143,0.13314882,0.026425777,1.0,1.0,1.0,-0.4078927,-1.0,1.0,1.0,-1.0,-1.0,-1.0,1.0,1.0,-1.0,-1.0,0.422773,1.0,-0.43386588,1.0,-0.398439,-1.0,1.0,-0.25592995,1.0,-1.0
2025-07-21 17:28:47.695,0.21999999999999997,220,11,0.11542167,-0.38510805,0.330646,-0.65482783,-0.026622431,-0.247339,-0.06615144,-0.0018827462,-0.021046022,0.0,0.0,0.0,-0.25,0.5,0.0,0.0,-0.018123003,-0.1847355,0.25185326,-0.1526162,-0.13073374,0.114517614,0.15824896,-0.040969677,-0.08600496,-0.024932543,-0.16429707,0.15497558,-0.025714867,0.031047855,-0.03552569,0.17840552,-0.12626015,0.11287103,-0.122746274,-0.4109995,0.22066157,-0.048661593,0.3325417,-0.27175286,-1.0,-1.0,0.422773,1.0,-0.43386588,1.0,-0.398439,-1.0,1.0,-0.25592995,1.0,-1.0,-1.0,1.0,-1.0,1.0,1.0,1.0,-1.0,0.671677,1.0,-1.0,0.1642419,-0.023290187
2025-07-21 17:28:47.714,0.23999999999999996,240,12,0.358105,-0.14470832,0.05075035,-0.36404014,0.38870198,-0.36395288,-0.06314394,0.016441364,-0.015464221,0.0,0.0,0.0,-0.25,0.5,0.0,0.0,-0.07908971,-0.12125215,0.13372955,-0.093836285,-0.16906628,0.15941843,0.0432184,-0.08703131,0.009627702,-0.0836057,-0.10379119,0.1013238,-0.16258319,0.28011122,-0.22409347,0.06236566,0.06503926,0.16596322,-0.23184927,0.1346995,0.19261135,-0.26784644,0.1273453,-0.11951495,-1.0,1.0,-1.0,1.0,1.0,1.0,-1.0,0.671677,1.0,-1.0,0.1642419,-0.023290187,1.0,0.4788891,-1.0,-0.08418518,-1.0,1.0,-1.0,-1.0,1.0,1.0,0.5126777,-1.0
2025-07-21 17:28:47.733,0.25999999999999995,260,13,0.2873608,0.040499818,-0.26517332,0.2629802,0.28605542,-0.27977285,-0.1293225,0.05952968,-0.020084955,0.0,0.0,0.0,-0.25,0.5,0.0,0.0,-0.06333081,0.0012442523,0.0446277,-0.08145653,-0.1757129,0.22630623,-0.042477846,-0.12609333,0.07972517,-0.053074494,0.013807583,0.01674237,0.22204508,0.34013885,-0.2775345,0.020875234,-0.023147795,0.08895704,-0.23723347,-0.21572033,0.20627153,0.17733286,0.2511572,-0.29022047,1.0,0.4788891,-1.0,-0.08418518,-1.0,1.0,-1.0,-1.0,1.0,1.0,0.5126777,-1.0,1.0,-1.0,-1.0,1.0,1.0,1.0,-1.0,-1.0,1.0,1.0,1.0,-1.0
2025-07-21 17:28:47.758,0.27999999999999997,280,14,0.2970177,0.10852302,-0.14528362,0.28043604,0.24184982,-0.18817627,-0.070566304,0.04217319,-0.002544468,0.0,0.0,0.0,-0.25,0.5,0.0,0.0,0.021461416,0.026418282,-0.054042343,-0.025988713,-0.19001302,0.24674723,-0.10156721,-0.20808098,0.16411306,0.033119302,0.15641953,-0.07252011,0.16090848,-0.016012227,-0.14450055,0.14503093,-0.046990953,0.006903417,-0.14247654,-0.18749465,0.087556526,0.18733543,0.3877873,-0.22166136,1.0,-1.0,-1.0,1.0,1.0,1.0,-1.0,-1.0,1.0,1.0,1.0,-1.0,0.72199667,-1.0,1.0,1.0,1.0,1.0,-1.0,1.0,1.0,1.0,-1.0,-1.0
2025-07-21 17:28:47.779,0.3,300,15,0.340284,-0.1267588,0.0007160527,-0.03813127,0.30064163,-0.316726,-0.053808205,0.05928229,0.039574936,0.0,0.0,0.0,-0.25,0.5,0.0,0.0,0.093679644,-0.038361713,0.015075256,-0.0030959703,-0.18982714,0.26897478,-0.12220182,-0.2017975,0.19137284,0.12357468,0.22983356,-0.13871291,0.19517475,-0.33480388,0.15585087,0.0856061,0.041798826,0.1292563,0.0022362748,-0.010217908,0.09122223,0.22549216,0.005476239,-0.1435378,0.72199667,-1.0,1.0,1.0,1.0,1.0,-1.0,1.0,1.0,1.0,-1.0,-1.0,-1.0,0.6649747,-0.47836733,1.0,0.5897256,1.0,0.16066524,-1.0,1.0,-1.0,-1.0,-1.0
2025-07-21 17:28:47.796,0.32,320,16,0.4870597,0.029851787,0.40360743,0.29980415,0.25379628,-0.20688489,-0.024277944,0.06601259,-0.008224194,0.0,0.0,0.0,-0.25,0.5,0.0,0.0,0.063015796,-0.06256575,-0.018610332,0.033234082,-0.17517911,0.3054055,-0.11576687,-0.20534739,0.22854345,0.12568013,0.17408694,-0.19281079,-0.24345987,0.006745082,-0.14206935,0.101988666,0.09467314,0.103094794,0.052071862,0.014265047,0.09845171,-0.14814073,-0.19188072,-0.1593788,-1.0,0.6649747,-0.47836733,1.0,0.5897256,1.0,0.16066524,-1.0,1.0,-1.0,-1.0,-1.0,-1.0,-1.0,-0.5741184,1.0,-1.0,1.0,-1.0,-1.0,1.0,-1.0,-0.05196633,-1.0
2025-07-21 17:28:47.815,0.34,340,17,0.12701443,-0.12000268,0.6765411,0.018120512,-0.16754566,-0.2578531,0.042005405,0.05142548,0.025071569,0.0,0.0,0.0,-0.25,0.5,0.0,0.0,-0.038812082,-0.10060399,-0.06632873,0.06068419,-0.17942335,0.32656842,-0.103023075,-0.19354738,0.28547573,0.032574307,0.11429277,-0.23650984,-0.26026672,-0.23855838,-0.05004738,0.011628654,-0.058859207,0.119740196,-0.09171235,0.025047235,0.031729862,-0.27204028,-0.1532164,-0.08227917,-1.0,-1.0,-0.5741184,1.0,-1.0,1.0,-1.0,-1.0,1.0,-1.0,-0.05196633,-1.0,0.042046353,0.27607515,-1.0,1.0,0.4613466,1.0,-1.0,-1.0,1.0,-1.0,1.0,1.0
2025-07-21 17:28:47.836,0.36000000000000004,360,18,0.21373825,-0.26214418,0.367812,0.13862315,-0.08930237,-0.308582,-0.014760933,0.086467825,0.030051274,0.0,0.0,0.0,-0.25,0.5,0.0,0.0,-0.054726716,-0.11824499,-0.121690236,0.10650391,-0.18432245,0.33776376,-0.1166954,-0.21662821,0.3012279,-0.063068576,0.13197063,-0.15879118,0.052193075,0.070919804,-0.23533276,0.18253025,-0.072013535,0.061541315,-0.065380655,-0.088882245,0.1465116,-0.15627256,0.18374151,0.33374366,0.042046353,0.27607515,-1.0,1.0,0.4613466,1.0,-1.0,-1.0,1.0,-1.0,1.0,1.0,-0.31892458,-1.0,1.0,-1.0,0.98773056,1.0,-1.0,1.0,-0.51659167,1.0,-1.0,1.0
2025-07-21 17:28:47.856,0.38000000000000006,380,19,0.40968648,-0.07157377,0.38566765,-0.23789287,-0.16311143,-0.068023734,-0.008401634,0.013447295,-0.019171054,0.0,0.0,0.0,-0.25,0.5,0.0,0.0,-0.077373676,-0.15387237,-0.049816847,0.10578441,-0.16234589,0.34488696,-0.16639274,-0.16294144,0.23594628,-0.07901832,0.11797232,-0.04950239,-0.025384324,-0.21620262,0.26763326,-0.16680287,0.11491448,-0.026945826,-0.20816106,0.17058666,-0.25238,0.055039387,-0.13881515,0.2604323,-0.31892458,-1.0,1.0,-1.0,0.98773056,1.0,-1.0,1.0,-0.51659167,1.0,-1.0,1.0,-0.65413725,1.0,1.0,-1.0,1.0,-1.0,1.0,1.0,-1.0,-1.0,-1.0,1.0
2025-07-21 17:28:47.877,0.4000000000000001,400,20,0.30635038,-0.07446914,-0.079340726,-0.33566633,0.0015847598,-0.052569747,-0.017229492,0.10804254,-0.0016502865,0.0,0.0,0.0,-0.25,0.5,0.0,0.0,-0.107189886,-0.17626026,0.03347467,0.026002785,-0.06453802,0.24447396,-0.16646513,-0.0524137,0.10873846,-0.103922434,0.038717397,0.044504,-0.11552617,0.042547103,0.20585594,-0.21807413,0.24722412,-0.40679887,0.15992644,0.37519196,-0.2576716,-0.24474095,-0.20121565,0.16955435,-0.65413725,1.0,1.0,-1.0,1.0,-1.0,1.0,1.0,-1.0,-1.0,-1.0,1.0,-1.0,-0.036285993,1.0,-1.0,-0.2911335,0.20470625,1.0,-1.0,-0.9596677,1.0,-1.0,1.0
2025-07-21 17:28:47.896,0.4200000000000001,420,21,0.275133,-0.0068530506,-0.0756982,0.19020088,-0.20129728,-0.019594258,-0.016946401,0.045981985,0.009831982,0.0,0.0,0.0,-0.25,0.5,0.0,0.0,-0.16838558,-0.15478475,0.110022105,-0.071371354,-0.039805997,0.20556536,-0.067487285,-0.0062525193,0.0045752544,-0.086271904,-0.09249608,0.11362328,-0.09909392,0.029302143,0.13937433,-0.26291737,-0.020815827,-0.11276642,0.2117083,-0.005017105,-0.2133409,0.1782234,-0.45318836,0.15076733,-1.0,-0.036285993,1.0,-1.0,-0.2911335,0.20470625,1.0,-1.0,-0.9596677,1.0,-1.0,1.0,1.0,-1.0,1.0,-0.026359528,-0.53865206,-1.0,1.0,0.7403754,-1.0,-0.61099577,-0.2835655,1.0
2025-07-21 17:28:47.914,0.4400000000000001,440,22,0.21312395,-0.13651529,-0.7175522,0.30350927,0.013500268,-0.25454426,0.013374861,0.033939704,0.020940872,0.0,0.0,0.0,-0.25,0.5,0.0,0.0,-0.15328078,-0.17400658,0.17967145,-0.08733567,-0.09188241,0.11317202,0.033165287,0.036557164,-0.07624354,-0.064374045,-0.1799882,0.17785203,0.20657733,-0.11428733,0.20072575,0.058810987,-0.22832218,-0.33694702,0.18712623,0.16811457,-0.15893887,-0.04847236,-0.12581795,0.14349134,1.0,-1.0,1.0,-0.026359528,-0.53865206,-1.0,1.0,0.7403754,-1.0,-0.61099577,-0.2835655,1.0,-1.0,-1.0,1.0,0.3125712,1.0,1.0,1.0,-1.0,-1.0,1.0,-1.0,1.0
2025-07-21 17:28:47.936,0.46000000000000013,460,23,0.085742876,-0.16212611,-0.4852561,0.29465553,-0.26093057,0.043385923,-0.033700164,0.00725095,0.022599027,0.0,0.0,0.0,-0.25,0.5,0.0,0.0,-0.12087968,-0.2354014,0.21994561,-0.041942123,-0.14821641,0.13505515,0.11580288,0.03372377,-0.14232671,-0.06571016,-0.22685072,0.22608767,-0.01779106,-0.13800864,0.15996861,0.106897935,-0.022976859,0.2026084,0.12564075,-0.14196403,-0.19234394,0.0902733,-0.15766653,0.04644514,-1.0,-1.0,1.0,0.3125712,1.0,1.0,1.0,-1.0,-1.0,1.0,-1.0,1.0,-0.69662243,1.0,1.0,-0.008809388,1.0,1.0,0.77034545,0.35276726,-1.0,0.25269073,-1.0,1.0
2025-07-21 17:28:47.959,0.48000000000000015,480,24,0.0952522,0.06026369,-0.12708749,0.017738175,-0.022673916,0.046159204,0.0025388384,0.051621843,-0.026899539,0.0,0.0,0.0,-0.25,0.5,0.0,0.0,-0.11347728,-0.25614482,0.2515675,-0.044186067,-0.10923328,0.18712868,0.16466145,0.047300708,-0.19501856,-0.051304877,-0.27068922,0.27697644,-0.024025256,-0.07864035,0.13473241,0.0485084,0.16671242,0.048662502,0.122511394,0.1641507,-0.15336806,0.015859298,-0.06165613,0.113435,-0.69662243,1.0,1.0,-0.008809388,1.0,1.0,0.77034545,0.35276726,-1.0,0.25269073,-1.0,1.0,1.0,1.0,1.0,0.25977302,-1.0,-1.0,0.68256795,-1.0,0.35756445,-1.0,-1.0,1.0
2025-07-21 17:28:47.978,0.5000000000000001,500,25,0.113613985,-0.14475673,-0.17597052,0.07704682,-0.048001233,-0.45192707,0.0007265036,0.041687973,-0.010569933,0.0,0.0,0.0,-0.25,0.5,0.0,0.0,-0.07479442,-0.2698896,0.27639717,-0.009095198,-0.074037224,0.10364325,0.20301713,0.047311828,-0.15003528,-0.0863466,-0.33101466,0.3042766,0.23197111,0.003226463,0.11204835,0.012919806,-0.021641206,-0.31579435,0.11792713,-0.2164105,0.17325042,-0.12261619,-0.21801142,0.08883243,1.0,1.0,1.0,0.25977302,-1.0,-1.0,0.68256795,-1.0,0.35756445,-1.0,-1.0,1.0,-1.0,-0.37161016,1.0,1.0,-0.886505,1.0,0.40162092,-1.0,1.0,1.0,1.0,1.0
2025-07-21 17:28:47.998,0.5200000000000001,520,26,-0.2595765,-0.05648043,0.62722105,0.46353823,0.21905656,-0.12472368,0.02576747,0.01057836,0.030403392,0.0,0.0,0.0,-0.25,0.5,0.0,0.0,-0.019353708,-0.27604994,0.30727148,0.045523968,-0.12319237,0.13713638,0.20050581,-0.058968503,-0.039186057,-0.07857728,-0.35155413,0.3260346,0.11871024,-0.07555259,0.012643602,0.20045881,-0.20199208,0.13885972,0.035958458,-0.28640857,0.29292354,0.09596425,0.076488145,-0.010302571,-1.0,-0.37161016,1.0,1.0,-0.886505,1.0,0.40162092,-1.0,1.0,1.0,1.0,1.0,1.0,1.0,-1.0,0.19058742,1.0,1.0,-1.0,-0.8670262,1.0,-1.0,0.5390754,-1.0
2025-07-21 17:28:48.017,0.5400000000000001,540,27,-0.07932179,0.06533336,-0.014640985,-0.075223245,0.29973584,-0.14576255,0.026080022,-0.032709885,0.03552217,0.0,0.0,0.0,-0.25,0.5,0.0,0.0,0.033476785,-0.21161075,0.20858613,0.04192014,-0.13584821,0.18099496,0.14512801,-0.19675738,0.047998462,-0.12686484,-0.27938724,0.2119148,0.24255079,0.2724633,-0.26353723,0.07868621,0.057570286,0.062359683,-0.24115473,-0.37091213,0.19102253,-0.17751159,0.34584177,-0.37577567,1.0,1.0,-1.0,0.19058742,1.0,1.0,-1.0,-0.8670262,1.0,-1.0,0.5390754,-1.0,-1.0,0.018990811,-1.0,1.0,-1.0,1.0,-1.0,1.0,1.0,-0.6273447,0.50021774,-1.0
2025-07-21 17:28:48.037,0.5600000000000002,560,28,-0.022780184,0.09493875,0.018223556,0.056065753,0.4782455,-0.20138009,0.08523899,0.066118486,-0.0024242112,0.0,0.0,0.0,-0.25,0.5,0.0,0.0,0.04132435,-0.16150488,0.09960454,0.0784424,-0.15415478,0.23230472,0.04204765,-0.2809343,0.12024111,-0.16538025,-0.12599072,0.09909472,-0.10542888,0.028466905,-0.19237365,0.048461393,-0.027949484,0.08491246,-0.1841997,-0.046043336,0.19995019,-0.062402505,0.43627053,-0.22611065,-1.0,0.018990811,-1.0,1.0,-1.0,1.0,-1.0,1.0,1.0,-0.6273447,0.50021774,-1.0,-1.0,1.0,-1.0,0.281402,1.0,1.0,-1.0,-1.0,1.0,-0.032299146,-0.6570995,0.90969443
2025-07-21 17:28:48.056,0.5800000000000002,580,29,-0.2032782,-0.067179725,0.15571743,-0.22993015,-0.021619607,-0.14617936,0.07165275,0.017216282,-0.0011213829,0.0,0.0,0.0,-0.25,0.5,0.0,0.0,-0.03513832,-0.09684322,-0.017492915,0.09613225,-0.16960554,0.2729362,-0.02765498,-0.28782558,0.17844634,-0.15093002,-0.08276901,0.12371134,-0.281464,0.24144672,-0.27916217,-0.016347798,0.010439593,-0.009935594,-0.17101623,-0.07771031,0.18180336,0.0700987,-0.0035206527,0.10647584,-1.0,1.0,-1.0,0.281402,1.0,1.0,-1.0,-1.0,1.0,-0.032299146,-0.6570995,0.90969443,1.0,0.94890034,-1.0,0.872052,1.0,1.0,-1.0,-0.6606909,1.0,1.0,-1.0,-1.0
2025-07-21 17:28:48.076,0.6000000000000002,600,30,-0.2873833,-0.11554659,0.13303357,0.32164994,0.037114963,-0.27718642,0.010350247,0.004383948,-0.035182532,0.0,0.0,0.0,-0.25,0.5,0.0,0.0,-0.047902137,0.021359418,-0.08446055,0.1273353,-0.15314746,0.2851478,-0.029213697,-0.30880758,0.23266488,-0.063650966,-0.13409115,0.05708371,0.19614083,0.3668693,-0.21738775,0.122116834,-0.053440414,0.028420033,0.07861322,-0.06545214,0.12691645,0.31491604,-0.19881319,-0.23922114,1.0,0.94890034,-1.0,0.872052,1.0,1.0,-1.0,-0.6606909,1.0,1.0,-1.0,-1.0,1.0,-1.0,-1.0,1.0,1.0,1.0,-1.0,0.21647742,1.0,1.0,1.0,0.08937618
2025-07-21 17:28:48.097,0.6200000000000002,620,31,0.00879675,-0.18458459,0.23531526,-0.04814432,0.16759314,-0.17445649,0.10307949,-0.010151011,-0.034045245,0.0,0.0,0.0,-0.25,0.5,0.0,0.0,0.039018333,0.08652374,-0.15026958,0.16567218,-0.14152591,0.30840406,-0.019088786,-0.31860483,0.24268249,0.028920516,-0.15112974,0.04995342,0.2885257,0.07014062,-0.10639682,0.13113718,0.1084363,0.08128998,-0.06680016,-0.035806023,0.027906012,0.15064724,0.10751525,-0.038144134,1.0,-1.0,-1.0,1.0,1.0,1.0,-1.0,0.21647742,1.0,1.0,1.0,0.08937618,1.0,-1.0,-0.15326673,1.0,-1.0,1.0,-1.0,1.0,1.0,1.0,-0.6652011,1.0
2025-07-21 17:28:48.112,0.6400000000000002,640,32,0.12125596,-0.096711665,0.5427713,0.14729907,0.07434355,-0.5022462,0.0739105,-0.0005827356,-0.044395547,0.0,0.0,0.0,-0.25,0.5,0.0,0.0,0.13390435,0.024552554,-0.132972,0.19487111,-0.15774377,0.33298737,-0.023902765,-0.3115815,0.2738593,0.12092921,-0.18351005,0.117401525,0.17987992,-0.29051688,-0.020435395,0.056017157,-0.06407113,0.06679871,0.027667793,0.10858316,0.10099791,0.19840449,-0.15114307,0.21633999,1.0,-1.0,-0.15326673,1.0,-1.0,1.0,-1.0,1.0,1.0,1.0,-0.6652011,1.0,-1.0,-1.0,0.29958367,0.4526808,0.5855762,1.0,1.0,-1.0,-1.0,-1.0,1.0,-1.0
2025-07-21 17:28:48.131,0.6600000000000003,660,33,0.058780715,-0.26565245,0.29781535,-0.3969417,0.019728884,-0.105385624,0.026208967,0.028535448,-0.040599335,0.0,0.0,0.0,-0.25,0.5,0.0,0.0,0.09767253,-0.10077468,-0.089809895,0.205552,-0.16554172,0.3549165,-0.009391796,-0.2907442,0.17326623,0.091282755,-0.16897044,0.05126466,-0.2521217,-0.3151592,0.15905018,-0.080318995,0.058699716,0.00061867054,0.0890933,-0.025989024,-0.30430585,-0.107554935,0.11925713,-0.24108107,-1.0,-1.0,0.29958367,0.4526808,0.5855762,1.0,1.0,-1.0,-1.0,-1.0,1.0,-1.0,-1.0,1.0,-1.0,1.0,-1.0,1.0,-1.0,1.0,1.0,-1.0,1.0,1.0
2025-07-21 17:28:48.151,0.6800000000000003,680,34,0.36585364,-0.41544864,0.48390096,-0.349052,0.05733463,-0.38743848,0.027350252,0.09837633,-0.0144039905,0.0,0.0,0.0,-0.25,0.5,0.0,0.0,0.002033667,-0.16098142,-0.14312953,0.21367264,-0.16456698,0.36855158,-0.012060445,-0.28322825,0.16175377,-0.0058235954,-0.09682545,0.0859267,-0.26433775,0.070867635,-0.12460511,0.08474088,-0.022676839,0.039000716,-0.04698128,0.09946225,0.14893514,-0.2711046,0.33227983,0.14779165,-1.0,1.0,-1.0,1.0,-1.0,1.0,-1.0,1.0,1.0,-1.0,1.0,1.0,-0.61311376,0.61712146,0.22401583,-1.0,-1.0,1.0,1.0,0.10300368,-1.0,1.0,-1.0,1.0
2025-07-21 17:28:48.176,0.7000000000000003,700,35,-0.041772965,-0.039985787,0.26416048,0.2080752,0.32566416,-0.3272604,0.02976197,0.032253787,-0.009313419,0.0,0.0,0.0,-0.25,0.5,0.0,0.0,-0.053976063,-0.110053666,-0.11046173,0.22404219,-0.20682798,0.39204264,0.029232703,-0.22910646,0.08326127,0.0032313264,-0.061307207,0.15012182,-0.19778222,0.1789458,0.064709924,0.015436082,-0.15621951,0.07004769,0.14777914,0.19119877,-0.21043757,0.12040324,-0.0035697767,0.12288828,-0.61311376,0.61712146,0.22401583,-1.0,-1.0,1.0,1.0,0.10300368,-1.0,1.0,-1.0,1.0,-1.0,-1.0,-0.47918814,0.114334166,1.0,1.0,1.0,-1.0,1.0,-1.0,-1.0,0.98723805
2025-07-21 17:28:48.194,0.7200000000000003,720,36,0.124590665,-0.2596527,0.06264646,-0.28443867,-0.02789432,-0.21179783,0.0703436,0.08643228,0.012980482,0.0,0.0,0.0,-0.25,0.5,0.0,0.0,-0.14239569,-0.096824475,-0.123595595,0.20202321,-0.22052114,0.39056042,0.11444965,-0.23537593,0.1179906,-0.028663496,-0.12272709,0.21092562,-0.15668125,-0.15911438,-0.06196963,-0.06943097,0.022058174,-0.052138623,0.15872012,-0.23364274,0.232915,-0.22373164,-0.28705698,0.1021241,-1.0,-1.0,-0.47918814,0.114334166,1.0,1.0,1.0,-1.0,1.0,-1.0,-1.0,0.98723805,1.0,1.0,-1.0,-0.46471775,-1.0,1.0,-1.0,1.0,1.0,-0.6316594,1.0,-1.0
2025-07-21 17:28:48.214,0.7400000000000003,740,37,-0.002923904,0.13325058,-0.10923521,-0.60707325,-0.19203214,-0.30860782,0.05501711,0.11892462,0.03895765,0.0,0.0,0.0,-0.25,0.5,0.0,0.0,-0.13213108,-0.060990896,-0.1873998,0.15025377,-0.2327088,0.40686458,0.09616918,-0.22890037,0.18607818,-0.09336098,-0.12960264,0.11815861,0.07039063,0.22926524,-0.16662024,-0.15621576,-0.06952288,0.09685227,-0.12812562,0.20758213,0.13848504,-0.08716028,0.13131213,-0.31431928,1.0,1.0,-1.0,-0.46471775,-1.0,1.0,-1.0,1.0,1.0,-0.6316594,1.0,-1.0,1.0,-0.26572937,-0.91962624,1.0,1.0,1.0,-1.0,-1.0,1.0,-1.0,1.0,0.62796247
2025-07-21 17:28:48.241,0.7600000000000003,760,38,0.07390376,0.03150522,-0.32368386,-0.42915416,0.07229721,-0.21136922,0.07470021,0.19372307,0.043897957,0.0,0.0,0.0,-0.25,0.5,0.0,0.0,-0.038508456,-0.07605793,-0.23116644,0.14190117,-0.21902126,0.4111781,0.007298405,-0.2241178,0.23999079,-0.15198903,-0.061273262,0.12754118,0.19720745,-0.16184236,-0.059711996,0.034373906,0.12791893,-0.06986915,-0.2489079,0.016703928,0.14869699,-0.23356962,0.30090696,0.054232594,1.0,-0.26572937,-0.91962624,1.0,1.0,1.0,-1.0,-1.0,1.0,-1.0,1.0,0.62796247,-1.0,1.0,1.0,1.0,-1.0,1.0,-1.0,-1.0,1.0,1.0,-1.0,-0.79374325
2025-07-21 17:28:48.260,0.7800000000000004,780,39,-0.21868365,-0.2977019,0.2324675,-0.21783093,-0.26632193,-0.32788676,0.06890426,0.21482159,-0.025256516,0.0,0.0,0.0,-0.25,0.5,0.0,0.0,-0.034973297,-0.061402794,-0.14016226,0.15728642,-0.23781818,0.42939833,-0.062766545,-0.2434624,0.26687583,-0.12698954,-0.024934247,0.058945734,-0.10180786,0.16747895,0.30762023,0.016308634,-0.08090816,0.051561594,-0.08387569,-0.05275735,0.026279563,0.20883894,0.004674048,-0.2756556,-1.0,1.0,1.0,1.0,-1.0,1.0,-1.0,-1.0,1.0,1.0,-1.0,-0.79374325,1.0,0.024214264,-1.0,0.41628963,1.0,1.0,-1.0,1.0,1.0,1.0,-0.9237601,1.0
2025-07-21 17:28:48.279,0.8000000000000004,800,40,-0.22465272,-0.21870357,0.07467798,0.2767134,-0.023911295,-0.45503086,-0.025658598,0.17397091,-0.04787796,0.0,0.0,0.0,-0.25,0.5,0.0,0.0,-0.010609207,-0.0470982,-0.1683573,0.18601643,-0.26183084,0.42827865,-0.096075006,-0.24919179,0.29878107,-0.06315466,-0.105697416,0.09951547,0.1976976,-0.020239698,-0.18281287,0.038244244,-0.07831842,-0.026727505,-0.061918564,-0.04874507,0.04189637,0.07463224,-0.26420152,0.13594289,1.0,0.024214264,-1.0,0.41628963,1.0,1.0,-1.0,1.0,1.0,1.0,-0.9237601,1.0,-1.0,1.0,1.0,-1.0,1.0,1.0,-1.0,0.21722451,-1.0,1.0,0.22868045,1.0
2025-07-21 17:28:48.297,0.8200000000000004,820,41,0.28025073,0.13083541,0.05832769,-0.20023201,0.030005064,-0.078634806,0.06640413,0.17528541,-0.040166553,0.0,0.0,0.0,-0.25,0.5,0.0,0.0,-0.014643394,0.012024566,-0.102628015,0.15111624,-0.23756534,0.42823744,-0.16068137,-0.18598315,0.18359198,-0.039771717,-0.13012113,0.14787988,-0.20787899,0.26485145,0.22516765,-0.04517366,0.09641653,-0.050550397,-0.08765573,0.1530758,-0.35733673,0.019945493,0.034865823,0.046353064,-1.0,1.0,1.0,-1.0,1.0,1.0,-1.0,0.21722451,-1.0,1.0,0.22868045,1.0,-1.0,-1.0,1.0,0.84130317,1.0,0.15544546,0.50069886,1.0,0.28912282,-0.9730301,-1.0,1.0
2025-07-21 17:28:48.318,0.8400000000000004,840,42,0.29074442,0.19079986,0.283343,0.12950568,0.24449156,-0.36856854,-0.007627727,0.18037814,0.03537673,0.0,0.0,0.0,-0.25,0.5,0.0,0.0,-0.10288767,0.033126928,-0.002704382,0.1622716,-0.17052886,0.36254737,-0.15357704,-0.12579536,0.15006717,-0.038857415,-0.16044472,0.20952752,-0.15246888,-0.0697518,0.1626201,0.045033883,0.23382257,-0.07888858,0.17376378,0.21201411,-0.010200997,-0.11319597,-0.18183222,0.1447231,-1.0,-1.0,1.0,0.84130317,1.0,0.15544546,0.50069886,1.0,0.28912282,-0.9730301,-1.0,1.0,1.0,-1.0,1.0,-1.0,0.87233496,-1.0,-0.01629332,0.8829135,-1.0,1.0,1.0,1.0
2025-07-21 17:28:48.337,0.8600000000000004,860,43,0.5205195,0.02831685,-0.1861882,0.62003064,0.482196,-0.22464004,0.06759822,0.16397133,-0.011384916,0.0,0.0,0.0,-0.25,0.5,0.0,0.0,-0.08671098,-0.056829568,0.09711623,0.17351517,-0.028379258,0.2329214,-0.12380161,-0.008515651,0.056475323,-0.021880923,-0.19236705,0.2516027,0.14866064,-0.23655863,0.21110894,-0.18921572,0.29117185,-0.33418354,0.13371934,0.29130468,-0.22467883,0.2102511,-0.04042893,0.07870361,1.0,-1.0,1.0,-1.0,0.87233496,-1.0,-0.01629332,0.8829135,-1.0,1.0,1.0,1.0,-1.0,-1.0,1.0,-1.0,-0.053814895,-0.8578275,1.0,-0.488502,-1.0,1.0,-1.0,1.0
2025-07-21 17:28:48.357,0.8800000000000004,880,44,0.019513356,0.20353036,-0.22195713,0.9985618,0.24641629,-0.026844895,0.07888518,0.041497618,0.004149149,0.0,0.0,0.0,-0.25,0.5,0.0,0.0,-0.08118532,-0.18753743,0.1487504,0.07591074,0.014054342,0.12614876,-0.049099233,0.033749346,-0.030333277,0.06595734,-0.2333792,0.2829531,-0.11435959,-0.41327626,0.20117489,-0.31366405,0.0015832128,-0.30936277,0.2116201,-0.10653424,-0.21843435,0.20775706,-0.13515195,0.16466908,-1.0,-1.0,1.0,-1.0,-0.053814895,-0.8578275,1.0,-0.488502,-1.0,1.0,-1.0,1.0,1.0,1.0,1.0,-1.0,1.0,-0.21549755,1.0,0.42602006,-1.0,-0.036864385,-0.13241501,1.0
2025-07-21 17:28:48.378,0.9000000000000005,900,45,0.518563,0.27824333,-0.63290507,0.8181517,0.47268078,-0.18255146,0.13600844,-0.038469225,-0.035607398,0.0,0.0,0.0,-0.25,0.5,0.0,0.0,-0.05622587,-0.2584899,0.20004669,-0.021220839,0.051067524,0.074837126,0.03890704,0.06403485,-0.10853668,0.07016905,-0.2612534,0.30380362,0.19035903,-0.0731941,0.17522621,-0.17419025,0.21369885,-0.054973397,0.29017323,0.1759166,-0.115705155,0.039473414,0.08875674,0.02944247,1.0,1.0,1.0,-1.0,1.0,-0.21549755,1.0,0.42602006,-1.0,-0.036864385,-0.13241501,1.0,-1.0,-0.7491926,1.0,-1.0,-1.0,-1.0,1.0,-1.0,-1.0,1.0,-1.0,1.0
2025-07-21 17:28:48.402,0.9200000000000005,920,46,0.03297825,0.22645676,-0.69780076,0.8652343,0.053891305,-0.005910041,0.0926448,-0.07280615,0.005694189,0.0,0.0,0.0,-0.25,0.5,0.0,0.0,-0.046896752,-0.32510304,0.23986526,-0.11222793,0.06731272,-0.0066877673,0.12261193,0.084936194,-0.16419567,0.11291959,-0.2991906,0.34032965,-0.04866619,-0.21658637,0.061745092,-0.24110343,-0.08299531,-0.2624107,0.18745193,-0.12628326,-0.12686712,0.0817134,-0.21160568,0.033953212,-1.0,-0.7491926,1.0,-1.0,-1.0,-1.0,1.0,-1.0,-1.0,1.0,-1.0,1.0,0.9701581,1.0,1.0,-0.861202,0.41423544,1.0,1.0,-1.0,-1.0,-0.5950694,-1.0,1.0
2025-07-21 17:28:48.413,0.9400000000000005,940,47,0.32652062,-0.045771305,-0.34979856,0.46635136,0.21957722,-0.26807278,0.14149155,-0.14873344,-0.04597116,0.0,0.0,0.0,-0.25,0.5,0.0,0.0,0.0027817083,-0.37868795,0.2619715,-0.16867818,0.07206481,0.03465571,0.1869112,-0.0075260852,-0.22125366,0.11675492,-0.3748792,0.3519826,0.14264128,-0.016897095,0.030251687,-0.13757244,0.08962563,0.24190256,0.22948834,-0.28705415,-0.15977523,-0.16508228,-0.20745292,0.08305847,0.9701581,1.0,1.0,-0.861202,0.41423544,1.0,1.0,-1.0,-1.0,-0.5950694,-1.0,1.0,-1.0,-0.47991455,1.0,1.0,-1.0,1.0,1.0,1.0,1.0,1.0,1.0,1.0
2025-07-21 17:28:48.442,0.9600000000000005,960,48,0.23357041,0.18802123,-0.37909558,0.08985373,0.31896338,-0.12807864,0.19814281,-0.20125525,-0.006096831,0.0,0.0,0.0,-0.25,0.5,0.0,0.0,0.01329194,-0.401081,0.3016084,-0.1451764,0.062962726,0.11620852,0.25207514,-0.060549587,-0.13361852,0.113104895,-0.37999764,0.36751196,-0.056398354,-0.10724971,0.0023539378,0.1471151,-0.17548944,0.13824815,0.17059973,0.053534422,0.324117,0.13764204,0.14776832,-0.01514966,-1.0,-0.47991455,1.0,1.0,-1.0,1.0,1.0,1.0,1.0,1.0,1.0,1.0,0.14282106,1.0,1.0,1.0,0.48145112,0.352377,-0.5006477,-1.0,1.0,-0.1354584,1.0,-1.0
2025-07-21 17:28:48.453,0.9800000000000005,980,49,-0.005039411,0.17264093,-0.58633333,-0.46537504,0.14831035,-0.30981392,0.15836303,-0.12790492,-0.0018786094,0.0,0.0,0.0,-0.25,0.5,0.0,0.0,0.023145797,-0.38383225,0.316165,-0.044146173,0.09463856,0.12007299,0.21810609,-0.09044155,-0.041981477,0.11359637,-0.28797653,0.25593886,0.03007883,0.14309344,-0.005818884,0.21073303,0.14094314,-0.041219316,-0.19718769,-0.11456452,0.206706,-0.07634703,0.35578984,-0.36289757,0.14282106,1.0,1.0,1.0,0.48145112,0.352377,-0.5006477,-1.0,1.0,-0.1354584,1.0,-1.0,-1.0,1.0,1.0,1.0,-1.0,1.0,-1.0,-1.0,1.0,1.0,-0.10719402,-1.0
2025-07-21 17:28:48.473,1.0000000000000004,1000,50,-0.20046806,-0.16682479,-0.3075665,-0.81738913,-0.51830095,-0.29394048,0.12558126,-0.1299175,0.024202636,0.0,0.0,0.0,-0.25,0.5,0.0,0.0,-0.008383174,-0.36662805,0.32791075,0.050970472,0.09841422,0.19225791,0.10833564,-0.16180527,0.055586062,0.11960973,-0.22485742,0.13379644,-0.19743031,0.038483724,-0.0059423484,0.2467598,-0.13263361,0.21221577,-0.2897941,-0.20989008,0.19867456,0.16290414,0.010454655,-0.3303665,-1.0,1.0,1.0,1.0,-1.0,1.0,-1.0,-1.0,1.0,1.0,-0.10719402,-1.0,1.0,1.0,-1.0,1.0,-0.36845914,1.0,-1.0,-1.0,1.0,-1.0,1.0,-1.0
2025-07-21 17:28:48.494,1.0200000000000005,1020,51,-0.20313706,-0.275186,-0.17312951,-0.6375617,-0.9088881,-0.32514754,0.16108361,-0.04370227,-0.0010004824,0.0,0.0,0.0,-0.25,0.5,0.0,0.0,-0.02535034,-0.3000368,0.22131266,0.11996811,0.0045006243,0.23734927,-0.002578085,-0.20880555,0.11569701,0.117123164,-0.18325794,0.03354233,0.08890132,0.18233208,-0.34119147,0.23834676,-0.21152563,0.15910524,-0.31118792,-0.07483294,0.09191108,-0.2430478,0.117460564,-0.2751158,1.0,1.0,-1.0,1.0,-0.36845914,1.0,-1.0,-1.0,1.0,-1.0,1.0,-1.0,-0.25990215,1.0,-1.0,1.0,-1.0,1.0,-1.0,-0.11799988,1.0,-0.19371997,1.0,-0.33175597
2025-07-21 17:28:48.514,1.0400000000000005,1040,52,0.29258743,-0.26551527,0.098921254,-0.34302968,-0.35638404,-0.2721779,0.07689405,0.022062266,-0.034806404,0.0,0.0,0.0,-0.25,0.5,0.0,0.0,-0.028466301,-0.18285134,0.09500977,0.1552841,-0.06982014,0.27789357,-0.07158773,-0.22652654,0.16837093,0.063595824,-0.1074877,-0.010213381,-0.031605564,0.29719752,-0.29195094,0.013002278,-0.22677998,0.041153003,-0.18988538,-0.06703269,0.023050906,-0.06193346,0.20451441,-0.08840303,-0.25990215,1.0,-1.0,1.0,-1.0,1.0,-1.0,-0.11799988,1.0,-0.19371997,1.0,-0.33175597,-0.22444583,-0.25421697,-1.0,1.0,-1.0,1.0,-1.0,0.42665175,1.0,-0.7598163,1.0,0.34983072
2025-07-21 17:28:48.535,1.0600000000000005,1060,53,0.085263945,-0.3407911,0.31070513,-0.42341128,-0.38194126,-0.45187995,0.07904815,0.10729328,-0.014262094,0.0,0.0,0.0,-0.25,0.5,0.0,0.0,-0.0438246,-0.11995776,0.014548072,0.18197788,-0.1220659,0.31037223,-0.1349951,-0.22681229,0.1981057,-0.008323041,-0.008096908,0.016292406,-0.07996553,-0.01072101,-0.18554345,0.02778501,-0.13622908,0.102334626,-0.077481754,-0.038574018,0.079908304,-0.12011054,0.2902187,0.13629615,-0.22444583,-0.25421697,-1.0,1.0,-1.0,1.0,-1.0,0.42665175,1.0,-0.7598163,1.0,0.34983072,-0.23972513,1.0,-0.6896205,-1.0,-0.43607846,1.0,1.0,1.0,-1.0,-0.37114847,-1.0,0.30306527
2025-07-21 17:28:48.559,1.0800000000000005,1080,54,0.05359148,-0.19156744,0.099998035,-0.20770778,-0.08090885,-0.43141508,0.028291218,0.044453897,0.034852635,0.0,0.0,0.0,-0.25,0.5,0.0,0.0,-0.055536572,-0.06442413,-0.057530355,0.18600622,-0.17927456,0.3335842,-0.11880993,-0.15537143,0.105863474,-0.040038075,0.026538556,0.03460516,0.024389647,0.17050089,-0.07950525,-0.052077122,-0.1811357,0.05737512,0.06394695,0.2705659,-0.3157498,-0.007622219,-0.060910027,0.08357568,-0.23972513,1.0,-0.6896205,-1.0,-0.43607846,1.0,1.0,1.0,-1.0,-0.37114847,-1.0,0.30306527,-1.0,-1.0,1.0,1.0,1.0,1.0,1.0,-1.0,1.0,-1.0,0.07233243,-1.0
2025-07-21 17:28:48.579,1.1000000000000005,1100,55,0.12624916,-0.6240006,0.6911499,-0.008103466,0.07956819,-0.26659828,0.009397742,0.07412629,0.038753014,0.0,0.0,0.0,-0.25,0.5,0.0,0.0,-0.118419394,-0.058735386,0.0123593565,0.19448572,-0.19063397,0.33845866,-0.06454526,-0.14548178,0.111282915,-0.10148816,0.03469996,-0.027848018,-0.2260485,-0.16169849,0.21262318,0.084038615,0.03699686,-0.0047977255,0.20866749,-0.07328967,0.1520841,-0.11397548,0.0009298125,-0.18414402,-1.0,-1.0,1.0,1.0,1.0,1.0,1.0,-1.0,1.0,-1.0,0.07233243,-1.0,1.0,1.0,-1.0,-1.0,0.38488138,1.0,-1.0,1.0,1.0,1.0,0.11663966,1.0
2025-07-21 17:28:48.599,1.1200000000000006,1120,56,0.5004656,-0.61484575,0.61089504,-0.2186423,-0.011092487,-0.17580713,0.0098588085,0.14414027,-0.037464894,0.0,0.0,0.0,-0.25,0.5,0.0,0.0,-0.12368861,-0.044582233,-0.043987,0.19978179,-0.17157674,0.3534031,-0.041584138,-0.15530683,0.16048309,-0.08901148,0.051651176,0.011534812,0.03887282,0.17853928,-0.21694617,-0.025364557,0.1269322,-0.02588858,0.0015864335,-0.032068454,0.1532117,0.14043,0.12126576,0.24384713,1.0,1.0,-1.0,-1.0,0.38488138,1.0,-1.0,1.0,1.0,1.0,0.11663966,1.0,-1.0,-1.0,-0.07973713,0.4687289,-0.61230075,-0.28979772,1.0,1.0,-1.0,1.0,-1.0,0.58810663
2025-07-21 17:28:48.621,1.1400000000000006,1140,57,0.24153513,-0.27435803,0.36674556,-0.051274016,0.098194696,-0.1446332,0.054667037,0.15104733,-0.013471156,0.0,0.0,0.0,-0.25,0.5,0.0,0.0,-0.1433346,-0.032610573,-0.042343963,0.20401615,-0.16870715,0.2966547,0.012114715,-0.08739952,0.08498639,-0.008113071,0.02190415,0.062237203,-0.119121365,-0.07221402,0.008285794,0.042970408,-0.02994549,-0.13695955,0.23159248,0.23896724,-0.21539593,0.3111299,-0.11211222,0.12655424,-1.0,-1.0,-0.07973713,0.4687289,-0.61230075,-0.28979772,1.0,1.0,-1.0,1.0,-1.0,0.58810663,1.0,-1.0,1.0,-1.0,1.0,1.0,1.0,1.0,-1.0,-1.0,-1.0,1.0
2025-07-21 17:28:48.644,1.1600000000000006,1160,58,0.11732004,-0.18036497,0.033562146,-0.26324564,-0.23946242,-0.35233614,0.018620275,0.1429087,0.033474497,0.0,0.0,0.0,-0.25,0.5,0.0,0.0,-0.15026206,-0.13846026,0.038890995,0.1785036,-0.16378069,0.28666523,0.09278221,0.039908472,-0.013397097,0.004975114,-0.058371775,0.14126667,0.10163045,-0.261438,0.18755195,-0.16167319,0.068374805,0.10342651,0.13899975,0.44366685,-0.26281136,-0.1702704,-0.15588029,0.1430877,1.0,-1.0,1.0,-1.0,1.0,1.0,1.0,1.0,-1.0,-1.0,-1.0,1.0,-1.0,1.0,1.0,-0.53675926,1.0,-1.0,1.0,-1.0,-1.0,1.0,-1.0,1.0
2025-07-21 17:28:48.665,1.1800000000000006,1180,59,0.19056728,-0.32890114,-0.07456368,0.28873965,-0.22372355,-0.2684716,0.07285413,0.16187006,0.047457706,0.0,0.0,0.0,-0.25,0.5,0.0,0.0,-0.15071875,-0.18819673,0.11578645,0.11056058,-0.07454425,0.19982299,0.16009557,0.10343552,-0.09148983,-0.011846982,-0.12282564,0.18383059,-0.0885636,0.037746146,0.11395524,-0.23404574,0.2368932,-0.36903703,0.1984944,0.016396606,-0.24074587,0.07160315,-0.13039239,0.19171622,-1.0,1.0,1.0,-0.53675926,1.0,-1.0,1.0,-1.0,-1.0,1.0,-1.0,1.0,-1.0,1.0,1.0,-1.0,-1.0,1.0,1.0,-1.0,-1.0,1.0,-1.0,1.0
2025-07-21 17:28:48.684,1.2000000000000006,1200,60,-0.05507662,-0.23846473,-0.1961601,0.9191195,0.07178078,-0.30183214,0.0068978947,0.13078457,0.031585705,0.0,0.0,0.0,-0.25,0.5,0.0,0.0,-0.22387213,-0.15287194,0.1678388,0.0057486715,-0.062264826,0.21141472,0.22699717,0.029558353,-0.16425695,0.038914565,-0.2275081,0.24272111,-0.1656935,0.16819409,0.19354232,-0.23482959,-0.0509152,0.18370007,0.1942048,-0.231688,-0.09180156,0.16548488,-0.2952212,0.08199658,-1.0,1.0,1.0,-1.0,-1.0,1.0,1.0,-1.0,-1.0,1.0,-1.0,1.0,-1.0,-1.0,1.0,1.0,-1.0,1.0,-1.0,-1.0,1.0,1.0,1.0,1.0
2025-07-21 17:28:48.705,1.2200000000000006,1220,61,0.17155841,-0.47732726,0.0046866327,0.7687125,-0.10502827,-0.0633731,-0.059632074,0.026763199,0.017742496,0.0,0.0,0.0,-0.25,0.5,0.0,0.0,-0.24283515,-0.14598083,0.22903116,-0.0017581331,-0.131375,0.26517102,0.21041359,-0.108585484,-0.08327013,0.10984441,-0.28820994,0.27346015,-0.007546721,-0.08027129,0.051754408,0.032025184,-0.26770788,0.07993604,-0.2500131,-0.4929876,0.22537148,0.18338877,-0.11538916,0.11194141,-1.0,-1.0,1.0,1.0,-1.0,1.0,-1.0,-1.0,1.0,1.0,1.0,1.0,0.17233245,1.0,-0.2539227,1.0,-0.29394653,1.0,-1.0,1.0,1.0,-1.0,-0.7541545,1.0
2025-07-21 17:28:48.724,1.2400000000000007,1240,62,0.23378253,-0.1910007,0.09095572,0.55237097,0.3527366,-0.40558952,-0.044566523,-0.07355508,-0.007063301,0.0,0.0,0.0,-0.25,0.5,0.0,0.0,-0.20852837,-0.13098179,0.17227527,0.0577975,-0.19708468,0.28002682,0.10673373,-0.18669328,0.0035769371,0.12345853,-0.33031657,0.31472483,0.19692293,0.119325936,-0.16032967,0.24368015,-0.08353956,-0.008158092,-0.34913453,-0.05729096,0.17420952,-0.0143128345,-0.20368294,0.14431544,0.17233245,1.0,-0.2539227,1.0,-0.29394653,1.0,-1.0,1.0,1.0,-1.0,-0.7541545,1.0,1.0,1.0,-1.0,1.0,-1.0,1.0,-1.0,-1.0,1.0,0.41689897,1.0,-1.0
2025-07-21 17:28:48.744,1.2600000000000007,1260,63,0.08962504,-0.217126,-0.1577769,0.56010044,0.7199869,-0.374565,-0.05494925,-0.1010485,-0.029605709,0.0,0.0,0.0,-0.25,0.5,0.0,0.0,-0.11066273,-0.033855446,0.062020198,0.124943554,-0.25093204,0.30910122,-0.0022143633,-0.23460478,0.09222652,0.14478028,-0.325925,0.21254054,0.29686454,0.2001842,-0.270941,0.26992923,-0.15281877,0.10661055,-0.27112967,-0.17471507,0.11794696,0.10667907,0.23208553,-0.38815954,1.0,1.0,-1.0,1.0,-1.0,1.0,-1.0,-1.0,1.0,0.41689897,1.0,-1.0,1.0,-1.0,-1.0,1.0,1.0,1.0,-1.0,-0.07395622,1.0,1.0,1.0,1.0
2025-07-21 17:28:48.764,1.2800000000000007,1280,64,0.51111865,0.06680918,-0.30535758,0.1635987,0.9758942,-0.16400012,-0.037548352,-0.18480626,0.015812999,0.0,0.0,0.0,-0.25,0.5,0.0,0.0,0.0016530821,0.0028773376,-0.028576002,0.20666687,-0.25145876,0.32909277,-0.092003204,-0.24227212,0.15902106,0.18285665,-0.23852445,0.2093606,0.26981106,-0.0009266864,-0.14232284,0.12745742,0.025526004,-0.0026659458,-0.17265767,0.10383054,0.11460896,0.12102615,0.27876502,0.0660259,1.0,-1.0,-1.0,1.0,1.0,1.0,-1.0,-0.07395622,1.0,1.0,1.0,1.0,1.0,-1.0,-1.0,-0.14919066,-1.0,1.0,-1.0,-1.0,-0.31880128,-0.74351454,0.38637033,-1.0
2025-07-21 17:28:48.786,1.3000000000000007,1300,65,0.009789177,0.33142284,-0.50660604,0.028482659,-0.20434558,-0.16653031,-0.025496442,-0.15551288,-0.023641955,0.0,0.0,0.0,-0.25,0.5,0.0,0.0,0.081290804,-0.0777858,-0.09886307,0.21129443,-0.26500767,0.34573415,-0.16831997,-0.2480525,0.1300434,0.15586042,-0.106959805,0.1381787,0.24641275,-0.2876162,-0.12754613,-0.15144178,-0.06061087,-0.001158929,-0.16615947,0.040442687,-0.18770695,-0.22319539,0.23774377,-0.32967025,1.0,-1.0,-1.0,-0.14919066,-1.0,1.0,-1.0,-1.0,-0.31880128,-0.74351454,0.38637033,-1.0,-1.0,1.0,1.0,1.0,0.7599848,1.0,-0.7169176,-0.12410042,1.0,-1.0,0.32426497,-1.0
2025-07-21 17:28:48.807,1.3200000000000007,1320,66,0.4141119,0.20740339,-0.058762863,-0.23626415,0.04233721,-0.2891821,0.04386102,-0.15200962,0.017536297,0.0,0.0,0.0,-0.25,0.5,0.0,0.0,0.084059134,-0.11215809,-0.045575056,0.17925481,-0.25333974,0.36354992,-0.19602987,-0.22878018,0.11496974,0.041084677,-0.0036190657,0.023528619,-0.13607314,0.1038854,0.26742047,-0.051926218,0.17232855,0.08907159,-0.12225558,-0.0033853976,0.014834191,-0.21917619,0.14704466,-0.25707647,-1.0,1.0,1.0,1.0,0.7599848,1.0,-0.7169176,-0.12410042,1.0,-1.0,0.32426497,-1.0,-1.0,-1.0,1.0,1.0,-1.0,1.0,-1.0,-0.5046934,1.0,-0.22240458,-0.08101101,0.86843276
2025-07-21 17:28:48.828,1.3400000000000007,1340,67,0.20050868,0.36044928,0.50916994,0.083248064,-0.25975615,-0.34048417,0.026020529,-0.15158252,-0.039794568,0.0,0.0,0.0,-0.25,0.5,0.0,0.0,-0.007048356,-0.14239758,0.043799903,0.19279133,-0.25780484,0.38631794,-0.23717351,-0.27046224,0.1644103,0.013990854,-0.0122925425,0.067382835,-0.12282547,-0.11743937,0.13050604,-0.07284257,-0.091599055,-0.021437965,-0.12844752,-0.11568155,0.18565017,-0.09820871,-0.0026189103,0.10035669,-1.0,-1.0,1.0,1.0,-1.0,1.0,-1.0,-0.5046934,1.0,-0.22240458,-0.08101101,0.86843276,-0.711179,-1.0,1.0,-1.0,1.0,-1.0,-1.0,1.0,-1.0,1.0,1.0,-1.0
2025-07-21 17:28:48.848,1.3600000000000008,1360,68,-0.057926748,0.2948739,0.049502093,-0.15387738,-0.67749304,-0.14827171,-0.04156162,-0.18174954,-0.04593625,0.0,0.0,0.0,-0.25,0.5,0.0,0.0,-0.06712537,-0.20905402,0.11749474,0.13157876,-0.19812945,0.26614332,-0.2713884,-0.25543123,0.09816904,0.057992592,0.050674,-0.0023592666,-0.13168366,-0.14289194,0.22997878,-0.27281907,0.22863837,-0.39760205,-0.14641146,0.12138827,-0.33133477,0.189577,0.33035234,-0.2648675,-0.711179,-1.0,1.0,-1.0,1.0,-1.0,-1.0,1.0,-1.0,1.0,1.0,-1.0,0.37933227,1.0,1.0,-1.0,1.0,-1.0,1.0,1.0,-1.0,-1.0,-1.0,1.0
2025-07-21 17:28:48.868,1.3800000000000008,1380,69,0.2482791,0.12818907,-0.5115002,-0.33284336,0.031518836,-0.28585672,0.0068164067,-0.14757465,-0.048701786,0.0,0.0,0.0,-0.25,0.5,0.0,0.0,-0.07353173,-0.22901373,0.17100273,0.019299746,-0.08280938,0.14780937,-0.24689004,-0.14299834,-0.0023049295,0.044176314,0.06918209,0.050957657,0.016048193,0.036227535,0.14531675,-0.2862827,0.41136447,-0.28527054,0.25858736,0.4251571,-0.15674527,-0.13946006,-0.10075465,0.2556478,0.37933227,1.0,1.0,-1.0,1.0,-1.0,1.0,1.0,-1.0,-1.0,-1.0,1.0,-1.0,-0.20075434,1.0,-1.0,-1.0,0.33855492,1.0,-1.0,0.44902116,1.0,-1.0,1.0
2025-07-21 17:28:48.890,1.4000000000000008,1400,70,-0.23036042,0.22835082,-0.26576236,-0.27035013,-0.32548702,-0.14042342,-0.02645679,-0.058555346,0.010525305,0.0,0.0,0.0,-0.25,0.5,0.0,0.0,-0.06852622,-0.22818403,0.22028333,-0.06633475,-0.023227874,0.13113357,-0.12257614,-0.10115418,0.026627528,0.06527428,-0.004724935,0.13416909,-0.02965931,-0.03884636,0.15614483,-0.25218126,-0.036960702,-0.0051074624,0.23511638,-0.12253869,0.15144917,0.16597584,-0.22106618,0.09708818,-1.0,-0.20075434,1.0,-1.0,-1.0,0.33855492,1.0,-1.0,0.44902116,1.0,-1.0,1.0,-0.21160378,0.7412179,1.0,-0.055170774,1.0,-1.0,-1.0,0.14854136,1.0,1.0,-0.5329433,1.0
2025-07-21 17:28:48.911,1.4200000000000008,1420,71,0.088181175,0.20892537,-0.103675805,-0.50743425,-0.3860798,-0.3126779,0.050626382,-0.061008696,-0.0029172609,0.0,0.0,0.0,-0.25,0.5,0.0,0.0,-0.08095023,-0.20026602,0.2491559,-0.078927435,0.01487424,0.05257091,-0.0954324,-0.084765695,0.102314174,0.13440813,-0.12647527,0.18990599,0.027129807,0.08852253,0.04813192,0.07381105,0.29327035,-0.24938355,-0.1566755,0.12458289,0.12959115,0.12794326,-0.2597581,0.12294395,-0.21160378,0.7412179,1.0,-0.055170774,1.0,-1.0,-1.0,0.14854136,1.0,1.0,-0.5329433,1.0,0.8641286,1.0,1.0,-0.7875463,-1.0,-0.6871154,-0.25484267,-1.0,1.0,-0.25631785,-1.0,-1.0
2025-07-21 17:28:48.934,1.4400000000000008,1440,72,-0.31882733,-0.05215931,-0.27415287,-0.13276643,-0.23788317,-0.5063036,0.019634273,-0.0496757,0.003910266,0.0,0.0,0.0,-0.25,0.5,0.0,0.0,-0.05722062,-0.13821729,0.276707,-0.1263306,0.035361614,-0.018630384,-0.13030459,-0.07548155,0.15347287,0.1363734,-0.20303956,0.1167681,0.15743862,0.10152212,0.06441052,-0.13257326,-0.17533202,-0.16790532,0.04077641,0.004213475,0.195707,-0.07008927,-0.22684367,-0.32410833,0.8641286,1.0,1.0,-0.7875463,-1.0,-0.6871154,-0.25484267,-1.0,1.0,-0.25631785,-1.0,-1.0,0.69987655,1.0,-1.0,1.0,1.0,1.0,-1.0,-1.0,1.0,1.0,1.0,0.16838786
2025-07-21 17:28:48.954,1.4600000000000009,1460,73,-0.040164195,0.053981937,-0.1518928,0.19795878,0.17162392,-0.38390335,0.03631223,0.000708185,0.0388115,0.0,0.0,0.0,-0.25,0.5,0.0,0.0,0.01765145,-0.03668592,0.18444224,-0.08716691,0.022068024,0.03685246,-0.13278608,-0.10725949,0.21881981,0.13105418,-0.24885838,0.07594284,0.14888597,0.30229178,-0.30580205,0.24500021,0.1676042,0.14583832,-0.043821055,-0.10907148,0.10326414,0.024401719,-0.01746657,-0.044230267,0.69987655,1.0,-1.0,1.0,1.0,1.0,-1.0,-1.0,1.0,1.0,1.0,0.16838786,0.37040755,-1.0,-1.0,1.0,-1.0,1.0,-1.0,-1.0,1.0,0.6667429,1.0,-1.0
2025-07-21 17:28:48.973,1.4800000000000009,1480,74,0.07644749,-0.13244821,-0.062577784,0.42756268,-0.60443586,-0.36725312,-0.05430197,-0.055519477,0.034208987,0.0,0.0,0.0,-0.25,0.5,0.0,0.0,0.05516461,-0.005679302,0.06333296,0.016831417,0.0050729695,0.11462297,-0.15493795,-0.14509565,0.2609702,0.17294185,-0.21071196,-0.0028853544,-0.0019208062,-0.095664196,-0.22691408,0.28549522,-0.22866027,0.16704181,-0.11754845,-0.23283644,0.10653504,0.07388099,0.14249995,-0.198836,0.37040755,-1.0,-1.0,1.0,-1.0,1.0,-1.0,-1.0,1.0,0.6667429,1.0,-1.0,1.0,-0.20615304,-1.0,1.0,1.0,1.0,-1.0,-1.0,1.0,0.7598256,1.0,-1.0
2025-07-21 17:28:48.994,1.5000000000000009,1500,75,0.19790334,-0.23341624,-0.24404761,0.37216088,-0.29113978,-0.3107519,-0.06468868,-0.044167228,-0.041951098,0.0,0.0,0.0,-0.25,0.5,0.0,0.0,0.11377298,-0.034592297,-0.027158013,0.066069394,-0.0008598755,0.16680294,-0.21392262,-0.23207735,0.2913252,0.20324567,-0.10281177,-0.08931531,0.11922633,-0.061870012,-0.24941695,0.10897914,-0.06901549,0.16616851,-0.063763544,-0.12583327,0.15429199,0.054934327,0.37545094,-0.16512735,1.0,-0.20615304,-1.0,1.0,1.0,1.0,-1.0,-1.0,1.0,0.7598256,1.0,-1.0,0.6780057,0.36409152,-1.0,1.0,-0.59667724,1.0,-1.0,-1.0,1.0,1.0,-1.0,-1.0
2025-07-21 17:28:49.014,1.520000000000001,1520,76,0.10994552,-0.11518149,0.3472381,0.55038923,0.16881204,-0.4833264,-0.09271976,0.025127256,-0.04024823,0.0,0.0,0.0,-0.25,0.5,0.0,0.0,0.15146665,-0.016428733,-0.09564574,0.09536902,-0.05764413,0.19890642,-0.24802431,-0.29623222,0.3170178,0.26374897,-0.058447428,-0.14063218,0.16488166,0.22908178,-0.21943028,0.05505723,-0.20368867,0.12387863,-0.08666493,-0.21092163,0.08532049,0.059407175,-0.10654861,-0.1341543,0.6780057,0.36409152,-1.0,1.0,-0.59667724,1.0,-1.0,-1.0,1.0,1.0,-1.0,-1.0,-1.0,-1.0,-1.0,1.0,1.0,1.0,1.0,1.0,1.0,-1.0,1.0,0.3027353
2025-07-21 17:28:49.035,1.540000000000001,1540,77,0.3319433,0.11724366,0.3004547,-0.038099967,0.63859487,-0.41408873,-0.11627872,-0.020901563,-0.010167976,0.0,0.0,0.0,-0.25,0.5,0.0,0.0,0.12593196,-0.019640228,-0.1700418,0.14505301,-0.06881135,0.23376468,-0.23060927,-0.2931782,0.34516,0.23911992,-0.011527136,-0.1208824,-0.19587842,-0.08587293,-0.0940644,0.14486326,-0.009807451,0.08671039,0.12626252,0.12024387,0.07291402,-0.16121437,0.25577986,0.08069135,-1.0,-1.0,-1.0,1.0,1.0,1.0,1.0,1.0,1.0,-1.0,1.0,0.3027353,-1.0,-1.0,1.0,0.8349293,1.0,0.9998562,-1.0,-1.0,1.0,-0.37806392,-1.0,-0.1057035
2025-07-21 17:28:49.058,1.560000000000001,1560,78,0.08860356,0.13453805,0.48061585,0.08090323,0.29944542,-0.40005797,-0.11535808,-0.024557691,-0.0030211387,0.0,0.0,0.0,-0.25,0.5,0.0,0.0,0.031766787,-0.12159249,-0.08740731,0.1791228,-0.05767666,0.27111846,-0.22031184,-0.2863801,0.3615443,0.17688543,0.0034238414,-0.09218973,-0.24478705,-0.28167468,0.22694905,0.06723982,0.1416625,0.08813294,0.028403128,0.04928123,0.09914547,-0.13507369,-0.17311744,0.060475003,-1.0,-1.0,1.0,0.8349293,1.0,0.9998562,-1.0,-1.0,1.0,-0.37806392,-1.0,-0.1057035,-1.0,1.0,1.0,-0.28291863,1.0,-1.0,-0.41121128,-1.0,-1.0,1.0,1.0,1.0
2025-07-21 17:28:49.079,1.580000000000001,1580,79,0.056359388,0.07876003,0.22546317,0.1184558,-0.09802907,-0.16990443,-0.10935909,-0.047842775,-0.018977473,0.0,0.0,0.0,-0.25,0.5,0.0,0.0,-0.05998926,-0.19420825,0.009158467,0.17171654,0.05006596,0.17305511,-0.21317914,-0.30283502,0.2670491,0.1875973,0.0044718646,-0.011741627,-0.2085212,-0.09651675,0.23335008,-0.118863635,0.26848993,-0.23790017,0.03031279,-0.04830154,-0.39873594,0.15913452,0.1444838,0.1662901,-1.0,1.0,1.0,-0.28291863,1.0,-1.0,-0.41121128,-1.0,-1.0,1.0,1.0,1.0,-0.9543303,1.0,1.0,-1.0,0.011688866,-1.0,1.0,1.0,-1.0,-0.53385055,-1.0,1.0
2025-07-21 17:28:49.098,1.600000000000001,1600,80,0.33585632,0.09981189,-0.11073563,-0.17600939,-0.69046813,-0.2757216,-0.069536805,-0.0302645,-0.0034753026,0.0,0.0,0.0,-0.25,0.5,0.0,0.0,-0.13284482,-0.20450504,0.06562935,0.070578724,0.10404951,0.057460785,-0.20722352,-0.24370125,0.15022244,0.13748029,0.023580212,0.07010244,-0.16090295,0.09343954,0.22857049,-0.265861,-0.013639422,-0.2239851,0.21185146,0.26064828,-0.25806585,-0.264803,-0.17430499,0.17292543,-0.9543303,1.0,1.0,-1.0,0.011688866,-1.0,1.0,1.0,-1.0,-0.53385055,-1.0,1.0,0.9577286,-1.0,1.0,-1.0,1.0,-0.63321275,1.0,1.0,-0.34563315,1.0,-1.0,1.0
2025-07-21 17:28:49.119,1.620000000000001,1620,81,-0.049682345,0.12486747,-0.17886378,-0.16632223,0.1280163,-0.1997756,-0.12962098,-0.009273431,0.0011223604,0.0,0.0,0.0,-0.25,0.5,0.0,0.0,-0.111081086,-0.19712059,0.14660162,-0.03241647,0.14807451,-0.0022687635,-0.0842537,-0.12855586,0.08934721,0.17447929,-0.057293527,0.15181124,0.15095396,-0.024098724,0.19210824,-0.21086857,0.16670659,-0.18335083,0.2623217,0.39171886,-0.1414534,0.13287334,-0.23272075,0.18392594,0.9577286,-1.0,1.0,-1.0,1.0,-0.63321275,1.0,1.0,-0.34563315,1.0,-1.0,1.0,-1.0,-0.6181111,1.0,-1.0,-0.45958415,-1.0,1.0,-1.0,-1.0,0.14184155,-0.48973867,1.0
2025-07-21 17:28:49.139,1.640000000000001,1640,82,-0.14942712,-0.04823481,-0.12607084,-0.15787332,-0.8119483,-0.1370646,-0.05706438,0.011857645,-0.013619262,0.0,0.0,0.0,-0.25,0.5,0.0,0.0,-0.13262405,-0.23137915,0.18339351,-0.11722022,0.1563079,-0.0758943,0.0097132735,-0.07868976,-0.009904932,0.15581411,-0.15493034,0.20760289,-0.08157511,-0.047896177,0.11687201,-0.22941759,-0.15918922,-0.14476615,0.27263293,-0.10237857,-0.14793238,-0.0203672,-0.17605864,0.1522116,-1.0,-0.6181111,1.0,-1.0,-0.45958415,-1.0,1.0,-1.0,-1.0,0.14184155,-0.48973867,1.0,1.0,1.0,1.0,-1.0,0.80998003,-0.80167526,1.0,1.0,-1.0,1.0,-0.23193707,1.0
2025-07-21 17:28:49.160,1.660000000000001,1660,83,-0.021841425,-0.1178964,-0.4717928,-0.29054666,0.28744322,-0.25098985,0.002730207,-0.01463573,0.0125494115,0.0,0.0,0.0,-0.25,0.5,0.0,0.0,-0.10996339,-0.21721211,0.23856002,-0.17536527,0.15945882,-0.1392949,0.09368981,-0.024668269,-0.088197544,0.17524171,-0.20144792,0.24037807,0.13821302,0.08062592,0.09412512,-0.198886,0.16093405,-0.078453854,0.19861504,0.20255151,-0.23841813,0.0175039,0.012962482,0.05411709,1.0,1.0,1.0,-1.0,0.80998003,-0.80167526,1.0,1.0,-1.0,1.0,-0.23193707,1.0,-1.0,0.9130292,1.0,-1.0,-1.0,-0.87537533,1.0,-0.8875357,-1.0,1.0,-1.0,1.0
2025-07-21 17:28:49.180,1.680000000000001,1680,84,-0.0047828713,-0.28010297,0.21177503,-0.15756376,0.22292803,-0.14370418,-0.049567256,0.0092089465,-0.044734854,0.0,0.0,0.0,-0.25,0.5,0.0,0.0,-0.060247336,-0.18630955,0.26049915,-0.23232335,0.14776024,-0.17294088,0.17837739,-0.016212817,-0.1412467,0.20136973,-0.20431031,0.27866766,0.029487584,0.13612632,0.11778749,-0.14658578,-0.122206174,-0.12965524,0.17853619,-0.056368638,-0.15591517,0.0638004,-0.004906774,0.10991152,-1.0,0.9130292,1.0,-1.0,-1.0,-0.87537533,1.0,-0.8875357,-1.0,1.0,-1.0,1.0,-0.73370874,1.0,1.0,1.0,-1.0,1.0,1.0,-0.44746253,0.6904783,-0.5262121,-1.0,1.0
2025-07-21 17:28:49.198,1.700000000000001,1700,85,-0.09710735,0.08882648,0.3443109,-0.06099186,-0.45967677,-0.36910126,0.028914923,0.036555134,-0.042060867,0.0,0.0,0.0,-0.25,0.5,0.0,0.0,-0.055880554,-0.14749847,0.2934329,-0.22619492,0.044012774,-0.09683915,0.22962785,-0.09996815,-0.08628854,0.161565,-0.22513077,0.3171772,-0.10505887,0.1591713,0.093280815,0.1553292,-0.3857086,0.3080006,0.18943132,-0.21801569,0.13656786,-0.23534676,-0.034748483,0.13090834,-0.73370874,1.0,1.0,1.0,-1.0,1.0,1.0,-0.44746253,0.6904783,-0.5262121,-1.0,1.0,1.0,1.0,-1.0,1.0,1.0,1.0,-1.0,-1.0,1.0,1.0,1.0,-1.0
2025-07-21 17:28:49.216,1.720000000000001,1720,86,0.24709588,-0.22331725,-0.19959596,0.0022415826,0.093402505,-0.24064894,-0.025033064,0.057939563,0.016451156,0.0,0.0,0.0,-0.25,0.5,0.0,0.0,-0.019622702,-0.033900846,0.18605198,-0.11965122,-0.019876258,-0.0056271586,0.21139055,-0.22265619,0.00075111,0.18584546,-0.15977404,0.20867404,0.17576551,0.31491742,-0.30252084,0.2614262,-0.05173442,0.15019853,-0.11976112,-0.286586,0.16014205,0.1149235,0.24244037,-0.37501764,1.0,1.0,-1.0,1.0,1.0,1.0,-1.0,-1.0,1.0,1.0,1.0,-1.0,0.16604255,1.0,-1.0,1.0,-1.0,1.0,-1.0,-0.3411213,1.0,1.0,1.0,-1.0
2025-07-21 17:28:49.233,1.740000000000001,1740,87,0.41904217,-0.21389133,-0.36980593,-0.0075274776,0.07052902,-0.32949114,-0.043502513,0.024133839,0.044415817,0.0,0.0,0.0,-0.25,0.5,0.0,0.0,-0.0033133426,0.10623132,0.06670061,-0.018322842,-0.060269665,0.07200258,0.11904469,-0.2929459,0.08699619,0.22770634,-0.04699163,0.09213382,0.053191114,0.37399814,-0.26098567,0.2451564,-0.2770296,0.17516695,-0.27839547,-0.12029083,0.24554287,0.19547391,0.32595408,-0.3169413,0.16604255,1.0,-1.0,1.0,-1.0,1.0,-1.0,-0.3411213,1.0,1.0,1.0,-1.0,0.6401484,-1.0,-1.0,1.0,1.0,1.0,-1.0,-1.0,1.0,-1.0,0.2684122,-1.0
2025-07-21 17:28:49.253,1.7600000000000011,1760,88,0.111863196,0.05443676,-0.41611758,-0.17095405,0.20491698,-0.28247473,0.03639541,0.0550487,0.04439111,0.0,0.0,0.0,-0.25,0.5,0.0,0.0,0.053596023,0.20557147,-0.013893187,0.0664523,-0.09034512,0.14203332,0.017611511,-0.36247486,0.14793713,0.20310198,0.022972453,0.000120748584,0.16586022,0.10747019,-0.23030043,0.15995193,-0.06773847,0.12615912,-0.19951175,-0.2358215,0.13484937,-0.16768941,0.21150121,-0.21896528,0.6401484,-1.0,-1.0,1.0,1.0,1.0,-1.0,-1.0,1.0,-1.0,0.2684122,-1.0,1.0,-1.0,-1.0,1.0,1.0,1.0,-1.0,1.0,1.0,-1.0,-0.8229963,-1.0
2025-07-21 17:28:49.273,1.7800000000000011,1780,89,0.10168804,-0.03257651,-0.2632113,-0.40681535,0.09551628,-0.340805,0.013178813,0.027747666,-0.017354742,0.0,0.0,0.0,-0.25,0.5,0.0,0.0,0.1287233,0.17236792,-0.097043455,0.11519395,-0.110296026,0.18245275,-0.02858912,-0.37491596,0.19822855,0.10482966,0.026653102,-0.091272146,0.14086127,-0.15501763,-0.11451394,0.040352758,-0.026225315,0.035407364,-0.065098524,0.11078569,0.15365313,-0.23088664,-0.18888499,-0.24932717,1.0,-1.0,-1.0,1.0,1.0,1.0,-1.0,1.0,1.0,-1.0,-0.8229963,-1.0,0.88132095,-1.0,-1.0,1.0,1.0,1.0,-1.0,-1.0,1.0,-1.0,1.0,-1.0
2025-07-21 17:28:49.293,1.8000000000000012,1800,90,0.17555562,-0.33667186,-0.15092501,-0.28109455,-0.09578905,-0.14635071,-0.0045477264,0.036603514,0.011661482,0.0,0.0,0.0,-0.25,0.5,0.0,0.0,0.18545868,0.05281272,-0.16570617,0.1267962,-0.0887309,0.20878753,-0.05382257,-0.3611965,0.24699703,-0.0006658736,0.014192351,-0.15079252,0.119763255,-0.37332284,-0.07562895,6.49495e-05,0.03273685,0.029106352,0.03980113,-0.0065196995,0.09041311,-0.25165096,0.10353133,-0.20454556,0.88132095,-1.0,-1.0,1.0,1.0,1.0,-1.0,-1.0,1.0,-1.0,1.0,-1.0,-1.0,-0.54931414,-0.33430302,1.0,-1.0,1.0,-1.0,1.0,1.0,1.0,-1.0,1.0
2025-07-21 17:28:49.315,1.8200000000000012,1820,91,0.3156777,-0.39532664,0.64616007,-0.0837687,-0.04320132,-0.32582355,0.007993796,0.030297605,0.030153234,0.0,0.0,0.0,-0.25,0.5,0.0,0.0,0.15346211,-0.08070841,-0.16320224,0.13006961,-0.1129837,0.26680857,-0.04523581,-0.35274607,0.25779912,-0.005386476,0.0012322548,-0.07542448,-0.22079095,-0.2861999,-0.014239641,0.01633335,-0.11358535,0.071422346,-0.07980816,-0.022177408,0.045001917,0.13082021,-0.1784593,0.2388928,-1.0,-0.54931414,-0.33430302,1.0,-1.0,1.0,-1.0,1.0,1.0,1.0,-1.0,1.0,-1.0,1.0,0.30664563,-1.0,-1.0,1.0,1.0,0.938197,-1.0,-1.0,-0.013718683,-1.0
2025-07-21 17:28:49.333,1.8400000000000012,1840,92,0.3167673,-0.25719458,0.12338655,-0.32528254,-0.45852873,-0.3078493,0.09813887,0.055207845,-0.0076038805,0.0,0.0,0.0,-0.25,0.5,0.0,0.0,0.03525971,-0.13517873,-0.10898883,0.1097794,-0.14835668,0.30084935,-0.025500644,-0.27675578,0.16030842,-0.029090036,-0.024841843,-0.111391746,-0.23091246,0.020610876,0.04857688,-0.07111383,-0.083214775,0.016478615,0.19036056,0.3332342,-0.24906309,-0.23889965,-0.041539934,-0.16986087,-1.0,1.0,0.30664563,-1.0,-1.0,1.0,1.0,0.938197,-1.0,-1.0,-0.013718683,-1.0,-0.4092321,-1.0,-1.0,1.0,-0.76756173,1.0,-0.777631,-0.87315917,1.0,-1.0,1.0,-1.0
2025-07-21 17:28:49.354,1.8600000000000012,1860,93,0.10718483,-0.3155772,0.77885354,0.17090623,-0.25606936,-0.37341532,0.109756395,0.074486226,-0.037741676,0.0,0.0,0.0,-0.25,0.5,0.0,0.0,-0.010485768,-0.175119,-0.16577104,0.08124389,-0.17412396,0.32090583,-0.029415593,-0.2500632,0.15917532,-0.11136901,0.016442714,-0.18555371,-0.13805445,-0.23854603,-0.14387947,0.014134794,-0.16461705,0.04792016,-0.1659572,-0.08378138,0.14402296,-0.21628194,0.09583123,-0.18599832,-0.4092321,-1.0,-1.0,1.0,-0.76756173,1.0,-0.777631,-0.87315917,1.0,-1.0,1.0,-1.0,-0.25281683,-0.24520552,1.0,-1.0,0.32526663,1.0,-1.0,1.0,-1.0,1.0,1.0,1.0
2025-07-21 17:28:49.373,1.8800000000000012,1880,94,0.20483157,-0.15099989,0.36912772,-0.12131958,-0.4608635,-0.12663132,0.065955974,0.05278508,0.043967135,0.0,0.0,0.0,-0.25,0.5,0.0,0.0,-0.04409734,-0.20878665,-0.08846359,0.056277648,-0.19134347,0.33839828,-0.11051452,-0.20287785,0.071591206,-0.11094249,0.11308758,-0.10304266,-0.05975202,-0.004746314,0.31574368,-0.080265075,-0.0077077276,0.059724707,-0.1886075,0.19292445,-0.25144866,0.14202726,0.292842,0.3185008,-0.25281683,-0.24520552,1.0,-1.0,0.32526663,1.0,-1.0,1.0,-1.0,1.0,1.0,1.0,-1.0,-0.13208222,1.0,0.9318062,1.0,-1.0,1.0,1.0,-1.0,0.15821506,-1.0,1.0
2025-07-21 17:28:49.394,1.9000000000000012,1900,95,0.21130335,-0.08850616,0.09101405,-0.46630076,0.14707205,-0.14177608,0.07746113,0.005347731,-0.030053116,0.0,0.0,0.0,-0.25,0.5,0.0,0.0,-0.0974447,-0.19235946,0.01034155,0.08682877,-0.11411038,0.22402225,-0.0836339,-0.062136617,-0.02061415,-0.06780612,0.17371832,-0.009955605,-0.1808381,0.07284885,0.18137416,0.24384826,0.32480937,-0.39223382,0.19380753,0.34291166,-0.19167903,0.051272713,0.052646346,0.24638021,-1.0,-0.13208222,1.0,0.9318062,1.0,-1.0,1.0,1.0,-1.0,0.15821506,-1.0,1.0,-0.5840169,0.14433275,1.0,-1.0,0.2797984,-0.7414176,1.0,-0.051741034,-1.0,1.0,-1.0,1.0
2025-07-21 17:28:49.414,1.9200000000000013,1920,96,0.11661936,-0.23129253,-0.3802584,-0.09386396,0.18682098,-0.18166721,0.13695385,0.02371905,0.010630895,0.0,0.0,0.0,-0.25,0.5,0.0,0.0,-0.14134426,-0.16482826,0.093879424,0.0958704,-0.019476933,0.12706631,0.0027430041,-0.003860449,-0.08623711,-0.0010032718,0.12048735,0.08675819,-0.094871275,0.13255934,0.18517672,-0.17133968,0.18474934,-0.16278157,0.27544641,-0.051967498,-0.18235762,0.19496456,-0.22170916,0.12887402,-0.5840169,0.14433275,1.0,-1.0,0.2797984,-0.7414176,1.0,-0.051741034,-1.0,1.0,-1.0,1.0,-1.0,-1.0,1.0,-1.0,-1.0,1.0,1.0,1.0,-1.0,1.0,-1.0,1.0
2025-07-21 17:28:49.435,1.9400000000000013,1940,97,-0.061694384,-0.09687214,-0.42088866,0.10115911,0.85485363,-0.06938518,0.08797376,-0.032175582,0.035262607,0.0,0.0,0.0,-0.25,0.5,0.0,0.0,-0.18450323,-0.15218385,0.15893517,-0.012668993,-0.03745646,0.17629747,0.10405506,0.015840203,-0.16942307,0.07364924,0.038990486,0.15583506,-0.13994792,-0.17708746,0.16827878,-0.2923328,-0.20863132,0.07641542,0.17353107,0.24499172,-0.105167046,0.11890067,-0.15903778,0.10960175,-1.0,-1.0,1.0,-1.0,-1.0,1.0,1.0,1.0,-1.0,1.0,-1.0,1.0,1.0,1.0,1.0,-0.09769136,1.0,1.0,1.0,-1.0,-1.0,-0.9207159,-1.0,1.0
2025-07-21 17:28:49.454,1.9600000000000013,1960,98,0.1997178,-0.015852625,-0.6283467,-0.008712157,0.8040376,-0.33408952,0.004247775,-0.11160611,0.047346532,0.0,0.0,0.0,-0.25,0.5,0.0,0.0,-0.17104825,-0.1723902,0.19515045,-0.026040759,-0.047697756,0.21433772,0.16903251,0.040416636,-0.2218599,0.09038892,-0.051278606,0.2123285,0.1431862,-0.07286865,0.05229775,0.021442035,0.14503223,0.11534155,0.15231714,-0.048831128,-0.1834918,-0.1093924,-0.25389996,0.15355903,1.0,1.0,1.0,-0.09769136,1.0,1.0,1.0,-1.0,-1.0,-0.9207159,-1.0,1.0,-1.0,-1.0,1.0,1.0,-1.0,1.0,0.53478783,-1.0,1.0,1.0,0.77677125,1.0
2025-07-21 17:28:49.481,1.9800000000000013,1980,99,-0.13385536,-0.23118412,0.09075398,0.14701018,0.39714354,-0.08482728,0.005084084,-0.1346116,0.047441673,0.0,0.0,0.0,-0.25,0.5,0.0,0.0,-0.1261706,-0.2121216,0.2410865,0.010352237,-0.05074079,0.26490808,0.19172643,-0.060954504,-0.13307415,0.09355495,-0.08304527,0.24988303,0.07386316,-0.033896644,0.05671339,0.18900901,-0.12150113,0.06897647,0.001099581,-0.38032177,0.3072882,0.14401501,-0.055373892,0.0470137,-1.0,-1.0,1.0,1.0,-1.0,1.0,0.53478783,-1.0,1.0,1.0,0.77677125,1.0,1.0,1.0,-1.0,1.0,1.0,1.0,-1.0,-0.37276062,1.0,-0.75500786,-1.0,0.73058176
2025-07-21 17:28:49.493,2.0000000000000013,2000,100,0.09434563,-0.15287521,0.0023625444,-0.029369403,0.60568196,-0.3220732,-0.04588144,-0.14037961,0.026858037,0.0,0.0,0.0,-0.25,0.5,0.0,0.0,-0.04699857,-0.18175453,0.14430328,0.09122611,-0.08533472,0.27859953,0.14433835,-0.14513665,-0.0304567,0.08541009,-0.10095576,0.26532313,0.25907764,0.17126262,-0.24228428,0.11760436,-0.06108631,-0.006900932,-0.2751631,-0.13671738,0.24743982,-0.0956003,-0.14299239,-0.009502235,1.0,1.0,-1.0,1.0,1.0,1.0,-1.0,-0.37276062,1.0,-0.75500786,-1.0,0.73058176,1.0,1.0,-1.0,0.7402244,-1.0,1.0,-1.0,-1.0,1.0,1.0,1.0,-1.0
2025-07-21 17:28:49.514,2.0200000000000014,2020,101,-0.012913398,0.17913178,-0.1771278,0.08381862,0.49257377,-0.24595396,-0.06937316,-0.17741776,0.026791893,0.0,0.0,0.0,-0.25,0.5,0.0,0.0,0.03831376,-0.07137429,0.025488451,0.14097798,-0.11376221,0.3168538,0.038502503,-0.22412917,0.06490639,0.10829666,-0.08419337,0.15184635,0.21196294,0.21772099,-0.30942354,0.08216146,-0.08318656,0.13146779,-0.12789923,-0.23058552,0.2277155,0.1947757,0.20303702,-0.33818078,1.0,1.0,-1.0,0.7402244,-1.0,1.0,-1.0,-1.0,1.0,1.0,1.0,-1.0,0.49352846,-1.0,-1.0,1.0,1.0,1.0,-1.0,0.2750028,1.0,-0.70836914,1.0,-1.0
2025-07-21 17:28:49.534,2.0400000000000014,2040,102,0.16295172,-0.18011297,-0.034086324,0.05100053,-0.32555968,-0.4765215,-0.03248989,-0.16686498,-0.015835982,0.0,0.0,0.0,-0.25,0.5,0.0,0.0,0.075762324,-0.040596675,-0.05864865,0.15540825,-0.12743053,0.32559615,-0.011371049,-0.2614802,0.1056121,0.084492676,0.02579917,0.042613328,0.09494279,-0.023196328,-0.11780279,0.01387971,-0.04762196,0.08920208,-0.15044327,-0.05195578,0.11493483,-0.17699705,0.30084482,-0.20931861,0.49352846,-1.0,-1.0,1.0,1.0,1.0,-1.0,0.2750028,1.0,-0.70836914,1.0,-1.0,0.029113753,-0.4144936,-1.0,-0.47292727,-0.19419113,1.0,0.21326801,-0.22039703,1.0,1.0,-0.59815603,0.39756343
2025-07-21 17:28:49.554,2.0600000000000014,2060,103,0.43276447,-0.09740928,0.37409022,0.10589957,0.09127342,-0.14207664,-0.047273517,-0.15214607,0.0058390284,0.0,0.0,0.0,-0.25,0.5,0.0,0.0,0.06789723,-0.10838619,-0.12270069,0.14161067,-0.14648417,0.34444955,-0.021347592,-0.26171607,0.17679377,0.09914652,0.06428275,0.06996031,-0.043587446,-0.13299009,-0.22972463,-0.07186374,-0.1079686,0.024594612,0.043460827,-0.003664037,0.09210285,0.112550095,-0.09412174,0.118047185,0.029113753,-0.4144936,-1.0,-0.47292727,-0.19419113,1.0,0.21326801,-0.22039703,1.0,1.0,-0.59815603,0.39756343,-0.91283953,1.0,-1.0,1.0,-1.0,1.0,-1.0,-0.12838599,1.0,-1.0,-0.2914599,-1.0
2025-07-21 17:28:49.577,2.0800000000000014,2080,104,0.33691314,0.028019836,0.3947277,0.27633974,-0.24416909,-0.551683,-0.010138377,-0.04935041,0.009674603,0.0,0.0,0.0,-0.25,0.5,0.0,0.0,0.010432959,-0.114522375,-0.18569414,0.121176384,-0.16427986,0.36383957,-0.06273816,-0.2583448,0.1984613,0.08659868,0.0031580923,-0.018389156,-0.18128496,0.17015852,-0.15177776,-0.08683658,-0.089088835,-0.0031094537,-0.10203233,0.0888814,0.08624869,-0.15388891,-0.19786449,-0.15039983,-0.91283953,1.0,-1.0,1.0,-1.0,1.0,-1.0,-0.12838599,1.0,-1.0,-0.2914599,-1.0,-1.0,-1.0,-1.0,1.0,1.0,1.0,0.1414803,-1.0,0.75388765,-1.0,1.0,-0.27187267
2025-07-21 17:28:49.594,2.1000000000000014,2100,105,0.36428636,-0.093165465,0.6252989,-0.17877004,0.3994478,-0.17482351,-0.0013222952,-0.13878345,0.040606167,0.0,0.0,0.0,-0.25,0.5,0.0,0.0,-0.08925498,-0.1260616,-0.23886436,0.14058015,-0.17312363,0.3805195,-0.06478429,-0.2634298,0.22431101,0.0003700009,-0.0014661513,-0.038085356,-0.19902481,-0.18889667,-0.0363514,0.17597058,0.039097294,0.07800025,0.063280255,-0.029854015,0.0037697733,-0.28207594,0.08394018,-0.07750457,-1.0,-1.0,-1.0,1.0,1.0,1.0,0.1414803,-1.0,0.75388765,-1.0,1.0,-0.27187267,0.48038027,-0.3014726,1.0,-1.0,-1.0,-0.161439,-1.0,1.0,1.0,-0.72072864,1.0,1.0
2025-07-21 17:28:49.620,2.1200000000000014,2120,106,0.5339179,0.019967766,0.5520115,0.28717518,-0.1869802,-0.37096614,-0.05274993,-0.063533925,-0.031033719,0.0,0.0,0.0,-0.25,0.5,0.0,0.0,-0.08923479,-0.1895157,-0.15435544,0.12444901,-0.15811089,0.31783772,-0.09019936,-0.26447648,0.2600728,-0.06507068,0.054409362,0.02681062,0.117010444,-0.08296135,0.31425726,-0.12109886,-0.07564682,-0.15090534,-0.0947134,0.08151795,0.09841074,-0.11803063,0.3101252,0.15116249,0.48038027,-0.3014726,1.0,-1.0,-1.0,-0.161439,-1.0,1.0,1.0,-0.72072864,1.0,1.0,-1.0,-1.0,1.0,-0.81727725,0.9089631,-1.0,1.0,1.0,-1.0,1.0,-1.0,1.0
2025-07-21 17:28:49.640,2.1400000000000015,2140,107,0.4892575,0.19253546,-0.0332162,0.1233844,0.14426553,-0.12513162,-0.06597266,-0.07512371,0.037626732,0.0,0.0,0.0,-0.25,0.5,0.0,0.0,-0.1145122,-0.27227768,-0.043584842,0.0427204,-0.14010039,0.17962666,-0.07695226,-0.18879753,0.1705222,-0.045689516,0.093779705,0.11717335,-0.1621274,-0.35718805,0.18273553,-0.26571807,0.22507122,-0.26450434,0.099760495,0.25053677,-0.27998868,0.20263916,0.012062656,0.12064451,-1.0,-1.0,1.0,-0.81727725,0.9089631,-1.0,1.0,1.0,-1.0,1.0,-1.0,1.0,1.0,-0.18750125,1.0,-1.0,1.0,1.0,1.0,0.46165028,-1.0,-1.0,-1.0,-1.0
2025-07-21 17:28:49.660,2.1600000000000015,2160,108,0.44723552,-0.0816926,-0.38367912,-0.10079208,0.23571853,-0.31145424,-0.07722397,-0.06702945,0.026787613,0.0,0.0,0.0,-0.24627759,0.5,0.0,0.0,-0.102494866,-0.3041531,0.052017186,-0.046290528,-0.054523636,0.1928511,0.016661134,-0.05872695,0.04298943,-0.043022837,0.038500153,0.059480697,0.18032059,-0.04082196,0.267125,-0.14898524,0.25667465,0.15190004,0.25002986,0.30861393,-0.18983185,-0.09823305,-0.22927776,-0.18505432,1.0,-0.18750125,1.0,-1.0,1.0,1.0,1.0,0.46165028,-1.0,-1.0,-1.0,-1.0,-1.0,-0.29218382,1.0,0.57285017,-1.0,-1.0,1.0,-1.0,-0.25968987,1.0,-0.41965285,1.0
2025-07-21 17:28:49.681,2.1800000000000015,2180,109,0.5021419,0.06943126,-0.46662262,0.065843984,0.1391436,-0.15347342,-0.12421316,-0.1275849,-0.026192069,0.0,0.0,0.0,-0.24160558,0.5,0.0,0.0,-0.061015315,-0.31889454,0.10473063,-0.05421334,0.01633015,0.12529847,0.10482555,-0.014198846,0.02823861,-0.026967676,-0.073571965,0.089880496,0.08392238,-0.016443484,0.20227656,0.14858355,-0.03872273,-0.25417942,0.24386229,-0.06491319,-0.08304008,0.13428508,-0.2139563,0.12906115,-1.0,-0.29218382,1.0,0.57285017,-1.0,-1.0,1.0,-1.0,-0.25968987,1.0,-0.41965285,1.0,-0.53776157,-1.0,1.0,-1.0,-0.2837142,-0.2908916,1.0,0.41693416,-1.0,1.0,-1.0,1.0
2025-07-21 17:28:49.704,2.2000000000000015,2200,110,0.18714349,-0.098604225,-0.46205857,0.3957221,-0.45600304,-0.06806602,-0.110434495,-0.08758106,-0.046286423,0.0,0.0,0.0,-0.23617981,0.5,0.0,0.0,-0.074819736,-0.34715122,0.16651374,-0.10070945,-0.03806749,0.06794174,0.16062033,0.0024198673,-0.05661398,0.051487587,-0.1771592,0.15629113,-0.114315204,-0.06890663,0.12138028,-0.15906525,-0.15051658,-0.058120262,0.11013525,0.21743765,-0.16172233,0.15790825,-0.31810325,0.1604167,-0.53776157,-1.0,1.0,-1.0,-0.2837142,-0.2908916,1.0,0.41693416,-1.0,1.0,-1.0,1.0,1.0,1.0,1.0,0.4383422,1.0,1.0,1.0,-1.0,-1.0,-1.0,0.46778616,1.0
2025-07-21 17:28:49.724,2.2200000000000015,2220,111,0.30105647,0.013543476,-0.69826955,-0.120798595,-0.58057743,-0.28777567,-0.06686963,-0.0036820797,-0.035686485,0.0,0.0,0.0,-0.23453054,0.5,0.0,0.0,-0.091821544,-0.31612808,0.2151179,-0.080389984,-0.046901133,0.13083903,0.23497044,0.02937163,-0.12422698,0.070855655,-0.23589198,0.21413234,-0.008790949,0.059249844,0.1692645,0.2204585,0.076481946,0.13216797,0.18549316,-0.050977685,-0.21687315,-0.13901801,-0.046222325,0.0802722,1.0,1.0,1.0,0.4383422,1.0,1.0,1.0,-1.0,-1.0,-1.0,0.46778616,1.0,-1.0,-1.0,1.0,1.0,-1.0,1.0,-1.0,-1.0,1.0,1.0,-1.0,0.5868758
2025-07-21 17:28:49.736,2.2400000000000015,2240,112,-0.026673235,-0.013660646,-0.017207744,0.31940246,-0.25149488,-0.20665923,-0.054914027,-0.044944353,0.030735822,0.0,0.0,0.0,-0.23205179,0.5,0.0,0.0,-0.08606765,-0.30589008,0.24384864,-0.004484245,-0.067540176,0.19675566,0.20949447,-0.07623632,-0.06695829,0.039834194,-0.25759584,0.213833,-0.058813687,0.03997038,0.06902825,0.18309785,-0.15132469,0.1974444,-0.24867103,-0.36940598,0.31690457,0.0035604048,-0.15863483,-0.028230272,-1.0,-1.0,1.0,1.0,-1.0,1.0,-1.0,-1.0,1.0,1.0,-1.0,0.5868758,-0.26372853,1.0,1.0,1.0,0.54967606,1.0,-1.0,0.10173121,1.0,1.0,-0.12931938,-0.79617524
2025-07-21 17:28:49.756,2.2600000000000016,2260,113,0.22413146,-0.015474507,0.044216685,-0.4820454,0.021812107,-0.25514048,-0.02002342,-0.033670567,0.024764493,0.0,0.0,0.0,-0.22830556,0.5,0.0,0.0,-0.08854187,-0.30352685,0.27288428,0.06841563,-0.06639066,0.23572554,0.10177166,-0.12795565,0.03408896,0.06295138,-0.23427534,0.1389729,0.12356361,0.10734512,0.045058258,0.15689379,0.11999042,0.08894125,-0.2538825,0.0971459,0.15304974,0.11447757,0.0030047935,-0.18775417,-0.26372853,1.0,1.0,1.0,0.54967606,1.0,-1.0,0.10173121,1.0,1.0,-0.12931938,-0.79617524,1.0,1.0,-1.0,1.0,-1.0,1.0,-1.0,-1.0,1.0,-1.0,1.0,-1.0
2025-07-21 17:28:49.777,2.2800000000000016,2280,114,0.059326254,-0.15527053,-0.2529385,-0.28925958,0.15023313,-0.36269692,0.04968838,-0.062697284,0.008595136,0.0,0.0,0.0,-0.22402199,0.5,0.0,0.0,-0.0051192655,-0.20059879,0.17819,0.124221615,-0.06256368,0.26811013,0.007085541,-0.1454903,0.10630895,0.059440035,-0.18928528,0.03429754,0.27148107,0.30537677,-0.28191787,0.16708614,-0.04222204,0.15195306,-0.12844217,-0.086393,0.22828907,-0.11707421,0.17481235,-0.23986936,1.0,1.0,-1.0,1.0,-1.0,1.0,-1.0,-1.0,1.0,-1.0,1.0,-1.0,-0.6848147,0.53866816,-1.0,1.0,-1.0,1.0,-1.0,-1.0,1.0,-0.5454552,1.0,-1.0
2025-07-21 17:28:49.797,2.3000000000000016,2300,115,-0.23880547,-0.20510492,0.4433976,0.23067187,-0.15807603,-0.46689466,0.057643007,-0.086918026,0.04741289,0.0,0.0,0.0,-0.21744373,0.5,0.0,0.0,-0.016208947,-0.09037288,0.07178822,0.14545017,-0.09013648,0.30758417,-0.03256314,-0.16220827,0.16896959,0.0027638797,-0.06823216,-0.06398452,-0.20044874,0.35690597,-0.2992318,-0.02828861,-0.09212994,0.015789919,-0.17363648,-0.11494923,0.17530926,-0.07668829,0.33646938,-0.25791588,-0.6848147,0.53866816,-1.0,1.0,-1.0,1.0,-1.0,-1.0,1.0,-0.5454552,1.0,-1.0,-0.18598868,-1.0,-1.0,0.76317865,1.0,1.0,-0.49164155,1.0,1.0,1.0,1.0,1.0
2025-07-21 17:28:49.817,2.3200000000000016,2320,116,0.17777522,-0.39310947,0.49469703,-0.11681225,0.012777873,-0.31584343,-0.015647916,-0.0688084,-0.025392098,0.0,0.0,0.0,-0.20968895,0.5,0.0,0.0,-0.020900358,-0.020359766,-0.016575556,0.18080688,-0.107487746,0.33085755,-0.06720618,-0.15617026,0.20048982,0.030940041,0.07163246,-0.000867893,-0.053363997,-0.03006781,-0.20202358,0.07936065,0.056247953,0.020799369,-0.06393179,-0.028032074,0.04493888,0.20060208,0.463117,0.2943107,-0.18598868,-1.0,-1.0,0.76317865,1.0,1.0,-0.49164155,1.0,1.0,1.0,1.0,1.0,0.8227632,0.81897473,-0.5885938,-1.0,-1.0,1.0,1.0,0.20719495,-1.0,1.0,-1.0,-0.9817486
2025-07-21 17:28:49.836,2.3400000000000016,2340,117,0.028090773,-0.14273207,0.040858,-0.3013926,0.1743063,-0.3419597,-0.02997787,-0.044494953,-0.04674917,0.0,0.0,0.0,-0.20251533,0.5,0.0,0.0,0.028509896,0.022255395,-0.062051363,0.20614637,-0.118274264,0.352109,-0.019043151,-0.086729825,0.10989798,0.12172976,0.15744637,-0.0354649,0.13716146,0.2390097,-0.1724955,0.035696637,-0.08318835,0.10928373,0.14019422,0.13406731,-0.30905667,0.11668523,0.13038959,-0.12414349,0.8227632,0.81897473,-0.5885938,-1.0,-1.0,1.0,1.0,0.20719495,-1.0,1.0,-1.0,-0.9817486,-1.0,-1.0,-1.0,1.0,-0.44767717,1.0,1.0,-1.0,-1.0,-1.0,-1.0,-1.0
2025-07-21 17:28:49.858,2.3600000000000017,2360,118,-0.5122255,0.037267793,0.29085895,-0.14520071,0.35230908,-0.24950364,-0.0391836,-0.14569198,-0.03081164,0.0,0.0,0.0,-0.1953577,0.5,0.0,0.0,0.009997915,0.04159282,-0.14224455,0.2291041,-0.17899238,0.37109056,0.047040742,-0.07863654,0.006924132,0.109236725,0.101469114,-0.118050575,-0.10972508,-0.116805635,-0.1320652,0.14693664,-0.15513733,0.04397158,0.26707488,-0.028012533,-0.15430716,-0.20985276,-0.3143196,-0.10814649,-1.0,-1.0,-1.0,1.0,-0.44767717,1.0,1.0,-1.0,-1.0,-1.0,-1.0,-1.0,0.10094307,1.0,1.0,-1.0,1.0,1.0,-0.7307846,-1.0,1.0,-0.035424575,0.22303773,1.0
2025-07-21 17:28:49.876,2.3800000000000017,2380,119,-0.2499025,-0.023655128,0.067166515,0.20134768,-0.2599661,-0.22830693,-0.018671371,-0.09508765,-0.013091207,0.0,0.0,0.0,-0.18873613,0.5,0.0,0.0,-0.002777037,0.03325008,-0.06746995,0.2149164,-0.19026177,0.36614403,0.0633342,-0.15518263,0.05743618,0.085955806,0.0728663,-0.061169073,0.046608895,0.086813234,0.19004594,-0.081936054,0.06114713,-0.0039701355,-0.17491229,-0.20838775,0.24251933,-0.00998167,0.016129946,0.17557335,0.10094307,1.0,1.0,-1.0,1.0,1.0,-0.7307846,-1.0,1.0,-0.035424575,0.22303773,1.0,0.8921685,1.0,-1.0,-0.7497378,1.0,1.0,-1.0,0.9990783,1.0,1.0,-1.0,1.0
2025-07-21 17:28:49.898,2.4000000000000017,2400,120,-0.03166533,-0.09608261,0.10689771,0.31554198,-0.41946137,-0.29598224,-0.00012424958,-0.035703164,-0.025132157,0.0,0.0,0.0,-0.18344629,0.5,0.0,0.0,0.057696175,0.13433091,-0.10807499,0.14901242,-0.15219797,0.37673742,-0.000758588,-0.19046558,0.11886011,0.12954336,0.04755603,0.04723383,0.183748,0.3081484,-0.19757639,-0.28681085,0.13988589,0.055652987,-0.20686725,0.01081373,0.13724731,0.13649891,-0.19275552,0.27035102,0.8921685,1.0,-1.0,-0.7497378,1.0,1.0,-1.0,0.9990783,1.0,1.0,-1.0,1.0,-1.0,-1.0,0.5244858,1.0,-1.0,1.0,1.0,-1.0,1.0,1.0,-1.0,1.0
2025-07-21 17:28:49.926,2.4200000000000017,2420,121,-0.3410345,0.0012395108,0.239188,-0.04287043,0.3152445,-0.050427604,0.003714434,-0.052661102,0.0038283449,0.0,0.0,0.0,-0.17997645,0.5,0.0,0.0,0.059127845,0.18391167,-0.06479175,0.10723734,-0.1412212,0.39027444,-0.010607947,-0.24500303,0.19100003,0.19585043,-0.04334631,0.11639182,-0.006844125,-0.109221004,0.20949878,0.042701673,-0.12046318,-0.007843292,0.16484441,-0.20057927,0.19265121,0.12533526,-0.33161476,0.14796434,-1.0,-1.0,0.5244858,1.0,-1.0,1.0,1.0,-1.0,1.0,1.0,-1.0,1.0,0.10197742,1.0,-1.0,1.0,1.0,1.0,-1.0,1.0,1.0,-1.0,1.0,0.9262285
2025-07-21 17:28:49.950,2.4400000000000017,2440,122,-0.0426286,0.0044903453,0.33885345,-0.08317177,-0.24147102,-0.39112818,0.047039714,-0.0948778,-0.0024013857,0.0,0.0,0.0,-0.17766409,0.5,0.0,0.0,0.060085803,0.22782531,-0.11360654,0.1415992,-0.13932228,0.40614194,-0.010100127,-0.26639837,0.22518654,0.18582007,-0.08464345,0.1566692,-0.027877621,0.21427646,-0.12783872,0.12891252,0.12628554,0.03275937,-0.060709316,0.032008477,0.035556015,-0.09653322,0.03588626,0.14028622,0.10197742,1.0,-1.0,1.0,1.0,1.0,-1.0,1.0,1.0,-1.0,1.0,0.9262285,1.0,-1.0,-1.0,-1.0,-0.64382195,1.0,0.81588346,-0.9266579,1.0,1.0,1.0,1.0
2025-07-21 17:28:49.969,2.4600000000000017,2460,123,0.21040624,-0.26143488,0.22845244,-0.14574584,0.38832918,0.19681479,0.018312316,-0.04568724,-0.036591746,0.0,0.0,0.0,-0.17335308,0.5,0.0,0.0,0.11159747,0.2444156,-0.17240407,0.16611083,-0.1391248,0.4049179,0.022936244,-0.30482405,0.26261845,0.20681103,-0.07956807,0.21354365,0.2159183,-0.1367945,-0.11962893,-0.089408115,-0.13457766,0.03432151,0.17123318,-0.22174294,0.09067941,0.19149506,0.080741055,0.099979684,1.0,-1.0,-1.0,-1.0,-0.64382195,1.0,0.81588346,-0.9266579,1.0,1.0,1.0,1.0,1.0,-1.0,-1.0,1.0,-1.0,1.0,-1.0,1.0,1.0,-0.9621346,-1.0,1.0
2025-07-21 17:28:49.990,2.4800000000000018,2480,124,-0.03325381,0.03658176,0.6698432,0.21258983,0.23222066,-0.23428944,-0.03496124,-0.08120334,-0.044033244,0.0,0.0,0.0,-0.17150791,0.5,0.0,0.0,0.17604357,0.1503721,-0.22204675,0.16769539,-0.182823,0.43293902,0.034130245,-0.3154482,0.2946096,0.19707784,-0.09606758,0.2576089,0.17861001,-0.24545595,-0.10049766,0.102988884,-0.19181526,0.08624503,-0.029366018,-0.0033225438,0.008302566,-0.24486369,-0.16750939,0.13651927,1.0,-1.0,-1.0,1.0,-1.0,1.0,-1.0,1.0,1.0,-0.9621346,-1.0,1.0,1.0,-1.0,-1.0,-0.3774078,1.0,1.0,-0.39931574,1.0,1.0,-1.0,1.0,-1.0
2025-07-21 17:28:50.010,2.5000000000000018,2500,125,0.097432345,0.120028675,0.13615185,0.42024973,-0.30781564,-0.14898169,-0.0006960583,-0.08725174,-0.045358524,0.0,0.0,0.0,-0.16912028,0.5,0.0,0.0,0.24167736,0.0026899448,-0.26945952,0.12920439,-0.19090198,0.43277028,-0.020730196,-0.30940777,0.3210829,0.06936594,-0.07858581,0.15647501,0.16291738,-0.40256682,-0.024557596,-0.093730815,0.106727734,0.02499676,-0.03599149,0.06568777,0.074484184,-0.34374487,0.22698878,-0.37519833,1.0,-1.0,-1.0,-0.3774078,1.0,1.0,-0.39931574,1.0,1.0,-1.0,1.0,-1.0,-1.0,-0.995082,1.0,1.0,-1.0,1.0,-1.0,1.0,1.0,-1.0,-0.186487,0.13712308
2025-07-21 17:28:50.029,2.520000000000002,2520,126,0.12032239,0.25055522,0.35146594,0.3237843,-0.31613952,-0.41570932,0.01796967,-0.051701955,0.02268248,0.0,0.0,0.0,-0.16501051,0.5,0.0,0.0,0.20418085,-0.19199896,-0.1683641,0.10231185,-0.19215286,0.4350793,-0.0776849,-0.2537842,0.33936736,-0.02688114,-0.068315424,0.12763874,-0.26086512,-0.54047805,0.27640322,-0.047872137,-0.10180501,0.07334681,-0.21491694,0.095079295,-0.03251336,-0.24334957,-0.08610283,0.006168173,-1.0,-0.995082,1.0,1.0,-1.0,1.0,-1.0,1.0,1.0,-1.0,-0.186487,0.13712308,-1.0,1.0,1.0,-1.0,1.0,-0.7957818,0.32662436,-0.97670686,1.0,1.0,1.0,1.0
2025-07-21 17:28:50.048,2.540000000000002,2540,127,0.44812223,0.073831394,-0.011544933,0.16251391,0.034347136,-0.04238797,0.03939178,-0.03583744,0.02113477,0.0,0.0,0.0,-0.15973246,0.5,0.0,0.0,0.09922566,-0.29765847,-0.061886266,0.045927174,-0.15092301,0.31293347,-0.09437678,-0.23582551,0.36139625,-0.0129552055,-0.053106733,0.1865397,-0.35569438,-0.068368375,0.3013104,-0.1158631,0.2665547,-0.31897196,0.027493352,0.008754163,0.042432666,0.20095608,0.2155731,0.15801473,-1.0,1.0,1.0,-1.0,1.0,-0.7957818,0.32662436,-0.97670686,1.0,1.0,1.0,1.0,-1.0,0.34253144,1.0,-1.0,-0.47404543,-0.66857743,0.7961654,1.0,-1.0,1.0,-1.0,1.0
2025-07-21 17:28:50.068,2.560000000000002,2560,128,0.08133191,-0.097312756,-0.13437203,-0.055485122,0.18684411,-0.16278067,0.0062129213,-0.03326759,-0.008610075,0.0,0.0,0.0,-0.15664807,0.5,0.0,0.0,0.008483102,-0.27127048,0.026679773,-0.035241447,-0.14718814,0.21660985,-0.020964151,-0.18287234,0.23838177,0.07919872,-0.05074049,0.2440075,-0.18792817,0.09345415,0.2197272,-0.19587979,-0.04801218,-0.29748815,0.20317687,0.19715165,-0.31655133,0.1812412,-0.07913884,0.0839319,-1.0,0.34253144,1.0,-1.0,-0.47404543,-0.66857743,0.7961654,1.0,-1.0,1.0,-1.0,1.0,-1.0,0.40645686,1.0,-0.41677606,1.0,-0.7817589,1.0,1.0,-1.0,1.0,-1.0,1.0
2025-07-21 17:28:50.090,2.580000000000002,2580,129,0.21858317,0.20070028,-0.87764984,-0.32627064,0.2594857,-0.15735033,0.036446318,-0.022113595,-0.04106381,0.0,0.0,0.0,-0.1555833,0.5,0.0,0.0,-0.09616494,-0.17221943,0.11008671,-0.081936955,-0.12901376,0.11048478,0.071450315,-0.059697416,0.123119116,0.15659359,-0.13887106,0.2747409,-0.16425228,0.31933376,0.23229739,-0.11444841,0.07498116,-0.26282153,0.21924554,0.4260321,-0.25859195,0.15081266,-0.33372808,0.04435378,-1.0,0.40645686,1.0,-0.41677606,1.0,-0.7817589,1.0,1.0,-1.0,1.0,-1.0,1.0,-0.46015838,-1.0,1.0,-1.0,1.0,-1.0,1.0,-1.0,-1.0,-1.0,-0.2525361,1.0
2025-07-21 17:28:50.109,2.600000000000002,2600,130,0.25250718,0.06224802,-0.90464205,0.15815726,0.091705516,-0.21286052,-0.025804874,0.012950045,-0.044074446,0.0,0.0,0.0,-0.15184788,0.5,0.0,0.0,-0.120598294,-0.13201582,0.16939396,-0.14490303,-0.024129964,0.009023141,0.14494883,-0.010499079,0.017507842,0.1546456,-0.19344527,0.29788342,-0.08985497,-0.010658463,0.17794695,-0.17051636,0.24903491,-0.21287131,0.101442024,0.015790721,-0.2008772,-0.13432208,-0.061521187,0.09549971,-0.46015838,-1.0,1.0,-1.0,1.0,-1.0,1.0,-1.0,-1.0,-1.0,-0.2525361,1.0,-1.0,-1.0,1.0,0.16489004,-1.0,0.32364088,1.0,-1.0,-0.8029511,1.0,-1.0,1.0
2025-07-21 17:28:50.130,2.620000000000002,2620,131,0.12408824,0.11687574,-0.6034144,0.15122955,0.43259642,-0.030130118,-0.08295682,-0.04446215,0.038311545,0.0,0.0,0.0,-0.14804386,0.5,0.0,0.0,-0.121247895,-0.1563359,0.21706508,-0.14089167,-0.00026195677,0.028654464,0.21169488,-0.06257491,-0.04463313,0.14717627,-0.23284164,0.32867214,0.0069092405,-0.16336477,0.09560604,0.08143462,-0.03558396,0.031631704,0.07821438,-0.32228538,-0.17427647,-0.022852104,-0.13692792,0.011236293,-1.0,-1.0,1.0,0.16489004,-1.0,0.32364088,1.0,-1.0,-0.8029511,1.0,-1.0,1.0,-1.0,-1.0,1.0,1.0,-0.23822597,1.0,-0.29771855,1.0,1.0,1.0,0.36324826,1.0
2025-07-21 17:28:50.150,2.640000000000002,2640,132,0.07360075,-0.032561596,-0.10697357,0.29375425,0.015238898,0.14866607,-0.053120933,0.023827083,0.023103539,0.0,0.0,0.0,-0.14610848,0.5,0.0,0.0,-0.13903806,-0.20250593,0.24158603,-0.065761015,-0.048714574,0.09910592,0.1874847,-0.122035734,0.018385274,0.16691013,-0.23632687,0.34124333,-0.013030175,-0.1663302,0.11784746,0.21748857,-0.19059655,0.14048491,-0.16923946,0.012088449,0.27621529,0.041671023,0.04129476,0.0057454742,-1.0,-1.0,1.0,1.0,-0.23822597,1.0,-0.29771855,1.0,1.0,1.0,0.36324826,1.0,1.0,1.0,1.0,1.0,-0.91246116,1.0,-0.30114248,-1.0,1.0,-1.0,0.28577808,1.0
2025-07-21 17:28:50.173,2.660000000000002,2660,133,-0.042504415,-0.12028157,-0.019919574,-0.0092001455,-0.017582312,-0.16650566,-0.011531031,-0.0037287185,-0.047745664,0.0,0.0,0.0,-0.1466214,0.5,0.0,0.0,-0.12179173,-0.18533827,0.2696517,0.033801243,-0.12752174,0.15789326,0.13128597,-0.15721521,0.088757664,0.14906843,-0.1936455,0.36983696,0.06360642,0.12659414,0.086161084,0.21158926,-0.2501358,0.07941714,-0.12630416,-0.1477209,0.14304669,-0.18544064,0.1367623,0.0897807,1.0,1.0,1.0,1.0,-0.91246116,1.0,-0.30114248,-1.0,1.0,-1.0,0.28577808,1.0,1.0,1.0,-1.0,1.0,1.0,1.0,-1.0,-0.38696322,1.0,-1.0,0.7904991,-1.0
2025-07-21 17:28:50.192,2.680000000000002,2680,134,0.101215385,-0.16470374,-0.40655786,-0.514524,0.0041077826,-0.37656492,-0.026220607,-0.012068623,-0.021773137,0.0,0.0,0.0,-0.14556529,0.5,0.0,0.0,-0.045058843,-0.0883981,0.16947767,0.10075933,-0.14490469,0.20829411,0.041350335,-0.20846303,0.15454613,0.064891264,-0.08493021,0.25521109,0.28950676,0.26856467,-0.2500962,0.22431678,0.10117593,0.09182496,-0.17909954,-0.100679204,0.1519591,-0.27122223,0.39621043,-0.3604461,1.0,1.0,-1.0,1.0,1.0,1.0,-1.0,-0.38696322,1.0,-1.0,0.7904991,-1.0,1.0,0.8479743,-1.0,-0.8952021,-1.0,1.0,-1.0,-1.0,1.0,-0.44614804,-1.0,-0.22474149
2025-07-21 17:28:50.214,2.700000000000002,2700,135,-0.008437389,-0.0919649,-0.1531742,0.25948787,-0.10223804,-0.26224872,-0.0026152846,-0.04014916,0.027910922,0.0,0.0,0.0,-0.13959172,0.5,0.0,0.0,0.050194047,0.027205538,0.06767731,0.12171488,-0.16409437,0.2527038,-0.034496088,-0.27737248,0.20462492,-0.005175522,-0.04000585,0.18863101,0.13229413,0.40096682,-0.23165245,-0.050795957,-0.099722855,0.015308237,-0.2105544,-0.21043153,0.10202642,-0.1901626,0.009610868,-0.1771402,1.0,0.8479743,-1.0,-0.8952021,-1.0,1.0,-1.0,-1.0,1.0,-0.44614804,-1.0,-0.22474149,0.5296073,-1.0,-1.0,1.0,1.0,1.0,-1.0,1.0,1.0,1.0,0.7083613,1.0
2025-07-21 17:28:50.233,2.720000000000002,2720,136,0.32409433,0.13096365,0.071606554,-0.09683073,-0.204422,-0.14057326,-0.081577234,-0.051581193,0.016865162,0.0,0.0,0.0,-0.13425788,0.5,0.0,0.0,0.08422253,0.08874247,-0.01888197,0.11460138,-0.16679023,0.28167698,-0.076612495,-0.29750407,0.2492669,0.026664317,0.00061257347,0.21669017,0.14348136,-0.026310466,-0.22720087,-0.012333751,0.13716644,-0.0019531583,-0.057770915,0.035548724,0.0009925024,0.1689567,0.18339849,0.15695187,0.5296073,-1.0,-1.0,1.0,1.0,1.0,-1.0,1.0,1.0,1.0,0.7083613,1.0,-0.24762906,-1.0,-1.0,1.0,0.69518673,1.0,-1.0,-1.0,1.0,-0.6032126,0.20886283,-1.0
2025-07-21 17:28:50.253,2.740000000000002,2740,137,0.22338523,0.027369259,0.26236778,0.36528414,-0.41322377,-0.17846103,0.03944701,-0.042319387,-0.01967141,0.0,0.0,0.0,-0.13113149,0.5,0.0,0.0,0.0558526,0.034774404,-0.106292956,0.104828425,-0.14917523,0.2895531,-0.14339839,-0.30756852,0.27537173,0.036633182,0.03321147,0.14706002,-0.14334282,-0.2641252,-0.2109203,0.0041389936,0.1367007,-0.008412346,-0.14285186,-0.03651739,0.060941115,-0.15247904,0.16143762,-0.3086772,-0.24762906,-1.0,-1.0,1.0,0.69518673,1.0,-1.0,-1.0,1.0,-0.6032126,0.20886283,-1.0,0.9387681,-0.74963546,0.35222912,0.58304054,-0.62820184,1.0,-1.0,0.29015055,1.0,0.29299885,0.46141216,-1.0
2025-07-21 17:28:50.272,2.760000000000002,2760,138,0.17713426,-0.0665365,0.40789348,0.02003641,-0.20367537,-0.44444942,0.05407297,-0.024825443,-0.033854824,0.0,0.0,0.0,-0.12764502,0.5,0.0,0.0,0.10771427,-0.09875571,-0.06244566,0.11206468,-0.12963142,0.3349659,-0.16536753,-0.27434564,0.3106769,0.040776838,0.109328285,0.028606614,0.21820939,-0.43085235,0.086909,-0.028545149,-0.012457908,0.028808514,-0.14887074,0.103856064,0.045020554,0.04486859,0.2135439,-0.23131369,0.9387681,-0.74963546,0.35222912,0.58304054,-0.62820184,1.0,-1.0,0.29015055,1.0,0.29299885,0.46141216,-1.0,-1.0,1.0,1.0,-0.7234525,0.74513376,1.0,1.0,-1.0,1.0,-1.0,-1.0,1.0
2025-07-21 17:28:50.292,2.780000000000002,2780,139,0.4971552,-0.0074157924,0.72601616,0.5353591,-0.36510357,-0.15825468,0.04538498,-0.014562454,0.0212383,0.0,0.0,0.0,-0.12174334,0.5,0.0,0.0,0.075635076,-0.17360312,0.02594582,0.085053384,-0.121381626,0.33534834,-0.19841415,-0.29203206,0.3307543,-0.029542916,0.111119956,0.07368954,-0.21399555,0.016262623,0.19191642,-0.17888606,0.05466763,0.022949692,-0.03759367,-0.07205166,0.064252935,-0.21510679,-0.1457938,0.25298768,-1.0,1.0,1.0,-0.7234525,0.74513376,1.0,1.0,-1.0,1.0,-1.0,-1.0,1.0,-1.0,-1.0,-1.0,-1.0,-1.0,-1.0,-1.0,1.0,-1.0,1.0,-0.72191966,-1.0
2025-07-21 17:28:50.313,2.800000000000002,2800,140,0.00018106191,0.2661244,0.45155522,0.498239,0.019916186,-0.12992097,0.10913748,0.078395925,0.0034576121,0.0,0.0,0.0,-0.11617666,0.5,0.0,0.0,-0.017488133,-0.2251231,-0.035132423,-0.0038613363,-0.10303387,0.23857552,-0.24712817,-0.24167699,0.22775728,-0.021834591,0.041376237,0.016506787,-0.29903513,-0.2761281,-0.1620926,-0.28785855,0.011264991,-0.40364707,-0.09556204,0.23533592,-0.32969233,0.23026267,-0.21317837,-0.29991615,-1.0,-1.0,-1.0,-1.0,-1.0,-1.0,-1.0,1.0,-1.0,1.0,-0.72191966,-1.0,0.90283656,0.29346085,1.0,0.9308622,1.0,1.0,1.0,1.0,-0.30524266,-1.0,-0.41840002,1.0
2025-07-21 17:28:50.335,2.820000000000002,2820,141,0.52489144,0.017931394,-0.06138071,-0.8486715,-0.06851436,-0.27021572,0.059747722,-0.025652286,0.019975686,0.0,0.0,0.0,-0.11284045,0.5,0.0,0.0,-0.0016913627,-0.24856563,0.029230779,0.011154193,-0.09781623,0.22237465,-0.2043019,-0.15117612,0.1601011,-5.498594e-05,-0.053024836,0.06634494,0.17562224,0.044744797,0.19554566,0.14859146,0.08129311,0.1549113,0.26214668,0.3393449,-0.14231622,-0.13030441,-0.15862478,0.2586287,0.90283656,0.29346085,1.0,0.9308622,1.0,1.0,1.0,1.0,-0.30524266,-1.0,-0.41840002,1.0,-1.0,-1.0,1.0,-1.0,-1.0,-1.0,1.0,0.6995417,-1.0,1.0,-1.0,1.0
2025-07-21 17:28:50.355,2.840000000000002,2840,142,0.057521388,-0.075929575,-0.40950292,-0.27158695,-0.008085337,-0.08218908,0.051518623,-0.04026344,0.033301543,0.0,0.0,0.0,-0.10909305,0.5,0.0,0.0,-0.012354201,-0.2862748,0.10214886,0.0015472409,-0.08275852,0.14849855,-0.09589075,0.008016183,0.047398284,0.029446332,-0.17795266,0.13644382,-0.13022317,-0.1649519,0.24276744,-0.2500745,-0.04733104,-0.2979141,0.27193564,0.42628002,-0.19003837,0.21050598,-0.3708622,0.2091661,-1.0,-1.0,1.0,-1.0,-1.0,-1.0,1.0,0.6995417,-1.0,1.0,-1.0,1.0,1.0,1.0,1.0,-0.4898317,1.0,1.0,1.0,-1.0,-1.0,1.0,0.6709667,1.0
2025-07-21 17:28:50.374,2.860000000000002,2860,143,0.4508807,-0.055527367,-0.63375616,-0.85967016,0.30562,0.019063285,-0.013952782,-0.03105577,-0.01486737,0.0,0.0,0.0,-0.10587097,0.5,0.0,0.0,0.0035418596,-0.285825,0.15293731,-0.03499219,-0.08593003,0.1774366,0.02585079,0.09259565,-0.029652856,0.08831694,-0.25349453,0.1812888,0.2694004,0.11616193,0.18608281,-0.050478514,0.031440083,0.10256145,0.22013472,0.028797735,-0.13269556,0.20068052,-0.12790102,0.09255095,1.0,1.0,1.0,-0.4898317,1.0,1.0,1.0,-1.0,-1.0,1.0,0.6709667,1.0,-1.0,-1.0,1.0,1.0,-1.0,-1.0,0.7099156,-1.0,-1.0,0.29837656,-1.0,1.0
2025-07-21 17:28:50.396,2.880000000000002,2880,144,0.018278027,0.36143842,-0.57051826,-0.22088064,0.5485376,-0.09527642,-0.06200122,-0.0973224,0.026679106,0.0,0.0,0.0,-0.10422332,0.5,0.0,0.0,0.016702518,-0.3145301,0.21027932,-0.024954611,-0.10515788,0.085729346,0.07893877,0.04213661,-0.108487524,0.12840724,-0.29861474,0.23518644,-0.13891913,-0.15524669,0.048364136,0.12040996,-0.090758994,-0.3367196,0.13099183,-0.32104594,-0.1824654,-0.050082263,-0.16588399,0.12291047,-1.0,-1.0,1.0,1.0,-1.0,-1.0,0.7099156,-1.0,-1.0,0.29837656,-1.0,1.0,1.0,-0.8222907,1.0,-0.22647059,1.0,1.0,0.7160174,-0.5644672,1.0,1.0,1.0,1.0
2025-07-21 17:28:50.416,2.900000000000002,2900,145,0.35503033,0.23275296,-0.50537,-0.6178561,0.61382806,0.07193062,-0.090115584,-0.037429355,-0.0016420225,0.0,0.0,0.0,-0.1011023,0.5,0.0,0.0,0.030831764,-0.38491368,0.25990966,-0.02328031,-0.10908532,0.12540992,0.13899884,-0.07475727,-0.04196939,0.16734762,-0.34493643,0.26650274,0.11023127,-0.093790784,0.11076313,-0.03542786,0.12454359,0.20226021,0.10933677,-0.33752358,0.2551756,0.13012561,-0.04440879,-0.009174468,1.0,-0.8222907,1.0,-0.22647059,1.0,1.0,0.7160174,-0.5644672,1.0,1.0,1.0,1.0,-1.0,-1.0,1.0,1.0,-1.0,-0.61799926,-0.9088773,-0.05425343,1.0,0.18936457,1.0,1.0
2025-07-21 17:28:50.438,2.920000000000002,2920,146,0.13731505,-0.050595403,-0.25148192,0.1875555,0.0350356,-0.09774087,-0.07677755,-0.07431218,-0.036425173,0.0,0.0,0.0,-0.09965027,0.5,0.0,0.0,0.039220985,-0.44151583,0.29534224,0.009014704,-0.12179715,0.0856223,0.06635281,-0.1277348,0.039642133,0.176539,-0.34048674,0.29625767,-0.061663635,-0.15732999,0.07433827,0.16068137,-0.054210383,-0.21808921,-0.32126683,0.04189305,0.15324934,-0.08952111,0.09531576,0.074250594,-1.0,-1.0,1.0,1.0,-1.0,-0.61799926,-0.9088773,-0.05425343,1.0,0.18936457,1.0,1.0,-1.0,1.0,1.0,1.0,0.84421384,1.0,-0.05757943,-1.0,0.4040978,0.454484,-1.0,1.0
2025-07-21 17:28:50.458,2.940000000000002,2940,147,0.080465555,0.08116374,0.104594186,0.09490832,-0.08731727,0.11600688,-0.075705744,-0.04144726,0.04704681,0.0,0.0,0.0,-0.098352194,0.5,0.0,0.0,0.03170719,-0.45451885,0.30883554,0.0858139,-0.109457746,0.11880326,0.032011755,-0.16709794,0.07608071,0.15858948,-0.34140873,0.3200153,-0.06496007,0.011835878,0.0692184,0.25701594,0.17474826,0.18398255,-0.05492425,-0.24764182,0.07070588,-0.076561205,-0.08643365,0.09600461,-1.0,1.0,1.0,1.0,0.84421384,1.0,-0.05757943,-1.0,0.4040978,0.454484,-1.0,1.0,-1.0,1.0,1.0,-1.0,-1.0,-1.0,-0.13404968,1.0,0.8979778,1.0,-1.0,-1.0
2025-07-21 17:28:50.478,2.960000000000002,2960,148,-0.057336908,0.0763046,0.29646862,0.5934313,-0.20273493,0.051841475,-0.09651239,-0.04008332,0.049220935,0.0,0.0,0.0,-0.099315085,0.5,0.0,0.0,-0.023116786,-0.47166637,0.3295655,0.09924776,-0.119032495,0.0559937,0.012582958,-0.20182209,0.111333296,0.16769724,-0.33907738,0.22321789,-0.12041825,0.016327456,0.046982568,-0.07739331,-0.16228949,-0.29711732,-0.07612452,-0.07455632,0.054009378,-0.023475666,-0.026293904,-0.39273107,-1.0,1.0,1.0,-1.0,-1.0,-1.0,-0.13404968,1.0,0.8979778,1.0,-1.0,-1.0,1.0,1.0,1.0,-1.0,1.0,0.1345138,1.0,1.0,-1.0,-1.0,0.94459707,1.0
2025-07-21 17:28:50.498,2.980000000000002,2980,149,0.56069976,-0.07979787,0.1839496,0.0384097,-0.33474237,-0.184126,-0.032473654,-0.05287158,-0.048067186,0.0,0.0,0.0,-0.101272725,0.5,0.0,0.0,-0.024526428,-0.45087317,0.34351894,0.014343487,-0.119951166,0.046706226,0.06651568,-0.15402874,0.038115963,0.13241792,-0.34203315,0.17522795,0.14076786,0.1345093,-0.02494514,-0.25172946,0.1146339,0.07361397,0.13591442,0.30456296,-0.20621184,-0.07584789,0.0077600456,0.03920175,1.0,1.0,1.0,-1.0,1.0,0.1345138,1.0,1.0,-1.0,-1.0,0.94459707,1.0,-1.0,-1.0,1.0,0.37329465,-1.0,-0.31491047,1.0,-0.66051066,1.0,1.0,1.0,1.0
2025-07-21 17:28:50.518,3.000000000000002,3000,150,0.41326404,0.001414245,0.71402496,-0.17727621,-0.11462066,0.12874183,-0.07854451,-0.00866648,-0.031699557,0.0,0.0,0.0,-0.10063721,0.5,0.0,0.0,-0.021534424,-0.45816833,0.36120185,0.012513722,-0.12300961,0.015468746,0.1465315,-0.1452378,0.09558213,0.12720469,-0.31708175,0.21904244,-0.011511494,-0.11914679,0.11865704,0.05165426,-0.18702231,-0.014575172,0.22198954,-0.08583565,0.16492964,0.056317378,0.034267753,0.15803742,-1.0,-1.0,1.0,0.37329465,-1.0,-0.31491047,1.0,-0.66051066,1.0,1.0,1.0,1.0,1.0,1.0,1.0,-0.30933678,-0.8584945,1.0,0.8614661,-0.5866474,0.41309834,-1.0,1.0,-1.0
2025-07-21 17:28:50.538,3.0200000000000022,3020,151,0.40270376,-0.10199492,-0.05546701,0.0027399412,-0.3102914,-0.14032425,-0.046733532,-0.08276311,-0.01303577,0.0,0.0,0.0,-0.10014061,0.5,0.0,0.0,0.005495871,-0.4377494,0.3667282,-0.016896721,-0.22673889,0.08709214,0.19367494,-0.21449424,0.104399934,0.093269646,-0.21134582,0.12299693,0.091831245,0.104772925,0.09017679,-0.026653094,-0.27879086,0.18134311,0.099935405,-0.3142571,0.081260584,-0.24649012,0.35676932,-0.3041024,1.0,1.0,1.0,-0.30933678,-0.8584945,1.0,0.8614661,-0.5866474,0.41309834,-1.0,1.0,-1.0,-1.0,1.0,-1.0,1.0,-0.8095596,1.0,-1.0,-0.06583163,1.0,-1.0,1.0,-1.0
2025-07-21 17:28:50.557,3.0400000000000023,3040,152,0.5084409,-0.102106325,0.04615871,0.25757968,-0.652912,-0.19331066,0.0768342,-0.015346935,0.019736243,0.0,0.0,0.0,-0.10057148,0.5,0.0,0.0,-0.025575543,-0.3308143,0.2555493,0.013696509,-0.35089937,0.14819074,0.16284904,-0.23872562,0.16279307,-0.018868655,-0.084052265,0.016947215,-0.26708758,0.33101198,-0.33326396,0.13987441,-0.2600815,0.20879602,-0.17980337,0.1260461,0.20372613,-0.2092867,0.3457575,-0.18345135,-1.0,1.0,-1.0,1.0,-0.8095596,1.0,-1.0,-0.06583163,1.0,-1.0,1.0,-1.0,1.0,0.9734649,-1.0,-1.0,1.0,1.0,-1.0,-1.0,1.0,0.27503872,-1.0,-0.88738775
2025-07-21 17:28:50.577,3.0600000000000023,3060,153,0.3100532,-0.16931851,-0.54500115,0.38998264,-0.23544225,-0.1451943,0.05445068,-0.06660453,-0.022583725,0.0,0.0,0.0,-0.09781394,0.5,0.0,0.0,-0.040111274,-0.17940485,0.13275316,0.030497082,-0.42303082,0.20355737,0.060384337,-0.26742268,0.22814642,-0.03248534,0.0013666045,-0.058701474,0.1936817,0.35415867,-0.26568076,-0.11626518,-0.004036324,0.13794515,-0.23713933,-0.1975668,0.054931507,0.0020434582,-0.033174533,-0.18114233,1.0,0.9734649,-1.0,-1.0,1.0,1.0,-1.0,-1.0,1.0,0.27503872,-1.0,-0.88738775,1.0,-0.83344096,-1.0,1.0,1.0,1.0,-1.0,-1.0,1.0,1.0,0.3704882,1.0
2025-07-21 17:28:50.598,3.0800000000000023,3080,154,0.24728456,-0.33736175,-0.55314845,0.5506688,-0.0024609854,0.007705743,0.109136604,-0.08600071,-0.0018147436,0.0,0.0,0.0,-0.09544465,0.5,0.0,0.0,0.061033424,-0.11847666,0.03182337,0.026595674,-0.3717506,0.25653055,-0.010847892,-0.3363183,0.2659124,0.05836422,0.025291987,0.014157002,0.24217038,-0.013735763,-0.2307982,0.14096853,0.2541006,0.066953614,-0.21325536,-0.22203107,0.08736458,0.21616332,0.0974667,0.20941803,1.0,-0.83344096,-1.0,1.0,1.0,1.0,-1.0,-1.0,1.0,1.0,0.3704882,1.0,0.246199,1.0,-1.0,1.0,-1.0,1.0,-1.0,-0.46927896,1.0,1.0,-1.0,0.21851918
2025-07-21 17:28:50.617,3.1000000000000023,3100,155,0.12912579,-0.20625454,-0.116715014,0.02486735,0.44114688,-0.13071863,0.09339253,-0.037668288,0.027519505,0.0,0.0,0.0,-0.095776066,0.5,0.0,0.0,0.08661613,-0.07523658,-0.05747734,0.075094186,-0.36426282,0.28853503,-0.038086075,-0.38447723,0.30495828,0.11247114,0.043601025,0.02793976,0.05704268,0.2894787,-0.13206746,0.101005696,-0.020850578,0.030189669,-0.044034727,-0.060812615,0.011271115,0.11259822,-0.15661484,0.03836479,0.246199,1.0,-1.0,1.0,-1.0,1.0,-1.0,-0.46927896,1.0,1.0,-1.0,0.21851918,-0.95649517,-0.5601818,-1.0,1.0,1.0,1.0,-1.0,-1.0,1.0,1.0,-0.8029024,-0.12278333
2025-07-21 17:28:50.637,3.1200000000000023,3120,156,0.080784895,-0.17120564,0.21874513,-0.15028504,0.4275097,-0.08820687,0.029154433,-0.023822743,-0.037741706,0.0,0.0,0.0,-0.0951217,0.5,0.0,0.0,0.037930373,-0.05761964,-0.12773111,0.09496916,-0.3966009,0.29879686,-0.044003367,-0.43636593,0.32372218,0.17409474,-0.0055189035,0.01297693,-0.16995104,-0.16428247,-0.10973597,0.089380756,-0.099589065,0.085639656,-0.059629276,-0.1321471,0.13397537,0.08708064,-0.13454758,0.027721845,-0.95649517,-0.5601818,-1.0,1.0,1.0,1.0,-1.0,-1.0,1.0,1.0,-0.8029024,-0.12278333,1.0,1.0,-1.0,-0.14769125,1.0,1.0,-1.0,0.7820586,1.0,-1.0,-0.0882896,-1.0
2025-07-21 17:28:50.657,3.1400000000000023,3140,157,0.088100195,-0.08677113,0.14860377,0.34769702,-0.32255644,-0.13739972,0.04485179,-0.00017841335,-0.035326526,0.0,0.0,0.0,-0.09367732,0.5,0.0,0.0,-0.013564964,-0.027242163,-0.18949753,0.08330404,-0.40244442,0.32013437,-0.065900244,-0.45914364,0.34726685,0.13764079,-0.034701776,-0.07328981,-0.038159236,0.21168444,-0.14091104,-0.13475421,-0.016693816,0.08496642,-0.17058651,0.011508792,0.010774934,-0.34442306,-0.08803312,-0.1541591,1.0,1.0,-1.0,-0.14769125,1.0,1.0,-1.0,0.7820586,1.0,-1.0,-0.0882896,-1.0,1.0,-1.0,-1.0,1.0,1.0,1.0,-1.0,0.052880377,1.0,-1.0,1.0,-0.92345595
2025-07-21 17:28:50.679,3.1600000000000024,3160,158,0.3652451,0.12675828,0.05929916,0.037732102,-0.49453196,-0.17357196,0.1008489,0.013459583,-0.021910314,0.0,0.0,0.0,-0.091852926,0.5,0.0,0.0,0.05127306,-0.015016682,-0.22876754,0.07473943,-0.3841543,0.33252162,-0.10191625,-0.43845817,0.35803187,0.020972757,0.0162716,-0.13035005,0.15327965,-0.08400021,-0.085075766,-0.0053440253,0.04084624,0.00437206,-0.14123099,0.16341576,-0.054844253,-0.28450108,0.18780497,-0.22256283,1.0,-1.0,-1.0,1.0,1.0,1.0,-1.0,0.052880377,1.0,-1.0,1.0,-0.92345595,0.79000115,-1.0,1.0,0.14761764,1.0,1.0,-1.0,-0.45777935,-0.6809293,-1.0,-0.7705481,1.0
2025-07-21 17:28:50.698,3.1800000000000024,3180,159,0.31993058,0.03811466,0.2155339,0.17077991,-0.4143651,-0.14240012,0.1402393,-0.003024861,0.017029507,0.0,0.0,0.0,-0.08765463,0.5,0.0,0.0,0.117903516,-0.12149073,-0.14169675,0.062383365,-0.34709078,0.3402089,-0.16081737,-0.41141725,0.2587197,-0.07017427,0.0116166705,-0.054027613,0.19457036,-0.38772085,0.33495882,-0.07097578,0.1184366,0.015117396,-0.08832076,0.050399262,-0.23688966,-0.19493306,-0.19855615,0.24239053,0.79000115,-1.0,1.0,0.14761764,1.0,1.0,-1.0,-0.45777935,-0.6809293,-1.0,-0.7705481,1.0,-1.0,0.85905087,1.0,-0.6907171,0.6001103,-1.0,1.0,1.0,-1.0,1.0,-0.9048151,1.0
2025-07-21 17:28:50.718,3.2000000000000024,3200,160,0.21635172,0.013594662,-0.08113315,-0.077429056,-0.31354186,-0.0059189484,0.21283577,-0.055305783,0.021869745,0.0,0.0,0.0,-0.084070705,0.5,0.0,0.0,0.08851077,-0.17874101,-0.041743472,0.024350876,-0.25706574,0.24217406,-0.1433337,-0.3355934,0.13827431,-0.06499926,-0.07159178,0.03536493,-0.23776928,0.095946774,0.23562239,-0.21534094,0.31830198,-0.38525918,0.20552523,0.28558615,-0.24101649,0.04390995,-0.15610847,0.25791848,-1.0,0.85905087,1.0,-0.6907171,0.6001103,-1.0,1.0,1.0,-1.0,1.0,-0.9048151,1.0,-1.0,-1.0,1.0,-1.0,1.0,-0.11887652,0.8701851,1.0,-1.0,1.0,-1.0,1.0
2025-07-21 17:28:50.738,3.2200000000000024,3220,161,0.26611984,0.09682687,0.04411287,-0.4564435,0.2420816,0.13699017,0.13808402,-0.08211711,-0.029145569,0.0,0.0,0.0,-0.082952924,0.5,0.0,0.0,0.00240351,-0.22431692,0.04913782,-0.048935123,-0.13985103,0.16684751,-0.05956306,-0.22865252,0.02611701,-0.027483385,-0.13708264,0.101384535,-0.23521264,-0.18191886,0.19295536,-0.1343603,0.38214567,-0.08424235,0.29605132,0.27399743,-0.17017828,0.11097141,-0.0860801,0.094697274,-1.0,-1.0,1.0,-1.0,1.0,-0.11887652,0.8701851,1.0,-1.0,1.0,-1.0,1.0,1.0,1.0,1.0,-1.0,-0.43445036,-1.0,1.0,1.0,-1.0,-1.0,-1.0,1.0
