openverse-orca/OrcaGym/log/simulation_log_20250609_092054.csv
timestamp,imu_angle_roll,imu_angle_pitch,imu_angle_yaw,imu_angular_velocity_roll,imu_angular_velocity_pitch,imu_angular_velocity_yaw,imu_acc_x,imu_acc_y,imu_acc_z,fl_joint1_pos,fl_joint1_vel,fl_joint1_torque,fl_joint2_pos,fl_joint2_vel,fl_joint2_torque,fl_joint3_pos,fl_joint3_vel,fl_joint3_torque,fr_joint1_pos,fr_joint1_vel,fr_joint1_torque,fr_joint2_pos,fr_joint2_vel,fr_joint2_torque,fr_joint3_pos,fr_joint3_vel,fr_joint3_torque,hl_joint1_pos,hl_joint1_vel,hl_joint1_torque,hl_joint2_pos,hl_joint2_vel,hl_joint2_torque,hl_joint3_pos,hl_joint3_vel,hl_joint3_torque,hr_joint1_pos,hr_joint1_vel,hr_joint1_torque,hr_joint2_pos,hr_joint2_vel,hr_joint2_torque,hr_joint3_pos,hr_joint3_vel,hr_joint3_torque,fl_force_x,fl_force_y,fl_force_z,fr_force_x,fr_force_y,fr_force_z,hl_force_x,hl_force_y,hl_force_z,hr_force_x,hr_force_y,hr_force_z,fl_hip_action,fl_thigh_action,fl_calf_action,fr_hip_action,fr_thigh_action,fr_calf_action,hl_hip_action,hl_thigh_action,hl_calf_action,hr_hip_action,hr_thigh_action,hr_calf_action
2025-06-09 09:20:54.422,-0.0051433467,0.026590602,0.04850831,0.027400289,-0.04204504,-0.0036512695,2.2472086,1.0031968,0.0,0.0,-0.0084002195,-0.0036989588,0.004296034,-0.0074766316,-0.004139936,-0.009841121,0.0040886193,0.008994817,0.004366102,-0.0062720627,-0.0011264365,-0.0038927416,-0.013047046,-0.07140788,0.05717646,-0.048649807,0.063459285,-0.0075531034,0.009476532,0.026946055,0.016712753,0.0058371127,0.013111934,0.047824256,0.0,0.0,0.0,0.0,0.0,0.0,0.0,0.0,0.0,0.0,0.0,0.0,-2.0,0.57429546,-0.07625323,-0.4457152,2.0,-2.0,2.0,-2.0,-2.0,-2.0,-1.0848731,-2.0
2025-06-09 09:20:54.432,-0.0741599,0.12876481,-0.03439305,0.0457276,-0.003346091,0.017157713,0.0,0.0,0.0,0.0,-0.020518497,0.025079887,-0.004882291,0.0020050684,0.06949563,-0.05595819,0.008400714,-0.08008567,-0.041323524,-0.011677045,-0.027316267,-0.052807383,-0.058334075,0.07160423,-0.07021525,-0.080318704,0.26600158,-0.1960255,-0.021836225,-0.27121872,-0.17895605,-0.07741087,-0.19302487,-0.13717471,-2.0,0.57429546,-0.07625323,-0.4457152,2.0,-2.0,2.0,-2.0,-2.0,-2.0,-1.0848731,-2.0,-2.0,1.311217,-1.1205528,2.0,1.179417,-2.0,2.0,-2.0,-2.0,-2.0,-2.0,-2.0
2025-06-09 09:20:54.448,-0.16307196,0.032306965,-0.033436615,0.048971612,0.002966923,-0.019210957,0.0,0.0,0.0,0.0004884712,-0.041118152,0.079183035,-0.043964855,0.011461476,0.12427398,-0.09338241,0.034990303,-0.16650997,-0.068211265,-0.027481891,-0.11631041,-0.07945351,-0.07347028,0.2158366,-0.092428766,0.021872142,0.091140196,-0.0672974,-0.0049857288,-0.1612942,0.07067723,-0.040307324,-0.14973243,-0.011324753,-2.0,1.311217,-1.1205528,2.0,1.179417,-2.0,2.0,-2.0,-2.0,-2.0,-2.0,-2.0,-2.0,1.0424281,-2.0,2.0,2.0,-2.0,2.0,-2.0,-2.0,-2.0,-2.0,-2.0
2025-06-09 09:20:54.468,-0.13133398,0.079586096,-0.0018580912,0.07192868,-0.017342867,0.023012126,0.0,0.0,0.0,0.0005764616,-0.056808885,0.11750546,-0.071993224,0.015389117,0.12901478,-0.10345348,0.043567073,-0.22201195,-0.038414743,-0.03105114,-0.16373773,-0.04113526,-0.012984286,0.056304153,-0.09694945,0.07474112,-0.013879553,0.010649857,0.018605065,-0.08273585,0.065600105,-0.08417271,-0.1300656,0.119216226,-2.0,1.0424281,-2.0,2.0,2.0,-2.0,2.0,-2.0,-2.0,-2.0,-2.0,-2.0,-2.0,1.0337731,-2.0,2.0,2.0,-2.0,2.0,-2.0,-2.0,-2.0,-2.0,-2.0
2025-06-09 09:20:54.488,-0.10545142,0.022785876,0.011690244,0.0166985,-0.050357815,-0.035187684,0.0,0.0,0.0,0.00031143043,-0.04233723,0.11239972,-0.076904066,0.019448834,0.13828833,-0.09118889,0.029638678,-0.2395844,-0.008761202,-0.043135185,-0.19436452,-0.028749147,0.054130983,-0.006400813,0.037274998,0.06661125,0.031231727,0.033644427,0.018110596,-0.10286871,0.040197715,-0.06426212,-0.0092786355,0.009968482,-2.0,1.0337731,-2.0,2.0,2.0,-2.0,2.0,-2.0,-2.0,-2.0,-2.0,-2.0,-2.0,1.080692,-2.0,2.0,2.0,-2.0,2.0,-2.0,-2.0,-2.0,-2.0,-2.0
2025-06-09 09:20:54.508,-0.051044796,0.07587093,0.048133526,0.06885233,-0.00083129905,0.026875958,0.0,0.0,0.0,4.285016e-05,-0.05010111,0.1144367,-0.07764845,0.01356899,0.14224002,-0.08306651,0.047790676,-0.27503613,-0.0036049278,-0.032585822,-0.21983223,-0.01425172,0.042724863,-0.053978395,0.015096582,-0.046795227,0.07772717,-0.049053572,-0.04918722,-0.030752651,0.0910007,-0.011194478,-0.06653888,0.058275133,-2.0,1.080692,-2.0,2.0,2.0,-2.0,2.0,-2.0,-2.0,-2.0,-2.0,-2.0,-2.0,0.8548469,-2.0,2.0,2.0,-2.0,2.0,-2.0,-2.0,-2.0,-2.0,-2.0
2025-06-09 09:20:54.531,-0.14230719,0.018986,0.0028536764,0.009023034,0.021994153,-0.03015293,0.0,0.0,0.0,-0.00015714555,-0.04846068,0.11163586,-0.07847991,0.03086407,0.14416003,-0.109364085,0.050613828,-0.28020254,0.018892659,-0.032718733,-0.24515158,-0.0035450207,-0.0333183,-0.06425648,-0.021873128,-0.019741694,-0.029531425,-0.04426543,-0.058331057,-0.05392208,0.049135517,0.01336483,0.033792496,0.048287395,-2.0,0.8548469,-2.0,2.0,2.0,-2.0,2.0,-2.0,-2.0,-2.0,-2.0,-2.0,-2.0,1.1958698,-2.0,2.0,2.0,-2.0,2.0,-2.0,-2.0,-2.0,-2.0,-2.0
2025-06-09 09:20:54.548,-0.099910356,0.020727461,0.013501066,0.04733471,-0.02789766,-0.03171947,0.0,0.0,0.0,-0.00015231098,-0.035786394,0.104233265,-0.10050342,0.02997074,0.16381794,-0.12352207,0.053109206,-0.28165352,0.0010507924,-0.030896848,-0.24153341,-0.02397175,-0.03647447,-0.051502064,0.028584646,-0.032275066,0.051324245,-0.10312886,0.07415016,-0.005024729,-0.04015096,0.04574902,-0.054185443,-0.058463503,-2.0,1.1958698,-2.0,2.0,2.0,-2.0,2.0,-2.0,-2.0,-2.0,-2.0,-2.0,-2.0,1.2691597,-2.0,2.0,2.0,-2.0,2.0,-2.0,-2.0,-2.0,-2.0,-2.0
2025-06-09 09:20:54.568,-0.06004937,-0.038869757,0.01336087,0.10327281,0.035262294,-0.049469307,0.0,0.0,0.0,9.104746e-06,-0.051247705,0.105016,-0.1124162,0.054131277,0.22303885,-0.15804443,0.048676327,-0.30546233,-0.0003175566,-0.028199947,-0.2669012,-0.03498683,0.054540757,0.027430292,-0.009378827,0.008090915,0.14621378,-0.08117891,0.025770018,0.0414686,0.057530276,-0.05228263,-0.08802937,-0.01775282,-2.0,1.2691597,-2.0,2.0,2.0,-2.0,2.0,-2.0,-2.0,-2.0,-2.0,-2.0,-2.0,1.0195671,-2.0,2.0,2.0,-2.0,2.0,-2.0,-2.0,-2.0,-2.0,-2.0
2025-06-09 09:20:54.588,-0.068552,-0.1061842,0.035005048,0.048517812,-0.055205766,0.040127963,0.0,0.0,0.0,0.00014602736,-0.04735854,0.11256801,-0.11907113,0.051863533,0.27063897,-0.17297895,0.056716457,-0.29225937,0.0011235841,-0.031885974,-0.27093312,-0.025217028,-0.0063780006,0.03406718,0.013511819,0.050154027,0.08301374,-0.03406185,-0.043540873,-0.03949178,0.025263716,-0.041809738,-0.06487901,-0.03847405,-2.0,1.0195671,-2.0,2.0,2.0,-2.0,2.0,-2.0,-2.0,-2.0,-2.0,-2.0,-2.0,0.9118788,-2.0,2.0,2.0,-2.0,2.0,-2.0,-2.0,-2.0,-2.0,-2.0
2025-06-09 09:20:54.608,-0.024120169,-0.039297953,-0.031071922,0.014905655,-0.009662252,-0.031665023,0.0,0.0,0.0,0.00013795047,-0.048707146,0.1118851,-0.12882186,0.058423042,0.31593478,-0.18654679,0.056532778,-0.30853236,-0.008559099,-0.039033353,-0.2767673,-0.025405474,-0.0482218,-0.006121414,0.002329979,0.030244213,0.10870539,0.010734723,0.06010139,-0.02747834,-0.02255479,0.028181823,0.006494617,-0.06631949,-2.0,0.9118788,-2.0,2.0,2.0,-2.0,2.0,-2.0,-2.0,-2.0,-2.0,-2.0,-2.0,1.258382,-2.0,2.0,2.0,-2.0,2.0,-2.0,-2.0,-2.0,-2.0,-2.0
2025-06-09 09:20:54.631,0.037577476,-0.092588946,0.03637135,0.057138216,0.019080201,-0.0066154716,0.0,0.0,0.0,8.150479e-05,-0.034551494,0.10504152,-0.1100137,0.06724757,0.31076175,-0.18982099,0.05757969,-0.31373507,-0.01193586,-0.04200813,-0.2922493,-0.039340664,-0.053327713,-0.07444475,0.00096963486,0.042777084,0.030171717,0.08649599,0.01670664,0.004483064,-0.08147098,-0.04151833,-0.017022066,0.07031908,-2.0,1.258382,-2.0,2.0,2.0,-2.0,2.0,-2.0,-2.0,-2.0,-2.0,-2.0,-2.0,0.8838645,-2.0,2.0,2.0,-2.0,2.0,-2.0,-2.0,-2.0,-2.0,-2.0
2025-06-09 09:20:54.649,-0.008068174,-0.036496416,-0.038402755,0.011647242,-0.018309785,-0.009155097,0.0,0.0,0.0,9.829558e-05,-0.041593485,0.09458489,-0.12302833,0.061325192,0.32139388,-0.17624609,0.059111297,-0.30120876,-0.016605318,-0.03960736,-0.29307488,-0.033614572,0.032360144,-0.07364125,-0.017102592,0.023676315,0.004295056,0.05669174,0.0057593095,-0.006223462,-0.045425504,0.038214665,-0.04148266,0.028563887,-2.0,0.8838645,-2.0,2.0,2.0,-2.0,2.0,-2.0,-2.0,-2.0,-2.0,-2.0,-2.0,1.2907156,-2.0,2.0,2.0,-2.0,2.0,-2.0,-2.0,-2.0,-2.0,-2.0
2025-06-09 09:20:54.670,0.048617717,-0.10417018,-0.05423829,0.018982053,0.020033833,0.014852042,0.0,0.0,0.0,0.00028932732,-0.04246627,0.08972106,-0.12179476,0.07848164,0.31280163,-0.16825832,0.046603628,-0.31413737,-0.03397767,-0.034698676,-0.2988755,-0.024595695,0.02981853,0.053043075,-0.05181357,-0.07468084,-0.03290669,-0.041624688,0.055903804,-0.043371562,-0.047748465,-0.077795915,0.05482832,0.05645953,-2.0,1.2907156,-2.0,2.0,2.0,-2.0,2.0,-2.0,-2.0,-2.0,-2.0,-2.0,-2.0,1.3045098,-2.0,2.0,2.0,-2.0,2.0,-2.0,-2.0,-2.0,-2.0,-2.0
2025-06-09 09:20:54.690,0.04110785,-0.02097114,-0.04925995,0.0753039,0.006857617,0.03834985,0.0,0.0,0.0,0.00056707626,-0.055563074,0.09831757,-0.122359425,0.059167687,0.3099398,-0.14515649,0.05005947,-0.30849075,-0.034956023,-0.048543457,-0.31726503,-0.025044944,-0.06708589,-0.0530486,0.062514976,0.07192816,0.062139712,0.039008986,-0.036446124,0.022384325,-0.08287795,0.005883187,-0.07100995,-0.05271819,-2.0,1.3045098,-2.0,2.0,2.0,-2.0,2.0,-2.0,-2.0,-2.0,-2.0,-2.0,-2.0,1.3192462,-2.0,2.0,2.0,-2.0,2.0,-2.0,-2.0,-2.0,-2.0,-2.0
2025-06-09 09:20:54.709,0.052262425,-0.08343787,-0.04763512,0.092840925,-0.004195808,-0.0035845751,0.0,0.0,0.0,0.00085238495,-0.05930143,0.09375908,-0.12692264,0.062931,0.31059888,-0.13844918,0.035970867,-0.3223077,-0.057323385,-0.049797613,-0.3191181,-0.032052577,0.01062103,-0.013491301,-0.048835393,0.009096576,0.044647176,0.03021369,-0.016167099,0.029117191,0.018162314,-0.032928977,-0.08383819,0.020708911,-2.0,1.3192462,-2.0,2.0,2.0,-2.0,2.0,-2.0,-2.0,-2.0,-2.0,-2.0,-2.0,1.1645054,-2.0,2.0,2.0,-2.0,2.0,-2.0,-2.0,-2.0,-2.0,-2.0
2025-06-09 09:20:54.731,-0.02183265,-0.05673526,-0.05954084,0.032221217,0.055598382,0.0028574327,0.0,0.0,0.0,0.0011532994,-0.053942233,0.096089736,-0.13730824,0.068162695,0.30303103,-0.12566204,0.03485404,-0.3173243,-0.06918953,-0.044083297,-0.31786674,-0.044169817,-0.071984254,0.04135059,0.008302309,0.05613189,-0.07323025,-0.038597614,-0.06951259,0.018201714,-0.06082923,0.010051461,-0.046275645,0.035771076,-2.0,1.1645054,-2.0,2.0,2.0,-2.0,2.0,-2.0,-2.0,-2.0,-2.0,-2.0,-2.0,1.3080888,-2.0,2.0,2.0,-2.0,2.0,-2.0,-2.0,-2.0,-2.0,-2.0
2025-06-09 09:20:54.749,-0.033910267,-0.031133853,-0.049129568,0.011167749,0.012553582,0.02963465,0.0,0.0,0.0,0.0015139907,-0.049242534,0.09772379,-0.1364802,0.06455651,0.3149902,-0.1275679,0.041721202,-0.31381422,-0.0783173,-0.034956984,-0.32203007,-0.029797656,-0.067894734,-0.073636845,0.055911705,-0.027589656,-0.021099856,-0.012639069,0.026447453,-0.057121653,-0.083211064,-0.076169014,-0.08363363,0.031991523,-2.0,1.3080888,-2.0,2.0,2.0,-2.0,2.0,-2.0,-2.0,-2.0,-2.0,-2.0,-2.0,1.3562523,-2.0,2.0,2.0,-2.0,2.0,-2.0,-2.0,-2.0,-2.0,-2.0
2025-06-09 09:20:54.769,0.021828068,-0.032384068,-0.024602648,0.082156844,0.025709659,0.031010602,0.0,0.0,0.0,0.0018764519,-0.06761086,0.094379894,-0.13315055,0.07001373,0.3089222,-0.11619855,0.050989635,-0.31006268,-0.085848585,-0.03692885,-0.33291268,-0.034160357,-0.04053656,-0.05369827,0.032976996,0.010279733,-0.038875137,-0.04627115,0.003705075,-0.04077,-0.027815059,0.070395246,-0.018356144,-0.06072073,-2.0,1.3562523,-2.0,2.0,2.0,-2.0,2.0,-2.0,-2.0,-2.0,-2.0,-2.0,-2.0,1.1881243,-2.0,2.0,2.0,-2.0,2.0,-2.0,-2.0,-2.0,-2.0,-2.0
2025-06-09 09:20:54.789,-0.023021923,-0.081454866,0.025564983,-0.0006669342,-0.0049137217,-0.029419595,0.0,0.0,0.0,0.00215309,-0.056317814,0.101114646,-0.15125549,0.067458004,0.3163707,-0.11181256,0.033795737,-0.3100915,-0.0775621,-0.03827361,-0.33748794,-0.028188448,0.06436722,-0.07153289,0.035430826,0.03634811,0.013592544,0.05041153,-0.029472305,-0.045585938,0.017687542,0.0078534,-0.07616445,0.055168014,-2.0,1.1881243,-2.0,2.0,2.0,-2.0,2.0,-2.0,-2.0,-2.0,-2.0,-2.0,-2.0,0.91145515,-2.0,2.0,2.0,-2.0,2.0,-2.0,-2.0,-2.0,-2.0,-2.0
2025-06-09 09:20:54.809,-0.016035926,-0.00854899,-0.059920482,0.046519183,0.072052635,-0.027853379,0.0,0.0,0.0,0.0023661808,-0.057776533,0.097679175,-0.15501833,0.050064225,0.3154265,-0.116374396,0.03358562,-0.3283306,-0.09106587,-0.048196834,-0.33362934,-0.02176765,0.014423592,0.06771369,0.06065926,-0.07609803,-0.05885462,0.069888875,-0.036757935,-0.0037393463,0.046741426,-0.03759362,-0.036830038,0.06745706,-2.0,0.91145515,-2.0,2.0,2.0,-2.0,2.0,-2.0,-2.0,-2.0,-2.0,-2.0,-2.0,1.0636207,-2.0,2.0,2.0,-2.0,2.0,-2.0,-2.0,-2.0,-2.0,-2.0
2025-06-09 09:20:54.832,0.004073558,-0.036316317,-0.020728087,0.03746295,0.0066316705,0.00050242303,0.0,0.0,0.0,0.0026400967,-0.07324755,0.080723315,-0.1530804,0.046772335,0.3132978,-0.11040122,0.033643596,-0.32968011,-0.096398056,-0.056790344,-0.3342478,-0.017059347,-0.0407583,-0.01989696,-0.02903296,0.0018718585,0.063333094,-0.019984089,-0.05825035,0.06283868,-0.028076446,0.062226,-0.074608915,-0.032200176,-2.0,1.0636207,-2.0,2.0,2.0,-2.0,2.0,-2.0,-2.0,-2.0,-2.0,-2.0,-2.0,1.1961608,-2.0,2.0,2.0,-2.0,2.0,-2.0,-2.0,-2.0,-2.0,-2.0
2025-06-09 09:20:54.849,-0.034228764,-0.026149485,-0.054401606,0.045061458,0.04258371,0.002165235,0.0,0.0,0.0,0.0029638617,-0.06500445,0.083243065,-0.14205477,0.051076088,0.317376,-0.10143969,0.03475621,-0.33256182,-0.09030168,-0.041321598,-0.33473516,-0.031089064,-0.011205859,-0.037928805,0.030638805,0.024491841,-0.028753124,0.020342061,-0.06424183,-0.05388095,0.03763451,0.04783618,0.06914633,0.024783967,-2.0,1.1961608,-2.0,2.0,2.0,-2.0,2.0,-2.0,-2.0,-2.0,-2.0,-2.0,-2.0,1.1872786,-2.0,2.0,2.0,-2.0,2.0,-2.0,-2.0,-2.0,-2.0,-2.0
2025-06-09 09:20:54.870,0.030670509,0.029421177,0.034729075,0.027177922,0.060069334,0.03701743,0.0,0.0,0.0,0.0032247133,-0.07142849,0.08874274,-0.13870044,0.06217652,0.31890365,-0.097584546,0.047544997,-0.32619172,-0.113020174,-0.048904188,-0.34130985,-0.02080256,0.061188366,0.07053666,0.042280883,-0.07312861,0.08307923,0.07154067,-0.06501961,-0.0092043495,-0.011562557,-0.0015223697,-0.030564854,0.0111259455,-2.0,1.1872786,-2.0,2.0,2.0,-2.0,2.0,-2.0,-2.0,-2.0,-2.0,-2.0,-2.0,0.7791613,-2.0,2.0,2.0,-2.0,2.0,-2.0,-2.0,-2.0,-2.0,-2.0
2025-06-09 09:20:54.890,0.023890706,-0.025868783,0.0050468897,0.043682754,0.016592499,-0.019633671,0.0,0.0,0.0,0.0033900389,-0.07984407,0.08481701,-0.15174139,0.059338007,0.33218887,-0.10300184,0.042423103,-0.33454508,-0.10591151,-0.042166844,-0.3436997,-0.020314476,0.00030815546,0.02483013,-0.00044172874,0.0684187,0.07925493,-0.03810784,-0.058362324,0.005736581,-0.010928244,0.01566089,0.043891802,-0.018355712,-2.0,0.7791613,-2.0,2.0,2.0,-2.0,2.0,-2.0,-2.0,-2.0,-2.0,-2.0,-2.0,0.9199305,-2.0,2.0,2.0,-2.0,2.0,-2.0,-2.0,-2.0,-2.0,-2.0
2025-06-09 09:20:54.910,-0.0048163114,0.0057009384,-0.0025025294,0.044462107,0.03923099,-0.046129618,0.0,0.0,0.0,0.0035923868,-0.081873976,0.0724737,-0.13408996,0.052584175,0.3195958,-0.104155846,0.041072797,-0.33335567,-0.110275716,-0.05473412,-0.3515983,-0.010175153,0.009967935,0.029189564,-0.015508625,-0.019835984,-0.0157791,-0.072032586,0.023195045,-0.08251443,-0.027856193,-0.03945799,0.009326369,0.016709007,-2.0,0.9199305,-2.0,2.0,2.0,-2.0,2.0,-2.0,-2.0,-2.0,-2.0,-2.0,-2.0,1.0159441,-2.0,2.0,2.0,-2.0,2.0,-2.0,-2.0,-2.0,-2.0,-2.0
2025-06-09 09:20:54.931,0.016293565,0.010541552,0.0043889275,0.014566087,0.016501963,0.041667864,0.0,0.0,0.0,0.0038122674,-0.07845172,0.08688974,-0.13431406,0.06372176,0.32576928,-0.09660834,0.029397164,-0.3308846,-0.11063782,-0.045949273,-0.3366995,-0.022031402,-0.06710786,-0.056585275,-0.0036666554,-0.044390753,-0.050385296,0.059944466,-0.004833848,0.025203045,-0.023919903,-0.0016214186,0.021550812,-0.041422088,-2.0,1.0159441,-2.0,2.0,2.0,-2.0,2.0,-2.0,-2.0,-2.0,-2.0,-2.0,-2.0,0.93978035,-2.0,2.0,2.0,-2.0,2.0,-2.0,-2.0,-2.0,-2.0,-2.0
2025-06-09 09:20:54.952,-0.031030199,0.052325465,-0.0067463974,0.05351012,0.062257405,-0.016088951,0.0,0.0,0.0,0.003953956,-0.06806632,0.07621079,-0.14609545,0.055063687,0.33783445,-0.10080293,0.03182016,-0.3438202,-0.10120903,-0.050436113,-0.33565477,-0.02755396,0.012469837,0.0053976364,0.04376357,0.058733568,-0.0603487,0.02209639,0.06285938,-0.065242775,0.037770845,0.030725164,-0.010558896,-0.01556896,-2.0,0.93978035,-2.0,2.0,2.0,-2.0,2.0,-2.0,-2.0,-2.0,-2.0,-2.0,-2.0,0.88684905,-2.0,2.0,2.0,-2.0,2.0,-2.0,-2.0,-2.0,-2.0,-2.0
2025-06-09 09:20:54.971,0.038027275,0.041330922,-0.0231693,0.073198244,0.00402594,-0.0053781983,0.0,0.0,0.0,0.0040230257,-0.064800784,0.07145064,-0.12600808,0.062479865,0.33029902,-0.09439694,0.04640393,-0.3411036,-0.105929084,-0.037256688,-0.3356877,-0.013916645,-0.0641142,0.047895085,0.061965514,-0.00952751,0.011681958,0.004689507,0.054133594,0.054768357,0.014943883,-0.004329574,-0.030315371,0.032314777,-2.0,0.88684905,-2.0,2.0,2.0,-2.0,2.0,-2.0,-2.0,-2.0,-2.0,-2.0,-2.0,0.94980603,-2.0,2.0,2.0,-2.0,2.0,-2.0,-2.0,-2.0,-2.0,-2.0
2025-06-09 09:20:54.991,0.027058966,0.0021952197,-0.029581442,0.08314158,0.023533706,0.011579118,0.0,0.0,0.0,0.0040535745,-0.07031705,0.0662997,-0.120619066,0.06586979,0.32881844,-0.09522265,0.035580132,-0.33946374,-0.11149732,-0.05337517,-0.3412704,-0.022400478,0.06027713,0.044486284,0.05787581,-0.06397445,0.07023719,0.01830843,0.035567064,-0.01371465,0.026988382,0.037344057,0.0683769,-0.019692175,-2.0,0.94980603,-2.0,2.0,2.0,-2.0,2.0,-2.0,-2.0,-2.0,-2.0,-2.0,-2.0,1.0648509,-2.0,2.0,2.0,-2.0,2.0,-2.0,-2.0,-2.0,-2.0,-2.0
2025-06-09 09:20:55.014,0.028209826,-0.022926511,-0.03495858,0.0062949965,-0.014780522,0.034705073,0.0,0.0,0.0,0.0040343823,-0.07258953,0.07040463,-0.12608822,0.06178976,0.34401342,-0.1089407,0.039185543,-0.34625643,-0.1080975,-0.04957524,-0.33962777,-0.030699654,-0.055282306,0.04665861,0.07041968,0.07710801,-0.027317254,0.016349906,0.038670845,0.055684753,-0.0025115083,-0.0047767325,0.026828842,0.06097421,-2.0,1.0648509,-2.0,2.0,2.0,-2.0,2.0,-2.0,-2.0,-2.0,-2.0,-2.0,-2.0,1.0183665,-2.0,2.0,2.0,-2.0,2.0,-2.0,-2.0,-2.0,-2.0,-2.0
2025-06-09 09:20:55.033,0.051424555,-0.01486139,-0.013293893,0.017230568,0.012006719,-0.0036339944,0.0,0.0,0.0,0.0039316225,-0.07495996,0.063615635,-0.13667609,0.058607623,0.3358524,-0.10977958,0.049291465,-0.34134755,-0.10970932,-0.047195327,-0.3364825,-0.02923462,0.033930685,-0.056198876,0.0060515283,-0.020057697,0.011979614,-0.041211054,-0.012995677,0.030969817,-0.06039691,0.035380714,-0.041840214,-0.030859727,-2.0,1.0183665,-2.0,2.0,2.0,-2.0,2.0,-2.0,-2.0,-2.0,-2.0,-2.0,-2.0,1.1363648,-2.0,2.0,2.0,-2.0,2.0,-2.0,-2.0,-2.0,-2.0,-2.0
2025-06-09 09:20:55.053,-0.02019096,0.029484862,-0.017383277,0.044217482,0.015416981,-0.016291274,0.0,0.0,0.0,0.0037747838,-0.06871414,0.06456586,-0.12684794,0.060468134,0.33398265,-0.10566601,0.034086812,-0.34920728,-0.11672224,-0.045408357,-0.3396363,-0.024136495,0.022190373,-0.008779515,-0.07053616,-0.004257038,-0.00043905558,-0.0011686134,-0.0037534544,0.018987017,0.03049815,-0.061783347,-0.031748626,0.028993124,-2.0,1.1363648,-2.0,2.0,2.0,-2.0,2.0,-2.0,-2.0,-2.0,-2.0,-2.0,-2.0,0.9902346,-2.0,2.0,2.0,-2.0,2.0,-2.0,-2.0,-2.0,-2.0,-2.0
2025-06-09 09:20:55.073,-0.01258538,-0.022548486,0.004117806,-0.014612473,0.028084526,0.043680564,0.0,0.0,0.0,0.0035687343,-0.07088704,0.059403554,-0.13214855,0.07050854,0.35036457,-0.10975226,0.047944747,-0.35741812,-0.122734174,-0.04088705,-0.33948287,-0.032872397,-0.00033153297,-0.0055596945,-0.009392314,-0.0141225485,-0.0068081603,0.027093448,0.054646727,-0.028701115,-0.04217131,-0.007074009,0.045803733,-0.03895079,-2.0,0.9902346,-2.0,2.0,2.0,-2.0,2.0,-2.0,-2.0,-2.0,-2.0,-2.0,-2.0,0.95859045,-2.0,2.0,2.0,-2.0,2.0,-2.0,-2.0,-2.0,-2.0,-2.0
2025-06-09 09:20:55.093,0.042478543,0.049479622,0.0070307837,0.025600683,0.039886493,0.04930968,0.0,0.0,0.0,0.0033763428,-0.07454785,0.0771425,-0.12348149,0.06855206,0.35276332,-0.11435057,0.029210435,-0.33897388,-0.10535434,-0.038061444,-0.349238,-0.029375745,0.0071086874,-0.034670863,0.048308022,-0.016774341,-0.018167403,-0.06221749,0.00023999707,-0.05946893,0.066183,0.03217813,-0.037265502,-0.055658292,-2.0,0.95859045,-2.0,2.0,2.0,-2.0,2.0,-2.0,-2.0,-2.0,-2.0,-2.0,-2.0,0.9222507,-2.0,2.0,2.0,-2.0,2.0,-2.0,-2.0,-2.0,-2.0,-2.0
2025-06-09 09:20:55.115,0.00724376,0.026332334,0.0005477298,0.07244113,0.080677286,0.044397905,0.0,0.0,0.0,0.0032451432,-0.06986437,0.070396796,-0.117973335,0.075123586,0.33493063,-0.11949731,0.04450077,-0.35518137,-0.112723224,-0.052694444,-0.349629,-0.016942216,-0.029133193,-0.015669065,-0.05276682,-0.064409666,-0.0051454008,0.054640446,-0.06825477,-0.027778856,-0.042078774,0.03204673,0.007049422,0.0024086104,-2.0,0.9222507,-2.0,2.0,2.0,-2.0,2.0,-2.0,-2.0,-2.0,-2.0,-2.0,-2.0,1.0107208,-2.0,2.0,2.0,-2.0,2.0,-2.0,-2.0,-2.0,-2.0,-2.0
2025-06-09 09:20:55.133,-0.04331206,0.015160739,-0.0050219866,0.045516696,0.028727261,0.044881023,0.0,0.0,0.0,0.003182004,-0.07390597,0.06700465,-0.12759499,0.071568094,0.34049556,-0.105416834,0.04812302,-0.34559017,-0.10845817,-0.050834697,-0.3451589,-0.020789552,-0.025592117,0.0035979843,0.036607392,-0.004560816,0.04432359,0.009077032,0.04747583,-0.0044058594,-0.06963339,0.024142103,0.03614256,-0.012788016,-2.0,1.0107208,-2.0,2.0,2.0,-2.0,2.0,-2.0,-2.0,-2.0,-2.0,-2.0,-2.0,1.074655,-2.0,2.0,2.0,-2.0,2.0,-2.0,-2.0,-2.0,-2.0,-2.0
2025-06-09 09:20:55.153,-0.011373938,-0.026142314,0.0018262367,0.06641912,0.012641101,-0.026517836,0.0,0.0,0.0,0.0031479374,-0.07195882,0.056618776,-0.12169873,0.0708868,0.34293905,-0.1095101,0.030654935,-0.34729952,-0.12354611,-0.053607278,-0.34316593,-0.035443347,0.019731233,-0.027566476,-0.024287153,0.01214976,0.04217075,-0.0684059,0.07102244,0.034048114,0.059313275,0.005533945,-0.07136169,-0.044242654,-2.0,1.074655,-2.0,2.0,2.0,-2.0,2.0,-2.0,-2.0,-2.0,-2.0,-2.0,-2.0,0.9699293,-2.0,2.0,2.0,-2.0,2.0,-2.0,-2.0,-2.0,-2.0,-2.0
2025-06-09 09:20:55.173,-0.0023118996,-0.041735657,-0.048122425,0.022381136,0.075419895,-0.039717373,0.0,0.0,0.0,0.003103947,-0.058633827,0.058157656,-0.1283313,0.05852575,0.34430405,-0.12196451,0.037121385,-0.3444897,-0.115163706,-0.038022507,-0.3429278,-0.033941355,0.054337937,-0.0650434,0.075165205,0.050575964,-0.055024073,-0.047626358,-0.03846006,0.00927364,-0.029795941,-0.025806071,0.019236613,-0.04289821,-2.0,0.9699293,-2.0,2.0,2.0,-2.0,2.0,-2.0,-2.0,-2.0,-2.0,-2.0,-2.0,1.2100976,-2.0,2.0,2.0,-2.0,2.0,-2.0,-2.0,-2.0,-2.0,-2.0
2025-06-09 09:20:55.193,-0.047749415,-0.036151282,0.0031859444,0.06165316,0.060754813,-0.035118528,0.0,0.0,0.0,0.003080218,-0.07340765,0.059583563,-0.12220215,0.061859142,0.33934423,-0.11238094,0.040431164,-0.35966292,-0.107519604,-0.04834686,-0.3486536,-0.018986445,0.03717758,-0.047188316,0.056843843,-0.02364201,-0.022539537,0.038553875,0.056364473,0.04834675,-0.010867427,-0.009417534,0.0124253,0.008145025,-2.0,1.2100976,-2.0,2.0,2.0,-2.0,2.0,-2.0,-2.0,-2.0,-2.0,-2.0,-2.0,0.89765036,-2.0,2.0,2.0,-2.0,2.0,-2.0,-2.0,-2.0,-2.0,-2.0
2025-06-09 09:20:55.215,0.032579917,0.027856912,-0.026270235,0.021317238,-0.010498975,-0.01854675,0.0,0.0,0.0,0.0030210228,-0.07106443,0.076736875,-0.1287182,0.059371363,0.34698468,-0.10867896,0.04436566,-0.35809758,-0.120689936,-0.038235284,-0.3402815,-0.02874725,-0.015375472,-0.031226248,0.0028891456,-0.027116116,-0.04609375,-0.061019655,0.046756078,-0.002460321,0.053383373,-0.03042631,0.011928941,0.041507438,-2.0,0.89765036,-2.0,2.0,2.0,-2.0,2.0,-2.0,-2.0,-2.0,-2.0,-2.0,-2.0,0.9684429,-2.0,2.0,2.0,-2.0,2.0,-2.0,-2.0,-2.0,-2.0,-2.0
2025-06-09 09:20:55.234,-0.021048702,-0.008112946,-0.015797345,0.023472615,-0.00041083017,-0.002285785,0.0,0.0,0.0,0.0030029507,-0.057367615,0.0637857,-0.12630829,0.072909005,0.34890687,-0.11091934,0.0400017,-0.3596202,-0.11730129,-0.048178174,-0.3400354,-0.016222281,-0.058992583,0.010870538,0.048480954,-0.011415798,-0.027797692,0.03494325,0.03859547,0.060895108,-0.050920676,-0.06666458,0.030461442,0.021073785,-2.0,0.9684429,-2.0,2.0,2.0,-2.0,2.0,-2.0,-2.0,-2.0,-2.0,-2.0,-2.0,0.9853911,-2.0,2.0,2.0,-2.0,2.0,-2.0,-2.0,-2.0,-2.0,-2.0
2025-06-09 09:20:55.254,0.01989804,-0.035399042,-0.033806056,-0.009121923,0.036142834,0.016354239,0.0,0.0,0.0,0.0030461778,-0.060311146,0.06300113,-0.11948542,0.073540665,0.34969875,-0.124793686,0.03148983,-0.35243317,-0.1176043,-0.05394472,-0.34903175,-0.02711284,0.024385814,-0.010124233,0.068793066,0.059646197,-0.0039124247,0.017809369,0.040047277,0.047472123,0.060208462,-0.041758996,0.042123094,0.0046017948,-2.0,0.9853911,-2.0,2.0,2.0,-2.0,2.0,-2.0,-2.0,-2.0,-2.0,-2.0,-2.0,1.026846,-2.0,2.0,2.0,-2.0,2.0,-2.0,-2.0,-2.0,-2.0,-2.0
2025-06-09 09:20:55.274,-0.008136276,-0.040316008,0.020480866,0.07277905,0.03131847,-0.0056648054,0.0,0.0,0.0,0.0031110868,-0.060344204,0.07409117,-0.12782663,0.073454216,0.34869346,-0.121721424,0.045229696,-0.35940638,-0.11872145,-0.052276008,-0.33903462,-0.031777687,-0.019394223,0.052110054,-0.06459679,-0.0047057373,-0.037748758,0.048951134,-0.042106807,0.027961273,-0.0005332779,-0.02452128,0.0062687546,0.03034357,-2.0,1.026846,-2.0,2.0,2.0,-2.0,2.0,-2.0,-2.0,-2.0,-2.0,-2.0,-2.0,0.7581693,-2.0,2.0,2.0,-2.0,2.0,-2.0,-2.0,-2.0,-2.0,-2.0
2025-06-09 09:20:55.296,-0.015205459,0.024764668,-0.049700245,-0.013011812,0.006950803,0.015252114,0.0,0.0,0.0,0.0031697927,-0.076188155,0.069060445,-0.12832217,0.062097948,0.3427463,-0.11141664,0.029294519,-0.34582892,-0.12071981,-0.052060064,-0.3348638,-0.013599661,0.043491587,-0.033876598,-0.006997039,0.030753681,0.005244433,-0.016929772,0.031139785,-0.06817134,0.06427098,-0.061582215,-0.07503353,0.006542906,-2.0,0.7581693,-2.0,2.0,2.0,-2.0,2.0,-2.0,-2.0,-2.0,-2.0,-2.0,-2.0,1.184811,-2.0,2.0,2.0,-2.0,2.0,-2.0,-2.0,-2.0,-2.0,-2.0
2025-06-09 09:20:55.314,-0.021906784,-0.030542994,0.020885896,-0.015511741,-0.008636762,0.028765846,0.0,0.0,0.0,0.0032918719,-0.06389444,0.06914379,-0.11735989,0.06920438,0.34149766,-0.11948658,0.044344157,-0.34685245,-0.11962639,-0.053041972,-0.3425632,-0.01366882,-0.06456025,0.038383402,-0.053217612,0.04197249,-0.050721426,0.06875613,0.00054381666,-0.026896453,0.039345387,0.007679563,-0.033227134,0.067784436,-2.0,1.184811,-2.0,2.0,2.0,-2.0,2.0,-2.0,-2.0,-2.0,-2.0,-2.0,-2.0,0.81927174,-2.0,2.0,2.0,-2.0,2.0,-2.0,-2.0,-2.0,-2.0,-2.0
2025-06-09 09:20:55.334,-0.029373212,-0.014327761,-0.036174964,0.007485555,0.028662238,-0.04885274,0.0,0.0,0.0,0.003360001,-0.069324955,0.07688296,-0.123348035,0.06007313,0.34662193,-0.124533266,0.04636677,-0.3438827,-0.12418477,-0.033679176,-0.33844662,-0.026611878,-0.04172629,-0.072809085,0.0145287,0.05754162,-0.04931361,0.007997317,-0.070167944,-0.0015115413,-0.071585104,-0.020911643,0.031391237,-0.011565828,-2.0,0.81927174,-2.0,2.0,2.0,-2.0,2.0,-2.0,-2.0,-2.0,-2.0,-2.0,-2.0,1.1551656,-2.0,2.0,2.0,-2.0,2.0,-2.0,-2.0,-2.0,-2.0,-2.0
2025-06-09 09:20:55.354,0.0064445576,0.023821454,-0.03916492,-0.0021597594,0.018675499,-0.03596622,0.0,0.0,0.0,0.0034273213,-0.07579668,0.07416449,-0.11002495,0.059196208,0.35186714,-0.11800073,0.034194298,-0.3552631,-0.1160121,-0.038872425,-0.33793762,-0.026660867,-0.015821846,0.06668147,0.04896515,0.04253861,0.0031237272,-0.028529545,-0.059285354,-0.0019344065,-0.00064673537,-0.014859086,0.008900789,0.06501329,-2.0,1.1551656,-2.0,2.0,2.0,-2.0,2.0,-2.0,-2.0,-2.0,-2.0,-2.0,-2.0,1.0740322,-2.0,2.0,2.0,-2.0,2.0,-2.0,-2.0,-2.0,-2.0,-2.0
2025-06-09 09:20:55.374,-0.013309909,0.006328404,0.03714096,0.06253082,-0.012758819,-0.037962418,0.0,0.0,0.0,0.003447305,-0.076496206,0.07177108,-0.117545635,0.06259603,0.34281293,-0.109748565,0.04173208,-0.34685645,-0.12124286,-0.038166694,-0.33793578,-0.023189904,-0.07328415,0.061323438,0.037297416,-0.0166951,-0.020270456,-0.06912318,0.023141893,0.026861481,-0.05984921,0.039086673,0.0022031663,-0.04523332,-2.0,1.0740322,-2.0,2.0,2.0,-2.0,2.0,-2.0,-2.0,-2.0,-2.0,-2.0,-2.0,0.8060919,-2.0,2.0,2.0,-2.0,2.0,-2.0,-2.0,-2.0,-2.0,-2.0
2025-06-09 09:20:55.398,0.037760887,0.043474875,0.022714963,0.062490255,0.04228962,-0.028267575,0.0,0.0,0.0,0.0034081382,-0.07590274,0.07745994,-0.12065755,0.057631597,0.34239626,-0.107484624,0.03741909,-0.35568926,-0.1271298,-0.047630817,-0.34531987,-0.026778331,-0.06510384,-0.005067224,-0.029878167,-0.034030113,-0.055956442,0.015063977,-0.029401738,0.0006940307,-0.04198804,-0.0022250302,0.009382176,0.07378307,-2.0,0.8060919,-2.0,2.0,2.0,-2.0,2.0,-2.0,-2.0,-2.0,-2.0,-2.0,-2.0,0.7868818,-2.0,2.0,2.0,-2.0,2.0,-2.0,-2.0,-2.0,-2.0,-2.0
2025-06-09 09:20:55.414,-0.017250119,-0.003645292,0.0063020773,0.013281949,0.0018984413,0.015129245,0.0,0.0,0.0,0.003429522,-0.06321155,0.07281511,-0.11880338,0.06452791,0.35291547,-0.1137792,0.03550482,-0.3632037,-0.11541792,-0.039489053,-0.3439246,-0.026348606,0.0519561,0.009302721,0.02227229,-0.047212824,-0.051959675,-0.061248343,0.0042921547,-0.044643078,-0.030472904,-0.060863737,0.0036078035,-0.07059389,-2.0,0.7868818,-2.0,2.0,2.0,-2.0,2.0,-2.0,-2.0,-2.0,-2.0,-2.0,-2.0,0.94410056,-2.0,2.0,2.0,-2.0,2.0,-2.0,-2.0,-2.0,-2.0,-2.0
2025-06-09 09:20:55.482,-0.018945217,0.02382762,0.014952008,0.026553705,0.05365564,-0.009585469,0.0,0.0,0.0,0.0035369084,-0.07699404,0.06940371,-0.11031234,0.05813695,0.358069,-0.11406598,0.032139953,-0.363587,-0.109062314,-0.03908251,-0.34202132,-0.01523346,-0.00014992281,-0.00048668438,0.05915808,0.045496322,0.022484938,-0.020106379,-0.018364508,0.023577785,0.026348548,-0.052496124,8.0547936e-05,-0.018439732,-2.0,0.94410056,-2.0,2.0,2.0,-2.0,2.0,-2.0,-2.0,-2.0,-2.0,-2.0,-2.0,0.7991519,-2.0,2.0,2.0,-2.0,2.0,-2.0,-2.0,-2.0,-2.0,-2.0
2025-06-09 09:20:55.505,0.0031790696,0.035890147,5.7335878e-05,-0.006112922,0.01711513,-0.032616332,0.0,0.0,0.0,0.0036431004,-0.061898325,0.060766585,-0.12612557,0.06025637,0.34673065,-0.10821869,0.044359438,-0.36293203,-0.113195285,-0.04769827,-0.33978444,-0.014605977,-0.003813629,0.04873185,-0.038374875,-0.0027458048,-0.0641987,0.014363536,-0.0015138658,0.05148242,0.03553098,0.008158044,-0.043957435,-0.067471065,-2.0,0.7991519,-2.0,2.0,2.0,-2.0,2.0,-2.0,-2.0,-2.0,-2.0,-2.0,-2.0,0.85369945,-2.0,2.0,2.0,-2.0,2.0,-2.0,-2.0,-2.0,-2.0,-2.0
2025-06-09 09:20:55.523,-0.03996266,0.009761626,0.016852539,0.07718021,-0.0120504685,-0.0015867675,0.0,0.0,0.0,0.0037512458,-0.06256932,0.06987837,-0.1216817,0.05392381,0.3510194,-0.11020498,0.039780278,-0.36284038,-0.11585156,-0.03736098,-0.34780118,-0.023133026,0.020480767,-0.012791839,-0.04713472,-0.017318701,0.0091872895,0.021020254,-0.0041461736,0.06820472,-0.046517104,-0.060823187,-0.057575684,-0.009516885,-2.0,0.85369945,-2.0,2.0,2.0,-2.0,2.0,-2.0,-2.0,-2.0,-2.0,-2.0,-2.0,0.827383,-2.0,2.0,2.0,-2.0,2.0,-2.0,-2.0,-2.0,-2.0,-2.0
2025-06-09 09:20:55.543,0.03595032,-0.03654384,-0.015406141,0.06697494,-0.012623868,0.010710887,0.0,0.0,0.0,0.0038517714,-0.0734835,0.057517897,-0.10908392,0.056059014,0.35165203,-0.112843856,0.037751246,-0.35734978,-0.12652637,-0.04102569,-0.3357593,-0.025175424,-0.031974766,-0.009044941,-0.04551366,-0.0066877017,-0.018766137,0.03214915,-0.005278364,0.0145577,0.029435672,-0.016463226,0.0045627346,0.048931293,-2.0,0.827383,-2.0,2.0,2.0,-2.0,2.0,-2.0,-2.0,-2.0,-2.0,-2.0,-2.0,0.9069938,-2.0,2.0,2.0,-2.0,2.0,-2.0,-2.0,-2.0,-2.0,-2.0
2025-06-09 09:20:55.565,-0.0041477615,-0.03827715,0.008423896,0.06734667,0.05308222,0.015221178,0.0,0.0,0.0,0.003931615,-0.062652,0.0685329,-0.10804339,0.056789268,0.35253698,-0.11801131,0.032279506,-0.35066262,-0.12326172,-0.044604965,-0.3456213,-0.028676234,0.053226016,-0.020454848,0.01308904,-0.059113096,-0.020136725,0.038208302,0.009569486,0.045130245,0.023300787,0.043330546,-0.008933284,0.020834897,-2.0,0.9069938,-2.0,2.0,2.0,-2.0,2.0,-2.0,-2.0,-2.0,-2.0,-2.0,-2.0,0.8829874,-2.0,2.0,2.0,-2.0,2.0,-2.0,-2.0,-2.0,-2.0,-2.0
2025-06-09 09:20:55.583,0.04414984,0.041582976,0.022718873,0.022043932,0.02117596,0.020263659,0.0,0.0,0.0,0.0039659045,-0.06857666,0.07157398,-0.11546867,0.0671258,0.34409165,-0.12007361,0.032382645,-0.3506071,-0.12083798,-0.039426126,-0.33296078,-0.032600958,0.064084485,8.721465e-05,-0.05992785,0.002390425,0.007996403,0.02851824,-0.044599548,-0.026010353,0.048031665,-0.038215462,-0.021085914,0.047251873,-2.0,0.8829874,-2.0,2.0,2.0,-2.0,2.0,-2.0,-2.0,-2.0,-2.0,-2.0,-2.0,0.77891034,-2.0,2.0,2.0,-2.0,2.0,-2.0,-2.0,-2.0,-2.0,-2.0
2025-06-09 09:20:55.603,0.031463668,0.008288886,0.04114806,0.061371632,0.06691494,0.042704806,0.0,0.0,0.0,0.003957527,-0.07215089,0.052367255,-0.11827003,0.06824279,0.334343,-0.10959982,0.03227473,-0.35385448,-0.12785965,-0.04911605,-0.33470538,-0.022016557,0.06815383,-0.064842135,0.07112573,-0.037524395,0.053326562,0.029052604,0.017399894,-0.013040805,7.913666e-05,0.07353549,-0.06345162,-0.068802975,-2.0,0.77891034,-2.0,2.0,2.0,-2.0,2.0,-2.0,-2.0,-2.0,-2.0,-2.0,-2.0,0.82093894,-2.0,2.0,2.0,-2.0,2.0,-2.0,-2.0,-2.0,-2.0,-2.0
2025-06-09 09:20:55.623,-0.010351579,0.029771654,0.007805431,0.06957916,0.049362443,-0.0031891814,0.0,0.0,0.0,0.003951978,-0.07264112,0.052506693,-0.113353804,0.06411541,0.34199277,-0.11981605,0.032845303,-0.35432568,-0.12452982,-0.048032526,-0.34849292,-0.027872281,-0.047708932,0.021915842,0.035878032,-0.0156136425,-0.044459365,0.036153752,0.074925005,-0.022948477,0.016548704,-0.009974845,0.061669987,0.06150961,-2.0,0.82093894,-2.0,2.0,2.0,-2.0,2.0,-2.0,-2.0,-2.0,-2.0,-2.0,-2.0,0.8161732,-2.0,2.0,2.0,-2.0,2.0,-2.0,-2.0,-2.0,-2.0,-2.0
2025-06-09 09:20:55.643,0.024773462,-0.031227384,-0.024568878,0.058553495,-0.012705836,0.026351834,0.0,0.0,0.0,0.003947631,-0.07746535,0.056080833,-0.106191896,0.053371646,0.33606043,-0.10953777,0.032604862,-0.36502805,-0.11255993,-0.049789324,-0.33521628,-0.032023013,-0.056306,0.034541268,0.0033031548,0.016646663,-0.050585862,-0.04257215,0.0065388097,-0.013413135,0.0043887035,-0.044448584,-0.02293447,0.06836222,-2.0,0.8161732,-2.0,2.0,2.0,-2.0,2.0,-2.0,-2.0,-2.0,-2.0,-2.0,-2.0,0.99617934,-2.0,2.0,2.0,-2.0,2.0,-2.0,-2.0,-2.0,-2.0,-2.0
2025-06-09 09:20:55.665,-0.021218063,0.042136263,0.031975232,0.013458864,0.0020112724,-0.0037660126,0.0,0.0,0.0,0.003934893,-0.0655445,0.06117851,-0.11135452,0.06578216,0.33726564,-0.103233576,0.04274026,-0.3600404,-0.112523526,-0.046016805,-0.34794047,-0.027589066,0.016940318,0.025000729,-0.008865557,-0.032096356,0.033605818,-0.0017760602,0.027053561,0.0020094716,-0.057054564,-0.027485028,0.020785308,-0.07188676,-2.0,0.99617934,-2.0,2.0,2.0,-2.0,2.0,-2.0,-2.0,-2.0,-2.0,-2.0,-2.0,0.8587323,-2.0,2.0,2.0,-2.0,2.0,-2.0,-2.0,-2.0,-2.0,-2.0
2025-06-09 09:20:55.683,0.008960037,0.0021346437,0.050052907,-0.0025897988,0.053961493,-0.03051407,0.0,0.0,0.0,0.003864467,-0.066906124,0.05068942,-0.11213771,0.054623,0.3351952,-0.10591312,0.048053104,-0.35605958,-0.11186928,-0.04487375,-0.337011,-0.025850244,-0.06354929,-0.016606944,0.0043267175,0.01862637,-0.05942179,0.0509834,-0.0062867766,-0.005950021,0.010106269,0.016745755,0.0097717745,0.03589438,-2.0,0.8587323,-2.0,2.0,2.0,-2.0,2.0,-2.0,-2.0,-2.0,-2.0,-2.0,-2.0,0.6691317,-2.0,2.0,2.0,-2.0,2.0,-2.0,-2.0,-2.0,-2.0,-2.0
2025-06-09 09:20:55.703,0.0031818608,0.011388893,-0.012347436,4.448261e-05,0.0018537052,-0.016522424,0.0,0.0,0.0,0.0037771282,-0.059793025,0.06474592,-0.10566455,0.060177617,0.34623507,-0.112339005,0.04298644,-0.35578495,-0.11911699,-0.03598376,-0.353402,-0.020818137,0.026171468,0.025486693,-0.0043098293,-0.04252693,-0.0034765813,-0.0668885,0.03519806,0.048382558,0.022158107,-0.010743271,-0.04055938,-0.019637305,-2.0,0.6691317,-2.0,2.0,2.0,-2.0,2.0,-2.0,-2.0,-2.0,-2.0,-2.0,-2.0,1.0226785,-2.0,2.0,2.0,-2.0,2.0,-2.0,-2.0,-2.0,-2.0,-2.0
2025-06-09 09:20:55.723,0.032541886,0.009046025,-0.038078036,-0.014434949,0.042777233,1.9124598e-06,0.0,0.0,0.0,0.0037644324,-0.077334814,0.057330515,-0.11344613,0.07149079,0.34693775,-0.11818679,0.040736254,-0.37032112,-0.1272978,-0.039134145,-0.3493132,-0.026383167,-0.042829234,-0.0022791552,-0.033493187,-0.022486916,-0.04832585,0.026027402,0.015247876,0.027073534,-0.008372934,-0.030977152,-0.0026789317,-0.07600421,-2.0,1.0226785,-2.0,2.0,2.0,-2.0,2.0,-2.0,-2.0,-2.0,-2.0,-2.0,-2.0,1.0729452,-2.0,2.0,2.0,-2.0,2.0,-2.0,-2.0,-2.0,-2.0,-2.0
2025-06-09 09:20:55.743,-0.017002458,0.0052193073,0.04916604,0.008364784,0.046595104,0.04803929,0.0,0.0,0.0,0.0037282722,-0.060728304,0.05964749,-0.11465762,0.06876367,0.33884028,-0.10583026,0.037091058,-0.35985002,-0.1274789,-0.039565608,-0.34671786,-0.034154996,-0.036754884,-0.04852652,-0.06961482,-0.064247526,0.041537248,-0.043412164,0.01358107,0.0046834596,0.020135488,-0.013884071,0.023454376,0.052578874,-2.0,1.0729452,-2.0,2.0,2.0,-2.0,2.0,-2.0,-2.0,-2.0,-2.0,-2.0,-2.0,0.8116885,-2.0,2.0,2.0,-2.0,2.0,-2.0,-2.0,-2.0,-2.0,-2.0
2025-06-09 09:20:55.766,-0.035139207,0.048950203,-0.015462036,-0.014069919,0.04661261,0.040420555,0.0,0.0,0.0,0.0036155162,-0.07260144,0.052353974,-0.10605814,0.06768392,0.33991912,-0.11527003,0.034970928,-0.35797873,-0.13229086,-0.050093427,-0.33953536,-0.029088028,0.023753379,-0.014041229,-0.043122347,0.034193914,-0.053692423,0.036486156,-0.029169574,0.028828058,-0.034059852,-0.0739234,-0.01526406,-0.009129799,-2.0,0.8116885,-2.0,2.0,2.0,-2.0,2.0,-2.0,-2.0,-2.0,-2.0,-2.0,-2.0,1.0308698,-2.0,2.0,2.0,-2.0,2.0,-2.0,-2.0,-2.0,-2.0,-2.0
2025-06-09 09:20:55.783,0.022409426,0.02331718,-0.04342469,0.024369856,0.04401896,0.04377816,0.0,0.0,0.0,0.003538334,-0.069969855,0.0600499,-0.10850119,0.0707492,0.3489073,-0.115918495,0.036003057,-0.3632677,-0.12510964,-0.05020039,-0.3417093,-0.032502513,-0.04164282,0.005744291,-0.0038066793,-0.043133818,-0.06660538,0.056290872,-0.05737544,-0.05688998,-0.019476512,-0.014657478,0.05043504,0.028820422,-2.0,1.0308698,-2.0,2.0,2.0,-2.0,2.0,-2.0,-2.0,-2.0,-2.0,-2.0,-2.0,1.1026629,-2.0,2.0,2.0,-2.0,2.0,-2.0,-2.0,-2.0,-2.0,-2.0
2025-06-09 09:20:55.803,0.013057878,0.022888271,0.028362665,0.079499274,0.014406502,-0.0046684477,0.0,0.0,0.0,0.0034747776,-0.058349732,0.061085153,-0.111498445,0.07307545,0.3507225,-0.11139954,0.032221794,-0.36104894,-0.1321638,-0.0409278,-0.33535656,-0.0336573,0.07373423,-0.047439814,0.050340418,-0.03050643,-0.027427336,-0.034000054,0.06443541,0.0074114325,-0.071460865,0.01772215,-0.053350847,-0.0003573294,-2.0,1.1026629,-2.0,2.0,2.0,-2.0,2.0,-2.0,-2.0,-2.0,-2.0,-2.0,-2.0,0.89672744,-2.0,2.0,2.0,-2.0,2.0,-2.0,-2.0,-2.0,-2.0,-2.0
2025-06-09 09:20:55.823,-0.006663573,-0.0295648,-0.035278752,0.07100141,0.022907563,0.028557708,0.0,0.0,0.0,0.003377033,-0.06055211,0.06657949,-0.1184269,0.07262103,0.3477082,-0.11206951,0.040558334,-0.35077375,-0.115949094,-0.040390555,-0.34884515,-0.030815914,0.00060231145,-0.016073719,0.00545391,-0.013463348,0.048793413,-0.00044376543,0.017670723,-0.03958288,0.05288715,-0.015354384,-0.016000342,0.047436323,-2.0,0.89672744,-2.0,2.0,2.0,-2.0,2.0,-2.0,-2.0,-2.0,-2.0,-2.0,-2.0,1.0927339,-2.0,2.0,2.0,-2.0,2.0,-2.0,-2.0,-2.0,-2.0,-2.0
2025-06-09 09:20:55.847,0.01090226,0.003137631,0.020068996,-0.0023939395,0.01528164,-0.029932747,0.0,0.0,0.0,0.0033211187,-0.071682386,0.055116463,-0.12670194,0.075602666,0.34780285,-0.10491089,0.039657407,-0.3668714,-0.12465102,-0.035084836,-0.346757,-0.03555514,-0.06432626,-0.014799268,0.049420707,0.039054032,-0.0006617312,0.004752391,0.05666442,-0.034143914,0.00868019,0.029044578,-0.014899914,-0.028940585,-2.0,1.0927339,-2.0,2.0,2.0,-2.0,2.0,-2.0,-2.0,-2.0,-2.0,-2.0,-2.0,0.82362336,-2.0,2.0,2.0,-2.0,2.0,-2.0,-2.0,-2.0,-2.0,-2.0
2025-06-09 09:20:55.866,0.029728806,0.026694525,-0.023397313,0.05107277,0.059670027,-0.044429436,0.0,0.0,0.0,0.0032787276,-0.07173271,0.062063083,-0.11039606,0.05882382,0.35239998,-0.11172279,0.046693925,-0.36527833,-0.12286464,-0.039492194,-0.3529692,-0.025496114,-0.03613688,0.05742137,-0.009694786,0.024580626,0.07212683,-0.05925326,-0.0017536023,0.06053696,-0.071469665,-0.059268065,0.039165676,0.0071186437,-2.0,0.82362336,-2.0,2.0,2.0,-2.0,2.0,-2.0,-2.0,-2.0,-2.0,-2.0,-2.0,1.0323168,-2.0,2.0,2.0,-2.0,2.0,-2.0,-2.0,-2.0,-2.0,-2.0
2025-06-09 09:20:55.884,-0.009931429,-0.039222088,-0.044250112,-0.0070011276,0.022384644,-0.041921057,0.0,0.0,0.0,0.0033016815,-0.069220826,0.06973892,-0.11902922,0.057165634,0.3478558,-0.12197428,0.031438082,-0.35215828,-0.13284808,-0.03513295,-0.3395458,-0.032793727,-0.07043967,-0.014568666,0.026759773,-0.021334408,-0.046106637,0.03900907,-0.04938315,-0.015809143,-0.0019842377,-0.027277378,0.024498394,0.069491856,-2.0,1.0323168,-2.0,2.0,2.0,-2.0,2.0,-2.0,-2.0,-2.0,-2.0,-2.0,-2.0,1.0958439,-2.0,2.0,2.0,-2.0,2.0,-2.0,-2.0,-2.0,-2.0,-2.0
2025-06-09 09:20:55.904,-0.031338736,0.027126854,0.037253372,0.007763376,0.061108522,-0.042283922,0.0,0.0,0.0,0.0033485265,-0.060692407,0.06845656,-0.12224,0.064057596,0.3447499,-0.11324191,0.04517343,-0.35687786,-0.12460335,-0.0456355,-0.3401279,-0.02272592,0.061799135,0.07577667,-0.006946397,0.03424191,0.06293683,-0.061305285,0.012222789,-0.07113653,0.035163324,-0.052920677,0.00032623028,-0.021982957,-2.0,1.0958439,-2.0,2.0,2.0,-2.0,2.0,-2.0,-2.0,-2.0,-2.0,-2.0,-2.0,0.76177174,-2.0,2.0,2.0,-2.0,2.0,-2.0,-2.0,-2.0,-2.0,-2.0
2025-06-09 09:20:55.924,0.02904375,-0.0071296096,-0.051926732,0.019418344,-0.002904864,0.048631914,0.0,0.0,0.0,0.003357231,-0.07594556,0.058746085,-0.11405152,0.06904759,0.35711083,-0.105850436,0.041209154,-0.35577008,-0.13179073,-0.041264284,-0.33563736,-0.019933404,-0.030450838,0.018216893,0.06590352,-0.0131095005,-0.006547682,-0.03454894,-8.469608e-05,0.025229864,-0.029427527,0.058904316,-0.013092981,0.061884347,-2.0,0.76177174,-2.0,2.0,2.0,-2.0,2.0,-2.0,-2.0,-2.0,-2.0,-2.0,-2.0,1.2369555,-2.0,2.0,2.0,-2.0,2.0,-2.0,-2.0,-2.0,-2.0,-2.0
2025-06-09 09:20:55.944,-0.03307243,-0.03561592,0.04126779,0.0622866,-0.012197826,-0.043222193,0.0,0.0,0.0,0.0034300198,-0.0702922,0.06536561,-0.110840894,0.056213133,0.3553266,-0.111218885,0.03250636,-0.36427826,-0.11642949,-0.048847698,-0.34218726,-0.020040622,0.0028759844,-0.030787487,0.024226869,-0.0711438,-0.0671021,-0.021046344,0.06909413,-0.066691004,0.05617776,-0.058727026,-0.0013027985,-0.06439609,-2.0,1.2369555,-2.0,2.0,2.0,-2.0,2.0,-2.0,-2.0,-2.0,-2.0,-2.0,-2.0,0.66681004,-2.0,2.0,2.0,-2.0,2.0,-2.0,-2.0,-2.0,-2.0,-2.0
2025-06-09 09:20:55.964,0.023132773,0.04715242,-0.026712758,0.0022496113,-0.011670025,-0.03440598,0.0,0.0,0.0,0.0034515185,-0.07135605,0.062739864,-0.12226769,0.066364795,0.34328538,-0.10334734,0.03551106,-0.3453139,-0.11582512,-0.053782195,-0.3505062,-0.022466015,0.051826425,-0.075008586,0.06068971,-0.07373784,0.074428245,-0.024309885,0.027173484,-0.059586175,-0.024380526,0.024742283,0.017972287,-0.021169849,-2.0,0.66681004,-2.0,2.0,2.0,-2.0,2.0,-2.0,-2.0,-2.0,-2.0,-2.0,-2.0,1.2059549,-2.0,2.0,2.0,-2.0,2.0,-2.0,-2.0,-2.0,-2.0,-2.0
2025-06-09 09:20:55.984,-0.005246886,-0.0005427213,-0.026460953,0.047427636,0.021088852,-0.0048172264,0.0,0.0,0.0,0.0035311456,-0.077481635,0.07747433,-0.1135229,0.058942255,0.3506013,-0.105443485,0.04176205,-0.350712,-0.11492823,-0.040675882,-0.338509,-0.017565066,-0.030288441,0.061349016,0.048743974,0.046641454,-0.06847701,0.009482807,-0.05648764,-0.07015492,-0.047384,-0.047958314,-0.034355726,-0.06061865,-2.0,1.2059549,-2.0,2.0,2.0,-2.0,2.0,-2.0,-2.0,-2.0,-2.0,-2.0,-2.0,0.99221194,-2.0,2.0,2.0,-2.0,2.0,-2.0,-2.0,-2.0,-2.0,-2.0
2025-06-09 09:20:56.004,-0.0016969274,0.014111616,-0.03215576,0.056410708,0.022363786,-0.0011499197,0.0,0.0,0.0,0.003571157,-0.06212155,0.07817953,-0.12998183,0.071203984,0.36225557,-0.102633774,0.043001756,-0.35872865,-0.11553064,-0.042852648,-0.33837163,-0.018109618,-0.050515346,-0.041074317,0.05095465,0.049422055,0.06461226,-0.015626041,0.012854789,0.034543257,0.022589227,-0.022579398,0.042701807,-0.053774264,-2.0,0.99221194,-2.0,2.0,2.0,-2.0,2.0,-2.0,-2.0,-2.0,-2.0,-2.0,-2.0,1.0336109,-2.0,2.0,2.0,-2.0,2.0,-2.0,-2.0,-2.0,-2.0,-2.0
2025-06-09 09:20:56.024,-0.025336754,-0.040479314,-0.03342548,0.072207384,-0.0008674128,0.0139771635,0.0,0.0,0.0,0.0035599733,-0.07388837,0.06208962,-0.12348561,0.07027287,0.34772602,-0.11502191,0.043335885,-0.35215822,-0.123391666,-0.0439965,-0.34332797,-0.016420603,-0.061199468,0.053144664,0.015229554,-0.043307215,-0.03263204,-0.0070757437,-0.024542937,0.03535398,0.039247498,0.06118365,-0.068403326,0.067595266,-2.0,1.0336109,-2.0,2.0,2.0,-2.0,2.0,-2.0,-2.0,-2.0,-2.0,-2.0,-2.0,1.0706226,-2.0,2.0,2.0,-2.0,2.0,-2.0,-2.0,-2.0,-2.0,-2.0
2025-06-09 09:20:56.048,0.03408756,0.01355928,-0.040418122,0.034072142,0.037573103,-0.008068356,0.0,0.0,0.0,0.003539214,-0.076818794,0.074546784,-0.12859981,0.06120468,0.34927997,-0.11904559,0.040104337,-0.36209628,-0.11782275,-0.036082555,-0.3351248,-0.02431427,0.060293615,0.054375112,-0.07096698,-0.04089728,-0.03793868,0.048315667,-0.029428441,-0.06259335,0.03956546,0.0045559015,0.031403646,0.01260445,-2.0,1.0706226,-2.0,2.0,2.0,-2.0,2.0,-2.0,-2.0,-2.0,-2.0,-2.0,-2.0,0.9952505,-2.0,2.0,2.0,-2.0,2.0,-2.0,-2.0,-2.0,-2.0,-2.0
2025-06-09 09:20:56.065,0.01846788,0.026666533,-0.041242626,-0.009473562,0.06013284,0.011626195,0.0,0.0,0.0,0.003498893,-0.057980005,0.07070159,-0.11993696,0.057238862,0.3524075,-0.11722963,0.045705546,-0.36187586,-0.11953017,-0.036807977,-0.3460998,-0.007170894,0.003950357,-0.06440594,0.04503846,-0.03565297,-0.045622572,-0.06590246,-0.02452905,-0.027814047,-0.03672909,0.019878728,-0.035630632,-0.018559229,-2.0,0.9952505,-2.0,2.0,2.0,-2.0,2.0,-2.0,-2.0,-2.0,-2.0,-2.0,-2.0,1.2682519,-2.0,2.0,2.0,-2.0,2.0,-2.0,-2.0,-2.0,-2.0,-2.0
2025-06-09 09:20:56.084,0.026519852,0.014223217,0.0097279195,0.0659745,0.06181015,-0.0055109006,0.0,0.0,0.0,0.003467944,-0.06538663,0.06557744,-0.11388801,0.06336663,0.3601399,-0.10445729,0.04427575,-0.35288236,-0.1325256,-0.038130872,-0.340146,-0.022123666,0.032546688,0.034531754,-0.055859413,0.051879443,-0.061115704,-0.07156096,-0.011051846,0.00031319977,-0.070480466,-0.06090745,-0.048582457,0.056768943,-2.0,1.2682519,-2.0,2.0,2.0,-2.0,2.0,-2.0,-2.0,-2.0,-2.0,-2.0,-2.0,0.89054656,-2.0,2.0,2.0,-2.0,2.0,-2.0,-2.0,-2.0,-2.0,-2.0
2025-06-09 09:20:56.104,0.0011914215,0.0027338127,-0.037141006,-0.014326662,0.030545354,0.0011924827,0.0,0.0,0.0,0.0033786253,-0.0573673,0.0757071,-0.118800625,0.07355561,0.34884816,-0.10407511,0.03133751,-0.3479315,-0.11748393,-0.043886174,-0.34808752,-0.0062914146,-0.03503543,-0.025759876,-0.03742452,0.06623635,0.037379164,0.04775865,-0.049284946,0.024552826,-0.037467927,0.05664873,0.035942752,0.025322303,-2.0,0.89054656,-2.0,2.0,2.0,-2.0,2.0,-2.0,-2.0,-2.0,-2.0,-2.0,-2.0,1.2234966,-2.0,2.0,2.0,-2.0,2.0,-2.0,-2.0,-2.0,-2.0,-2.0
2025-06-09 09:20:56.124,-0.03241471,0.015653549,-0.0030775543,0.070808195,-0.006683613,-0.03573668,0.0,0.0,0.0,0.0033316908,-0.07343018,0.08288943,-0.12467048,0.07022692,0.34966713,-0.121579506,0.029211754,-0.35746095,-0.11662524,-0.042470794,-0.33372715,-0.006574113,-0.052386094,0.005692737,0.041410945,0.05454266,-0.042506084,0.068659455,-0.055526983,0.0403817,-0.029142296,-0.058736246,0.07119114,-0.05020812,-2.0,1.2234966,-2.0,2.0,2.0,-2.0,2.0,-2.0,-2.0,-2.0,-2.0,-2.0,-2.0,0.8215159,-2.0,2.0,2.0,-2.0,2.0,-2.0,-2.0,-2.0,-2.0,-2.0
2025-06-09 09:20:56.148,-0.00056058506,0.0058946144,-0.0015710341,0.008290323,0.073494375,0.024459036,0.0,0.0,0.0,0.003280654,-0.061946817,0.06685069,-0.11748551,0.06695688,0.35522863,-0.12220897,0.04431641,-0.3451994,-0.12962422,-0.054285683,-0.35211897,-0.016338803,-0.014368708,0.065483496,-0.040136307,0.020890553,0.057767347,-0.013843029,-0.06947822,0.036751255,-0.0244331,-0.06584615,-0.0042382637,0.070184104,-2.0,0.8215159,-2.0,2.0,2.0,-2.0,2.0,-2.0,-2.0,-2.0,-2.0,-2.0,-2.0,0.9911075,-2.0,2.0,2.0,-2.0,2.0,-2.0,-2.0,-2.0,-2.0,-2.0
2025-06-09 09:20:56.165,0.015043545,0.050740607,0.019598909,0.06904239,0.07653546,-0.0121385455,0.0,0.0,0.0,0.0032995353,-0.060160924,0.08282494,-0.1166818,0.07405585,0.3665042,-0.12154998,0.026803559,-0.3584608,-0.12535438,-0.040063787,-0.33480325,-0.021091396,0.006925273,-0.014542053,0.04860953,0.02113495,0.06931099,-0.022611108,-0.0057785143,0.014674015,0.058496986,-0.038830217,-0.065271586,-0.018983215,-2.0,0.9911075,-2.0,2.0,2.0,-2.0,2.0,-2.0,-2.0,-2.0,-2.0,-2.0,-2.0,0.7894769,-2.0,2.0,2.0,-2.0,2.0,-2.0,-2.0,-2.0,-2.0,-2.0
2025-06-09 09:20:56.185,-0.039405584,-0.0035571381,0.020183211,0.035802554,-0.008916683,-0.00658028,0.0,0.0,0.0,0.0033730157,-0.070673816,0.07010323,-0.12435088,0.06866719,0.352746,-0.10399205,0.042549625,-0.34861952,-0.12336846,-0.04348203,-0.3351454,-0.01592629,0.07253512,0.04542963,0.04414007,0.03245773,-0.004399935,0.020046722,0.053194158,0.063938715,-0.060895048,-0.0083888285,0.013502948,-0.0018764631,-2.0,0.7894769,-2.0,2.0,2.0,-2.0,2.0,-2.0,-2.0,-2.0,-2.0,-2.0,-2.0,0.8334898,-2.0,2.0,2.0,-2.0,2.0,-2.0,-2.0,-2.0,-2.0,-2.0
2025-06-09 09:20:56.205,0.018257733,-0.007191665,-0.05401894,0.00036268987,0.03519769,0.029117364,0.0,0.0,0.0,0.0035031114,-0.06804643,0.062159795,-0.108428285,0.061431725,0.36199105,-0.10759845,0.026275419,-0.35350576,-0.12772548,-0.052055035,-0.3506403,-0.011972496,-0.034496408,-0.008372505,-0.049235944,0.024125006,0.012807755,0.019656342,-0.060198467,-0.054119892,0.07070296,-0.030211827,-0.058291588,-0.027785575,-2.0,0.8334898,-2.0,2.0,2.0,-2.0,2.0,-2.0,-2.0,-2.0,-2.0,-2.0,-2.0,1.1728674,-2.0,2.0,2.0,-2.0,2.0,-2.0,-2.0,-2.0,-2.0,-2.0
2025-06-09 09:20:56.225,0.024704708,-0.037478946,0.012084663,0.04227131,0.04532769,-0.0123771345,0.0,0.0,0.0,0.0036688645,-0.07791635,0.061301395,-0.12150298,0.05817997,0.36006853,-0.10652022,0.036012154,-0.3655155,-0.12798539,-0.04792128,-0.34258893,-0.017732881,0.06500738,0.070379905,0.042483367,0.026139155,-0.058928773,0.0106728645,0.021353094,0.07475618,-0.028359983,-0.06398187,-0.051260374,-0.0158575,-2.0,1.1728674,-2.0,2.0,2.0,-2.0,2.0,-2.0,-2.0,-2.0,-2.0,-2.0,-2.0,0.7470406,-2.0,2.0,2.0,-2.0,2.0,-2.0,-2.0,-2.0,-2.0,-2.0
2025-06-09 09:20:56.248,-0.012989961,0.03353917,-0.03629792,0.067911245,0.06367955,0.0008501812,0.0,0.0,0.0,0.0037274791,-0.07313007,0.06370804,-0.11397075,0.070504464,0.36477995,-0.10160323,0.041426226,-0.3570039,-0.12043072,-0.05205429,-0.33448002,-0.024410823,-0.06290156,-0.03504447,0.07643255,0.011716672,-0.061304726,-0.072690316,-0.070081815,-0.022418499,0.028090307,-0.04979107,0.03495666,-0.023306975,-2.0,0.7470406,-2.0,2.0,2.0,-2.0,2.0,-2.0,-2.0,-2.0,-2.0,-2.0,-2.0,1.0383376,-2.0,2.0,2.0,-2.0,2.0,-2.0,-2.0,-2.0,-2.0,-2.0
2025-06-09 09:20:56.265,0.04036872,0.02922939,-0.04751909,-0.014612395,0.038468238,0.04022168,0.0,0.0,0.0,0.003778675,-0.06308741,0.059446298,-0.12470522,0.054722443,0.36309338,-0.102929495,0.027494816,-0.36884826,-0.12760492,-0.046889883,-0.3486775,-0.023897275,0.009427113,-0.005920639,0.061937556,0.05491604,-0.055553373,-0.033200853,0.071602754,-0.07339314,-0.025252884,0.024675515,0.07150552,0.0037098574,-2.0,1.0383376,-2.0,2.0,2.0,-2.0,2.0,-2.0,-2.0,-2.0,-2.0,-2.0,-2.0,1.1792909,-2.0,2.0,2.0,-2.0,2.0,-2.0,-2.0,-2.0,-2.0,-2.0
2025-06-09 09:20:56.285,-0.033077076,-0.016437791,-0.01698848,0.0577947,0.0043772995,-0.003481146,0.0,0.0,0.0,0.0037975356,-0.060562897,0.07376113,-0.110563286,0.071650065,0.35383183,-0.10900472,0.04719051,-0.36122632,-0.12576379,-0.044785462,-0.34133288,-0.023287848,0.07222432,0.061710656,0.06961097,-0.03557206,0.06292868,-0.003094883,0.0057651196,0.025369901,0.045634687,-0.033676513,-0.012175448,0.022355542,-2.0,1.1792909,-2.0,2.0,2.0,-2.0,2.0,-2.0,-2.0,-2.0,-2.0,-2.0,-2.0,0.94342685,-2.0,2.0,2.0,-2.0,2.0,-2.0,-2.0,-2.0,-2.0,-2.0
2025-06-09 09:20:56.305,-0.019654674,0.0114345,-0.015490094,0.046783052,0.07510739,-0.002681344,0.0,0.0,0.0,0.0037047237,-0.072101906,0.07469027,-0.10898799,0.05899099,0.36520797,-0.1161356,0.04659252,-0.36360842,-0.11478802,-0.042413734,-0.34069663,-0.015837105,0.06076338,0.013657601,-0.025629947,-0.04976235,-0.005669277,0.021738108,0.048341863,-0.053321432,-0.051457714,-0.059518684,0.003668601,-0.027845914,-2.0,0.94342685,-2.0,2.0,2.0,-2.0,2.0,-2.0,-2.0,-2.0,-2.0,-2.0,-2.0,0.9940684,-2.0,2.0,2.0,-2.0,2.0,-2.0,-2.0,-2.0,-2.0,-2.0
2025-06-09 09:20:56.325,-0.037710186,-0.04628571,0.023752356,0.072736606,0.0067179617,-0.025210455,0.0,0.0,0.0,0.0035970362,-0.068194,0.07496278,-0.11864795,0.05980084,0.34889752,-0.106524624,0.03856355,-0.35034153,-0.121707335,-0.041394655,-0.33497563,-0.02564543,0.041006655,-0.05603888,-0.031566463,0.01590865,-0.019935623,0.01435161,0.018810675,0.0054588793,-0.027943147,0.071261466,-0.03010792,-0.034921166,-2.0,0.9940684,-2.0,2.0,2.0,-2.0,2.0,-2.0,-2.0,-2.0,-2.0,-2.0,-2.0,0.8783298,-2.0,2.0,2.0,-2.0,2.0,-2.0,-2.0,-2.0,-2.0,-2.0
2025-06-09 09:20:56.348,-0.019806582,0.035039075,0.033239666,0.05443636,0.07387067,0.01333112,0.0,0.0,0.0,0.0035148247,-0.07408936,0.06287522,-0.12371958,0.068739384,0.346314,-0.11003922,0.04365035,-0.36234674,-0.1312814,-0.052405577,-0.3526112,-0.024774719,0.040781442,-0.055215515,-0.012573692,-0.008844255,0.071566135,-0.035503387,-0.056618415,-0.07314088,0.06497468,-0.052871775,-0.019365761,-0.03812651,-2.0,0.8783298,-2.0,2.0,2.0,-2.0,2.0,-2.0,-2.0,-2.0,-2.0,-2.0,-2.0,0.77218276,-2.0,2.0,2.0,-2.0,2.0,-2.0,-2.0,-2.0,-2.0,-2.0
2025-06-09 09:20:56.365,-0.048503105,0.04794536,0.02670603,0.013867676,-0.0007461346,0.038294606,0.0,0.0,0.0,0.00348476,-0.07545147,0.062586606,-0.11283239,0.060528386,0.3492402,-0.122543134,0.032644883,-0.3557172,-0.119609825,-0.049665704,-0.3372901,-0.011944034,-0.02187556,8.4883206e-05,0.027670812,0.07177295,-0.0046004807,-0.03845804,0.025290778,-0.07280173,0.032044385,0.027955096,0.0055070175,-0.07031814,-2.0,0.77218276,-2.0,2.0,2.0,-2.0,2.0,-2.0,-2.0,-2.0,-2.0,-2.0,-2.0,0.8421058,-2.0,2.0,2.0,-2.0,2.0,-2.0,-2.0,-2.0,-2.0,-2.0
2025-06-09 09:20:56.386,-0.009548467,-0.012919435,-0.0042730593,0.008762209,0.070926525,-0.014530424,0.0,0.0,0.0,0.0035399108,-0.066247955,0.05567746,-0.12291147,0.06066307,0.35088885,-0.1058334,0.03307104,-0.35746726,-0.118972525,-0.045745946,-0.34961265,-0.027812477,-0.038239665,0.021442512,0.009351879,-0.024994304,-0.026131907,-0.05205666,0.060640566,-0.026773168,0.042703226,0.0684397,-0.042089663,0.020876389,-2.0,0.8421058,-2.0,2.0,2.0,-2.0,2.0,-2.0,-2.0,-2.0,-2.0,-2.0,-2.0,0.9915496,-2.0,2.0,2.0,-2.0,2.0,-2.0,-2.0,-2.0,-2.0,-2.0
2025-06-09 09:20:56.405,0.024215646,0.009574931,0.016668651,0.044723205,0.042985022,0.018200992,0.0,0.0,0.0,0.0036377115,-0.07502854,0.056994304,-0.12009876,0.055826567,0.35518733,-0.110078275,0.032428075,-0.35794327,-0.117198125,-0.036800962,-0.34518287,-0.01698819,-0.02108567,-0.06675629,-0.030052418,-0.066062145,-0.041756824,-0.028619047,-0.040364303,0.071231075,-0.047306035,-0.049711946,0.071030416,-0.045732666,-2.0,0.9915496,-2.0,2.0,2.0,-2.0,2.0,-2.0,-2.0,-2.0,-2.0,-2.0,-2.0,0.87318885,-2.0,2.0,2.0,-2.0,2.0,-2.0,-2.0,-2.0,-2.0,-2.0
2025-06-09 09:20:56.425,0.0032983515,-0.0414107,-0.031242725,0.0070739146,-0.0063631926,0.029207442,0.0,0.0,0.0,0.0036946165,-0.058876883,0.07059833,-0.1185717,0.070229456,0.35971195,-0.12074685,0.039880898,-0.35422766,-0.11928943,-0.036177907,-0.33661377,-0.017900227,-0.004724204,0.063820966,0.020792818,-0.054716732,-0.064784266,0.021500483,0.03460544,-0.036457606,0.0540813,0.042901494,-0.0004942646,-0.03620628,-2.0,0.87318885,-2.0,2.0,2.0,-2.0,2.0,-2.0,-2.0,-2.0,-2.0,-2.0,-2.0,1.0339047,-2.0,2.0,2.0,-2.0,2.0,-2.0,-2.0,-2.0,-2.0,-2.0
2025-06-09 09:20:56.448,0.013801528,0.026032833,0.051659256,0.0036079255,0.009673823,-0.044742763,0.0,0.0,0.0,0.003727501,-0.0642541,0.05858543,-0.1085552,0.06112222,0.3462866,-0.111926705,0.039458066,-0.3630031,-0.12509793,-0.048989918,-0.33872488,-0.02470978,-0.05430367,-0.07186082,0.009261066,0.053477354,0.047865268,-0.014611102,0.041956745,-0.0070864586,-0.030367872,0.03163687,-0.035055406,-0.04261196,-2.0,1.0339047,-2.0,2.0,2.0,-2.0,2.0,-2.0,-2.0,-2.0,-2.0,-2.0,-2.0,0.7743029,-2.0,2.0,2.0,-2.0,2.0,-2.0,-2.0,-2.0,-2.0,-2.0
2025-06-09 09:20:56.466,-0.039401133,0.00061775034,-0.014735499,0.025485508,0.0790222,0.0018746594,0.0,0.0,0.0,0.0037117223,-0.058772214,0.051016565,-0.12245676,0.07313076,0.34155267,-0.111818016,0.036933534,-0.35391706,-0.13065097,-0.037374742,-0.34550336,-0.018034782,-0.01811358,-0.055853058,0.050566357,0.06838031,-0.00028186367,0.00037278334,0.04766562,-0.0033143463,-0.025612311,-0.021311285,0.021372028,-0.043851648,-2.0,0.7743029,-2.0,2.0,2.0,-2.0,2.0,-2.0,-2.0,-2.0,-2.0,-2.0,-2.0,1.071443,-2.0,2.0,2.0,-2.0,2.0,-2.0,-2.0,-2.0,-2.0,-2.0
2025-06-09 09:20:56.486,0.0033303048,-0.015873577,-0.0118088955,-0.0034222899,0.061938293,0.024283536,0.0,0.0,0.0,0.0037163456,-0.05903806,0.06988775,-0.12256287,0.05738668,0.35581762,-0.10544721,0.0291619,-0.37194303,-0.118506245,-0.04066505,-0.33417946,-0.016083686,-0.019292941,0.002284259,-0.039245084,0.0057128863,0.067226775,0.0028055636,0.0073501524,-0.036337763,0.027734349,-0.0021701416,0.05027085,-0.07305641,-2.0,1.071443,-2.0,2.0,2.0,-2.0,2.0,-2.0,-2.0,-2.0,-2.0,-2.0,-2.0,1.0104278,-2.0,2.0,2.0,-2.0,2.0,-2.0,-2.0,-2.0,-2.0,-2.0
2025-06-09 09:20:56.505,-0.030117905,-0.039461397,-0.042587347,0.020882932,0.0077194823,-0.0054454687,0.0,0.0,0.0,0.0036875065,-0.07574372,0.053358927,-0.11996504,0.064557396,0.34912935,-0.11255819,0.039824087,-0.36434525,-0.12353885,-0.037035096,-0.3528874,-0.023416307,-0.055937376,0.046765056,0.061664872,-0.05112005,-0.062303115,-0.025111519,-0.026204009,-0.0592597,-0.06968759,0.03231698,-0.071646735,0.06975316,-2.0,1.0104278,-2.0,2.0,2.0,-2.0,2.0,-2.0,-2.0,-2.0,-2.0,-2.0,-2.0,1.2170752,-2.0,2.0,2.0,-2.0,2.0,-2.0,-2.0,-2.0,-2.0,-2.0
2025-06-09 09:20:56.526,0.04746378,-0.060297914,0.05213302,-0.005961411,0.06718975,-0.042819098,0.0,0.0,0.0,0.0036122492,-0.06558534,0.06947218,-0.12313617,0.07602544,0.35552305,-0.10354345,0.03536315,-0.36289337,-0.12968689,-0.042942543,-0.33740905,-0.034442123,0.030748349,-0.030569758,-0.021503678,-0.0031706328,0.023215903,-0.003259508,-0.071908295,-0.0032568977,-0.009278405,-0.0009032819,0.0002977853,0.06492967,-2.0,1.2170752,-2.0,2.0,2.0,-2.0,2.0,-2.0,-2.0,-2.0,-2.0,-2.0,-2.0,0.7433865,-2.0,2.0,2.0,-2.0,2.0,-2.0,-2.0,-2.0,-2.0,-2.0
2025-06-09 09:20:56.548,-0.030839276,-0.035044085,0.014097015,0.03465278,-0.011656934,-0.041061215,0.0,0.0,0.0,0.003466817,-0.062455125,0.06537799,-0.124092445,0.059879877,0.343279,-0.10689293,0.029661851,-0.3633708,-0.11908535,-0.035044987,-0.3463421,-0.024207978,-0.0508017,0.036335573,-0.032432277,0.06366792,0.06350554,0.060423408,-0.05644411,-0.06260142,-0.0072547896,0.024751348,0.009322876,0.0015711783,-2.0,0.7433865,-2.0,2.0,2.0,-2.0,2.0,-2.0,-2.0,-2.0,-2.0,-2.0,-2.0,0.85591465,-2.0,2.0,2.0,-2.0,2.0,-2.0,-2.0,-2.0,-2.0,-2.0
2025-06-09 09:20:56.566,-0.00452951,-0.0025281408,0.009261958,0.08031875,0.0536266,0.012605638,0.0,0.0,0.0,0.0034014382,-0.06705161,0.057286203,-0.12553807,0.06586577,0.35113788,-0.10982313,0.028420504,-0.3540382,-0.12624215,-0.037435237,-0.35004893,-0.029660668,-0.0059566437,-0.025136216,0.011186877,-0.051556006,-0.05332889,0.007943989,0.010765719,0.011899497,0.047027517,-0.026413852,0.014814194,0.059387907,-2.0,0.85591465,-2.0,2.0,2.0,-2.0,2.0,-2.0,-2.0,-2.0,-2.0,-2.0,-2.0,0.80019027,-2.0,2.0,2.0,-2.0,2.0,-2.0,-2.0,-2.0,-2.0,-2.0
2025-06-09 09:20:56.586,0.0011052089,0.039265003,-0.004591081,0.06298057,0.07608021,-0.04485171,0.0,0.0,0.0,0.0034384495,-0.072935626,0.07098535,-0.10797506,0.06721324,0.3586545,-0.12161387,0.03959692,-0.35840172,-0.1236529,-0.047268502,-0.3468005,-0.017748512,-0.022437967,0.072227545,0.039832536,0.060974386,0.0073407805,0.0024948402,0.012428188,-0.026440112,-0.03205395,0.018890625,-0.06625935,0.007091798,-2.0,0.80019027,-2.0,2.0,2.0,-2.0,2.0,-2.0,-2.0,-2.0,-2.0,-2.0,-2.0,0.9331169,-2.0,2.0,2.0,-2.0,2.0,-2.0,-2.0,-2.0,-2.0,-2.0
2025-06-09 09:20:56.606,0.05020391,0.0063067973,-0.020826997,0.011373555,0.028506566,-0.012600395,0.0,0.0,0.0,0.0035363336,-0.06570216,0.057619296,-0.107994385,0.07282107,0.34689143,-0.1041777,0.038521186,-0.35278702,-0.12909225,-0.034224845,-0.33740878,-0.025306758,-0.06939316,0.04072425,0.0052441047,-0.05901753,0.06036252,-0.07323331,0.02367528,-0.0231574,0.060211744,-0.007829613,-0.025256125,-0.0452391,-2.0,0.9331169,-2.0,2.0,2.0,-2.0,2.0,-2.0,-2.0,-2.0,-2.0,-2.0,-2.0,1.0467029,-2.0,2.0,2.0,-2.0,2.0,-2.0,-2.0,-2.0,-2.0,-2.0
2025-06-09 09:20:56.626,-0.036088202,0.033417813,0.03483223,0.05970503,0.043540757,-0.008955585,0.0,0.0,0.0,0.0036310027,-0.07046886,0.068025015,-0.12031505,0.062082022,0.3468493,-0.11608267,0.03534846,-0.36166427,-0.12900941,-0.03962601,-0.33839864,-0.015410446,0.01634465,0.06786542,-0.019058961,0.057470962,0.05448325,-0.058595788,-0.0013709319,-0.044669475,-0.035220087,0.060131546,-0.06459581,-0.038294584,-2.0,1.0467029,-2.0,2.0,2.0,-2.0,2.0,-2.0,-2.0,-2.0,-2.0,-2.0,-2.0,0.86730343,-2.0,2.0,2.0,-2.0,2.0,-2.0,-2.0,-2.0,-2.0,-2.0
2025-06-09 09:20:56.648,0.023957705,-0.026636068,0.009580176,0.00472455,0.03684284,-0.04518079,0.0,0.0,0.0,0.003658168,-0.07539089,0.0701031,-0.117235936,0.06391185,0.3437329,-0.12140853,0.043160807,-0.366934,-0.13310185,-0.033975422,-0.33399048,-0.03180645,-0.07125327,-0.048361592,0.071798205,-0.053750377,0.034932174,-0.04744352,-0.016315335,0.033199176,0.06282892,0.014218664,0.0060324953,0.055036914,-2.0,0.86730343,-2.0,2.0,2.0,-2.0,2.0,-2.0,-2.0,-2.0,-2.0,-2.0,-2.0,0.8621445,-2.0,2.0,2.0,-2.0,2.0,-2.0,-2.0,-2.0,-2.0,-2.0
2025-06-09 09:20:56.666,0.02434309,0.044945847,0.006911671,0.039491743,0.05132168,0.016498214,0.0,0.0,0.0,0.0036731132,-0.06978538,0.05531766,-0.11199535,0.05627052,0.35430086,-0.12222338,0.04252839,-0.3642062,-0.12362755,-0.052024115,-0.33655915,-0.016872238,-0.060968243,0.028545251,0.01733645,-0.028865328,0.053159267,0.06408624,0.047355793,-0.075004995,0.05527043,-0.06947034,-0.0019557974,0.018132247,-2.0,0.8621445,-2.0,2.0,2.0,-2.0,2.0,-2.0,-2.0,-2.0,-2.0,-2.0,-2.0,0.7778907,-2.0,2.0,2.0,-2.0,2.0,-2.0,-2.0,-2.0,-2.0,-2.0
2025-06-09 09:20:56.686,-0.03484821,0.020524358,-0.0030882903,0.079222955,0.05682968,-0.03809591,0.0,0.0,0.0,0.0037084795,-0.06625612,0.056741063,-0.122406445,0.05643953,0.34494326,-0.10294626,0.045344144,-0.3681405,-0.121926896,-0.0446391,-0.3433431,-0.020172415,-0.054534636,-0.031633012,0.06339035,-0.026509134,-0.051817637,0.05337248,0.052523583,0.010732099,0.03298725,0.03173703,0.040969662,-0.036151346,-2.0,0.7778907,-2.0,2.0,2.0,-2.0,2.0,-2.0,-2.0,-2.0,-2.0,-2.0,-2.0,0.82002276,-2.0,2.0,2.0,-2.0,2.0,-2.0,-2.0,-2.0,-2.0,-2.0
2025-06-09 09:20:56.706,0.027381795,0.052156955,-0.01634716,0.046907708,0.023237653,0.017639913,0.0,0.0,0.0,0.0037781862,-0.06394971,0.050666712,-0.120515,0.061157353,0.3535748,-0.1089452,0.046831384,-0.3574419,-0.124193415,-0.037489377,-0.34893855,-0.02288751,-0.029694235,0.024818027,-0.044155117,-0.05535697,0.016542558,0.06370598,-0.012414802,-0.047367007,0.0215483,-0.071075976,0.047117613,0.016617857,-2.0,0.82002276,-2.0,2.0,2.0,-2.0,2.0,-2.0,-2.0,-2.0,-2.0,-2.0,-2.0,0.8824355,-2.0,2.0,2.0,-2.0,2.0,-2.0,-2.0,-2.0,-2.0,-2.0
2025-06-09 09:20:56.727,-0.045549635,0.002917375,0.027034195,0.013000788,0.038610704,-0.031353883,0.0,0.0,0.0,0.003861594,-0.0669454,0.050714616,-0.10640233,0.057467543,0.34899533,-0.1168253,0.036146067,-0.36829257,-0.115101516,-0.041854538,-0.34574047,-0.016868867,-0.0045524994,-0.0149946455,0.06519736,-0.014523414,-0.034368686,-0.060151007,-0.04555331,0.044046413,-0.04349925,-0.021991527,0.01931411,-0.065091,-2.0,0.8824355,-2.0,2.0,2.0,-2.0,2.0,-2.0,-2.0,-2.0,-2.0,-2.0,-2.0,0.877252,-2.0,2.0,2.0,-2.0,2.0,-2.0,-2.0,-2.0,-2.0,-2.0
2025-06-09 09:20:56.748,-0.023279121,0.037331484,-0.029477173,0.0048309388,0.060988747,0.02528338,0.0,0.0,0.0,0.00391771,-0.063185215,0.058710292,-0.11236859,0.0737937,0.35160935,-0.11717899,0.030185353,-0.3574684,-0.12656641,-0.04832101,-0.35210973,-0.021525323,-0.0520075,-0.03703707,-0.057807025,0.035572372,0.044221465,0.048761044,-0.008831882,0.040747456,-0.04083259,-0.06644526,-0.006324578,0.04976208,-2.0,0.877252,-2.0,2.0,2.0,-2.0,2.0,-2.0,-2.0,-2.0,-2.0,-2.0,-2.0,1.1455007,-2.0,2.0,2.0,-2.0,2.0,-2.0,-2.0,-2.0,-2.0,-2.0
2025-06-09 09:20:56.767,-0.026030367,-0.014905091,-0.04033131,0.061428882,0.071247004,-0.048508324,0.0,0.0,0.0,0.0039397697,-0.07468659,0.06816324,-0.113218576,0.07237652,0.3500141,-0.1058936,0.042537343,-0.35485157,-0.1263633,-0.03429519,-0.3396018,-0.018797316,-0.03689627,0.02561382,-0.018730182,0.016980665,-0.05661379,0.042846367,0.00034858455,-0.041681714,0.029492475,-0.05625634,-0.06872849,-0.040255357,-2.0,1.1455007,-2.0,2.0,2.0,-2.0,2.0,-2.0,-2.0,-2.0,-2.0,-2.0,-2.0,0.99491984,-2.0,2.0,2.0,-2.0,2.0,-2.0,-2.0,-2.0,-2.0,-2.0
2025-06-09 09:20:56.786,0.006445407,-0.032018453,-0.008269559,0.021872556,-0.0104738455,0.029432757,0.0,0.0,0.0,0.003859599,-0.06908632,0.071273856,-0.11308592,0.07216582,0.34438705,-0.11678337,0.03524131,-0.36439553,-0.13048863,-0.036033206,-0.34249008,-0.02711631,-0.022899156,-0.07097756,0.06245177,0.018566817,-0.0070494795,-0.06723584,0.06272659,0.07348483,0.0012208457,-0.045334347,-0.06676134,-0.07052826,-2.0,0.99491984,-2.0,2.0,2.0,-2.0,2.0,-2.0,-2.0,-2.0,-2.0,-2.0,-2.0,1.0265251,-2.0,2.0,2.0,-2.0,2.0,-2.0,-2.0,-2.0,-2.0,-2.0
2025-06-09 09:20:56.807,-0.037329342,0.0013753327,0.025354298,0.001229823,-0.0088039925,0.03649797,0.0,0.0,0.0,0.0037255003,-0.06694448,0.057991274,-0.108218536,0.07493261,0.34688428,-0.10334354,0.029942416,-0.36992002,-0.13095006,-0.034387093,-0.3438609,-0.024213498,0.014960129,-0.009412211,-0.026940186,0.07318664,0.0096636815,0.05808354,0.02686946,0.042406235,-0.06170396,0.009712293,0.0037034035,-0.061207075,-2.0,1.0265251,-2.0,2.0,2.0,-2.0,2.0,-2.0,-2.0,-2.0,-2.0,-2.0,-2.0,0.8783654,-2.0,2.0,2.0,-2.0,2.0,-2.0,-2.0,-2.0,-2.0,-2.0
2025-06-09 09:20:56.827,0.006837745,-0.01212282,0.02245799,0.04500384,-0.011359899,-0.006389055,0.0,0.0,0.0,0.003588737,-0.06559682,0.06284035,-0.1189826,0.061022192,0.3497845,-0.11207401,0.034534555,-0.37035468,-0.1325746,-0.04055547,-0.34388795,-0.030824985,0.035674017,0.026504058,-0.071988665,0.053245097,0.005860691,-0.027954891,0.03492764,0.015493889,-0.026959177,0.055000495,0.033404317,-0.040886633,-2.0,0.8783654,-2.0,2.0,2.0,-2.0,2.0,-2.0,-2.0,-2.0,-2.0,-2.0,-2.0,0.85676044,-2.0,2.0,2.0,-2.0,2.0,-2.0,-2.0,-2.0,-2.0,-2.0
2025-06-09 09:20:56.848,0.04212887,-0.04409869,0.042164665,0.040099025,0.02237855,0.013824623,0.0,0.0,0.0,0.0035070737,-0.06432523,0.06479031,-0.12544172,0.058884,0.352809,-0.11441914,0.039390843,-0.3602627,-0.13364013,-0.03416235,-0.34400585,-0.014102077,-0.0043267175,-0.027467238,0.05625463,-0.04386534,0.0029641243,0.067445956,0.024750875,0.01937623,0.020369882,0.053922314,0.06286256,-0.025630206,-2.0,0.85676044,-2.0,2.0,2.0,-2.0,2.0,-2.0,-2.0,-2.0,-2.0,-2.0,-2.0,0.68838185,-2.0,2.0,2.0,-2.0,2.0,-2.0,-2.0,-2.0,-2.0,-2.0
2025-06-09 09:20:56.867,0.02371068,0.054058753,-0.051633585,0.0016237134,0.04446293,0.0052889283,0.0,0.0,0.0,0.0035015289,-0.064202994,0.06252508,-0.10699464,0.059609264,0.36053905,-0.1127666,0.031436022,-0.36629173,-0.12367426,-0.033445664,-0.3415789,-0.021127025,-0.07068777,-0.00038860037,0.065032974,0.05900373,-0.043097544,-0.049072452,-0.030157376,0.023827715,-0.030583981,0.030348316,0.037748307,-0.05652036,-2.0,0.68838185,-2.0,2.0,2.0,-2.0,2.0,-2.0,-2.0,-2.0,-2.0,-2.0,-2.0,1.190602,-2.0,2.0,2.0,-2.0,2.0,-2.0,-2.0,-2.0,-2.0,-2.0
2025-06-09 09:20:56.887,0.037654012,-0.039200258,0.042637385,0.03800082,-0.0048759514,0.03176446,0.0,0.0,0.0,0.0035983073,-0.06456057,0.069861464,-0.10650305,0.06679261,0.34575728,-0.118800044,0.036608446,-0.35648474,-0.12078222,-0.049016904,-0.33690992,-0.029303206,-0.065831326,0.0047403206,-0.035033587,0.017339148,0.0673301,0.05166487,-0.001082404,-0.03501022,-0.06386075,0.07072761,0.07645353,0.002553583,-2.0,1.190602,-2.0,2.0,2.0,-2.0,2.0,-2.0,-2.0,-2.0,-2.0,-2.0,-2.0,0.83644897,-2.0,2.0,2.0,-2.0,2.0,-2.0,-2.0,-2.0,-2.0,-2.0
2025-06-09 09:20:56.907,0.044723228,-0.019082086,-0.048910536,0.028154893,0.060400147,0.02454144,0.0,0.0,0.0,0.0036292474,-0.064476654,0.066882454,-0.11641629,0.067899376,0.35890225,-0.10743107,0.034080546,-0.3635185,-0.1190096,-0.052258343,-0.34235522,-0.020303523,-0.06479416,-0.020160854,0.010406521,-0.02641073,-0.04052369,0.017571663,0.031591687,-0.04878863,0.072913736,-0.060369536,0.0019897402,-0.013102321,-2.0,0.83644897,-2.0,2.0,2.0,-2.0,2.0,-2.0,-2.0,-2.0,-2.0,-2.0,-2.0,1.0490015,-2.0,2.0,2.0,-2.0,2.0,-2.0,-2.0,-2.0,-2.0,-2.0
2025-06-09 09:20:56.930,0.00020960416,0.0065669524,0.0060739787,0.073341936,-0.004620009,0.03688411,0.0,0.0,0.0,0.003638272,-0.06717352,0.06583112,-0.11534636,0.062468324,0.34959367,-0.12099862,0.031632524,-0.36228192,-0.13343976,-0.036126282,-0.3398397,-0.020450588,0.057201225,-0.037425857,0.015716223,0.035230353,-0.019262621,-0.07172081,-0.005969555,0.06724049,-0.0063453205,-0.034724597,-5.56942e-05,0.02051663,-2.0,1.0490015,-2.0,2.0,2.0,-2.0,2.0,-2.0,-2.0,-2.0,-2.0,-2.0,-2.0,0.9250764,-2.0,2.0,2.0,-2.0,2.0,-2.0,-2.0,-2.0,-2.0,-2.0
2025-06-09 09:20:56.948,-0.04977875,-0.00012817855,0.026156327,0.028384583,0.07808666,-0.013238743,0.0,0.0,0.0,0.0036257997,-0.06276238,0.06506186,-0.11952602,0.06521926,0.3443538,-0.1125479,0.034687124,-0.35195926,-0.13227336,-0.039354082,-0.33576554,-0.022066139,0.034714542,-0.05522648,-0.003482127,-0.037388336,-0.013287346,0.03608409,0.020087786,-0.025101503,-0.023796389,0.026061093,-0.0058140084,0.019392274,-2.0,0.9250764,-2.0,2.0,2.0,-2.0,2.0,-2.0,-2.0,-2.0,-2.0,-2.0,-2.0,0.88960165,-2.0,2.0,2.0,-2.0,2.0,-2.0,-2.0,-2.0,-2.0,-2.0
2025-06-09 09:20:56.967,0.020442635,0.008691256,0.020283954,0.005674061,0.06638415,0.03315141,0.0,0.0,0.0,0.0036051183,-0.060862493,0.06907088,-0.11202962,0.062239535,0.35196438,-0.105333716,0.0275415,-0.3535501,-0.1161684,-0.039816327,-0.33609644,-0.01672484,0.032497775,-0.014848851,-0.021792823,0.04079372,-0.05774959,0.064946,0.068198636,0.029819937,0.033203963,0.0219458,0.04606432,0.061241858,-2.0,0.88960165,-2.0,2.0,2.0,-2.0,2.0,-2.0,-2.0,-2.0,-2.0,-2.0,-2.0,0.7800213,-2.0,2.0,2.0,-2.0,2.0,-2.0,-2.0,-2.0,-2.0,-2.0
2025-06-09 09:20:56.987,-0.04701089,-0.040881492,0.020562403,0.053821865,-0.0052262456,0.048425518,0.0,0.0,0.0,0.0036118552,-0.06846786,0.0690704,-0.113386944,0.05853881,0.35189924,-0.12004193,0.029452166,-0.35379475,-0.11528814,-0.039057855,-0.34579423,-0.018710285,0.021897608,0.018015958,0.03888169,0.056450862,-0.004740877,-0.023445323,0.027523767,0.039326087,-0.037393805,0.049986225,0.023007967,0.045436367,-2.0,0.7800213,-2.0,2.0,2.0,-2.0,2.0,-2.0,-2.0,-2.0,-2.0,-2.0,-2.0,0.9115504,-2.0,2.0,2.0,-2.0,2.0,-2.0,-2.0,-2.0,-2.0,-2.0
2025-06-09 09:20:57.007,-0.02310786,0.029452382,0.03003061,-0.0053694975,-0.01451507,-0.047813963,0.0,0.0,0.0,0.0036731618,-0.07637729,0.059749763,-0.12477698,0.07162931,0.35229677,-0.11154336,0.028907064,-0.36328936,-0.12086855,-0.042963665,-0.34979331,-0.012890802,0.020250209,-0.029851502,0.04029541,-0.0628339,-0.030220816,-0.016229989,0.0026441163,0.00931972,0.024323009,0.07111025,0.053159185,0.0054466245,-2.0,0.9115504,-2.0,2.0,2.0,-2.0,2.0,-2.0,-2.0,-2.0,-2.0,-2.0,-2.0,0.8444846,-2.0,2.0,2.0,-2.0,2.0,-2.0,-2.0,-2.0,-2.0,-2.0
2025-06-09 09:20:57.031,-0.040138736,0.013301082,-0.035644878,-0.0014591505,0.031087052,-0.011798754,0.0,0.0,0.0,0.0037404513,-0.070181504,0.06977076,-0.12395192,0.058950916,0.35065144,-0.103538886,0.04683223,-0.35864154,-0.122954726,-0.041978776,-0.33460692,-0.019105384,-0.073894,-0.05241026,0.0624887,-0.03971373,-0.06046644,0.049421884,0.05234857,0.042327687,0.053617883,0.011545825,-0.027980909,-0.07066195,-2.0,0.8444846,-2.0,2.0,2.0,-2.0,2.0,-2.0,-2.0,-2.0,-2.0,-2.0,-2.0,1.0054135,-2.0,2.0,2.0,-2.0,2.0,-2.0,-2.0,-2.0,-2.0,-2.0
2025-06-09 09:20:57.048,-0.041635737,-0.022263205,0.003940189,0.050168857,0.041811783,0.017145883,0.0,0.0,0.0,0.003801295,-0.058415357,0.07180963,-0.10916361,0.060891047,0.3562208,-0.11566806,0.039403472,-0.36360148,-0.12146233,-0.04268589,-0.34534043,-0.014033159,-0.05549507,0.012854862,0.0011642032,-0.06002882,0.0022834055,0.057349253,-0.031488895,0.013907746,0.07089363,-0.0022074408,-0.03860685,-0.03655078,-2.0,1.0054135,-2.0,2.0,2.0,-2.0,2.0,-2.0,-2.0,-2.0,-2.0,-2.0,-2.0,0.840395,-2.0,2.0,2.0,-2.0,2.0,-2.0,-2.0,-2.0,-2.0,-2.0
2025-06-09 09:20:57.068,0.019382168,0.030685972,0.018973209,0.026118135,-0.016001683,0.024714073,0.0,0.0,0.0,0.0038131517,-0.064014986,0.056641847,-0.11910803,0.07401529,0.3421202,-0.10374912,0.03994895,-0.37142175,-0.1156092,-0.042896528,-0.3409402,-0.022081545,0.0089561045,0.0065376754,0.018841946,0.022509864,-0.027163157,0.024712473,0.032716617,0.044609662,0.060073365,-0.014259532,-0.05044378,0.029005695,-2.0,0.840395,-2.0,2.0,2.0,-2.0,2.0,-2.0,-2.0,-2.0,-2.0,-2.0,-2.0,0.75112355,-2.0,2.0,2.0,-2.0,2.0,-2.0,-2.0,-2.0,-2.0,-2.0
2025-06-09 09:20:57.087,0.027217068,0.032805774,-0.00071858556,0.03774891,0.017490257,-0.0461931,0.0,0.0,0.0,0.003814141,-0.06453055,0.053270612,-0.10410085,0.07153318,0.34877285,-0.11212956,0.046928458,-0.35439962,-0.13273042,-0.046495147,-0.34315255,-0.026395889,-0.067200795,0.029734727,0.07036776,0.0073448042,-0.041316707,0.0494996,-0.013775616,0.0636095,-0.067985244,0.04665146,-0.024696203,0.0733228,-2.0,0.75112355,-2.0,2.0,2.0,-2.0,2.0,-2.0,-2.0,-2.0,-2.0,-2.0,-2.0,0.92605484,-2.0,2.0,2.0,-2.0,2.0,-2.0,-2.0,-2.0,-2.0,-2.0
2025-06-09 09:20:57.108,0.00990942,0.030991938,0.034241535,0.017625893,0.078280844,-0.009712859,0.0,0.0,0.0,0.0038588091,-0.067401335,0.05664345,-0.118697956,0.06288147,0.34695303,-0.11774011,0.04528161,-0.36503604,-0.118989065,-0.051188365,-0.35104835,-0.026406927,0.0545523,-0.059314948,-0.0232625,-0.05685846,0.035985246,-0.023501368,0.039773732,0.05934343,-0.03304201,-0.060752448,0.045954775,0.055679146,-2.0,0.92605484,-2.0,2.0,2.0,-2.0,2.0,-2.0,-2.0,-2.0,-2.0,-2.0,-2.0,0.83368224,-2.0,2.0,2.0,-2.0,2.0,-2.0,-2.0,-2.0,-2.0,-2.0
2025-06-09 09:20:57.131,0.032298245,0.0021174608,0.016966483,0.061506495,0.04233515,0.025410712,0.0,0.0,0.0,0.0038883048,-0.077838786,0.059607748,-0.11228639,0.073809385,0.35806176,-0.11078261,0.035737652,-0.36283755,-0.1328671,-0.037030376,-0.34460077,-0.021634206,0.004789841,0.013178143,-0.06313629,-0.044430446,-0.025822803,0.042313214,-0.040657412,0.011429815,0.051023282,-0.023930443,0.047290005,0.026193662,-2.0,0.83368224,-2.0,2.0,2.0,-2.0,2.0,-2.0,-2.0,-2.0,-2.0,-2.0,-2.0,0.7406288,-2.0,2.0,2.0,-2.0,2.0,-2.0,-2.0,-2.0,-2.0,-2.0
2025-06-09 09:20:57.148,0.036904562,-0.0045287395,0.008566806,-0.01578633,0.0508324,0.030146772,0.0,0.0,0.0,0.003902308,-0.077500775,0.052823503,-0.121181875,0.06422625,0.3412567,-0.11117713,0.032323807,-0.37185547,-0.12893383,-0.04999781,-0.35352755,-0.016953757,-0.06682081,0.037603345,0.07645505,0.046937134,-0.06785007,-0.059076667,0.041766778,-0.06983231,0.05786984,0.035399966,-0.02162159,0.025606079,-2.0,0.7406288,-2.0,2.0,2.0,-2.0,2.0,-2.0,-2.0,-2.0,-2.0,-2.0,-2.0,0.86766815,-2.0,2.0,2.0,-2.0,2.0,-2.0,-2.0,-2.0,-2.0,-2.0
2025-06-09 09:20:57.168,-0.034491114,-0.017201727,-0.033320338,0.06132797,0.06345665,0.0029486008,0.0,0.0,0.0,0.003944174,-0.070387095,0.060203407,-0.10933656,0.054869182,0.33913413,-0.10338336,0.031064153,-0.37014478,-0.11873223,-0.048114516,-0.35028014,-0.02418957,-0.025507042,-0.0040126406,-0.014875399,-0.030439787,0.057416324,0.05476186,-0.007296554,0.0032097914,0.030850163,0.058611102,0.030407462,0.026038205,-2.0,0.86766815,-2.0,2.0,2.0,-2.0,2.0,-2.0,-2.0,-2.0,-2.0,-2.0,-2.0,1.0863205,-2.0,2.0,2.0,-2.0,2.0,-2.0,-2.0,-2.0,-2.0,-2.0
2025-06-09 09:20:57.189,-0.024036868,-0.0026176565,0.018105635,0.02910661,-0.011867451,-0.03508603,0.0,0.0,0.0,0.0039750254,-0.06924763,0.06481334,-0.1132583,0.07407467,0.35689995,-0.114279576,0.037923414,-0.36331815,-0.11852216,-0.032658525,-0.35187304,-0.019602437,-0.04702771,0.047755253,-0.028766314,-0.022993684,0.022829983,0.02618298,-0.026314862,0.022772804,0.042290594,-0.024303548,-0.029229019,0.012244441,-2.0,1.0863205,-2.0,2.0,2.0,-2.0,2.0,-2.0,-2.0,-2.0,-2.0,-2.0,-2.0,0.7822667,-2.0,2.0,2.0,-2.0,2.0,-2.0,-2.0,-2.0,-2.0,-2.0
2025-06-09 09:20:57.208,0.021660246,-0.042598747,0.012526547,0.017996436,0.031733423,0.01548723,0.0,0.0,0.0,0.0039105155,-0.07587217,0.054737784,-0.10636198,0.054905333,0.3505964,-0.1113018,0.0443,-0.37258244,-0.13436767,-0.046895966,-0.34901553,-0.034926552,-0.043083385,0.023540676,0.024342539,-0.051792447,0.019610062,-0.0548656,0.03154285,0.043864742,-0.004122571,0.07318424,-0.028520487,-0.056233663,-2.0,0.7822667,-2.0,2.0,2.0,-2.0,2.0,-2.0,-2.0,-2.0,-2.0,-2.0,-2.0,0.92107004,-2.0,2.0,2.0,-2.0,2.0,-2.0,-2.0,-2.0,-2.0,-2.0
2025-06-09 09:20:57.231,0.0337238,0.008578543,3.405848e-05,0.012394754,0.042169526,0.04577462,0.0,0.0,0.0,0.0038452328,-0.059260912,0.06631323,-0.1131602,0.057070848,0.3457351,-0.10815221,0.043163028,-0.36219674,-0.13619852,-0.042475764,-0.34193957,-0.027859982,-0.0040228595,0.075154856,0.053621568,-0.017468093,0.0412922,0.0020421995,-0.06170775,-0.070405714,-0.00935651,0.07303343,-0.04213162,-0.053181313,-2.0,0.92107004,-2.0,2.0,2.0,-2.0,2.0,-2.0,-2.0,-2.0,-2.0,-2.0,-2.0,0.99309325,-2.0,2.0,2.0,-2.0,2.0,-2.0,-2.0,-2.0,-2.0,-2.0
2025-06-09 09:20:57.248,0.020565039,-0.008421519,0.04785277,-0.005796355,0.060408235,-0.027125994,0.0,0.0,0.0,0.0037946454,-0.07267426,0.05572062,-0.122820795,0.06566632,0.35190573,-0.11314201,0.041551653,-0.35817683,-0.1370658,-0.05062526,-0.34218246,-0.036014535,0.0731139,0.07605723,0.021977846,0.058532067,0.02030512,0.0054093446,-0.04027498,-0.00172506,-0.048587468,0.061711118,-0.03246302,-0.036029156,-2.0,0.99309325,-2.0,2.0,2.0,-2.0,2.0,-2.0,-2.0,-2.0,-2.0,-2.0,-2.0,0.7632821,-2.0,2.0,2.0,-2.0,2.0,-2.0,-2.0,-2.0,-2.0,-2.0
2025-06-09 09:20:57.268,0.0050693434,0.026474243,-0.019586157,0.059458435,0.053373903,0.030967528,0.0,0.0,0.0,0.0037178195,-0.05865732,0.057922833,-0.11723712,0.07300609,0.34105736,-0.10705211,0.032410745,-0.36999166,-0.13407528,-0.04948666,-0.33666137,-0.019688306,0.044467997,-0.04643054,-0.06367767,0.04844048,0.01443424,0.04067331,0.02343938,-0.021299068,-0.055454876,-0.07418403,0.050759405,-0.023372944,-2.0,0.7632821,-2.0,2.0,2.0,-2.0,2.0,-2.0,-2.0,-2.0,-2.0,-2.0,-2.0,1.0575783,-2.0,2.0,2.0,-2.0,2.0,-2.0,-2.0,-2.0,-2.0,-2.0
2025-06-09 09:20:57.289,0.008189307,0.021240577,-0.0020630232,-0.0043611242,-0.0066410615,-0.039201315,0.0,0.0,0.0,0.0036887,-0.06356786,0.06519127,-0.118743405,0.07041934,0.3568845,-0.121374354,0.046250552,-0.3641235,-0.12841885,-0.042321175,-0.33717003,-0.032487147,0.017989546,-0.0077023753,0.03719314,0.03550517,-0.005879671,0.017865118,-0.0041900678,0.054568116,0.072106615,-0.050642684,0.036089692,0.0705417,-2.0,1.0575783,-2.0,2.0,2.0,-2.0,2.0,-2.0,-2.0,-2.0,-2.0,-2.0,-2.0,0.80129296,-2.0,2.0,2.0,-2.0,2.0,-2.0,-2.0,-2.0,-2.0,-2.0
2025-06-09 09:20:57.309,0.014521074,-0.015477044,-0.027111178,0.0627585,0.00950514,0.029620549,0.0,0.0,0.0,0.003645319,-0.07654835,0.048711676,-0.11770554,0.072831124,0.35072574,-0.11027689,0.040628437,-0.3558107,-0.13271916,-0.038609445,-0.34784076,-0.021362161,-0.07323416,-0.059436556,0.03273103,0.012949327,0.03305534,-0.0008435822,0.024101071,-0.05189193,0.062059253,-0.019372981,0.041319158,0.043192223,-2.0,0.80129296,-2.0,2.0,2.0,-2.0,2.0,-2.0,-2.0,-2.0,-2.0,-2.0,-2.0,0.99819064,-2.0,2.0,2.0,-2.0,2.0,-2.0,-2.0,-2.0,-2.0,-2.0
2025-06-09 09:20:57.332,-0.014657393,-0.04947174,0.002983535,0.024455046,0.06113162,0.023288507,0.0,0.0,0.0,0.003627131,-0.07715047,0.06612492,-0.121886246,0.06789104,0.3432721,-0.112151586,0.04400345,-0.37335676,-0.13609378,-0.040601004,-0.3388766,-0.03384035,-0.01895532,0.053317863,-0.0038029612,-0.037258383,0.045321364,-0.012493758,0.02664995,0.04958869,-0.03196376,-0.059057415,0.07248715,-0.04664888,-2.0,0.99819064,-2.0,2.0,2.0,-2.0,2.0,-2.0,-2.0,-2.0,-2.0,-2.0,-2.0,0.89730656,-2.0,2.0,2.0,-2.0,2.0,-2.0,-2.0,-2.0,-2.0,-2.0
2025-06-09 09:20:57.349,0.041318595,0.017688474,0.0018429736,0.047162227,0.078827396,-0.041725654,0.0,0.0,0.0,0.003611107,-0.07505967,0.063316934,-0.122519486,0.0645658,0.354347,-0.11017466,0.047127843,-0.36388266,-0.1257527,-0.052199803,-0.34964496,-0.03505992,0.0031462037,-0.06325583,0.006297999,-0.02117553,0.0647819,-0.03849968,0.033695083,0.04382671,0.04742346,-0.057388123,-0.04674363,0.016253123,-2.0,0.89730656,-2.0,2.0,2.0,-2.0,2.0,-2.0,-2.0,-2.0,-2.0,-2.0,-2.0,0.86119205,-2.0,2.0,2.0,-2.0,2.0,-2.0,-2.0,-2.0,-2.0,-2.0
2025-06-09 09:20:57.369,0.009965162,-0.029544933,0.021587789,0.045391463,-0.011941651,0.009121607,0.0,0.0,0.0,0.0035983138,-0.07720784,0.068613224,-0.113071404,0.07504621,0.3396628,-0.10627598,0.031941883,-0.36162332,-0.129662,-0.047202144,-0.35325557,-0.030055054,-1.2365411e-05,-0.0018833892,0.019536944,0.031812314,-0.025568653,-0.011358999,0.054752782,-0.015626248,-0.0001557495,-0.041082647,0.0042134053,0.06562039,-2.0,0.86119205,-2.0,2.0,2.0,-2.0,2.0,-2.0,-2.0,-2.0,-2.0,-2.0,-2.0,0.80713814,-2.0,2.0,2.0,-2.0,2.0,-2.0,-2.0,-2.0,-2.0,-2.0
2025-06-09 09:20:57.389,-0.048319116,-0.042119138,-0.049692225,0.0648489,0.060937192,-0.011173723,0.0,0.0,0.0,0.0036162862,-0.062752604,0.06891341,-0.11442436,0.0731107,0.3538876,-0.11218729,0.03221515,-0.37349093,-0.1347832,-0.037779965,-0.35335153,-0.034547657,-0.031359445,0.004635718,0.058096264,-0.06696379,-0.07129029,-0.056668915,0.020102795,-0.03688737,-0.052284367,0.026143601,-0.00019302074,0.058453884,-2.0,0.80713814,-2.0,2.0,2.0,-2.0,2.0,-2.0,-2.0,-2.0,-2.0,-2.0,-2.0,1.2396106,-2.0,2.0,2.0,-2.0,2.0,-2.0,-2.0,-2.0,-2.0,-2.0
2025-06-09 09:20:57.469,0.02445429,0.007221729,-0.020631006,0.022372784,0.039793544,-0.037434977,0.0,0.0,0.0,0.0036742035,-0.07147676,0.058952194,-0.10818318,0.061898556,0.35275,-0.11447242,0.028450612,-0.3601037,-0.128671,-0.03346826,-0.34505585,-0.017900264,-0.044457838,0.041713588,0.048895188,0.061668824,0.00013290401,-0.018927429,-0.040551763,-0.05618678,0.0709666,-0.023966128,-0.061339792,-0.03128741,-2.0,1.2396106,-2.0,2.0,2.0,-2.0,2.0,-2.0,-2.0,-2.0,-2.0,-2.0,-2.0,0.940633,-2.0,2.0,2.0,-2.0,2.0,-2.0,-2.0,-2.0,-2.0,-2.0
2025-06-09 09:20:57.581,-0.046863694,-0.010901235,0.0017237675,0.030600587,-0.01865119,0.011248849,0.0,0.0,0.0,0.0036348435,-0.06346451,0.053946964,-0.11211277,0.063001916,0.34351987,-0.10580914,0.04166984,-0.3591981,-0.13330223,-0.043028336,-0.3364756,-0.019424649,0.06538965,0.005891327,-0.017172223,-0.005420688,-0.010732369,0.059341524,0.010856695,0.0324404,-0.049207557,0.005837291,0.020467484,-0.011207194,-2.0,0.940633,-2.0,2.0,2.0,-2.0,2.0,-2.0,-2.0,-2.0,-2.0,-2.0,-2.0,0.96060175,-2.0,2.0,2.0,-2.0,2.0,-2.0,-2.0,-2.0,-2.0,-2.0
2025-06-09 09:20:57.605,0.038844503,-0.02839065,-0.039230336,0.024787476,0.04755855,-0.02791863,0.0,0.0,0.0,0.003558248,-0.074492544,0.073410854,-0.12552589,0.056136165,0.3416688,-0.11532934,0.036003605,-0.35949817,-0.13619047,-0.0438625,-0.34172228,-0.015339334,0.05879912,0.024629071,-0.04081874,-0.01859558,0.052898865,-0.04832681,0.06551509,-0.059851687,-0.057047535,-0.0015204104,0.028074728,-0.0058423206,-2.0,0.96060175,-2.0,2.0,2.0,-2.0,2.0,-2.0,-2.0,-2.0,-2.0,-2.0,-2.0,1.2258538,-2.0,2.0,2.0,-2.0,2.0,-2.0,-2.0,-2.0,-2.0,-2.0
2025-06-09 09:20:57.620,0.0018756556,-0.015713345,0.010117967,0.05212928,0.025834803,-0.016527025,0.0,0.0,0.0,0.003509991,-0.057181995,0.06152214,-0.12308002,0.07468664,0.3594023,-0.10659226,0.027761228,-0.35419786,-0.11992715,-0.03445182,-0.33820075,-0.027417334,0.06392758,0.06600149,-0.0724945,0.008889383,0.02737664,0.073409714,-0.021272112,0.027771289,-0.043204933,-0.055766493,-0.052817944,-0.05864458,-2.0,1.2258538,-2.0,2.0,2.0,-2.0,2.0,-2.0,-2.0,-2.0,-2.0,-2.0,-2.0,0.84530926,-2.0,2.0,2.0,-2.0,2.0,-2.0,-2.0,-2.0,-2.0,-2.0
2025-06-09 09:20:57.640,-0.0030782407,0.0029253638,0.033523448,0.06081439,0.07538138,0.0050310786,0.0,0.0,0.0,0.0034086714,-0.06297677,0.07169893,-0.11308009,0.06535635,0.35071468,-0.108195074,0.03377518,-0.36259937,-0.13001783,-0.044597726,-0.3423239,-0.02882742,-0.055029478,-0.05841245,-0.05101254,0.0023551718,-0.039917476,0.04568285,-0.05729951,-0.068595886,0.018869836,-0.0730233,0.07365651,0.044213224,-2.0,0.84530926,-2.0,2.0,2.0,-2.0,2.0,-2.0,-2.0,-2.0,-2.0,-2.0,-2.0,0.70642793,-2.0,2.0,2.0,-2.0,2.0,-2.0,-2.0,-2.0,-2.0,-2.0
2025-06-09 09:20:57.663,0.026870122,0.021619087,0.026190264,-0.0120281335,0.04909471,0.0067238063,0.0,0.0,0.0,0.003357628,-0.059255082,0.07637411,-0.11177,0.05968391,0.347069,-0.10488227,0.028152589,-0.3593332,-0.121233866,-0.04155826,-0.34674063,-0.01864376,-0.006714341,0.06950181,-0.05769214,-0.012411753,-0.07303066,-0.020009933,0.03255153,-0.0008842462,0.05720224,0.057979535,0.044894483,0.005794239,-2.0,0.70642793,-2.0,2.0,2.0,-2.0,2.0,-2.0,-2.0,-2.0,-2.0,-2.0,-2.0,0.7771488,-2.0,2.0,2.0,-2.0,2.0,-2.0,-2.0,-2.0,-2.0,-2.0
2025-06-09 09:20:57.681,0.001381107,-0.04238762,-0.055962227,0.011629835,0.040143915,-0.017528594,0.0,0.0,0.0,0.0034471708,-0.07456266,0.07139088,-0.11653384,0.05510641,0.3527242,-0.118613526,0.031113274,-0.36501166,-0.12548636,-0.051545147,-0.3388376,-0.013274707,-0.040046018,-0.067222744,0.0128327,-0.01875949,0.010567362,0.033030916,0.055200644,-0.0078015365,0.019716335,-0.06546378,0.039966006,-0.017518817,-2.0,0.7771488,-2.0,2.0,2.0,-2.0,2.0,-2.0,-2.0,-2.0,-2.0,-2.0,-2.0,1.1519479,-2.0,2.0,2.0,-2.0,2.0,-2.0,-2.0,-2.0,-2.0,-2.0
2025-06-09 09:20:57.700,-0.040395692,0.026387544,-0.03356622,0.0041516,-0.0072509926,-0.0082231155,0.0,0.0,0.0,0.0036179905,-0.06975551,0.07222197,-0.122170694,0.06774247,0.34501925,-0.10556504,0.043887366,-0.35160518,-0.12078864,-0.050641637,-0.3483779,-0.013382088,-0.00095487037,0.054726195,0.023495356,-0.03704891,-0.042112615,-0.045345772,-0.056883078,0.02458541,-0.050832104,-0.014520921,-0.008766829,0.028057588,-2.0,1.1519479,-2.0,2.0,2.0,-2.0,2.0,-2.0,-2.0,-2.0,-2.0,-2.0,-2.0,1.1614814,-2.0,2.0,2.0,-2.0,2.0,-2.0,-2.0,-2.0,-2.0,-2.0
2025-06-09 09:20:57.721,0.013883872,-0.01940605,0.049626913,0.010097537,-0.0071725165,0.035336763,0.0,0.0,0.0,0.0036990421,-0.05810796,0.058580864,-0.11620703,0.074481666,0.35255855,-0.10982945,0.04139195,-0.36587998,-0.12838304,-0.043990653,-0.35058445,-0.021435251,-0.04524397,0.024976563,0.02196929,0.07504113,0.026281998,-0.010228332,-0.0025670193,0.07882547,-0.060604453,0.012979863,-0.055738453,-0.012082778,-2.0,1.1614814,-2.0,2.0,2.0,-2.0,2.0,-2.0,-2.0,-2.0,-2.0,-2.0,-2.0,0.78547496,-2.0,2.0,2.0,-2.0,2.0,-2.0,-2.0,-2.0,-2.0,-2.0
2025-06-09 09:20:57.741,0.0063292836,0.04754545,-0.0202393,0.073836125,0.0041932105,-0.045402724,0.0,0.0,0.0,0.0036505095,-0.06773117,0.06968153,-0.11246204,0.056580056,0.36096618,-0.10898257,0.042414587,-0.36650237,-0.12687019,-0.04440199,-0.3514927,-0.022674682,-0.019786851,-0.045396984,0.042970534,0.018324051,0.05446388,0.059061963,0.017570771,0.015089887,0.02803605,-0.008454079,0.06627162,-0.06047324,-2.0,0.78547496,-2.0,2.0,2.0,-2.0,2.0,-2.0,-2.0,-2.0,-2.0,-2.0,-2.0,0.88788474,-2.0,2.0,2.0,-2.0,2.0,-2.0,-2.0,-2.0,-2.0,-2.0
2025-06-09 09:20:57.764,-0.012892259,-0.041062422,0.03936183,0.011650626,0.0041079246,-0.03500611,0.0,0.0,0.0,0.0036335106,-0.07716357,0.0738622,-0.11935063,0.06335815,0.3491829,-0.11452854,0.034331903,-0.35881782,-0.11619217,-0.045808498,-0.35008585,-0.028129214,0.071912125,0.04354143,-0.04656883,-0.03471938,-0.04960839,0.02765908,-0.047936965,0.067644425,0.019069571,-0.012878527,0.069412105,-0.0114005385,-2.0,0.88788474,-2.0,2.0,2.0,-2.0,2.0,-2.0,-2.0,-2.0,-2.0,-2.0,-2.0,0.6928466,-2.0,2.0,2.0,-2.0,2.0,-2.0,-2.0,-2.0,-2.0,-2.0
2025-06-09 09:20:57.784,0.03934378,-0.026848193,-0.048448272,0.042005442,0.06272792,-0.007086801,0.0,0.0,0.0,0.0036686324,-0.066839635,0.06893733,-0.11749083,0.05662065,0.36308238,-0.11305439,0.03473724,-0.35321334,-0.12161536,-0.049718495,-0.34279656,-0.018642811,-0.031116324,0.003344762,-0.0015475537,0.050790627,-0.054443114,0.061615944,0.005764637,0.056456458,0.005871315,0.03804214,0.058605038,0.0009797227,-2.0,0.6928466,-2.0,2.0,2.0,-2.0,2.0,-2.0,-2.0,-2.0,-2.0,-2.0,-2.0,1.0510994,-2.0,2.0,2.0,-2.0,2.0,-2.0,-2.0,-2.0,-2.0,-2.0
2025-06-09 09:20:57.801,0.03069022,-0.047746927,-0.04425125,0.011184589,0.012138596,-0.024103992,0.0,0.0,0.0,0.0037733016,-0.06852148,0.074423105,-0.11245562,0.056219656,0.3470509,-0.1017747,0.046236314,-0.35794613,-0.113145955,-0.044021968,-0.33973846,-0.008932614,-0.0058858283,-0.015772603,0.06160909,-0.04624613,0.022736643,-0.040524,-0.032300532,0.032161914,0.07341789,0.024050703,-0.029396394,7.188189e-05,-2.0,1.0510994,-2.0,2.0,2.0,-2.0,2.0,-2.0,-2.0,-2.0,-2.0,-2.0,-2.0,1.1197389,-2.0,2.0,2.0,-2.0,2.0,-2.0,-2.0,-2.0,-2.0,-2.0
2025-06-09 09:20:57.821,0.024580393,-0.0430461,0.030502005,0.0781504,0.06518265,-0.047908384,0.0,0.0,0.0,0.003833853,-0.07105491,0.06437176,-0.12056439,0.057428427,0.3489456,-0.10272337,0.045145687,-0.36064288,-0.1286479,-0.03616996,-0.3455592,-0.019344669,0.020989683,0.076597214,-0.05792044,0.0688323,0.04336173,-0.00645315,-0.00497054,0.008588193,-0.04141056,0.022318512,0.008254382,0.0015509003,-2.0,1.1197389,-2.0,2.0,2.0,-2.0,2.0,-2.0,-2.0,-2.0,-2.0,-2.0,-2.0,0.7518265,-2.0,2.0,2.0,-2.0,2.0,-2.0,-2.0,-2.0,-2.0,-2.0
2025-06-09 09:20:57.841,0.04080585,0.027421936,0.042452138,0.0055445167,0.0349964,0.010801142,0.0,0.0,0.0,0.0037809606,-0.06251313,0.069300175,-0.108400956,0.05737859,0.34909043,-0.108468294,0.045136232,-0.36554623,-0.13196929,-0.047034997,-0.3489118,-0.029605735,0.009994408,0.06265049,-0.043513387,0.0040962584,-0.06835868,0.0031172747,0.018781275,-0.047706794,-0.01805167,-0.018312257,-0.033215914,-0.02924472,-2.0,0.7518265,-2.0,2.0,2.0,-2.0,2.0,-2.0,-2.0,-2.0,-2.0,-2.0,-2.0,0.6966647,-2.0,2.0,2.0,-2.0,2.0,-2.0,-2.0,-2.0,-2.0,-2.0
2025-06-09 09:20:57.864,-0.010448019,-0.02405438,0.011840908,0.07139521,-0.006632797,-0.019108586,0.0,0.0,0.0,0.003756894,-0.07087496,0.069942124,-0.11873894,0.06823249,0.3523498,-0.11893677,0.0339888,-0.35752115,-0.118718006,-0.05045242,-0.35113055,-0.0243331,-0.00816627,-0.066983126,0.071659416,-0.003038215,-0.048719596,0.01538226,-0.028071266,0.0034921505,-0.07388271,-0.07266557,-0.041209158,-0.00053879485,-2.0,0.6966647,-2.0,2.0,2.0,-2.0,2.0,-2.0,-2.0,-2.0,-2.0,-2.0,-2.0,0.89283675,-2.0,2.0,2.0,-2.0,2.0,-2.0,-2.0,-2.0,-2.0,-2.0
2025-06-09 09:20:57.881,-0.017893068,-0.005794581,-0.022518132,0.068779305,0.0017621326,-0.04085262,0.0,0.0,0.0,0.0038269854,-0.061060753,0.063052855,-0.10678738,0.073589236,0.34875426,-0.10496041,0.03554,-0.36943203,-0.11756493,-0.041533034,-0.34063867,-0.013295875,0.018778613,-0.058233492,0.023245182,-0.060739245,0.07176972,0.02745362,-0.01691417,0.050682966,-0.06450377,-0.026233444,-0.025255289,0.037524063,-2.0,0.89283675,-2.0,2.0,2.0,-2.0,2.0,-2.0,-2.0,-2.0,-2.0,-2.0,-2.0,1.1294025,-2.0,2.0,2.0,-2.0,2.0,-2.0,-2.0,-2.0,-2.0,-2.0
2025-06-09 09:20:57.901,-0.03549425,0.0005133097,0.027742267,0.07375738,0.064709514,-0.015875459,0.0,0.0,0.0,0.003898692,-0.071097955,0.065316305,-0.11401458,0.07189285,0.35863733,-0.11482231,0.027927017,-0.37161276,-0.13153358,-0.049798783,-0.34124207,-0.019214902,-0.031042276,-0.041890096,-0.021874977,0.025842672,0.043897204,0.071033776,0.040302027,0.072030224,-0.05541945,0.070332795,-0.07291738,0.038653936,-2.0,1.1294025,-2.0,2.0,2.0,-2.0,2.0,-2.0,-2.0,-2.0,-2.0,-2.0,-2.0,0.8813155,-2.0,2.0,2.0,-2.0,2.0,-2.0,-2.0,-2.0,-2.0,-2.0
2025-06-09 09:20:57.922,-0.015553378,-0.04712575,0.024884192,0.04698591,-0.01907457,0.012780678,0.0,0.0,0.0,0.0038606164,-0.066962324,0.05788721,-0.11023961,0.062494796,0.3514442,-0.116972886,0.041200116,-0.36489874,-0.119809024,-0.049638364,-0.33525538,-0.031228524,0.037183553,-0.068178356,-0.03154271,0.027820975,0.022658639,0.0020619566,-0.04831416,-0.04924087,-0.023729008,0.064587034,0.0114522185,0.054351393,-2.0,0.8813155,-2.0,2.0,2.0,-2.0,2.0,-2.0,-2.0,-2.0,-2.0,-2.0,-2.0,0.92277175,-2.0,2.0,2.0,-2.0,2.0,-2.0,-2.0,-2.0,-2.0,-2.0
2025-06-09 09:20:57.942,0.04339111,-0.023383427,0.0041889893,0.0014226498,0.02153865,-0.016146686,0.0,0.0,0.0,0.0037897741,-0.061507136,0.062568285,-0.122858755,0.06425711,0.35729763,-0.12085123,0.028534397,-0.36367765,-0.12969658,-0.046165254,-0.33930016,-0.026298147,-0.012889809,-0.06149963,-0.04037429,0.049366117,-0.022570755,-0.05461904,-0.06316008,0.0139753455,0.0052600047,-0.021033622,-0.056740735,-0.04872973,-2.0,0.92277175,-2.0,2.0,2.0,-2.0,2.0,-2.0,-2.0,-2.0,-2.0,-2.0,-2.0,0.9744304,-2.0,2.0,2.0,-2.0,2.0,-2.0,-2.0,-2.0,-2.0,-2.0
2025-06-09 09:20:57.964,-0.02819378,0.033488855,0.008904921,0.048200797,0.06972441,0.04730471,0.0,0.0,0.0,0.0037326,-0.07280944,0.06270555,-0.1055402,0.07328853,0.3557526,-0.10326055,0.034157757,-0.36757946,-0.11848084,-0.051019788,-0.33949786,-0.021836724,-0.0036929492,-0.012500249,-0.052741647,-0.012584807,-0.024660233,0.0407874,0.062718265,-0.06380347,-0.03857254,-0.008364655,-0.05628456,-0.0034749068,-2.0,0.9744304,-2.0,2.0,2.0,-2.0,2.0,-2.0,-2.0,-2.0,-2.0,-2.0,-2.0,0.93755484,-2.0,2.0,2.0,-2.0,2.0,-2.0,-2.0,-2.0,-2.0,-2.0
2025-06-09 09:20:57.982,0.008103639,0.03628129,0.04266112,0.035874754,0.044428073,-0.021998452,0.0,0.0,0.0,0.00366973,-0.06373748,0.056448415,-0.10955065,0.07189383,0.34730405,-0.11068034,0.04649985,-0.3698892,-0.13021775,-0.03455134,-0.34456208,-0.016927034,-0.07008041,0.002592039,-0.026222747,-0.056219388,-0.037540242,-0.050757397,0.005574186,-0.056312803,0.009358406,-0.041755624,0.02623843,-0.054397564,-2.0,0.93755484,-2.0,2.0,2.0,-2.0,2.0,-2.0,-2.0,-2.0,-2.0,-2.0,-2.0,0.7241956,-2.0,2.0,2.0,-2.0,2.0,-2.0,-2.0,-2.0,-2.0,-2.0
2025-06-09 09:20:58.002,-0.049207028,0.052572753,0.013243374,0.05718632,0.072583966,-0.035040613,0.0,0.0,0.0,0.0036131535,-0.06591246,0.05393199,-0.11250788,0.06914537,0.34970352,-0.11906076,0.04063376,-0.35804483,-0.11982525,-0.039493576,-0.35362357,-0.02984111,0.0023997976,0.022861905,-0.066224754,-0.07489663,-0.03243677,-0.04277104,-0.0049764686,-0.07778528,0.010617891,-0.028314715,-0.06810303,-0.059117276,-2.0,0.7241956,-2.0,2.0,2.0,-2.0,2.0,-2.0,-2.0,-2.0,-2.0,-2.0,-2.0,0.88427705,-2.0,2.0,2.0,-2.0,2.0,-2.0,-2.0,-2.0,-2.0,-2.0
2025-06-09 09:20:58.022,0.02624381,0.019776389,-0.014650936,0.07929273,-0.001953709,0.023427363,0.0,0.0,0.0,0.0036348728,-0.061138503,0.056445636,-0.12056997,0.05926554,0.34106648,-0.11516374,0.037361,-0.3607116,-0.12335967,-0.040209454,-0.34214142,-0.020268984,-0.0002843816,-0.041726436,-0.027548566,0.06764855,-0.024135409,-0.06528724,0.018860094,0.02061689,0.026559526,0.049592357,0.061372273,-0.032636072,-2.0,0.88427705,-2.0,2.0,2.0,-2.0,2.0,-2.0,-2.0,-2.0,-2.0,-2.0,-2.0,1.0135471,-2.0,2.0,2.0,-2.0,2.0,-2.0,-2.0,-2.0,-2.0,-2.0
2025-06-09 09:20:58.042,0.024067357,0.015001776,-0.008206859,0.004490285,0.017905572,-0.02873094,0.0,0.0,0.0,0.0036906633,-0.06323291,0.05843018,-0.11326135,0.066081345,0.33944517,-0.10545687,0.039181694,-0.37355596,-0.12502135,-0.050475173,-0.34712565,-0.018777736,0.042492904,-0.030736778,0.044983566,0.01701022,-0.026526233,-0.05402684,0.068964295,-0.051540274,-0.05278686,0.07012113,0.025131267,0.034779545,-2.0,1.0135471,-2.0,2.0,2.0,-2.0,2.0,-2.0,-2.0,-2.0,-2.0,-2.0,-2.0,1.1127143,-2.0,2.0,2.0,-2.0,2.0,-2.0,-2.0,-2.0,-2.0,-2.0
2025-06-09 09:20:58.064,-0.027661623,0.015353999,0.00059015123,0.0009973439,0.04192715,0.039968017,0.0,0.0,0.0,0.0036984,-0.06424567,0.06690983,-0.113119185,0.06202508,0.3498827,-0.108308434,0.03191706,-0.3600311,-0.13095754,-0.04057418,-0.35091427,-0.02217176,0.06277112,-0.035190314,0.057823572,0.06539379,0.036287133,0.059016988,-0.048596986,-0.064688444,0.06255408,-0.0603009,0.0519411,0.011256057,-2.0,1.1127143,-2.0,2.0,2.0,-2.0,2.0,-2.0,-2.0,-2.0,-2.0,-2.0,-2.0,0.855087,-2.0,2.0,2.0,-2.0,2.0,-2.0,-2.0,-2.0,-2.0,-2.0
2025-06-09 09:20:58.083,-0.05195164,-0.035437364,-0.004661838,0.015304209,0.05541484,-0.04095003,0.0,0.0,0.0,0.0036249442,-0.0672335,0.06551778,-0.116691254,0.05893389,0.35114285,-0.11546994,0.04724339,-0.36207655,-0.13255143,-0.03842322,-0.34427977,-0.026947306,-0.058520474,-0.03928806,0.050310425,0.032765213,0.0013718418,0.06842422,-0.00308243,-0.045127597,-0.046723835,-0.019834395,0.040770512,0.03889683,-2.0,0.855087,-2.0,2.0,2.0,-2.0,2.0,-2.0,-2.0,-2.0,-2.0,-2.0,-2.0,0.9386548,-2.0,2.0,2.0,-2.0,2.0,-2.0,-2.0,-2.0,-2.0,-2.0
2025-06-09 09:20:58.103,0.04332927,0.047612965,0.042467937,0.07357686,0.028802661,0.03887191,0.0,0.0,0.0,0.0035683285,-0.074630745,0.07016698,-0.118928365,0.06311533,0.35037944,-0.10809806,0.034567192,-0.35289,-0.12995923,-0.039666206,-0.3413766,-0.018255973,0.04225201,-0.03328408,-0.051129743,0.03499333,0.0042334385,0.0026321928,-0.04132139,0.06520594,-0.018812152,0.04784607,-0.06854443,-0.0032894881,-2.0,0.9386548,-2.0,2.0,2.0,-2.0,2.0,-2.0,-2.0,-2.0,-2.0,-2.0,-2.0,0.74759835,-2.0,2.0,2.0,-2.0,2.0,-2.0,-2.0,-2.0,-2.0,-2.0
2025-06-09 09:20:58.123,-0.022331042,0.025232136,-0.048698444,0.072902046,0.072131984,-0.032379467,0.0,0.0,0.0,0.0035469078,-0.07099399,0.06439329,-0.107318036,0.06717603,0.34522647,-0.12065583,0.03263211,-0.36271963,-0.12281765,-0.040117078,-0.33757952,-0.015548207,-0.0109548,-0.032066807,-0.012562318,-0.055986095,0.03220019,-0.06617666,-0.011974221,0.019730724,0.070411935,-0.00392172,-0.023853134,-0.054717578,-2.0,0.74759835,-2.0,2.0,2.0,-2.0,2.0,-2.0,-2.0,-2.0,-2.0,-2.0,-2.0,1.180597,-2.0,2.0,2.0,-2.0,2.0,-2.0,-2.0,-2.0,-2.0,-2.0
2025-06-09 09:20:58.143,-0.043816917,-0.0026081228,0.020380838,0.07441252,0.00057913,-0.043524574,0.0,0.0,0.0,0.003594213,-0.07643457,0.05426076,-0.113252535,0.07170313,0.35263005,-0.104852624,0.035623346,-0.36418363,-0.117719196,-0.043662738,-0.3524453,-0.03313714,-0.022130696,0.015101457,0.03200535,-0.07037541,0.030659696,0.07112262,-0.0037502164,-0.04378477,-0.04041075,0.0073075853,-0.007729397,0.052305356,-2.0,1.180597,-2.0,2.0,2.0,-2.0,2.0,-2.0,-2.0,-2.0,-2.0,-2.0,-2.0,0.8262,-2.0,2.0,2.0,-2.0,2.0,-2.0,-2.0,-2.0,-2.0,-2.0
2025-06-09 09:20:58.164,0.0014598058,-0.03575929,-0.008742569,0.046788435,0.0067201713,-0.033518147,0.0,0.0,0.0,0.0035846308,-0.066316366,0.06598574,-0.1185534,0.06033127,0.35785502,-0.114494115,0.04466704,-0.3580426,-0.12637188,-0.052359037,-0.35324666,-0.027263146,-0.034820132,-0.035506237,-0.06698875,-0.07085276,-0.023235753,0.016657278,-0.04876312,-0.07166356,0.0225013,-0.009665838,-0.0707154,0.05258932,-2.0,0.8262,-2.0,2.0,2.0,-2.0,2.0,-2.0,-2.0,-2.0,-2.0,-2.0,-2.0,0.96790135,-2.0,2.0,2.0,-2.0,2.0,-2.0,-2.0,-2.0,-2.0,-2.0
2025-06-09 09:20:58.183,-0.029918155,-0.04996664,-0.018680051,0.070209034,0.075061984,0.030517623,0.0,0.0,0.0,0.0035755928,-0.07655926,0.0611742,-0.12196418,0.06462384,0.34746704,-0.11284258,0.027480664,-0.36305308,-0.120578095,-0.036426056,-0.3405838,-0.024746943,0.013781569,-0.068828724,-0.04265229,-0.03290322,0.029731536,0.07340264,-0.073535144,-0.016154988,0.07077197,-0.05622684,0.016832149,0.018048955,-2.0,0.96790135,-2.0,2.0,2.0,-2.0,2.0,-2.0,-2.0,-2.0,-2.0,-2.0,-2.0,0.93196607,-2.0,2.0,2.0,-2.0,2.0,-2.0,-2.0,-2.0,-2.0,-2.0
2025-06-09 09:20:58.203,0.021247054,-0.0047554653,0.021983298,0.038262147,0.013928125,0.039338175,0.0,0.0,0.0,0.0035830028,-0.07520183,0.06698001,-0.11523017,0.06845433,0.3616037,-0.118746385,0.032450296,-0.37050965,-0.12733455,-0.04069778,-0.35121137,-0.027319388,-0.033414476,0.00047532344,-0.06923406,0.026986098,0.0590729,-0.048588485,0.011591872,0.05130919,0.015882637,0.004871302,0.0416573,-0.04059516,-2.0,0.93196607,-2.0,2.0,2.0,-2.0,2.0,-2.0,-2.0,-2.0,-2.0,-2.0,-2.0,0.8416147,-2.0,2.0,2.0,-2.0,2.0,-2.0,-2.0,-2.0,-2.0,-2.0
2025-06-09 09:20:58.223,0.046141393,0.035464723,0.047073964,0.060443915,-0.013962044,0.015057373,0.0,0.0,0.0,0.0035898997,-0.061797373,0.07172344,-0.12028612,0.06711392,0.34753773,-0.105476625,0.033000518,-0.35923615,-0.11936948,-0.04628268,-0.33929098,-0.02842303,0.004425732,0.06697261,-0.07368865,0.02938952,0.03999797,-0.070055924,-0.061971545,-0.031069456,-0.034494698,0.04053533,-0.06944118,-0.06325498,-2.0,0.8416147,-2.0,2.0,2.0,-2.0,2.0,-2.0,-2.0,-2.0,-2.0,-2.0,-2.0,0.7831651,-2.0,2.0,2.0,-2.0,2.0,-2.0,-2.0,-2.0,-2.0,-2.0
2025-06-09 09:20:58.243,0.0054033063,0.024556305,0.0020039673,0.079045095,-0.016041152,-0.04956486,0.0,0.0,0.0,0.0036280372,-0.0651094,0.06364996,-0.11991326,0.055826124,0.34211442,-0.11856761,0.039229885,-0.3639648,-0.13057655,-0.039593544,-0.35119975,-0.019058753,-0.019634286,0.032572124,0.029688785,-0.047107723,-0.06624768,-0.014105046,-0.053960897,-0.06295259,0.02926718,-0.056070473,0.026255514,-0.02711798,-2.0,0.7831651,-2.0,2.0,2.0,-2.0,2.0,-2.0,-2.0,-2.0,-2.0,-2.0,-2.0,0.7991098,-2.0,2.0,2.0,-2.0,2.0,-2.0,-2.0,-2.0,-2.0,-2.0
2025-06-09 09:20:58.264,-0.01720586,-0.0014055073,0.014830921,0.00026897746,-0.019310901,0.008297125,0.0,0.0,0.0,0.0037129999,-0.06010983,0.06453217,-0.12332939,0.058016893,0.3555454,-0.11979763,0.030126503,-0.35689673,-0.13024223,-0.05035935,-0.3371631,-0.012260279,0.07376803,0.06261453,-0.033561993,-0.0033375593,-0.03800433,0.030482974,0.023666874,0.05066364,0.012846219,0.040810723,-0.050456043,-0.035906892,-2.0,0.7991098,-2.0,2.0,2.0,-2.0,2.0,-2.0,-2.0,-2.0,-2.0,-2.0,-2.0,0.87000597,-2.0,2.0,2.0,-2.0,2.0,-2.0,-2.0,-2.0,-2.0,-2.0
2025-06-09 09:20:58.283,0.04958796,0.031543195,0.022852642,0.02217893,0.03382605,-0.021688212,0.0,0.0,0.0,0.0038216645,-0.061826553,0.0657447,-0.117930226,0.06998728,0.36031815,-0.10420062,0.03760346,-0.37265378,-0.121786565,-0.050611537,-0.34537172,-0.012992744,-0.011340565,-0.026502166,-0.025272956,-0.03484985,-0.053721618,0.027447466,0.07540027,-0.07363896,-0.05579716,0.032921996,0.02164483,0.041496787,-2.0,0.87000597,-2.0,2.0,2.0,-2.0,2.0,-2.0,-2.0,-2.0,-2.0,-2.0,-2.0,0.8602118,-2.0,2.0,2.0,-2.0,2.0,-2.0,-2.0,-2.0,-2.0,-2.0
