openverse-orca/OrcaGym/examples/openpi/action.csv
left_arm_joint_pos_1,left_arm_joint_pos_2,left_arm_joint_pos_3,left_arm_joint_pos_4,left_arm_joint_pos_5,left_arm_joint_pos_6,left_arm_joint_pos_7,left_hand_grasp_value,right_arm_joint_pos_1,right_arm_joint_pos_2,right_arm_joint_pos_3,right_arm_joint_pos_4,right_arm_joint_pos_5,right_arm_joint_pos_6,right_arm_joint_pos_7,right_hand_grasp_value
0.6108199415628736,-0.2707191413296561,-0.016727935660611815,0.3516165794334358,0.5247826403536435,4.544726303898545e-05,-0.039911881606013826,1.2049447342961366,-0.6280050974114424,0.27560547687691495,0.014504334140830376,0.3709930501355086,-0.528411079330785,0.001244754395153173,-0.0006759061906149084,0.9866306445260701
0.6185701468870851,-0.26304672255951794,-0.017816779544709026,0.3549732724930132,0.5219696809360614,0.0006428659204110075,-0.036552768556374834,1.1917359922262165,-0.6294047932040735,0.2685412848327946,0.014293660762717979,0.3676682597657638,-0.5255159803322469,0.001505927903172608,0.0024570068347243793,0.9779509642726891
0.6262012019476536,-0.2606268192005426,-0.01650243799635653,0.35697187150814896,0.5291688698460236,0.0009174207991653933,-0.03566082597592635,1.2806809317425023,-0.6237798641687499,0.2706744280356839,0.014136220784089177,0.3707886372499595,-0.5251886788972561,0.001482210087387901,-0.00025488401255205394,0.9884059806090781
0.6196320555528929,-0.2618876423413239,-0.017523316458931147,0.3633113157375525,0.5294656704829517,0.002811500401129015,-0.03381112615963166,1.2909589360109757,-0.6262694355493513,0.2715841144803564,0.014034077506455644,0.37237777694015234,-0.5251755876084253,0.0006733004748935203,-0.001538137740611921,1.0001838821077411
0.6200764968281116,-0.2615546800791623,-0.01794381503507166,0.3669220433782726,0.52427616819332,0.003477423870998659,-0.0319620498243468,1.3167290898765693,-0.626907984479804,0.2726588814321771,0.013793212375988871,0.3698618870442827,-0.5253700849268431,0.00170977463603622,0.0021733766149502516,0.9803647574622514
0.6210771699370182,-0.2597008125658616,-0.017440168555915132,0.36546051338622604,0.5300279301424848,0.0032707388740161472,-0.03967338765013343,1.328045528001498,-0.6209358338694754,0.2727868039543641,0.013802316368353152,0.37001670249571783,-0.527738244910535,0.0012695800736164864,-0.00013907096535917393,0.984899072107503
0.6244091787001557,-0.2610467653703314,-0.017344908088802864,0.3632487753096629,0.5296652374584037,0.003342735805505378,-0.02825362530414012,1.313113198486008,-0.6247554997635177,0.26988732890223516,0.014053128285016129,0.36546801788663774,-0.5267374365575803,0.001995585387285818,0.0013897858410784288,0.9650606337206742
0.6205316071581531,-0.26126902369267535,-0.018212583546814872,0.3660603882220935,0.5244126843976037,0.004191475691710013,-0.02826996050659768,1.3764388834033081,-0.6233549999339644,0.27378537299686617,0.013184641643350661,0.3713848686579657,-0.5244388128375068,0.003348214817686192,0.0009455960935785043,0.968280977238116
0.6223973129341583,-0.26072084540117413,-0.01734848362951994,0.36394082035879455,0.5285659726895593,0.0034290171737487423,-0.023259183913816487,1.3486239503546624,-0.6254563468906248,0.272317856823789,0.013350307681135244,0.37177447225485455,-0.5255523546813851,0.0029399768992531233,-0.001266283140792206,0.9883674380219661
0.6181267866598684,-0.2613794000029248,-0.017410950074425374,0.36598792939852887,0.5270636078127073,0.0033745462862378676,-0.02698341679502742,1.385273560482905,-0.615796291304792,0.2760695666210671,0.01368328455513113,0.37021628720564137,-0.5251720846730543,0.004407619688891222,-0.00013321160243215478,0.9877072900982156
0.6158926351446918,-0.24680353990059636,-0.02158147296384864,0.4184638386132191,0.5363574916411299,-0.009389973232383315,-0.0682461700672137,1.111468439083139,-0.6250519267968768,0.26210019986400235,0.011533682523958989,0.3607171188524743,-0.5206834746847157,-0.005693318749054649,0.017722477376628618,1.0195809908930247
0.6183256552059422,-0.2460751949727032,-0.02147068029962475,0.42632572304109967,0.5350499203530045,-0.010563675779580981,-0.07222161591690557,1.1171464453427333,-0.6210686166333832,0.25964537650054675,0.01158557773330167,0.3629757333749139,-0.5218599851886879,-0.005853255901995336,0.0195021394245705,1.0305135872377802
0.6213385583672919,-0.24241095799940196,-0.021368315264978285,0.43086280142449007,0.5382196372172141,-0.01096954245712586,-0.07304136251382072,1.1242033390695774,-0.6229692651020388,0.26076793994755393,0.011753537614468564,0.3643534351840224,-0.522077890917327,-0.008309471630731249,0.01636635981186619,1.0242210217422436
0.6190334754260665,-0.2400232494736265,-0.02133825522644671,0.4312770584867825,0.5425480261408251,-0.012150024620082337,-0.0756034486145428,1.1478256189529135,-0.6225680415755035,0.25947784942963437,0.01146336463518694,0.3645394617732673,-0.5224819092445877,-0.007335875690788231,0.016432863179911508,1.026895168409836
0.6204561136162278,-0.23727616268040402,-0.02143699045415948,0.4379349412520741,0.5435166485661096,-0.013155321572014224,-0.07805168708286979,1.139429937476897,-0.6222916827074261,0.2629673046109655,0.011232241242318938,0.3622400220083034,-0.5228006068261732,-0.006874151739476643,0.018147779741627332,1.0417777007690385
0.62392866980933,-0.23874472736532448,-0.022495540007488293,0.4445229723816086,0.5427136011757957,-0.012657493754923385,-0.07967727041537079,1.1685094562854779,-0.6251976809919648,0.2617517257880694,0.011222407728936639,0.3640330283966778,-0.5240498939347896,-0.008676526782514678,0.016987974540795203,1.0270645775124394
0.6187249488953762,-0.23664855687386807,-0.0221041074506099,0.43692384232407067,0.5475173934308732,-0.014388272785205254,-0.07915008604750853,1.1828694892786693,-0.6241343548043057,0.2608347043324872,0.011176348412135162,0.36354275130277547,-0.5214803240881511,-0.008303023126816895,0.017406009049176857,1.0378413055974205
0.6166231382571475,-0.23691750589509109,-0.0219218737428944,0.4353351258950401,0.5469475532068131,-0.014961081106366262,-0.08136596249568681,1.2092915700019138,-0.620986901197897,0.260157788219233,0.011253076825606546,0.3632901200307753,-0.5234544379249688,-0.00872861831883881,0.01793358950077169,1.038698220220023
0.6161568012529285,-0.23569448562979817,-0.022403681946021037,0.4318867671451188,0.5488233208276382,-0.01762009425246143,-0.08961490305700998,1.2231137589598449,-0.6238310700544776,0.26028016576420704,0.011115175029361563,0.3637163996567602,-0.522900909173981,-0.008438502372272451,0.015568749748132884,1.0308601309395227
0.6227395319265522,-0.23408871734967213,-0.02260742833246673,0.44138087362587025,0.5462317038442547,-0.015930478894515383,-0.08691059158573039,1.2066858763126116,-0.6238515633880081,0.26300434601184464,0.010994308802880782,0.3622975135095653,-0.5217447822129619,-0.008460498868221129,0.01576086799568943,1.0329947450592223
0.6102049197890244,-0.23602321603488993,-0.02023946644513995,0.41232155168979157,0.5437734235194014,-0.019343042860044568,-0.0421989078098734,1.0270749488995885,-0.6263292252507185,0.2717677024755354,0.011985860001317671,0.348173814310525,-0.5187461833987386,-0.0064021819248103705,0.025549949793698835,1.0327965139118511
0.6119782276649567,-0.23663887730387298,-0.02046777733897413,0.41047814159187274,0.5454286631142151,-0.019687422063728994,-0.03819062321539375,1.035830039420818,-0.6257946165499252,0.27209848640624057,0.0119854807716536,0.34775607301137307,-0.5193300870872861,-0.00850242567829298,0.026121755925984695,1.0300949884241186
0.6111143428731518,-0.2366479359128896,-0.020275459590021618,0.410109530730435,0.5464829581222154,-0.019637345288029837,-0.03965167614421054,1.032538623041599,-0.6228389414256779,0.27428539954930514,0.012095262247343011,0.3474942516088305,-0.5190697673395639,-0.010332002124484315,0.025973764159149294,1.0340762509025399
0.6131759990121703,-0.23518067477539978,-0.020714097725776905,0.4119460583191526,0.5471855590843354,-0.019260369463081635,-0.03937943316126802,1.0011183050787442,-0.6279351964629253,0.27558584477605347,0.011648092045577449,0.3466834560760223,-0.5171711544093538,-0.010498710813167616,0.025140038012262937,1.0323980990190835
0.6197691087412535,-0.22538876107689138,-0.02298734571732776,0.41058438303687245,0.5501920899399709,-0.020106924706125642,-0.033663932865670265,0.9989851401633798,-0.6289413085968338,0.2793605514217362,0.011507511664227012,0.34381040188824835,-0.5139546701257816,-0.01084385932644755,0.02540705223708157,1.0400068217032628
0.6192120861697515,-0.23009954099715593,-0.022867401873971557,0.4096910566730981,0.5503852177427139,-0.021242733022852532,-0.03214780785925513,1.0171397621990887,-0.6260455079277513,0.27901533659422645,0.011832177179953,0.3444605760884317,-0.514198317419976,-0.012843357718064552,0.026161645984462578,1.0387773216639473
0.6113570148377875,-0.22761213200546265,-0.02191988186120901,0.401309396984655,0.5557802380380938,-0.02109187679248039,-0.0276172456924606,1.076664335303136,-0.6173269295152619,0.28144240443638374,0.012387540075281556,0.34878777719351634,-0.5203536880804467,-0.012485217789766665,0.023639480914880794,1.0506371473841147
0.6186310542618846,-0.22424895872190273,-0.022141451685023468,0.4088871562678598,0.5519876615052371,-0.019178258777235835,-0.026484006608992534,1.0366720021694882,-0.6256476416346293,0.28134099670854956,0.011882930015053259,0.34650698625690635,-0.5167086223762428,-0.012821722168477965,0.02485008525323182,1.0391975547172607
0.6143692435097281,-0.23123132862669873,-0.021282804230445738,0.4064947960695273,0.5510655030590792,-0.020532809756433713,-0.024385774792559177,1.0549760788313063,-0.6234606596889073,0.2819062933495625,0.01204946254852377,0.351073885158534,-0.5234209675378924,-0.014093451462311715,0.023643408066629713,1.0289975646621148
0.6179509811995025,-0.23391943686952693,-0.022311755438768476,0.40953499869327864,0.5477257690639432,-0.021161344533092888,-0.0029933245851489487,1.0373826339637566,-0.6235421541406607,0.2837371655140885,0.011913208857940954,0.350828873351193,-0.5196315737596915,-0.012723911770676388,0.02427753220352566,1.0234151718027862
0.6075621645068511,-0.22106593339884362,-0.022446127274318054,0.36549911382720235,0.5489866164195849,-0.02909627976495266,-0.040302891310782116,0.8948401529810559,-0.6292641288302682,0.28105998750273964,0.010385850667877072,0.36324535128502156,-0.5053927016054597,-0.01403721022667239,0.025712288824583623,0.9554847534213733
0.619235525978255,-0.21320581948308848,-0.023567384886421523,0.36402203986310394,0.5444027122214586,-0.028763290195377017,-0.04213583507493761,0.8904468917828977,-0.6254286543819767,0.2831434386553869,0.009997154593558138,0.36492508565560944,-0.5054555595550457,-0.015776768470055554,0.02439621157707699,0.9866290527342014
0.6186882744892704,-0.21937056714538716,-0.0238261701370443,0.36575927559132465,0.5492195010888109,-0.03131640833118891,-0.040136855200459176,0.8898356775211116,-0.6284309018278976,0.28524691163490157,0.010488352367151683,0.36349664575589535,-0.5098529461643954,-0.017460710642049446,0.025332586351623446,0.9822169240327845
0.6189337563084027,-0.23049225955250482,-0.023963363315652207,0.366139583802087,0.5475668226264868,-0.030238584837304607,-0.04169683586110579,0.9143989218042445,-0.6210077983239827,0.2861838357803331,0.010504207253862922,0.3641963872140951,-0.5077106886848795,-0.016246711534011506,0.026542491913716028,0.9748853429248763
0.6210512067086567,-0.22779557543145984,-0.024468302708953844,0.3666598956650618,0.550065226662591,-0.029597313831751,-0.03913022017084731,0.9645475373001277,-0.6245911082095668,0.282379960988709,0.010676660703385802,0.3703620881923864,-0.5097983796083922,-0.016992727001201993,0.025207454342553857,1.000749477594496
0.6171763458680994,-0.2256287659138627,-0.023969230957994955,0.3727581487754081,0.55023942889685,-0.03039487183178714,-0.03721203408302778,0.9675487998240883,-0.6210841525019529,0.2811190079814976,0.011713047558178723,0.37347355769255286,-0.5098347201039041,-0.014122684751745995,0.02688423726878797,0.9976056886539886
0.6167152350689142,-0.22320221237173854,-0.024335814755874006,0.3710741679202903,0.5507167883872498,-0.03175653869929644,-0.03468637174290001,0.8911984988349395,-0.6266179674664206,0.2895197948275671,0.0101495751533956,0.3592885406554457,-0.5101272291605693,-0.020280811867540327,0.02432524566921,1.0076662801892273
0.6141043487314284,-0.22445242937660695,-0.023983215275880224,0.37128598005727426,0.5496551647823502,-0.03199116215278701,-0.03506871523736852,0.8818829315773077,-0.6242322407412783,0.29224456054855075,0.010067594298835653,0.3577622457062396,-0.5091708166362873,-0.020319375498192772,0.025707346331966485,0.9913868761816977
0.6185542655658534,-0.23091164631223315,-0.024555565800063288,0.37075572938440216,0.5530140928242971,-0.032235223806378555,-0.03585061030217686,0.9041831902966501,-0.625317769725874,0.2906940024699555,0.010671804165940001,0.35850221190262016,-0.5127890748431853,-0.015153007658919594,0.025243125484665514,1.006329726840775
0.6176364116749374,-0.22246530376460188,-0.02430142634054086,0.37395759515012744,0.5520915460177785,-0.03333057108737845,-0.03534505449054563,0.8381912681200686,-0.6281807543106456,0.2975708294276954,0.010392271114282738,0.3503700493089948,-0.510779269219535,-0.020115941275457263,0.025842719279103463,1.0157784335817195
0.6116083206623897,-0.21792585675016415,-0.02556501039083471,0.33931124116091305,0.5521888471867922,-0.03523608785300753,-0.04887158743115397,0.9252898038599264,-0.6243154850383534,0.2860520859917102,0.01174233065924455,0.35305022240902156,-0.509739684576111,-0.020479028810938438,0.032990517170484485,1.0123605380814371
0.6140647787643674,-0.22195619885332182,-0.02648006596251952,0.33791811631116436,0.5495255594115167,-0.032288414435850205,-0.04655040504041529,0.9097187900246879,-0.6250584485612866,0.2872347544898292,0.011792797487379773,0.35262514379172355,-0.5069724781734269,-0.018726051855741027,0.03192902497509931,1.0065077528433604
0.6108730314725513,-0.21491863556526966,-0.025636870382439135,0.3454431894031706,0.5511610934867708,-0.031369787032557994,-0.04222309768282553,0.9555782022152839,-0.6207059519499846,0.2896576759382679,0.011816110190013798,0.34727918857680645,-0.5098407129469609,-0.0198140442854563,0.034714643282345525,1.0154523497114614
0.6147191335766651,-0.22011464358948285,-0.025173375089341463,0.34844863243913843,0.5536969631709081,-0.033819527312361916,-0.04344879588264643,0.9500023714382143,-0.6196204029908866,0.28690681921032424,0.012354703403527581,0.3506783268159661,-0.5066708387022214,-0.019580248104027156,0.036591050100916345,1.016692695159375
0.6163143004074043,-0.22090109919795686,-0.025450479064230702,0.35078338078608556,0.5500399567074821,-0.034505929554999676,-0.04437691438998781,1.022825210546099,-0.6197364796269205,0.2858462818988455,0.012812052173573275,0.3506786557354306,-0.505836593851078,-0.019355235961796488,0.034887926665031974,1.0166435194025807
0.6189261241919215,-0.22418781628783127,-0.026401536717495545,0.3463049437141432,0.547688745555227,-0.0332737155836466,-0.047074082327597244,0.9581628829518818,-0.6245568185220812,0.28806532118981465,0.011451176602349063,0.3481035814592203,-0.5097942511321141,-0.01948882251372309,0.03547195773478289,1.0045547303400322
0.6179898408880834,-0.22195220804634835,-0.025723691376156863,0.3453978523319665,0.5463848109280763,-0.03273918892106509,-0.04733815459190594,0.9338369318148606,-0.6244632109253989,0.28932620271481524,0.012727163156647577,0.34861914008774225,-0.5073022545829975,-0.018309616815093216,0.034276055415497844,1.0073171047249287
0.6128282898601269,-0.22345032212997712,-0.025931506006111764,0.34511764963427194,0.5499736637374797,-0.03256822028198103,-0.04662792866917763,0.9772355083588596,-0.6235174167311713,0.2908992572663392,0.012216632938275032,0.345756471003978,-0.5091215319971863,-0.018706254402754675,0.036200499819484776,1.0044555510946718
0.6160907155605709,-0.22613457375453794,-0.02618196268453666,0.3381229001230743,0.5486495002733888,-0.03280213658513724,-0.0455464509791457,0.9591890592525931,-0.6182415878854227,0.2882012395078724,0.015887522068300988,0.3431978713682852,-0.5033851923748469,-0.016602252560678515,0.03559589059127536,1.0039690782757327
0.6210460748653581,-0.2234578715517278,-0.02602121301504813,0.3449215476994349,0.5507681783266336,-0.03434823503043672,-0.04489175850996299,0.9504007419998999,-0.6233918317264268,0.2901956885001826,0.013750554091967803,0.3449527502572661,-0.5103336272373348,-0.01705998107841476,0.03516180319364961,1.0024929566162404
0.6133213875750346,-0.21212211590643237,-0.03490087902598801,0.32217960381044464,0.5555136596849561,-0.03736672194963462,-0.12211314082040708,0.990962132158971,-0.6235282438374956,0.29243503967272166,0.0135993666495379,0.3640232581569078,-0.5117426777956955,-0.013658479597310078,0.03884617511949657,0.9963678264013901
0.6126517516923145,-0.2182900631851517,-0.03479882063853386,0.33203122748102315,0.5552288278692743,-0.03609079630787924,-0.12467494947207977,0.9227566267459464,-0.6190165994953042,0.2953387423870351,0.013895277940689992,0.36188803973301964,-0.5026719407940188,-0.017999332774851277,0.04189812638118001,1.001690141693279
0.6102904242604025,-0.2142698375162652,-0.03307562707776902,0.3283857606667418,0.55151046980099,-0.03498430087708688,-0.12685739486851094,0.9710438667365997,-0.6211080530051932,0.29604674305026435,0.013772993461410293,0.36402695472887114,-0.5069134465506167,-0.017723275537430274,0.04032849692829718,0.9983223770249122
0.6101493061564491,-0.21535202760586705,-0.03232185726980395,0.33431056287994837,0.5554748581059964,-0.03335555310802733,-0.12553544055298738,0.962737402755607,-0.6186528461120827,0.2940286964185868,0.01378591152304861,0.3546626417155907,-0.496868810711652,-0.021462825440515608,0.041671010967777776,1.0075155481112157
0.6165535209303973,-0.21124838361497233,-0.03530844587657192,0.33416850322392794,0.5546581089888711,-0.035416074834647496,-0.13075882728752583,0.9765285100543297,-0.6191436646359428,0.29392230195556723,0.013107255786134094,0.3657552665814721,-0.5061755312784731,-0.020988699645187174,0.038924660530963044,1.0098085136860044
0.6102604066842785,-0.21314477326371087,-0.033264340860843365,0.3331200404366509,0.548893389012218,-0.03306164939246463,-0.12915538376568392,0.9823619246099662,-0.6209329735860986,0.2948809124422045,0.013404558338220837,0.3647341919297296,-0.5098873307150061,-0.01874118674280823,0.04030239858327928,1.013013002956435
0.6183692314999617,-0.21340262470466878,-0.03683905121866969,0.3510064803277422,0.5531059460484281,-0.03289131944554428,-0.13092500991588607,0.9840937421286784,-0.6176954646838692,0.29823196785158695,0.012838198953946781,0.3701308128126179,-0.5132256313259727,-0.019244248910358176,0.03929285507800519,0.9991888211748348
0.6124320039753218,-0.21623019335275961,-0.03578671040961664,0.34314618237655886,0.5528837866935448,-0.032752099599610354,-0.12974293979972806,0.9927313352227032,-0.6201425454943866,0.2946682698845018,0.013513675335189265,0.3686234292238154,-0.5106640536800567,-0.02153668295242271,0.04018152341997617,1.0001394817265528
0.6180864631603185,-0.21805009805308992,-0.036125785542513625,0.3523560003988569,0.5540545374062351,-0.03316885564001683,-0.1279810697532882,0.9835150760550915,-0.6174857657863286,0.2967581884752735,0.013404136665701921,0.36878633488703316,-0.5071617715925151,-0.022886872582570918,0.040451895855539974,0.9986265578390581
0.613977753422575,-0.21981518797401342,-0.035813765994758384,0.3503119709903584,0.5538226604280561,-0.03263625182451472,-0.1273735747965497,0.9802570177382905,-0.6178457578949412,0.2953018779897257,0.013498556308363979,0.3686530832749859,-0.5099958087135931,-0.022341004906323274,0.04086062599027579,0.9940854939962835
0.6069075376237203,-0.2100961576656124,-0.03600053108612423,0.374693934838922,0.549403900391585,-0.04230149577259667,-0.11948643476496508,0.8769758817970371,-0.6154329494530332,0.2919694909036074,0.012177139052170974,0.34538490571750596,-0.500828316154809,-0.016945196589329373,0.03884949463258382,0.9812579437155666
0.6085204680810617,-0.20674495854568337,-0.03610852064184931,0.3843793400796569,0.548579629574165,-0.04277384360902275,-0.12085968286316744,0.8867313201979454,-0.6145973639423573,0.2936304549588168,0.012371362792398395,0.34752510319750807,-0.5030037099298447,-0.017141540035947395,0.036014041469878896,0.9912698476435173
0.6065472260030583,-0.2063035805225497,-0.036145663498360014,0.3884974311338378,0.5472176512248588,-0.04185492582272089,-0.12012634449940471,0.892656710198648,-0.6158937854906288,0.29317760813251215,0.011888795249691995,0.3435996394981814,-0.4991750258158196,-0.017980477200947004,0.03675135399897695,0.9858583920069861
0.6040097384112085,-0.20238200969329978,-0.03569681986840671,0.3942430373045121,0.5512777140070464,-0.04394354398624296,-0.12457083511279211,0.9042353724625324,-0.6118492431115075,0.29388987751764817,0.01234724643155185,0.34571151746493195,-0.5026203706785461,-0.018122510352720972,0.03686418958825024,0.9889411622591968
0.5994493625909542,-0.20211964114680683,-0.03568767988706513,0.393178073993057,0.5498372174122609,-0.04318740167488521,-0.12318886451526223,0.9302308683573871,-0.6130661590616201,0.2920989281678815,0.012091601541495599,0.34672231413781146,-0.5042735704362109,-0.018575846850857974,0.03324870226235843,0.9899144899271237
0.6047433441749457,-0.19843407514007844,-0.03588383977029096,0.40889560192945773,0.54260619425896,-0.045232099784342616,-0.12606718953638552,0.9230118027903492,-0.6101397352051533,0.2940930503843707,0.012039585342456314,0.34732858437910674,-0.5015427740662173,-0.020232715012532244,0.03436273543002782,0.9916263665743033
0.6034639086340013,-0.1980442830895306,-0.03589678183226978,0.40842283770632026,0.5480184176261779,-0.04438095408242597,-0.12599594747879722,0.9220106669249439,-0.6135513387076684,0.2939553211836381,0.011700427245418435,0.3415379994532177,-0.5006816732247354,-0.019497449073974146,0.03448867270944117,0.9845531651225079
0.5987931869680767,-0.19455618360601754,-0.035459363394335586,0.4119715411073409,0.5512448792512257,-0.04678084477738283,-0.12853037440322068,0.9596052908240773,-0.6113087725264352,0.29299719235094535,0.011800119448184663,0.3389205398302341,-0.5005133383547961,-0.019336160647047646,0.03421316084014354,0.980657647166076
0.6030882994692124,-0.19486882760682378,-0.03514949037692652,0.41909299003050704,0.546154862538877,-0.04597433831646664,-0.12852111103411712,0.9343295104478371,-0.6100569790728204,0.29326994634210013,0.011939893139690086,0.34198332321443586,-0.5054491257189405,-0.020816187840017025,0.034274109009875375,0.9816015585202709
0.6064303192714681,-0.18896133189308176,-0.034567342216538594,0.4303801184761358,0.5430085786640476,-0.047677472282400456,-0.1363978069346285,0.9595550786225111,-0.6117263771674744,0.29479223490826184,0.011885173275676576,0.338802865119799,-0.5042191758932285,-0.022063665481429694,0.03247145445126681,0.9843245413623922
0.6004600451215537,-0.19782190660011087,-0.03542987565239926,0.3646195847273109,0.5519010896736182,-0.05091126403895155,-0.15788503875535465,0.9463363116230716,-0.6250739339631196,0.3084635859324966,0.010362213454875445,0.3396521352973402,-0.5060204654393526,-0.013779426498647216,0.0428393150711303,1.046047820411884
0.6021730449412284,-0.1989489932681642,-0.035507266168242804,0.3650714622848132,0.5532740217950947,-0.05160341526335016,-0.14894437095286484,0.9337204412583062,-0.6238485007841501,0.30804849554192426,0.010039813395427553,0.3379250968760604,-0.5048182682675976,-0.013159410126872627,0.04561827385098653,1.036628699775804
0.6028907911899393,-0.20729432221753943,-0.036361266539667404,0.36042398962036276,0.5519766368905524,-0.05225927011611862,-0.14045025271923592,0.9140808163441909,-0.6227112456770612,0.30813936304757295,0.00978811734448962,0.33163601186965674,-0.5089898402092073,-0.014857251766969774,0.04287334795491579,1.0421014924590057
0.6021437724117005,-0.19889206675934687,-0.03568948178721943,0.36463910947269307,0.5546593541695674,-0.05297445939566567,-0.1436334552780588,0.8840101428227393,-0.6231409361561148,0.30886852925304314,0.00957653364982168,0.3307201854113329,-0.5079948766391049,-0.01526565650935171,0.04250699225437421,1.0556376660318454
0.6022723907038636,-0.20251438806045347,-0.035395229687879316,0.36413790240538646,0.5530899712876589,-0.05236226881918136,-0.14379915782604147,0.9058794171267195,-0.6272055157421603,0.31001576087062294,0.009112359297028621,0.3233020013587833,-0.5073922125517465,-0.013979158746299247,0.04755559090988894,1.0411408566782445
0.6030569549195156,-0.19833612817812826,-0.03540033329634684,0.36833640799715783,0.55219609423361,-0.053053341263176276,-0.14259798269303972,0.8943679525345041,-0.6273939921104207,0.3097109743392207,0.008795036670793793,0.3245743946222777,-0.5084912458292988,-0.016815211374464442,0.0434490075683847,1.0453091865370652
0.603011565823007,-0.20056997105390634,-0.035535716739699005,0.36628288305901563,0.5521818386805172,-0.053031436153138,-0.1426878013673159,0.9238767922330247,-0.6266859177533177,0.3117623367870262,0.008948596022035278,0.32603774223176496,-0.5112963518242354,-0.014334860770071657,0.04289608079507307,1.055243495917394
0.603318226628961,-0.19098570305046128,-0.03552623393368737,0.3672416720007726,0.5519339603222634,-0.054012252162324303,-0.14466275228367548,0.9243681013334419,-0.6238961280882321,0.31197873045884106,0.008998599217101909,0.329276268191129,-0.5067069071874956,-0.014717891589831052,0.04281338740841353,1.053412977716274
0.6009260507867359,-0.19895329863437727,-0.035059058228255585,0.36487651229537216,0.5545899474970427,-0.05302414347724298,-0.14337052398399808,0.8971587353155432,-0.6237023096784325,0.31196407320170216,0.008457224618581002,0.3257452754932438,-0.5075636088874692,-0.01627190520412257,0.043978044654831426,1.0477519291147446
0.5966914371881699,-0.19912197514497107,-0.035673740277558,0.3670998543991012,0.5565547680867917,-0.05283205436407676,-0.1447550524123708,0.9346314840889918,-0.616583182699509,0.31195694880802083,0.008333934188520886,0.33621304994009815,-0.5068606410798586,-0.014733882423620549,0.043293475874426605,1.0471984524700826
0.5997952558016106,-0.19054142049605666,-0.03622487915591173,0.34155336408921544,0.5558543146271243,-0.055566740444008,-0.15884203786758352,0.9461330769711347,-0.6279563816680629,0.30100410413449336,0.004792365550953824,0.32833230124079527,-0.5052244608148232,-0.015904879650899522,0.04412118543708124,1.0338570293263947
0.5998766321717501,-0.18882744993699094,-0.036103458926916146,0.34473976170714277,0.5556290727964759,-0.05457347407521136,-0.1575907161569611,0.9426050897660532,-0.6245417835072747,0.3005573879714924,0.004326387101226891,0.3235761423810585,-0.5066859875157279,-0.015952222012715706,0.04538352839501889,1.0224940124603665
0.5998784551581022,-0.18847161111450597,-0.03713640860789817,0.3426483946336639,0.5518968206158411,-0.050063386599508104,-0.15954056105175732,0.9614426984301288,-0.6267351896574376,0.30131591634604765,0.0036225456640060945,0.3315823076965141,-0.5050297921696069,-0.016460351078567123,0.04715872060902366,1.0305068804880404
0.6018252090734563,-0.1884627842859817,-0.0368124207752734,0.3396606973894288,0.5507184505743733,-0.0498582347646335,-0.17582684518928732,0.9569876022409398,-0.628708347338819,0.30010792825316074,0.003291639119397196,0.32776515204690887,-0.5048572443531046,-0.017931782288425836,0.04713171633486904,1.025490847175564
0.600780362813925,-0.18727405707729305,-0.03658112782363086,0.35075694119215306,0.5537332942081549,-0.04905452380440081,-0.14853551021685787,0.9589029328799363,-0.6286304619509111,0.30031551004053103,0.0028199148992948675,0.32909172951136173,-0.5050856543130425,-0.017410807778511728,0.0482133650888407,1.0266001563168534
0.5989202605840332,-0.18807726710421374,-0.03670068275910131,0.3508877788585946,0.5562619716881259,-0.04794776432066445,-0.1628326031317638,0.9531480104580474,-0.6229852084803791,0.2996200893954326,0.0017201169035470833,0.3302867784189437,-0.5061908178418645,-0.016573782643453324,0.0482823382443715,1.0209496347655482
0.5982839774255289,-0.18992781823949245,-0.03657781973783854,0.35458629932007435,0.5581570302663881,-0.04931991281116171,-0.16364289152175981,0.9732563555484228,-0.6229021438810509,0.29818911084384386,0.0016000091363944438,0.3290819041739636,-0.5053954822445075,-0.018102267264678923,0.047752750452209614,1.0205582662047856
0.5996243389420605,-0.18698950556924326,-0.03669704519985095,0.3464092601297635,0.5590593040877923,-0.050432130893649285,-0.16672660365714148,0.9660587625924297,-0.6274133685058553,0.2969466717292424,-6.34498151092875e-05,0.34513073581260445,-0.5051779484482775,-0.01788255557427814,0.04734859810431931,1.0113147944954342
0.5966172258215917,-0.18486907829077218,-0.0369842814526142,0.34116362159147606,0.5518109793368503,-0.04747931182937808,-0.1805128910503134,0.9531121133305109,-0.6221834582593079,0.2970256936113789,0.0007907462622092354,0.3331620626203347,-0.5072519012042062,-0.01737624640605072,0.046921974045604206,1.012956759643744
0.5924986629436332,-0.18559446061086843,-0.03657674991813952,0.3531237194537428,0.5531674237304806,-0.0483800197422825,-0.18878547089412429,0.976905101566077,-0.6215587155024733,0.2972106317065053,0.0005585259695861447,0.3396947834040261,-0.5038649922754855,-0.017724561162051067,0.04746990362043295,1.024258736597584
0.5970796631380745,-0.1940941380133013,-0.03637427490587398,0.3399232053254504,0.561349275221381,-0.0344211186148974,-0.18108307726737766,0.9454170824962282,-0.6233552614265466,0.3044380482772356,0.0018644657045404304,0.35319165230170396,-0.5036155862385183,-0.014818352730703584,0.05442507050233954,0.9699352522435433
0.5999471488694312,-0.19584331829467785,-0.036091082347617195,0.34380366462603174,0.5612730833693194,-0.03282362087231598,-0.1805727705304515,0.9569580089992145,-0.6210749491251755,0.3066862420984869,0.0016013441197590735,0.35656796232298377,-0.5034460381278053,-0.014237429276473748,0.05230400008745871,0.9866167641009758
0.6003444249963057,-0.19614970814328933,-0.0352678431686976,0.3442627484039731,0.5595925361029035,-0.03446965921933829,-0.17991203653028354,0.9305630262295618,-0.6188823778586345,0.3078895634241798,0.0015238848072549032,0.3561310848515007,-0.5056032982536002,-0.013457020777352472,0.05329893129128665,0.9843279371850453
0.5951514471134324,-0.19472874385211264,-0.03573682128775272,0.34402286379513713,0.561957811499497,-0.03320385109337743,-0.18136874379646184,0.957752955266209,-0.6214947646149092,0.30793386197141753,0.0014753864043145996,0.35430772432649005,-0.5099307826141809,-0.01572709680838823,0.053364191012650705,0.9683681649847328
0.5939265905094887,-0.19641842451266475,-0.03611059320591219,0.34478167501615525,0.563165965406706,-0.03115043096160449,-0.1804822847314948,0.9641904046581242,-0.6238279169333211,0.3109530731306339,0.0015940048131063093,0.35385228855494605,-0.510104856131279,-0.01687902281035244,0.050034304776522924,0.9482967307161223
0.5996544714411427,-0.2021086207867017,-0.035377830022673154,0.34757095768580903,0.5623928239177364,-0.03063809603063295,-0.1798989122550266,0.9518643817097237,-0.6180649322300196,0.31029035134210553,0.0013404445837906336,0.3566630170306129,-0.5055928722516273,-0.015315027057593307,0.052600643009164616,0.9754888655058873
0.5984847489069577,-0.20287781136256167,-0.035074922461782676,0.35313841768823606,0.5611277418373563,-0.03087639064756149,-0.1799217753036571,0.9709542114717281,-0.6196645692494661,0.31036794017611025,0.001444549741048939,0.3565752226920808,-0.507851951276197,-0.015782159896301544,0.0515622002185465,0.977003253841901
0.6001712907139702,-0.2002149567371363,-0.03503452772377544,0.3465121594694604,0.5600994389771206,-0.0313588116148143,-0.18017799482464697,0.9613105794900005,-0.6247598725901803,0.3105083635754089,0.0014911597125515878,0.35216543564292013,-0.5079129454464045,-0.01759667820623568,0.05102561591086165,0.9766717154315067
0.5951899421200366,-0.20032452094430733,-0.035446288577672146,0.34732626990211957,0.5637953834122393,-0.029453055004882604,-0.18073978238855484,0.9764257216940179,-0.6261892590896392,0.3121111938716664,0.0015413514200384396,0.35358688072319666,-0.5085180396751618,-0.018190527483339936,0.04968704652900701,0.9649927172676134
0.5928873819867783,-0.20181701478667433,-0.03566940455797592,0.34738557321763064,0.5631951455551396,-0.027852880623056863,-0.1805542250878141,0.9814732518185136,-0.6247023059485404,0.31064875633947436,0.0015168437029978686,0.3545171223033726,-0.5069599997164599,-0.01786925337286944,0.0509061849824142,0.9834732510710589
0.5912412507047589,-0.20759920046609698,-0.0367908465159901,0.36599228115803045,0.557157127974769,-0.04228391956981568,-0.19658022251556084,0.948770815413311,-0.6212598663975807,0.3024611093309429,0.0008567384537362249,0.3601910107174932,-0.5046906119835829,-0.017236915799722745,0.058447158452696324,1.0186190392309853
0.5936134324429627,-0.20568468662848333,-0.036269632425914564,0.3591174827002031,0.555892065276514,-0.03841853654022563,-0.1976653413346902,0.9674489882987428,-0.6228961922791808,0.3027292629312423,0.0004529470544460106,0.3590492165870617,-0.5007233000142786,-0.017282552765807112,0.0548335894791633,1.0165170674565382
0.5954697311120717,-0.21153699418710062,-0.03747213560866265,0.3730877281947399,0.5592032587333484,-0.03915760568473405,-0.19757617108066422,0.9446366701881876,-0.6227545029584923,0.30747390829202453,0.0004755230703852222,0.3590096074412731,-0.5032470320507516,-0.01794439038498109,0.05474852842263432,1.0129471664447494
0.5948293279733291,-0.21035143174062323,-0.03723693118258112,0.3745614367284916,0.5593576210294202,-0.03883807529242659,-0.19666964216199073,0.9839157011314944,-0.6237976638116454,0.30609135042849916,0.0002651801402141201,0.3575701064929617,-0.5010773906473178,-0.019186578190633352,0.05480843207503621,1.0161527381336506
0.5912622860712319,-0.2119435702821731,-0.037669473413336464,0.3727870500321718,0.5598594312502381,-0.03876706536225511,-0.1963735635000424,0.9735033452966679,-0.6232067684808218,0.3076777176908151,0.00020682397083160615,0.35608905004056274,-0.5046670846281877,-0.018569936212369915,0.05749935525809005,1.014765629475451
0.5870019821967967,-0.21018910523130002,-0.03645331495547688,0.3756341457791155,0.5582639627197572,-0.03855065479131234,-0.19609335866460434,0.9567285957103668,-0.6228712677666938,0.31103713396593086,-0.00023140842715066272,0.3552132989487363,-0.4998172305773637,-0.016880364490392468,0.05532057963719872,1.0180758349498489
0.5894414966274998,-0.21276945297229236,-0.03617080072492781,0.3729120025699828,0.5569625328733618,-0.03806480489722546,-0.1972722864364728,0.9455240734470809,-0.6243411968165927,0.3149701626459217,-0.0002530950723588013,0.35294136922320424,-0.5011752550765423,-0.017286897771384396,0.052881094824868705,1.0108179856412947
0.5917838056338491,-0.21583138829506404,-0.03809459839978568,0.3814107232411952,0.5596368989689086,-0.03733434568418171,-0.19606966638623077,0.9501111353569515,-0.6226526709869673,0.31511838271207515,-0.00019719287167460457,0.3577427605445286,-0.5052023928084614,-0.01799139530744616,0.058163423197659964,1.0105384245413833
0.5920858438561666,-0.21208997713136418,-0.03680704584301869,0.3821139057066995,0.558748246833317,-0.037433214328376735,-0.19279265331596626,0.9416011302851282,-0.6213290125615318,0.31775302638475184,-9.963934782784671e-05,0.35285265753130324,-0.5068804603421347,-0.015209052407909098,0.05728095412439516,1.0162855572471674
0.595865859674477,-0.2134910431544086,-0.03724657506450557,0.3900071522125248,0.5623172110697561,-0.03594062685162361,-0.19258742207196033,0.9174576853977408,-0.6213612064021744,0.3182025201422315,-0.0006523081553848134,0.3530553639585297,-0.5053000522860016,-0.01674615007378559,0.05636959014225561,1.0162732049422671
0.5944595558191854,-0.20979157159968742,-0.03490638701854875,0.3765480646261897,0.5629297204441788,-0.063150743564298,-0.28095573645853744,0.9349409435945473,-0.6280705343887093,0.3470869054681991,-0.01114499787992651,0.3821948747342838,-0.49356322998408053,-0.021672491819504446,0.05269465051287984,1.0203980682711287
0.5973887520474512,-0.21109364818268522,-0.035100948201805676,0.37856321082658295,0.5640285918276671,-0.06351699628194193,-0.2813526569390158,0.9407624289218256,-0.630186222026552,0.3508199005418939,-0.01074730943243948,0.38133221252481747,-0.4985537998354668,-0.024310100535877264,0.05415221317625598,1.0154583348488875
0.5979966205523582,-0.20836366086458225,-0.03427517229260138,0.3833528831302918,0.5643184188477298,-0.06494041768540605,-0.2779577654316277,0.9714745447130683,-0.6283282848588714,0.35287467711624615,-0.012155555639318109,0.3787523010201523,-0.4946465332198675,-0.024954340503317896,0.054436998783914635,1.0252026055039958
0.5990525738185912,-0.19908765917324592,-0.03194929382324899,0.40442457161023193,0.5635553481674486,-0.07095649765042415,-0.2773769429924897,0.9756220638070481,-0.625189964403943,0.3519981894781303,-0.013261447767574564,0.3707070093764706,-0.49581385841152686,-0.023067711024905013,0.05275732155267686,1.0415640610763794
0.5962318218110167,-0.20422628148443325,-0.03274739008582045,0.4001766402701802,0.5631734090330328,-0.0731334133129301,-0.2793050954242514,1.0029350499479697,-0.6196049100374461,0.35050518479101317,-0.012990573058305704,0.37527153040160266,-0.4913358882767931,-0.02258120992573342,0.054112927070535916,1.0358898536620693
0.5986736363438521,-0.19923108075940402,-0.029147580741440395,0.43269254171931376,0.5552468218853124,-0.08503390485985828,-0.2840212429484321,0.8952188020110888,-0.62834409758501,0.35855880296247644,-0.015937261409726972,0.3705979891708444,-0.4956791767911322,-0.0303961961037139,0.05281572115847655,1.0418429854595432
0.595991183882645,-0.1898920347741498,-0.028335094887096075,0.4357750892725571,0.5622648223816616,-0.07989700835522673,-0.27879909070629305,0.9485527403635268,-0.6249420140819284,0.36114062128133545,-0.013807342254533523,0.3666066389798868,-0.5028148148879897,-0.03215149646154461,0.05604702596570946,1.0269290417408001
0.59595327509126,-0.20067715750843557,-0.030433403239539525,0.41759800335095365,0.5633865521104106,-0.07721995384815422,-0.2834034730246515,0.9365036943979597,-0.6296623580908687,0.36394312901248993,-0.014363553111249382,0.37121952021912885,-0.4984270729023167,-0.03172851737235719,0.05459255454845366,1.0354039114404197
0.5955909704631829,-0.20026781573184918,-0.03001984729365188,0.41617934905817655,0.5665791973108885,-0.07278664484386063,-0.2820178737676444,0.9507948880825523,-0.6262880409156791,0.36667435195985365,-0.014174035291453654,0.37376101151625324,-0.4980229822929889,-0.03219408964885285,0.054151308705942335,1.0379431378292285
0.5915399280157896,-0.20221096927330645,-0.02859265354894961,0.42640146753127084,0.5671894700838521,-0.07686506368226584,-0.2851653555407116,0.9592665445156903,-0.6265568342514329,0.36422378859577315,-0.014509945683287019,0.3715830999493957,-0.5013641906559756,-0.033852378847255185,0.05383166306180813,1.0348691542681325
0.6004219107987198,-0.1951524300568786,-0.03268002846350895,0.3897220871643611,0.5616890783981656,-0.08425491955067134,-0.24042783471713475,0.921712939651315,-0.6242404068856737,0.3486925129546881,-0.012995524456976592,0.3696440742719659,-0.49475487101641596,-0.03531220532986108,0.06153836048404958,1.005720261570121
0.5949489753631736,-0.19968169622555887,-0.03297705330810763,0.38125326457972947,0.5643518931060146,-0.08370476260883764,-0.23736997210442065,0.9153021504431432,-0.6309328299528789,0.35555805593485823,-0.013315493422771309,0.37674861400065657,-0.4936980948418135,-0.038920479951002285,0.06050655789141555,1.0041521980122976
0.595947886873589,-0.19565690291253374,-0.034102923117939256,0.38228090486035543,0.5615569095327813,-0.08458862830718278,-0.23602076543395736,0.9092966923372403,-0.626134849858045,0.3489273184016689,-0.013584078422702161,0.3729729082387972,-0.4915944561153707,-0.037980599889415795,0.06215482374395431,1.0071028707633052
0.5944847361142641,-0.1896186167781112,-0.03342821746484767,0.38716531665300913,0.564784496397876,-0.0832161879291007,-0.23117783928123772,0.9170844428253306,-0.6253422221690985,0.3502548996372215,-0.012415837189472305,0.37560280343162644,-0.4853469541830571,-0.038878701167880794,0.06237155306639204,1.0111011123549918
0.5976220250690291,-0.19252258149637633,-0.03575756811069501,0.37307351904681746,0.560398501644568,-0.08581763151510281,-0.23279451618751326,0.9032711624838065,-0.6283248487121181,0.35223242436513447,-0.013326958505638564,0.37767750670926714,-0.49358004541658,-0.03966759038992988,0.060455785012712204,0.9985344885973776
0.5974022981772854,-0.18939914330709634,-0.03330063371342351,0.3958106464354766,0.5679776534300308,-0.08225112933576925,-0.2179218598957873,0.9278022744600958,-0.6218038817146004,0.3488763413735889,-0.01208045705772155,0.3750230451553328,-0.49456688320138,-0.041590476020466116,0.0633087980289096,1.0045802626816047
0.5877637375983832,-0.19505523212319392,-0.033074710102436206,0.38864702464554846,0.5653445500844175,-0.08344781426883371,-0.2250150412395673,0.9298850082889698,-0.6260237356215884,0.3516239984216184,-0.012951338413450326,0.37676729904032763,-0.49356375175768297,-0.04054402123743716,0.06214362581794216,0.9936967147502939
0.5955130070296866,-0.19203253392662636,-0.03504726295813436,0.38152468624555763,0.5625621670461408,-0.0859779801102824,-0.2279599665021607,0.8934286735486221,-0.6300730100614077,0.35000651597409416,-0.013098273647703482,0.37616903979855865,-0.49442456667326595,-0.04092673509169371,0.06127803605719997,0.9934723782162775
0.5898099084552089,-0.1912647253201681,-0.03380523846505601,0.388605440874913,0.5654818918236638,-0.08652175765335504,-0.22608727894103356,0.9001315209108911,-0.6263116059975329,0.35141737058137146,-0.012957182574080137,0.37633331243900037,-0.4949615762270077,-0.04054056191537021,0.061491127074859916,0.9918239397810352
0.5948545387644676,-0.1976805417942803,-0.03375770685819515,0.3839389713185403,0.5649416804083431,-0.08591431100241168,-0.2256395821671146,0.8789860333851118,-0.6319584250644872,0.350577395035383,-0.013062268326647137,0.37893866842921253,-0.4947146972839349,-0.04090172969834002,0.06114214376904419,0.9947537282227266
0.5852547348837642,-0.19445442390477743,-0.035615122810625024,0.3539196449898198,0.5636237309790003,-0.0930250197964518,-0.26562003548690655,0.8348654430307962,-0.6334518536123881,0.3652011275263471,-0.015553435123163182,0.3628094821424389,-0.4943089483287311,-0.03464657772694455,0.06568926207990643,0.9882810992310127
0.5903733274636814,-0.19340445827445346,-0.03578856323782733,0.3533291461145802,0.5633232089740318,-0.09457632708102269,-0.2724078171276412,0.8399256684808841,-0.6329937022490192,0.3668968659751773,-0.015676617516865513,0.3616899821129586,-0.49358011086076253,-0.03500077226885175,0.06561481250250882,0.9842082132126341
0.5902403958583712,-0.19221922694296514,-0.03609750296244743,0.3558351756184782,0.5651964676864267,-0.09485811294808974,-0.27600000296578014,0.8628879884298586,-0.6298706286602823,0.36872721563878114,-0.016440600479401855,0.364769624882923,-0.49236106922245904,-0.03449248699512095,0.06698788013271356,0.995377774306897
0.5871252139933429,-0.18640035851282247,-0.03728617515090641,0.35196674904372915,0.5655533019436987,-0.09834638925469096,-0.28431466466034955,0.8420811377700045,-0.6357817806808059,0.3715024409927948,-0.016793904173633117,0.3628461974004619,-0.4902011804083212,-0.03126363069695551,0.06588782832550541,0.9887798182353944
0.5859561180815767,-0.19090171517334553,-0.03388567485305298,0.3507554872088282,0.5662186186960132,-0.09759486899828462,-0.28145251273662125,0.8532836025150048,-0.6348917917058223,0.3781885534119887,-0.018008831444780795,0.36744620551644214,-0.4913291850703815,-0.03317134141447034,0.06634727882131344,0.9876169187678616
0.5890153819771736,-0.18804265400437373,-0.03633650860779769,0.35183713695969937,0.5662586828050735,-0.09400821152984654,-0.27836755363921994,0.8818861491856905,-0.6324222995038837,0.37527609753076097,-0.01777672580298638,0.36236648797596016,-0.49124309438344627,-0.03220499549168691,0.06721186782941828,0.9868987871723105
0.5851280154191585,-0.19185098525007402,-0.03606108085604394,0.35319752979137736,0.5628534408160062,-0.09741100088389916,-0.27997337885851936,0.8716135951518249,-0.6333945596606287,0.3778913984575733,-0.018374181744111283,0.3629585218887819,-0.48996140111968534,-0.032612881563246,0.06817644165422722,0.9832024342144792
0.5821293038879647,-0.18946585419308185,-0.03557143290735322,0.3489570015231931,0.5676351331412041,-0.09986781567619707,-0.2817405671979731,0.8247927528210378,-0.636313136824691,0.3838034061880764,-0.0193768616686789,0.364686897111188,-0.49011277669523534,-0.028814937211732106,0.06879625473664437,0.9792345852355373
0.5873501453323976,-0.1900274635541658,-0.036209526737625286,0.3487476492999851,0.567560117138072,-0.09668311148526199,-0.28124757452869,0.8808119933096379,-0.6332643673726144,0.38139822041222604,-0.01945175952733287,0.36402773043390196,-0.4877930420367223,-0.026662307705142815,0.06828893879654443,0.9779575861268626
0.5890671529246254,-0.1885411946735932,-0.0369224605715599,0.35369028245437284,0.5644529083455249,-0.09529288101025754,-0.2789428707410411,1.0079977706861913,-0.6327962985425032,0.38165849735367274,-0.020485063349686018,0.3664054198377081,-0.487522873628602,-0.03160696954953558,0.06861358090974998,0.9869584899793293
0.588623614702799,-0.19169731553541652,-0.035026405297030605,0.32319537066815546,0.5693843020679671,-0.10075926111086551,-0.2755973243249955,0.9471032843967784,-0.6345307060065704,0.37269982776287863,-0.0175739422530303,0.36344939339550086,-0.4883137660228777,-0.032389736373232114,0.07670429605269083,1.0159190630873383
0.585278687757943,-0.19317881113201518,-0.03540400513688285,0.3194155243198796,0.5647741329366102,-0.0997056612773711,-0.2731123659425946,0.9253246722283202,-0.6294435143364666,0.36709257933245937,-0.01782113867234727,0.37545413305969394,-0.48432554074711504,-0.030238897949221105,0.07736072559457971,1.0244938124207406
0.5890644659537438,-0.19132539323801537,-0.03473673050999368,0.31875568562259676,0.5702423229082317,-0.10533228496632709,-0.2709055549082992,0.8645042565971898,-0.6390696810302333,0.37005486342052124,-0.01726639319653538,0.3654071612770991,-0.4861342759590458,-0.03384426225074527,0.07791880711926756,1.0175440703462748
0.5816797679944163,-0.1933690593484689,-0.0359708174921812,0.31572573093839335,0.5703164257979095,-0.10714993816747304,-0.28056622481575144,0.7700117224590307,-0.640182083811169,0.372898337266322,-0.016718566732872107,0.36189197481916824,-0.4924299891152253,-0.03120734926606829,0.07683969817628954,0.9983063954345514
0.5875784035351728,-0.19626465295699735,-0.03518490054976612,0.3172231899615241,0.5719313487776427,-0.10644305263834163,-0.278795340792612,0.7328300030805367,-0.6398577241916718,0.36969708474347607,-0.016961553730478182,0.363936203255782,-0.48877931377362827,-0.031543978762741245,0.07721068564013084,1.006099490064899
0.5849326809075958,-0.19933200985203736,-0.03544363067280376,0.3110544377929449,0.5683273954980587,-0.1024032983728991,-0.27836165519568645,0.8269374748603895,-0.6362067664826402,0.3721777625418129,-0.017246693097416353,0.3673472882120053,-0.4871272256958579,-0.030344623385105705,0.07629835810534262,1.0195047122266807
0.5810797770284876,-0.19934836867520764,-0.03557453973739061,0.30979119405751154,0.5689474763442357,-0.10464776344266369,-0.2729334892408742,0.8215298133704315,-0.6339586264039377,0.3691083147059861,-0.017488967110181622,0.36832560333336356,-0.4837979402141093,-0.0260484638600471,0.07678764153327006,1.022641306267942
0.5790476131719979,-0.2002914460302854,-0.035733030252599274,0.31116655561762274,0.5694809858513723,-0.10589491784554916,-0.2797769477357867,0.7771281091082187,-0.6338424448385571,0.3695683895326289,-0.017059015754144365,0.3664304478368001,-0.48774219374649236,-0.0314472022942773,0.07667601239068933,1.0218324425358802
0.5889573483324986,-0.19727089746708104,-0.03544322324549488,0.31019682173644536,0.5693802178234711,-0.10533414462124893,-0.27868683483376866,0.817376898763075,-0.637774765913403,0.3689476856684207,-0.01723864273514346,0.36494725642549164,-0.4848520543042239,-0.03131869022355893,0.07753545758859108,1.0163451539347284
0.5803817917653386,-0.20975902126938695,-0.03640184026887128,0.3041752648589304,0.5663971002161626,-0.10283196387813888,-0.2828543876522095,0.7850553768468687,-0.6369027013992672,0.3742814125248973,-0.016763222128228252,0.3613765248245979,-0.49178831284075697,-0.030359798298127114,0.07964642127712848,0.9974085187011966
0.5734855744423987,-0.18822150551414682,-0.03806655172928782,0.2787447171054108,0.5740701389797253,-0.10785187105504522,-0.4185750975464346,0.2073030602636754,-0.6415254113708313,0.35202966271550273,-0.01966793245371521,0.3640220457438507,-0.4776917109654101,-0.035292160072821765,0.07658595611026008,0.9983312698354849
0.5775707970291261,-0.1948989795088807,-0.03916943139803923,0.2768210207878697,0.5760783496871138,-0.1078596873231027,-0.41645586065478,0.2608059777774437,-0.6411671790411431,0.3491394701390398,-0.019837283854194525,0.36249030702662677,-0.4779167826832946,-0.03588239078681698,0.0770244958359459,0.9934289753579935
0.5757488227219713,-0.20087723972391722,-0.03978222037468182,0.27341240561226776,0.5757695536682494,-0.10752439199206448,-0.41898941314708726,0.2696286161862205,-0.6399932760322722,0.34944154545230194,-0.01972413451041286,0.36315196624957957,-0.4783169215679607,-0.036428253913320566,0.07705745356711663,0.9928807410145521
0.5742642622079275,-0.20751975843206868,-0.03905448198469093,0.2739039450872006,0.5746538467554458,-0.10674885194520509,-0.41406871397320133,0.33999228317293073,-0.6350172573843433,0.34741530219378036,-0.019925150485430268,0.3664581621079463,-0.47834582890506727,-0.039525216164349716,0.07916348351597541,0.990054694954911
0.575956223552883,-0.19942172445498685,-0.03942222173912077,0.2778398479571372,0.5756740888051631,-0.10735873450336404,-0.4149402656072233,0.2969738221879554,-0.6378583908751214,0.3475626542616592,-0.020159914042108623,0.36457303714624506,-0.4773630636200286,-0.038206378820518874,0.07988571181435881,0.9996233379071825
0.5742558774031817,-0.20789077452002608,-0.039993881445752624,0.2797454047800888,0.5791352740682982,-0.10806737286257957,-0.4117001719649559,0.29718670966504085,-0.635441938561666,0.34489079218453367,-0.02037802456592229,0.3650450516658435,-0.47873106670433363,-0.03810460559564105,0.0793696356416243,0.9960421245611806
0.58372375672759,-0.20858716859418497,-0.04204741112511787,0.2868435785736216,0.5794583496884478,-0.10853534915582162,-0.4109177781153397,0.3074692667399334,-0.6365648802944871,0.34731736645904465,-0.02113114601605963,0.3661898151242848,-0.47484651312716986,-0.039531998316161804,0.08182824270697246,0.9927182509006043
0.579695820360238,-0.2078999899729849,-0.04076663064763725,0.284777924671171,0.5770588461765879,-0.10728218773653202,-0.41025799804111673,0.34286851862830076,-0.6367195461516392,0.34732826749619916,-0.020516314411125856,0.36686392802274187,-0.4771656914882543,-0.03953451584120833,0.0844228164604538,0.9786970689573447
0.5807882147040362,-0.20902094665696436,-0.041560660389436524,0.2828663660668906,0.5771490376659038,-0.10856925851892951,-0.41173350325974145,0.338906263733997,-0.6389117806329033,0.3462398555264039,-0.020275448453850223,0.36621994294018856,-0.47833545231108976,-0.039735541732754745,0.08149666680763666,0.9940410723912034
0.5829237190410804,-0.2098444697171089,-0.04107129023209277,0.28208205748233606,0.5738832148927628,-0.10938789787409316,-0.41054698148917323,0.32525379814613786,-0.6416945382618621,0.34678015211515106,-0.019986897673553133,0.3662451565785884,-0.4806786200838218,-0.0395275789980982,0.08255672060345853,0.9909109940846577
0.591364810462014,-0.19915294405889444,-0.04405897304600037,0.2887182405727387,0.5749856152274393,-0.11576739324154114,-0.4155482649490272,0.5267063328087472,-0.6359343936315097,0.3543504654364704,-0.023074492251227458,0.3598350836618278,-0.4773739386062739,-0.05167177461809235,0.09605855909452365,1.0350049659503626
0.5896984473888425,-0.1891789589414517,-0.043018612150291846,0.2931053152513527,0.5774726548774612,-0.11115020408626065,-0.4091979674632704,0.43859359377352114,-0.6352885082434037,0.3551930220008577,-0.022672281710478748,0.35326408751586447,-0.47592654419321234,-0.05355274497318529,0.09280419029429282,1.0365983920586257
0.5882589141714585,-0.19269928114153217,-0.04332331394180475,0.3002889488116785,0.5747227462310476,-0.1121804017574132,-0.404067501221032,0.3857685847578828,-0.6334094592911511,0.3561745450890083,-0.020924017525347196,0.3482993288370282,-0.4809406413999939,-0.05579120236830351,0.09340424799447228,1.0199816555183
0.578652664432671,-0.1890403202241751,-0.04299111123762643,0.3133278479117393,0.57708436989168,-0.11079429983670129,-0.4152964534387768,0.20514590556064027,-0.6278547393667036,0.36239320980209755,-0.025077318758013757,0.34334317034602496,-0.4748161809303656,-0.05482231162200919,0.09626762594869942,1.049379419568996
0.5827922738667886,-0.19062806452127798,-0.043077282113455406,0.31573456222460067,0.5748491478373969,-0.10997769466718033,-0.41204096293297165,0.3481851896553507,-0.6365511819853331,0.356530980921664,-0.024346763677712255,0.34849964380851506,-0.47484016027742165,-0.05647792860406696,0.09440962218336509,1.027630703596484
0.5830755270928273,-0.1873170488193376,-0.04332823623219928,0.3131008242628937,0.57910486527717,-0.10885540495844122,-0.41289152819620273,0.367379121087211,-0.63488021172037,0.35760915902160595,-0.02361023573020164,0.3503989334304579,-0.47467249058549316,-0.05996473870803872,0.09307666927039356,1.0319353332870407
0.5817102197253732,-0.18992047178964683,-0.04359022835781355,0.3181815042204795,0.575380686110614,-0.11147072975504936,-0.4135616393507585,0.3582113449302661,-0.6364372155669576,0.3566563675273233,-0.024012388945536013,0.3501657868647169,-0.47573230306439984,-0.05656427819658144,0.0929686696796521,1.0198963354741424
0.5833855510210881,-0.18428569283716126,-0.043874845188914394,0.3137853189661263,0.576486330829007,-0.11033608823637417,-0.4130406648537542,0.4079180974300642,-0.6427037357252652,0.3572756621708033,-0.0246447786634339,0.3546793223552425,-0.4723510248172186,-0.059215693111304285,0.09147217102809665,1.026438854740834
0.5816379819096646,-0.18492909457138607,-0.04295714252410355,0.325373207231212,0.5770322793533903,-0.11062983171468026,-0.4122787772945513,0.2938841301546976,-0.6332615448157284,0.3605893289799968,-0.024820785324035293,0.3558599742466309,-0.4726527210161225,-0.05782724771651836,0.09270013827882348,1.0188378575531905
0.5765319391843001,-0.18283439841298624,-0.04051073598819782,0.33113622381711133,0.5745215152642533,-0.11020714238205344,-0.4119054056918143,0.35653709414656654,-0.6393319699766741,0.36004213946377495,-0.02475067964953747,0.3507624045267732,-0.47633808351531426,-0.05971103436318443,0.09224720580456602,1.0194286033514697
0.5878775652721207,-0.2028816809949602,-0.042153268767147964,0.2797958082633308,0.5708447528262705,-0.10647845766404819,-0.49041674594242857,0.25928140050477744,-0.6428745606151187,0.36431973723597616,-0.026212265913019082,0.3305869237603645,-0.47198243064833184,-0.0679235620702794,0.09520641187725759,1.0164313653823323
0.591285254855199,-0.19635856932270732,-0.04288668702114473,0.27588022629344244,0.5720375087117839,-0.10742858184414797,-0.49294714362082603,0.07158503910701985,-0.6410807233947554,0.3644075037752399,-0.02672547940174729,0.3333175015030366,-0.4729375302008867,-0.06717337297120456,0.09453709509222237,1.0127783940588935
0.5849479065368315,-0.19739172476784964,-0.04254256060791768,0.27493317844577186,0.5737505246272109,-0.10693718759052465,-0.48730190963503617,0.12688263788967424,-0.6422892874745482,0.36600095798817434,-0.029033130492031295,0.32634136408749914,-0.4658891356441882,-0.06917006909962595,0.09540646320475865,1.0207173180482974
0.580850470407782,-0.1993234426432109,-0.041898608610356575,0.27363950585398034,0.5741420973957132,-0.10773880719125783,-0.48431405147010587,0.12365811274323046,-0.6422792992121019,0.35802944564565853,-0.028153629102724658,0.33224411658600034,-0.4721319246027272,-0.0671690203827205,0.0940897820044942,1.0330868567486857
0.5788399803515195,-0.19274093242734078,-0.04292619196547316,0.26833123356564464,0.5729259106743889,-0.10575232260007031,-0.4860186360813624,0.03498747981370531,-0.6420296300715345,0.3606613661864933,-0.02927319830315348,0.32906636226971386,-0.4751825416712368,-0.06605586180202809,0.09544754949816749,1.0334097145874233
0.5802878449118158,-0.1879708929446188,-0.04435141748311243,0.2652666621932132,0.5750454795875369,-0.10858886884675766,-0.48639878492267635,0.01124958491351069,-0.6420166987305426,0.36678008685511343,-0.02918570869675818,0.32844576894366423,-0.4672913491904295,-0.0677081893191305,0.09581518823361367,1.029193461181412
0.5848816946778846,-0.17899327509000046,-0.04325583812789087,0.26511923651306984,0.5741602720863093,-0.10966256604321219,-0.4810889338416946,-0.10929699683667382,-0.6396671551839548,0.3650912209102692,-0.027708293865423762,0.32863418321663646,-0.47251033586397523,-0.06688587161089134,0.0970456544482877,1.020791729012182
0.5853447039938027,-0.17855245299150635,-0.04367699780436873,0.262560920353465,0.5741388124844181,-0.10871512602523263,-0.48299096865395447,-0.1081335796886127,-0.6412890928501144,0.3640730691459092,-0.02839424977337164,0.32451360992266925,-0.46994643238242834,-0.06627014868092802,0.09710871718208346,1.0199712982592082
0.5857508149994618,-0.18239928071146158,-0.04320960201928067,0.26196091136699445,0.5741347533648994,-0.10849509695098318,-0.4811276270731647,-0.0971213040540787,-0.643050958224935,0.36511058918549455,-0.02903234998446687,0.32248470792605693,-0.4697014419227317,-0.0667377607593439,0.09698223138518958,1.0075316782688175
0.583013573483816,-0.18461209081459218,-0.043276217676335986,0.2589173841413409,0.5743148097188286,-0.10881743262371281,-0.47890148812756456,-0.0912204291648645,-0.6450381966661287,0.36463119033451885,-0.030184800270870712,0.32313085663481245,-0.47333766908555275,-0.06721168788251505,0.09469001184579787,1.0081466829751742
0.5795795790681587,-0.19465711681629383,-0.04141564964738763,0.26852612557188216,0.5800437465873122,-0.12472109291748791,-0.5470077101337252,0.12939994584666403,-0.6402677847512089,0.3685048472946296,-0.032007246747905435,0.302066635239373,-0.47243242831679383,-0.08566336086856213,0.09273793489772143,1.041443594267763
0.5822171745645935,-0.19487711310044933,-0.04286689538521034,0.275399909151234,0.5793700124292682,-0.1219988530086248,-0.5422254112744014,0.15165340696925456,-0.6396379608855721,0.3701839133687579,-0.0325688528080398,0.2991319976714944,-0.47091201254651877,-0.08603051611471488,0.09458353283152797,1.0466626341032164
0.566467176725557,-0.19622221110543422,-0.03962291091523869,0.2739355911596975,0.5772949053934981,-0.120309834967025,-0.5611091235336957,0.1361736900358177,-0.6376146666980909,0.37330053605983043,-0.03223024371208537,0.2995728040708928,-0.47174088107580237,-0.08654817386120925,0.09410911772849838,1.0601400174963753
0.5662225776483242,-0.19829882664272064,-0.03663092152786459,0.2702247405080048,0.5808278210306138,-0.1266304830764781,-0.5519614600359422,0.17843791734966313,-0.6490382412441129,0.37908800646141744,-0.03301603954598257,0.2905264505634368,-0.47077326940591724,-0.08594506585494292,0.09437317054245137,1.0587007405126685
0.5773958173450819,-0.20860525295189475,-0.04042600483794999,0.2800912986402864,0.5753100860398135,-0.12041897534597046,-0.5336857726922447,0.256103366516192,-0.6362747781047057,0.3766167847384015,-0.03304554890542398,0.2961926315091125,-0.4676994182276141,-0.08488492089203747,0.09728159695359034,1.056938096316826
0.5838447342931452,-0.20503781657429132,-0.041037300416924966,0.2855708797905889,0.5785378444726093,-0.11699077070798578,-0.5378055169868518,0.2104131085948655,-0.6331750701323412,0.37326140976113487,-0.03298571329938686,0.29978719166552353,-0.467029792124689,-0.0845899700841167,0.09733363025544044,1.0523590841559038
0.5865734610793573,-0.20562882546098327,-0.04013042235493425,0.28407566779005966,0.5783418581653258,-0.1169639636920127,-0.5374251062835138,0.20136374918180627,-0.6343921453727875,0.37802836778344645,-0.033181604713086156,0.2994705221878741,-0.4663321841696065,-0.08706854022200068,0.09705755673925451,1.0560708881068066
0.5782807592610827,-0.21164203747718127,-0.040019646918080715,0.29052709860985537,0.5721526229858763,-0.11986997542244979,-0.5186003628581293,0.23721180271834952,-0.6410854543976582,0.3837963473688752,-0.033867949221198526,0.29035192408501015,-0.47010817374167296,-0.08158102414850933,0.09819063630114153,1.0499247886870737
0.5708236397887005,-0.21655325001387904,-0.03773429153064471,0.2923116895009612,0.5729800100183164,-0.12171486745264533,-0.5391506211522704,0.25722650883823656,-0.6351924665320082,0.3882273168747489,-0.033979446049670764,0.28941537871803297,-0.4659306765004778,-0.08582535298923658,0.09889292102910908,1.0726265422871608
0.5804613114092111,-0.21228846455677985,-0.03909082484707456,0.3028414065579517,0.5759838629103186,-0.1189662854415396,-0.5339903369307368,0.24973898091190888,-0.6409034072906745,0.39099414477094513,-0.03345725562153986,0.2944432356170764,-0.46649411978919064,-0.08883005249705463,0.09999420845947152,1.0563985849928248
0.579457125631239,-0.16096040202657472,-0.03979626812468798,0.2574003122745866,0.5682285609007787,-0.143640721348375,-0.6087061826906408,0.0407582057271072,-0.6487736646906123,0.43531652852467523,-0.03904741816294782,0.28191083845467074,-0.47148553869590154,-0.12072167379794407,0.10261337214204877,0.9937896329476377
0.5785121044258954,-0.16439229386933882,-0.03969193615503129,0.2562791573583482,0.5678276839943186,-0.14034008963985978,-0.6093680327218164,0.06251204012216827,-0.6479069199679373,0.4353606909153209,-0.03946454654036574,0.2837535644903547,-0.46908450592599815,-0.12065740108018999,0.10411549309777968,0.9959367691633702
0.5804425002635447,-0.15905812898729366,-0.03951078303412127,0.2558490821901629,0.5702337767108938,-0.13960148766594457,-0.5971914797738755,-7.263177341165772e-05,-0.650532269417587,0.44179103998409597,-0.04228702284545025,0.28133988254606457,-0.4705540781242128,-0.12167414148476319,0.10370802630383678,1.0232834563316315
0.5806386501759592,-0.16167578467400123,-0.03960748995431693,0.2570203161097923,0.5683178306623624,-0.13660214412797303,-0.5892447466928273,0.04366801812981935,-0.6481329119910354,0.43865995576098565,-0.04070585562863806,0.28111099081009355,-0.4705952871371881,-0.12120684940501286,0.10427346613217306,1.0089074958166957
0.5878675025395457,-0.1551684793857,-0.03945270827660346,0.25117423113741555,0.5724658843447981,-0.13133345887421907,-0.5818725887711986,0.01387108209432597,-0.6467534516332992,0.4398205953989719,-0.04115612581242504,0.279736566125191,-0.46947008958123165,-0.12166022836742775,0.1044489041965583,1.0250194857674306
0.5821336823711968,-0.15369475627779203,-0.03914252731994931,0.25886500647107524,0.5743920336465401,-0.13572347523229786,-0.5817332844091723,0.0006088883259642852,-0.6422693051010089,0.438672659171028,-0.042635472069257864,0.28144330206796503,-0.47148846108732767,-0.12180979058733032,0.10593654779197856,1.0210007843442597
0.5865267245180333,-0.1492158858104474,-0.03817605978390236,0.2602018668081042,0.573164628264001,-0.14084537112238982,-0.5788621107152316,0.015480849379414185,-0.6410825311803361,0.43820292573613356,-0.04347014884299488,0.28187723435231654,-0.4763156423580826,-0.11863477899353345,0.10358613288201929,1.0066950324626753
0.5809027547409225,-0.15271530768387598,-0.038500242716496394,0.2554203193648337,0.5716445937085932,-0.13947018790375554,-0.582270656456735,0.007167775073716576,-0.6369092887855008,0.43796380752909825,-0.04369433089987503,0.28287285244807303,-0.4761580601318628,-0.11776620858718048,0.10348275484281592,1.0167384326457332
0.5821803194285244,-0.1514065530343619,-0.03824082995890845,0.25495445223248475,0.570552447563625,-0.14225952735189862,-0.5809374670134143,0.022218346225152952,-0.635609944891711,0.4374806354385641,-0.04453031403161183,0.28453336464445145,-0.47260849276288586,-0.12051456338200808,0.1045124446949149,1.0181256049756073
0.584048261898441,-0.15142230365157855,-0.03804490264518241,0.25488151513285695,0.5692245035083331,-0.14282525363768975,-0.5767769595303845,0.04372527842593854,-0.6403843241008782,0.4353929191806695,-0.04455649741460992,0.28581898107394055,-0.4728018303658582,-0.11976064045964135,0.10479169844542946,1.0198650514579513
0.5765916355530112,-0.1516320104502841,-0.04314488751483346,0.24701056034703495,0.5740144122056359,-0.10912948625989857,-0.6499374261271192,0.8982977249060857,-0.6434808524035767,0.44066403606699045,-0.04748738488065289,0.30406767777117166,-0.46927198803447534,-0.13052718788901,0.10647285181070154,1.0197781608458167
0.5757650801755139,-0.14780957196333916,-0.044006617807336126,0.2350734139031636,0.5682266109892821,-0.10421167094715339,-0.6503292091240765,0.9093447594665515,-0.6438165767562763,0.4401902034676953,-0.047033450831201556,0.309990636184666,-0.47366938379345375,-0.12838862315789148,0.10577895677430457,1.0327351344173974
0.5729212923342605,-0.1542855415747016,-0.04220118422597295,0.21905910400431883,0.567648374715723,-0.09917389284619667,-0.6525155886856798,0.9148324233962326,-0.641079516742786,0.440279098404716,-0.047061821399238944,0.30504401937574294,-0.47132838539770083,-0.13001586945257254,0.11301782365898627,1.0433359588889513
0.577674241097289,-0.1560612607224517,-0.04350514628368685,0.2243912288531446,0.5712803653162098,-0.09948779537504523,-0.6523822946805881,0.9097868632360528,-0.6434218947527769,0.44067372616145406,-0.047881508679538845,0.3087185507173677,-0.47246550766482115,-0.1283541360979168,0.10741583797147611,1.027232458494849
0.5767124331871001,-0.15431596842813092,-0.04303716778279655,0.2288613952487757,0.5677358871646209,-0.10173535385137887,-0.6500847858637927,0.9105941546127609,-0.6416901807625427,0.4407651587169599,-0.04816579257490923,0.30685828180730906,-0.4729198864637435,-0.13048274295586937,0.10867116107272141,1.037431472250982
0.579458065723984,-0.1514750148922848,-0.04315562361203838,0.22822654793395025,0.5668446884331336,-0.10363642671877679,-0.6497471210184886,0.8774095803854568,-0.6404615107028564,0.4402776942898601,-0.04858351901073632,0.30664414316548405,-0.47224973837449763,-0.13082343689056922,0.10902496651824964,1.0367288765440685
0.5776390765764072,-0.15111246837720557,-0.04271264934716487,0.2322878553709039,0.5698958498624219,-0.10197927257032836,-0.6490062073604564,0.8376114857333692,-0.640090435526806,0.4418934271251758,-0.048498519752629206,0.30307089563244793,-0.47031597577295897,-0.13113463938427228,0.11103310068506421,1.0373183489088529
0.5758348466247287,-0.1634538211038324,-0.04239267204635863,0.23473620886443247,0.5687523021419295,-0.09926481733344396,-0.6460015650867414,0.8678568732011601,-0.6405605604664304,0.4434402477053181,-0.04876021688354519,0.3037489955478083,-0.47129827122456075,-0.13095543103207483,0.11274250289551298,1.041402207679179
0.5791534103584296,-0.1643679773073258,-0.04275008959115631,0.23285297645162284,0.5700774029471314,-0.0979279120119512,-0.6465422852273272,0.8447632004092913,-0.6330314914700423,0.43998368795663684,-0.04858533247817061,0.3060904057382027,-0.4683817767341285,-0.13221097233654316,0.11017309529909723,1.054416018832415
0.5812701707280439,-0.15669237983329265,-0.04234072506447592,0.23091051654755607,0.5667537187873832,-0.10180123618933862,-0.6473666892273857,0.747633803368652,-0.6393753387415646,0.4421069955477048,-0.049618135805560126,0.2966212790673099,-0.4683312268651514,-0.13325761820882262,0.10720495342373454,1.0351606431951126
0.578905300090269,-0.1756201804886848,-0.04220577594700644,0.2285959580734645,0.5702780585996063,-0.1262720841790454,-0.7163134918057033,0.9287229920044223,-0.6361822292733246,0.48291409170684135,-0.057973299711671915,0.3117677589783878,-0.48333999498519054,-0.17678466894067207,0.10925492711280589,1.0206481281617417
0.5718593474966922,-0.17333366767440936,-0.044919047154889084,0.21749939930845474,0.5823256732097248,-0.13156146937811886,-0.7209856963883111,1.0417405452466881,-0.6300249746986567,0.508656510559761,-0.05950615042349314,0.3225582034199113,-0.4710751957801826,-0.17828768902353928,0.10663869129531275,1.0278100454803476
0.5880614981695828,-0.17844300547887965,-0.04323161244676908,0.22444734484076684,0.5851963856175842,-0.12990920208985343,-0.7108019695572817,0.9511437687629207,-0.628766996734627,0.4983316200246865,-0.058577831483026,0.3209215876752699,-0.4763605877143849,-0.17689431170619235,0.1120648362832658,1.0058743045752194
0.5762064009663427,-0.183499228953683,-0.042510278331707486,0.21432771159578617,0.5718700029931171,-0.12824117889030834,-0.7120498917376981,0.9192104720921725,-0.6369189197596077,0.49749440675556017,-0.058263780815055594,0.31655057992921215,-0.4812446714413655,-0.18087158573641193,0.10762663546596779,1.0147045895632627
0.5774354443778162,-0.18192376466589827,-0.043369556738724446,0.20603987567260607,0.5796613919210681,-0.13017354090313904,-0.7131641395896067,0.9604047023435214,-0.6319106556913092,0.5044358468240783,-0.05913011995850708,0.31513562874515216,-0.4790766120087444,-0.17943975094910727,0.1070817533725668,1.0180343634656985
0.5766890230044825,-0.1807018022258599,-0.042898972598068026,0.2131469004896243,0.5807877877169976,-0.13091068343913012,-0.7106930973033451,0.968441587652112,-0.6271245323598196,0.5093049018669715,-0.05975361762271196,0.32066404675218046,-0.47695546363774227,-0.17766576024267816,0.11013147409375094,1.023908712177622
0.5738823407838157,-0.18121636537512917,-0.04328596609229032,0.2139133320481605,0.5844785061568742,-0.13348411785359074,-0.7043681193813975,0.9325106642833412,-0.623416308005943,0.518160410883657,-0.06063221558553689,0.31946559699839217,-0.4791450878303895,-0.17792660313596256,0.10746712774968739,1.0178619830182738
0.5747909905363073,-0.18885062924226426,-0.0430512892544259,0.20865926535241908,0.5733405176543234,-0.13099688656946415,-0.7098855085861216,0.9200265188658409,-0.6296625553087694,0.5064575884052737,-0.06030832589212512,0.3202895855210974,-0.47731664065825663,-0.17921036498625362,0.10837186065148716,1.0288452195683429
0.5801080632807587,-0.18700149493059665,-0.04340563128293104,0.2068404514759421,0.5804281732015426,-0.1324189628827178,-0.7152588237990941,0.9489098292285454,-0.6313611525857928,0.5133266612450939,-0.06085612644911076,0.32542393386878316,-0.47141257919110474,-0.1770243373251013,0.10797693973608836,1.0151888338735857
0.5741902933768591,-0.18767357470829538,-0.04369467727095003,0.20438123178356454,0.5795430159502692,-0.13157892846850172,-0.7101880402765217,0.942623782538563,-0.6320980943968246,0.5117667832477698,-0.0603966081326148,0.3223423221084465,-0.47618915386518423,-0.1768019367359611,0.10728755246302876,1.0184141650055494
0.5723373392402256,-0.1805221345575822,-0.046452699124085645,0.2564265563188693,0.5744701345712698,-0.1442219114212494,-0.8462732183786047,0.8148769593248048,-0.6310310980102696,0.5034626335544455,-0.06752477660347969,0.2961189088177583,-0.5016223594038297,-0.19950397350295027,0.11792410877589071,0.9325049031698941
0.5718518374120513,-0.1804679327765828,-0.046212942365387935,0.2597831735541928,0.5742672166417258,-0.14342696461143728,-0.8488371094568502,0.821211226363545,-0.6320124164773223,0.505414145565439,-0.06681670410971616,0.2990271181593062,-0.5009127105372981,-0.197181044043033,0.11475237355057288,0.9405305692041916
0.5722854955598144,-0.1812927907529464,-0.04554518709486588,0.2591973786990131,0.5740342291395577,-0.1445285754389094,-0.8527114453911778,0.8373362379414353,-0.6328172549081322,0.5056677780651916,-0.06715235102512594,0.29343997746623146,-0.49791962724939864,-0.19639897943707388,0.11964284161880087,0.9129701149999215
0.5712124233172254,-0.18157330788626105,-0.04553237854500731,0.26037892471717444,0.5754565566071349,-0.14562324265192816,-0.8512778630356542,0.8201335683287083,-0.6336060305522637,0.5066492356279821,-0.06700248365105008,0.2861371988815729,-0.4991872515864957,-0.1978813315492579,0.129665475564232,0.850043271506627
0.5707817950877845,-0.181368321567373,-0.04487571942373059,0.2645405388931005,0.5746509295995266,-0.14897935256103695,-0.8519307349402883,0.8438957156784823,-0.6334834852116324,0.5044196918559329,-0.06849265779672156,0.29500583327946983,-0.5112308383870303,-0.19703244333570843,0.1146257681301859,0.9650019496604514
0.57096613397575,-0.18190031530675083,-0.04518512277995536,0.2627678874056682,0.575419289446421,-0.14749969916481437,-0.8520900343382999,0.8331459706217976,-0.6357415336547724,0.5071456693705862,-0.06753905393888487,0.28815989667250624,-0.5099492791653307,-0.194936964680838,0.11620476322728421,0.9389017840925538
0.5694411246115881,-0.1822508397336613,-0.04509193411947035,0.2619204026360182,0.5765491115713738,-0.14637526995017,-0.8513021538557972,0.8161144252426562,-0.6338406338613681,0.5052492395089244,-0.06820171698761138,0.28855791336542275,-0.508929644536238,-0.19555834445924922,0.1179404125827057,0.9359724413525856
0.5711009031761692,-0.18184987429494298,-0.04455112131151101,0.2632187588336475,0.5765831508903835,-0.14771042695530417,-0.851681404884457,0.8343863477091382,-0.6329521333660579,0.5046743727614447,-0.06795993492611818,0.29004704343275073,-0.5099394927224083,-0.1957468767536069,0.11384331961479083,0.945268251178577
0.5692139802012928,-0.18188691669515056,-0.044819208911440964,0.2645145603371834,0.5761850707528058,-0.14743359414972804,-0.854596627511742,0.8096875042155853,-0.634895643829401,0.5051796907216828,-0.06696064050823185,0.2847655805737527,-0.5040485701221568,-0.19490059705998516,0.12586854419930774,0.8655732174546311
0.575107933480087,-0.18128966955849687,-0.04461519937691311,0.26492951731566583,0.5740729790328503,-0.1432375085048352,-0.8541650664263575,0.8301713245045959,-0.6351113153559286,0.5061403869571153,-0.06713348765657387,0.28468335976045833,-0.5055688577976292,-0.1936418982331392,0.1174913051425811,0.9162233555493147
0.5644210612700519,-0.1989335371101607,-0.04519112880428748,0.30845826196043563,0.5769797567172077,-0.15545385876246073,-0.9218445968976159,0.020122523077823473,-0.6297367780952856,0.5293322269183905,-0.07173230562688901,0.3128735431685325,-0.4981500995920728,-0.25434220959453935,0.10883588587931085,0.9918549478866358
0.5665437422268844,-0.202267289955587,-0.04544433238691539,0.31134402224423924,0.5776583403547652,-0.1559878144387616,-0.9208798972007253,0.00240829750920879,-0.6279378218398503,0.5299574801147321,-0.07262777049047059,0.3159629479060899,-0.4946749415789923,-0.2538144635488826,0.0986021573156137,0.9879205053130432
0.5651590297680497,-0.202874418914115,-0.04504835697247452,0.31056096475987427,0.5774617453051788,-0.15473095853511876,-0.9208461232344227,-0.04138759894884059,-0.6249603224228403,0.5327333317890693,-0.07162031491792403,0.31195412122817245,-0.498437558968625,-0.2515026900614004,0.10666854451377168,0.9918714600742862
0.5722973358137797,-0.20668542347767438,-0.0452854882799302,0.31654555439728993,0.5765786547627382,-0.15666383511266085,-0.9222023939447275,0.0019961809742957692,-0.6255523788032069,0.5288106093121213,-0.07229588720899434,0.314195210981896,-0.49771297424810446,-0.25345435433969743,0.10125824234453829,0.9881363735143185
0.5731193102581386,-0.20661016975421231,-0.04500735410829376,0.3149236794387605,0.5775672084734482,-0.1568231876790716,-0.92455299840432,-0.052599891626928685,-0.627756512019554,0.5341911297853857,-0.07158380634587452,0.3116573038507712,-0.49863019616751575,-0.25196351240509746,0.10617811736854442,0.9689475347771241
0.5702412027173002,-0.20845212061332768,-0.04510406253588433,0.3121695208965724,0.5773212546884422,-0.15661340777094487,-0.923382599852666,-0.058138905959780884,-0.6277043608699959,0.5325298900130774,-0.07199871777313416,0.30931150416977093,-0.4964778507648097,-0.2554881141998128,0.1051848572465621,0.96542211904209
0.5665371838275615,-0.20775693598023412,-0.0449737155142553,0.30620821222142497,0.5771172111599228,-0.1546106226122627,-0.9241326599771125,-0.0589326264712009,-0.6257552327675523,0.5355223736332657,-0.07114842202881413,0.30671901941681445,-0.49695954944024867,-0.25741203717199473,0.09954353001805458,0.9577255294467634
0.5680666485517184,-0.2076836724321274,-0.04447900013457481,0.3136677848233216,0.5761436811087491,-0.15603630087849604,-0.9258531308844995,-0.1049866273592357,-0.6258126480833752,0.5342559335153929,-0.0724548786944501,0.3106304451955097,-0.49726545858571547,-0.2513146521725639,0.11271444569004149,0.9731706222762249
0.5676215812757301,-0.20750503415281654,-0.04514182234759585,0.312701894648554,0.5773166338462205,-0.15499896249354161,-0.9258178418593431,-0.22766488560730136,-0.631293867908085,0.5315278183422437,-0.07379972685151415,0.31039076852223496,-0.49423750697757185,-0.2554585954603516,0.11818011165423152,0.9787236412696046
0.5697752225397361,-0.20977150579670123,-0.0449922291231489,0.31259066046806605,0.5778576912554139,-0.15521195617425176,-0.9260424321887043,-0.1412121698357146,-0.6282855369620479,0.5307730887366079,-0.07295798692528381,0.3134111484540048,-0.49676415866058243,-0.2545407240273646,0.11481870535708479,0.9778360581236669
0.5777486853077597,-0.1976222529305836,-0.046484869903540935,0.29189525786102954,0.5737074223728934,-0.15628979862070375,-0.9542460904832825,-0.27937058278706517,-0.6217910771277848,0.5102953668228508,-0.074856218525876,0.32187228428703807,-0.5025354728544996,-0.2719125034096925,0.11647485445318044,0.993952250404935
0.5909610556838709,-0.1803154196632618,-0.04760079413712477,0.2916001790279811,0.5775330597863649,-0.16372304998389037,-0.9420687644188894,-0.07683741325465265,-0.6259112510630136,0.5215675328082707,-0.07429403039230376,0.32686000697619366,-0.5009934657902751,-0.2732460182278608,0.11602144056730443,0.9826190743304704
0.5823203739006092,-0.18378882635481275,-0.04706740115757713,0.2833807817847496,0.5770289536810301,-0.15937521288639356,-0.941681545302924,-0.12058060222300215,-0.6213083637006485,0.512376493101688,-0.07490145048261095,0.32523679243652304,-0.5016394963730707,-0.2726293428848076,0.11699651791833633,0.9902533081323306
0.57858293794596,-0.18275126185218446,-0.0463304411715776,0.2813456748495142,0.575343662818933,-0.15760319194586653,-0.9333487465457787,-0.11952785329251692,-0.6264265676816658,0.5115453524165691,-0.07433328066253508,0.324579366920072,-0.5012117420788791,-0.2715983708808148,0.11746846469270353,0.9931463367938028
0.586561785855099,-0.19283309634969695,-0.04821458316261644,0.28087749799373846,0.5722346565137366,-0.16020200703903006,-0.9410773298562972,-0.025413902518913623,-0.6324376223011532,0.5234123525136993,-0.07465185011653172,0.3242398646981281,-0.5015554670974953,-0.2721159922293567,0.11461106207783879,0.9775480711387978
0.5851740981830738,-0.18330606941430885,-0.047772696806180806,0.27768148236083423,0.575462976310307,-0.15808237958105859,-0.9376149652340252,-0.11714270805264015,-0.6254456353040408,0.5222697127771879,-0.07483677914715102,0.3243137327675901,-0.5024330500802267,-0.27185105153325556,0.11808467156445081,0.972294457583958
0.5860892578462489,-0.1754313968952977,-0.0476322330113111,0.26121979769864245,0.5787568593757583,-0.15809038091186314,-0.9410710825765787,-0.11276886194724112,-0.6262121676965479,0.515542147483531,-0.07488433884643156,0.32631268498727484,-0.500731541426409,-0.2720846778575732,0.11624481264066665,0.9920876466339352
0.5875979569996964,-0.17656755349998565,-0.0474402548568967,0.2620830101683442,0.5743413786671521,-0.15886948604961038,-0.9398868178072661,-0.15558879430614558,-0.6254111272024078,0.5165133013962149,-0.0752738363741394,0.3263401859738773,-0.5046414520559794,-0.27271646138406824,0.11676249935408868,0.9787525269860471
0.5892640776296703,-0.170145236715825,-0.04750930064988265,0.25955853204020607,0.575001760694495,-0.15901319253872956,-0.9372094594200415,-0.1305685839671713,-0.6252740578702896,0.5184993154876449,-0.07545208809640032,0.32597119416049514,-0.5029899623639301,-0.2728391983129931,0.1172173954042206,0.9867714862706047
0.5891168636334173,-0.16950168162307896,-0.04791366407094913,0.25523108730465843,0.580938990917662,-0.15895304263220367,-0.9355135536644418,-0.0669187304774228,-0.6269644256524242,0.5224713334587606,-0.07536864268774526,0.32599663261082257,-0.5016166524949439,-0.2725603081016041,0.11757802011826678,0.9832528197330935
0.5773645033555732,-0.2063529734038634,-0.05124905929409054,0.30489939931026566,0.5768480391772376,-0.1883435651911918,-1.0642792280060849,0.7473758693742069,-0.6232857717777052,0.5224041796960237,-0.07875797167950425,0.3199055878325009,-0.5068609952556618,-0.29232179232127775,0.11537671811305404,1.007865041933888
0.586693735010048,-0.20577478563809012,-0.05012553757483823,0.3033898550675885,0.5745586060365955,-0.19118942400595265,-1.064716338072457,0.78219693673582,-0.6224191194687079,0.5212374981092633,-0.07831839654393234,0.31931808335193795,-0.5058918281488872,-0.29347591073116086,0.11655515248470107,1.0080875744371198
0.5706758337076345,-0.2073768698282852,-0.05062740791211121,0.3078704910428942,0.575651695983383,-0.18968072027216437,-1.0644977456304103,0.777357938278422,-0.6216092919635109,0.5219641692451834,-0.07874816627762322,0.3180719855399445,-0.5033270078745385,-0.292239587545602,0.11570229241421187,1.0183435531182576
0.5826613930146389,-0.20713888702938163,-0.050373173271367574,0.30818319318234216,0.5755046231610318,-0.19298768925133564,-1.0631055624139394,0.7863797181910569,-0.6218695776783961,0.5219519764223615,-0.0796156034232416,0.31876821450037657,-0.5050069831058086,-0.29433986466387435,0.1159018207536364,1.0098802504395499
0.5856499324995653,-0.20668319961058898,-0.0506088342227635,0.3056250140896579,0.5770048743094509,-0.19539649605880618,-1.0643626747044406,0.8114088152579456,-0.6199269296584311,0.5215547429688422,-0.07958910916011191,0.3156067190655093,-0.5041293360756759,-0.29175038086529603,0.11328700364159493,1.0080921163499184
0.5815084469280869,-0.21711029990617248,-0.05131556641871263,0.30888827417051173,0.5750388599243601,-0.19648523675019292,-1.0663042319779135,0.7877730739517832,-0.620946532419392,0.5214854869182736,-0.07969986516784505,0.32013550555579234,-0.505139879633632,-0.2922185191974415,0.11590381131773797,1.010282846438959
0.580404047294457,-0.20983840828306974,-0.05126807960301469,0.31257120983149517,0.5771690480885544,-0.19453419393193358,-1.0600841360314397,0.7823333677089511,-0.6260036081027611,0.5208018208419664,-0.07986689709386738,0.3225308917320712,-0.5051455055116163,-0.29200743837152254,0.11869449903520986,1.020789903757506
0.5785841890812639,-0.21151884822136124,-0.051666235141173925,0.309686114468072,0.5751169680943199,-0.19593774591557728,-1.06440449781058,0.7889053875521436,-0.623983869376664,0.5223493426285579,-0.0802991549710228,0.32346471974145413,-0.5047968961924268,-0.2935713279635869,0.11699014727028663,1.024757943751472
0.5842094133465107,-0.20794540297806155,-0.05161728055352179,0.3165570400563149,0.5745585328152335,-0.19700745072179301,-1.0630032616498464,0.8323944949007103,-0.6248142493803723,0.5219330821422723,-0.0804231366132904,0.3286802961088212,-0.5061661834271285,-0.29355883133323546,0.1162443998261023,1.0269633395495958
0.5833122678345755,-0.21080864839486885,-0.0515711396261328,0.3185768756951808,0.5741137672398022,-0.20082853003064763,-1.0648547882654997,0.8524116744202386,-0.6207220250833403,0.5216214954400736,-0.08023016163004547,0.3294492434293945,-0.5043058863972796,-0.2928423892024349,0.11673873661720145,1.0245896170673392
0.5768847637336225,-0.2102329421490276,-0.05350815450287226,0.28100498196856993,0.5701753706073146,-0.1948456359248236,-1.0685735170118846,0.7202700359253618,-0.6301514497037289,0.559450669001665,-0.08732058390945763,0.3352908413877978,-0.4953934106459059,-0.30610863580895775,0.11849413985669167,1.0314720581816001
0.5804576155693759,-0.20807208224497079,-0.053430922048151724,0.28840321858168716,0.5683480970637678,-0.19332514384450394,-1.066423698376698,0.7615982237502004,-0.6272010134615668,0.563162355568697,-0.0840261441609071,0.3223097239077163,-0.5019314416552211,-0.3050990400191401,0.12000238276350517,1.0319000167314492
0.5805462005839277,-0.22354346844864662,-0.052664432195943287,0.2762185001161603,0.5753112676814641,-0.19629760664231863,-1.062303449062473,0.7835914088096588,-0.6299841382168184,0.5626061524860785,-0.08411295137438944,0.3230856271960014,-0.4991494357280166,-0.30323111681342985,0.12104748362269016,1.0320204410922824
0.5802561894091649,-0.22071241437961828,-0.052694584831590514,0.27766932576497677,0.5756454097772526,-0.19472238263069447,-1.0629055322040462,0.7688388494822527,-0.6338225437336702,0.5674456207015097,-0.08329503015781582,0.31693417801143375,-0.5024037573863659,-0.2990528866544061,0.12088856381211362,1.0216437196919377
0.5783047261901074,-0.22081088100652424,-0.05322059071473015,0.2750527488733522,0.5713077317906701,-0.19266924836820565,-1.0651981030512436,0.8376554816030939,-0.6329097858489608,0.5682280547697218,-0.08349933076883352,0.3195409100316992,-0.504830809870539,-0.29981332784342946,0.12008125111603185,1.0269696218215039
0.5796741986073685,-0.21448483851949982,-0.05345029616419453,0.2798284024390398,0.5699238896862692,-0.19238491675993488,-1.0661777974664208,0.7520517766747302,-0.6320928641085545,0.5671413141220946,-0.0826460072504659,0.3161057445495432,-0.4983721674450919,-0.2814856059792387,0.12031015650536124,1.0356860194073207
0.5798590161652372,-0.22803899225723073,-0.053204365977330276,0.27575646794126873,0.5761256701257258,-0.1931231726815588,-1.06204322055859,0.7843984484687044,-0.6342708666306102,0.5688582079014214,-0.08436873516833428,0.3223742283340744,-0.5013128512665602,-0.29606436300330263,0.12051291832615706,1.0417740502596866
0.5836000660776554,-0.22093270343913252,-0.05263750021718383,0.28858342367005996,0.5704920587404223,-0.18630896072107359,-1.0561393043018212,0.7821418652889409,-0.6327555331353092,0.5684224727675727,-0.08328511506595927,0.3122730572624724,-0.503088087400191,-0.29338240110696107,0.12107429679102046,1.0350447607470779
0.5877901422391508,-0.21899964367671032,-0.05261980943056679,0.2943932413185274,0.5736365329887742,-0.18358368157034788,-1.051811572977145,0.7574136693270792,-0.6313401631738454,0.5682143165695795,-0.08313786702235385,0.31247296787425066,-0.5017612860091583,-0.2926842823120714,0.12091708380345514,1.0380605483974574
0.5820723342007129,-0.22187329656043706,-0.05336248395065503,0.28458987103661104,0.5765566510619212,-0.18696281900257883,-1.0563177944453157,0.7959858770737951,-0.629847303774732,0.5661258106034508,-0.0836887047238875,0.31819375246864223,-0.5006970890281494,-0.29359414164576875,0.12074780051367194,1.0303482531223604
0.5694416056215765,-0.22658264031385428,-0.06064608078998763,0.2915275889893464,0.5716888905835563,-0.2103446469463457,-1.1023748431192153,0.7973475164090335,-0.6298134749373651,0.6019957826205837,-0.08845874585774642,0.3430273782163081,-0.49580951018996455,-0.30493587561094715,0.12748854261196188,1.0369666690253476
0.5704081607560716,-0.2264073672084586,-0.0599030376041738,0.2907909184504704,0.5721218682375768,-0.20827680094775172,-1.097195480378781,0.7931587156183866,-0.6276805943100005,0.6015820844311656,-0.088518928723505,0.34318293147333095,-0.4932937090517013,-0.3040457288016804,0.12714231137589888,1.0281760727145617
0.5725197067319872,-0.22748072001327338,-0.05872750645382124,0.2868163714578962,0.5682649085919076,-0.20662326078888446,-1.093524979090997,0.7799400908941477,-0.6315536270169729,0.600754225119916,-0.08643757521837252,0.34157990323419,-0.49597765840747726,-0.30452357477106856,0.1264914253617388,1.012904081944839
0.5763236255846452,-0.2289858607055122,-0.057834441297380766,0.2899864785265024,0.5672199607932544,-0.2060904846995243,-1.0916012222003548,0.7522450958396097,-0.6319057243932389,0.5999731390019657,-0.08674079909991605,0.3390752614787232,-0.49363281716764484,-0.30153484789806373,0.12796271846800528,1.0048534141662584
0.5739526386562517,-0.2293092119194385,-0.06009353442007984,0.29179418706609883,0.5680714362180497,-0.20758435934034347,-1.0993088129052724,0.7421831309911274,-0.630625869545352,0.6025271201055711,-0.08653044018477365,0.3383928214861168,-0.4919777399061584,-0.30358377053854974,0.12994596073649453,0.9989181741093877
0.5728762698078228,-0.2307589161203108,-0.061242159863412735,0.2923077068257136,0.5715550731607443,-0.20675259106216357,-1.1019853794716146,0.6912491344994288,-0.6321952585946448,0.6029928164975099,-0.08697233920444981,0.3389401766687431,-0.49351637807707327,-0.3029606648905584,0.1289478500277495,0.9991966315669367
0.5843965240483214,-0.23697887023619413,-0.05952699468791735,0.29651897713899916,0.5706033727664821,-0.20531553218927248,-1.0971398035246032,0.5544934236950596,-0.637883177601786,0.6036853770031957,-0.08636684668119969,0.33346847463726687,-0.4873951080829938,-0.3049610038473905,0.12916089071601297,1.0111933938355882
0.5731802687117957,-0.23543640765655632,-0.06308966096044458,0.2931282039936061,0.5717501068724664,-0.2082796566314424,-1.1094756434009354,0.6053923985989177,-0.6301573526163617,0.6062529227072885,-0.08703733244415948,0.336467185113307,-0.4936570151908283,-0.30488788187743976,0.12813077196992656,1.005344174211297
0.573363150453978,-0.23440950505657593,-0.060904090808944454,0.2944438568700795,0.5705943787425276,-0.20713895092250628,-1.1008222008300543,0.7068556295808482,-0.6247310834688242,0.6057569076462052,-0.08717179251072066,0.3310580411498898,-0.4987704572367678,-0.30376789868065734,0.1290222675110392,1.0136941625328513
0.5885598257776994,-0.24356387949887648,-0.05968059262994534,0.2964269585742428,0.5735556616679294,-0.2044000944853608,-1.100112342761122,0.8108514466874641,-0.631502295074845,0.6016508571258322,-0.08736312214433295,0.33625251235455345,-0.49267810738927514,-0.30265260778658215,0.12681854309772217,1.0145401468512891
0.5791445211309085,-0.2501853891194533,-0.06230851231975923,0.25274825799820216,0.5609242457062568,-0.2103817166422638,-1.0790680169627642,0.8318705281696317,-0.6303777913123901,0.599563510078499,-0.08961379152925872,0.34065678573819813,-0.49070535327533743,-0.3396085619686756,0.1345568234021113,0.9843950046824428
0.5798542568077072,-0.25523273871254976,-0.06282120446040465,0.2458907795497587,0.5599456177972244,-0.20974758334136173,-1.0958139562399818,0.8361110295793281,-0.6291487273251802,0.5998061241060363,-0.08984369289863073,0.34060165702538303,-0.48954841108239566,-0.338473164239018,0.13270226245926117,0.9894738182662174
0.5774114041206662,-0.252340620068696,-0.06160651291313074,0.24837824086040078,0.564423207449285,-0.21036477888718064,-1.0758056899876862,0.854532756887798,-0.6284334050050537,0.5992637094313035,-0.0898418066720167,0.3375533521328386,-0.4869402911048998,-0.34150060033448515,0.13566315398388387,0.9862033014690769
0.5766906602793925,-0.24480477054715283,-0.06238768328432891,0.24004843329636327,0.5657245276431017,-0.21087897272078643,-1.0817825161137444,0.860806152029173,-0.6282785160150136,0.5998909275374646,-0.09017881947566422,0.34356281334788524,-0.48829309665583326,-0.33818980921212477,0.13167040187840945,1.006866054581039
0.577250644387802,-0.24971560665838932,-0.06094235471753871,0.24683884810853957,0.5670619416612004,-0.2123685713589455,-1.0791423795428068,0.8728550447752932,-0.6262715090113077,0.599948656230555,-0.09019916448569454,0.3390717168035796,-0.4861221861988903,-0.33833125468862435,0.13491957580962918,0.9966352474353168
0.570889243839273,-0.250457143904531,-0.0633004212363457,0.24154112122413246,0.5844324262466721,-0.21522120226658925,-1.0695473621856897,0.8503301444584465,-0.6318848882332316,0.6010216654858697,-0.09054320240862779,0.34403550381207126,-0.49112409061038537,-0.3399378057141579,0.13195638372099908,1.011236605678848
0.5715717979037117,-0.2520180339046655,-0.06324244639757595,0.24168432407659646,0.5768304638534052,-0.2130816948567711,-1.074008967352797,0.8913061026635793,-0.6279377834983709,0.6005883760648065,-0.09040019920171279,0.3413879676725499,-0.4887945448049522,-0.3387752187139978,0.13325346709191918,1.0089743935229607
0.5737592876571903,-0.2523222048471726,-0.06181628715646348,0.24234661393870288,0.5691858152007865,-0.21326780779732438,-1.0771484935081785,0.8825411623207697,-0.629735549880298,0.6007104013045985,-0.09054502634897431,0.3383574244310882,-0.4862335591400171,-0.33893328288896707,0.13425385502350223,1.0054670180957708
0.5737945146538191,-0.25545450907596245,-0.06179835690939851,0.238847657080883,0.5717255796153065,-0.21037308338988386,-1.0756222743442143,0.8932338221892745,-0.6262903528049384,0.6024546285197881,-0.09075603568708707,0.34237201625246355,-0.4900954024236339,-0.3394487173271975,0.13202912647538545,1.0085658972816918
0.5759346353580076,-0.2543071991242744,-0.06255716486182375,0.23680511499428814,0.5687434774160021,-0.21225342321130833,-1.0766702087559175,0.9022136637504704,-0.628605133638201,0.6014321163405664,-0.09095205332693909,0.34040642974396157,-0.4890099179163504,-0.34044529933242224,0.13189213131697625,1.0077274898925483
0.574912433347183,-0.2675460704823872,-0.07075941536973904,0.3633659955369587,0.5577344896228342,-0.2609946045761449,-1.0770619132769808,0.9452663583375598,-0.6293845812267713,0.6317955478852963,-0.10103974513885988,0.31574303597828746,-0.4853275043705144,-0.38339010490678005,0.13905910117915443,1.0048786493733488
0.5821996396126886,-0.27214154919261757,-0.07135528513061434,0.37041786112557384,0.5504393907787624,-0.25830077104667065,-1.075403435086401,0.9381205754430781,-0.6283478428713769,0.6326452739452362,-0.1018794356815277,0.31248125933567633,-0.486532510478299,-0.3821199619570419,0.14032913505240424,1.0039471752196205
0.5706193390302561,-0.27052512946610646,-0.07089291543082721,0.36815576699546115,0.5522574097164491,-0.26020795850759804,-1.0698730151285716,0.943235150019796,-0.6298626777626494,0.6315202154286789,-0.10223626874718199,0.3002409167713927,-0.4862889949387586,-0.3827002666460796,0.14188918879054713,1.0196369795190166
0.5754926726522882,-0.27353829329369944,-0.07173554229234376,0.3815956509970624,0.5497843424251349,-0.2627272673345515,-1.0715665641259542,0.9160599957155191,-0.6246442771276556,0.6334896013962994,-0.10300643127914261,0.30143620105253643,-0.4883359407354743,-0.3822999376994041,0.14246624668594446,1.0071475258311926
0.5749264928768786,-0.2747304780399581,-0.0726410507783913,0.39549039886524306,0.5466470008885927,-0.2614668546151843,-1.0698030480896483,0.8894003810727467,-0.6208928873689322,0.6330573382555492,-0.10439659352262176,0.2989199037793484,-0.49330993694932346,-0.3810869152697577,0.14278839567049514,1.008184228039382
0.5766070680946304,-0.27221094392348366,-0.07238564639920059,0.4098085726978046,0.5489376953030867,-0.2674486001746063,-1.0684344823338296,0.9019883873866864,-0.6211943931238593,0.6355455114742808,-0.10412499893843825,0.2928840746901664,-0.48979554258322844,-0.3824146579792953,0.14236793368049752,1.0114727426965835
0.5696827996069374,-0.27542836735969917,-0.07280431628997797,0.4238299937310966,0.5403832522055536,-0.26091370055959306,-1.0642950609785524,0.8776773860899746,-0.614885972022544,0.628871006404563,-0.10406806818753145,0.2915726697676171,-0.4822836058744038,-0.3809602564614531,0.14347213438056375,1.0121729188798567
0.5736987126566301,-0.273375170365692,-0.07228332098750594,0.40362921096631277,0.5477159451939703,-0.26386842140689115,-1.065353488575651,0.8754213391782748,-0.6202845247152343,0.6363272681634473,-0.10508303559417968,0.2683555121650517,-0.4972118473722463,-0.3822910626653244,0.15076194336742682,1.0063418669067596
0.5782899036289639,-0.2757826882813659,-0.07314704017991604,0.41945755896612236,0.5412861376406868,-0.26431854215419054,-1.064700242582411,0.8865282387654554,-0.623192133096352,0.634907529338536,-0.10522062430546944,0.2855749198960723,-0.4941344493403541,-0.3786366233077879,0.14349596571450518,1.0021764659449772
0.5743343570705559,-0.2733701008209384,-0.07268758362845584,0.42163226855991975,0.5452850103357263,-0.2666306047776195,-1.0653533514098288,0.8763505713461451,-0.6217400317953126,0.6354852213353016,-0.10528337358593139,0.28036638361228927,-0.49586523794990955,-0.37950012226609536,0.14476192071840505,1.0103566843577712
0.5707719970483438,-0.276088144165385,-0.07488103546076119,0.3358247472214326,0.5449753888772728,-0.27586180434524765,-1.1192534899679438,0.8882357600576034,-0.6188772006984311,0.672609259112413,-0.11014883034150258,0.31290513649596136,-0.4927934650765517,-0.44212822057377704,0.14635936278698125,0.9750215578610462
0.5677497374445097,-0.2729148008477663,-0.0746421392092127,0.33593590557766667,0.5479539032298437,-0.27999408998422914,-1.1205510661759832,0.8890775914753193,-0.6172305740419208,0.6754483112728854,-0.1087049519799667,0.304458581211255,-0.48616115537752347,-0.44713829560510154,0.14681314721392125,0.9678016144228566
0.5662047650587878,-0.2694464863562051,-0.07474272034965895,0.3363289435141337,0.5482440148800045,-0.27904111613873944,-1.1150768530311899,0.9509059721814839,-0.6221628576324286,0.6727600763655606,-0.10817016429203538,0.31722101854681367,-0.48816529189119356,-0.44870909170864903,0.1462993788993096,0.964516240901609
0.5726775956092355,-0.2712670193036594,-0.07500072089356208,0.34086905924215677,0.5454468267694924,-0.2770327204192129,-1.1161401375453548,0.9672304973676029,-0.6173781899111783,0.6835387019359584,-0.11057477360378651,0.3070912888163862,-0.48843960965595684,-0.44969335300695934,0.14933549317756575,0.9446615874616119
0.570906838360073,-0.2696207992281325,-0.07521566808552801,0.3440226497468389,0.5463584312895446,-0.27690793095382554,-1.1125998003879936,1.006687634973571,-0.6155833724231585,0.6838101845649346,-0.11065654610251358,0.31448000289196104,-0.48742150941960727,-0.45525156906998016,0.15022322787276135,0.9611004253427016
0.5706158692238547,-0.2709200979306431,-0.07523354621979766,0.3455218410625397,0.5430950915820002,-0.27634534170728364,-1.1126970758951473,1.0600810005828758,-0.6180322954390269,0.6845929351972233,-0.1113618691812126,0.31466847072750664,-0.48944993636771134,-0.4546343811224295,0.15024623059518966,0.9645598772227005
0.5731982454845871,-0.26778809519076435,-0.07540784069388529,0.34434508947027953,0.5413848329533486,-0.27419302584896244,-1.1072451210224048,0.9965594136585929,-0.622656918599525,0.6834344264099034,-0.11205644815437084,0.3066054536440595,-0.48902654141414276,-0.4539512279523345,0.1491252651002131,0.9825334147040475
0.5753196446007177,-0.26979489251854083,-0.07538491709352306,0.3467563765689153,0.5446344687805122,-0.2758774218356108,-1.1076532891003006,1.0215735389966798,-0.6181953490700345,0.6877035414688827,-0.11271926774557495,0.30621076839232464,-0.4898271380480372,-0.45482613766874436,0.15180281816967897,0.9730989279704626
0.5700705498206612,-0.2690774700285106,-0.07528889259253557,0.34642459952605303,0.5459610718798821,-0.2785066127970732,-1.1099756186960974,1.0631419311371195,-0.610833670952882,0.691940952465393,-0.11278721710256429,0.311764733483632,-0.4873478183095686,-0.4582634632397384,0.1530192782238993,0.9758172415564361
0.5685585316820018,-0.26927552994464055,-0.07547065340893484,0.3487157102857948,0.544776309326377,-0.27800573971981907,-1.11086497694776,1.1058854726575469,-0.6035476046701767,0.6948364245137144,-0.11386108086038398,0.30712003230380985,-0.4911256231679812,-0.4586159410115536,0.15225605116149224,0.97519499950305
0.5707614411054609,-0.27514019778271975,-0.07884360423895781,0.34518647675497566,0.5483739440609472,-0.2989628124968057,-1.066521833639018,0.616349515232603,-0.6133431228473505,0.6857929089458945,-0.11149010368146481,0.3090577372259549,-0.4815124103679323,-0.48021020860346736,0.15405135277297552,1.00056540278281
0.570246851066754,-0.2756725034672715,-0.07925337705431561,0.34856556129999655,0.548622173092096,-0.29864861206207155,-1.0668239039534708,0.6239743934487425,-0.6125069487209654,0.6866366381589312,-0.11164966511382848,0.3076401230012764,-0.48572898933341596,-0.4819277187871358,0.15422944589537824,0.9943868095850659
