openverse-orca/OrcaGym/envs/legged_gym/legged_real_env/logs/robot_log_20250606_163158.csv
timestamp,imu_angle_roll,imu_angle_pitch,imu_angle_yaw,imu_angular_velocity_roll,imu_angular_velocity_pitch,imu_angular_velocity_yaw,imu_acc_x,imu_acc_y,imu_acc_z,fl_joint1_pos,fl_joint1_vel,fl_joint1_torque,fl_joint2_pos,fl_joint2_vel,fl_joint2_torque,fl_joint3_pos,fl_joint3_vel,fl_joint3_torque,fr_joint1_pos,fr_joint1_vel,fr_joint1_torque,fr_joint2_pos,fr_joint2_vel,fr_joint2_torque,fr_joint3_pos,fr_joint3_vel,fr_joint3_torque,hl_joint1_pos,hl_joint1_vel,hl_joint1_torque,hl_joint2_pos,hl_joint2_vel,hl_joint2_torque,hl_joint3_pos,hl_joint3_vel,hl_joint3_torque,hr_joint1_pos,hr_joint1_vel,hr_joint1_torque,hr_joint2_pos,hr_joint2_vel,hr_joint2_torque,hr_joint3_pos,hr_joint3_vel,hr_joint3_torque,fl_force_x,fl_force_y,fl_force_z,fr_force_x,fr_force_y,fr_force_z,hl_force_x,hl_force_y,hl_force_z,hr_force_x,hr_force_y,hr_force_z,fl_hip_action,fl_thigh_action,fl_calf_action,fr_hip_action,fr_thigh_action,fr_calf_action,hl_hip_action,hl_thigh_action,hl_calf_action,hr_hip_action,hr_thigh_action,hr_calf_action
2025-06-06 16:33:29.356,-0.352333,-1.181582,0.252103,0.0013828069,0.00091977103,-0.0013052793,0.209352,-0.042743,9.7426,-0.016434774,-0.07518768,0.72083664,-0.9795498,0.0047683716,-0.72205734,1.9073207,-0.0049972534,-4.9652863,0.013154134,0.024681091,-0.632946,-0.9872687,0.0015640259,-0.31433487,1.9026159,-0.024757385,-4.641796,-0.012016296,0.04070282,0.5902176,-0.97450787,0.049858093,-0.9259186,1.9323452,0.001335144,-6.0871277,0.016593933,0.012168884,-0.7086296,-0.97785443,-0.0233078,-0.71717453,1.9356512,-0.016899109,-6.2030983,0.0,0.0,0.0,0.0,0.0,0.0,0.0,0.0,0.0,0.0,0.0,0.0,0.52993584,0.32513225,-1.266299,-0.25202823,0.3916083,0.62641627,-0.99808675,-1.1200743,-3.0,-0.13987462,0.33406293,-3.0
2025-06-06 16:33:29.407,-0.515311,-0.949368,-0.026194,-0.06351688,0.45179194,-0.43188778,1.942163,-1.79315,13.104897,-0.02581893,-0.18100739,2.0343323,-0.96009487,0.31147003,0.35339737,1.8865688,-0.7529831,-6.6987114,-0.0013417151,-0.40912628,0.13855362,-0.96125245,0.7556534,0.45105743,1.9060491,-0.18062592,-1.1602974,-0.016365051,0.29460907,-1.1676216,-0.9731346,0.5889511,-9.223164,1.8903835,-1.3750839,-12.567942,0.024909973,0.042915344,-1.0919342,-0.9313151,1.170311,-1.8731956,1.8780493,-1.3644791,-11.844051,0.0,0.0,0.0,0.0,0.0,0.0,0.0,0.0,0.0,0.0,0.0,0.0,2.4473913,1.0788319,-3.0,2.7639182,0.23602602,1.746276,-3.0,-2.4022639,-3.0,-2.7843254,0.21842004,-3.0
2025-06-06 16:33:29.458,-0.042797,-0.647737,-1.901578,0.47961324,-0.50227493,-0.67160934,0.54135,-1.805035,13.863681,-0.034821615,-0.26378632,5.159382,-0.94529384,0.06427765,5.36446,1.7793758,-2.469448,-6.955063,0.04206954,1.1236191,1.1847115,-0.9506476,0.10219574,-0.19714737,1.9421362,0.715065,0.57678986,-0.024909973,-0.64258575,-2.6410332,-1.0884147,-2.730297,-9.308613,1.8160732,-1.6812515,-9.718777,0.03566742,0.2614212,-5.5255966,-0.9153697,-0.12180328,-1.0943756,1.827619,-0.7820511,-10.962692,0.0,0.0,0.0,0.0,0.0,0.0,0.0,0.0,0.0,0.0,0.0,0.0,3.0,0.62439364,-3.0,3.0,1.9981859,0.14351778,-3.0,-1.4896027,-3.0,-3.0,0.6025928,-3.0
2025-06-06 16:33:29.509,-0.017156,-2.199655,-3.663438,-0.29769602,-0.22394009,-0.5633058,1.917659,0.563727,7.777573,-0.06083785,-0.51433563,7.0954437,-0.9423947,0.30635834,1.7315941,1.6640956,-1.9194412,-3.629818,0.09249984,0.45352936,0.76478195,-0.73671937,4.3839684,-1.6351585,1.8672918,-0.4896927,-0.75867844,-0.04131317,-0.09059906,-2.694744,-1.1186271,-0.01964569,-5.8942566,1.7329128,-1.6327286,-6.7402153,0.024147034,-0.398674,-4.8078117,-0.90209454,0.05344391,0.31555557,1.762235,-1.3357925,-7.98291,0.0,0.0,0.0,0.0,0.0,0.0,0.0,0.0,0.0,0.0,0.0,0.0,3.0,-0.40773764,-3.0,3.0,3.0,-1.503612,-3.0,-1.2003917,-3.0,-3.0,1.2085317,-3.0
2025-06-06 16:33:29.560,-0.582823,-2.512418,-4.775749,-0.4577624,0.2799312,-0.37834328,2.071504,0.91248,4.646784,-0.072358236,-0.3963089,7.6362267,-0.9760403,-0.5913925,-2.802166,1.6170223,-0.34694672,-4.347599,0.10585128,0.121650696,0.46936798,-0.50623536,3.126873,-1.2420845,1.7244695,-1.7385483,-0.3704872,-0.054130554,-0.03299713,-2.4225235,-1.1101584,0.07892609,-4.3891068,1.6648586,-1.0124588,-5.117874,0.0076675415,-0.2600479,-4.356144,-0.8745524,0.47161102,2.9193573,1.6955541,-0.9820938,-6.1652565,0.0,0.0,0.0,0.0,0.0,0.0,0.0,0.0,0.0,0.0,0.0,0.0,3.0,-0.47864023,-3.0,3.0,3.0,-3.0,-3.0,-1.3314604,-3.0,-3.0,1.3058376,-3.0
2025-06-06 16:33:29.611,-1.178786,-1.275405,-6.140509,-0.024978122,0.57358336,-0.44550052,1.321151,0.189195,6.577191,-0.094025716,-0.2678299,8.009766,-1.0117459,-0.8714676,-1.5777817,1.6199977,0.4969406,-5.5353622,0.11424361,-0.040779114,0.37659454,-0.43169615,0.19626617,-0.1324501,1.5697454,-2.3911705,0.08605957,-0.050621033,0.10913849,-2.7533379,-1.1213737,-0.45589447,-3.9679565,1.6245754,-0.75115204,-3.9435425,0.008125305,0.3432846,-5.003128,-0.86318463,-0.027656555,3.9887085,1.6658758,-0.2954483,-6.085907,0.0,0.0,0.0,0.0,0.0,0.0,0.0,0.0,0.0,0.0,0.0,0.0,3.0,-0.3872492,-3.0,3.0,3.0,-3.0,-3.0,-1.451145,-3.0,-3.0,1.1741738,-3.0
2025-06-06 16:33:29.662,-0.56764,0.574192,-7.591259,0.27907032,0.6542531,-0.53969544,-2.007472,1.068239,12.243947,-0.09951888,-0.2034378,8.092773,-1.0672879,-1.0279465,1.1883736,1.6559322,0.5186081,-6.71336,0.11828719,-0.00019073486,0.10192871,-0.43902037,-0.6370163,1.3495064,1.5630316,1.5790176,-4.9982452,-0.07396698,-1.0490799,-0.7904167,-1.2059073,-2.1381798,0.11413574,1.5388973,-1.8506241,0.055541992,0.033226013,0.2840805,-5.828335,-0.8663127,0.00011444092,3.215992,1.6629766,-0.17269135,-6.078583,0.0,0.0,0.0,0.0,0.0,0.0,0.0,0.0,0.0,0.0,0.0,0.0,3.0,-0.57903993,-3.0,3.0,3.0,-3.0,-3.0,-1.4199914,-3.0,-3.0,1.2436146,-3.0
2025-06-06 16:33:29.713,-0.321027,2.108477,-9.159035,-0.038044494,0.25151032,-0.4781227,-3.055887,1.470729,12.575977,-0.099976644,-0.0065231323,7.79858,-1.109097,-0.57735443,0.7757683,1.66524,-0.015907288,-6.44236,0.11035262,-0.18939972,0.68543625,-0.45725462,-0.23616791,1.5973129,1.6057562,0.19321442,-4.469673,-0.1001358,-0.2550888,-0.3619423,-1.2602286,-0.3747177,0.13977432,1.4953334,-0.3170395,-0.016479492,0.05420685,0.33031464,-6.848858,-0.85776776,0.22190094,3.1036835,1.6384863,-0.56598663,-4.6527824,0.0,0.0,0.0,0.0,0.0,0.0,0.0,0.0,0.0,0.0,0.0,0.0,3.0,-0.78825736,-3.0,3.0,3.0,-3.0,-3.0,-1.4560537,-3.0,-3.0,1.4331254,-3.0
2025-06-06 16:33:29.764,-0.766929,2.436052,-10.318034,-0.31465697,-0.0119333565,-0.35909453,-1.785911,1.106959,9.039566,-0.09494124,0.21312714,7.5678635,-1.1415982,-0.55080414,0.38513947,1.6650875,0.016288757,-6.4606705,0.102494344,-0.1039505,0.83558273,-0.46084043,0.032463074,1.2970161,1.5985082,-0.2527237,-3.5663376,-0.10601044,0.0061416626,-0.6598015,-1.2653403,-0.031318665,-0.46326447,1.4913661,-0.017356873,-0.34973526,0.07457733,0.4857254,-7.490959,-0.8437297,0.21686554,3.928894,1.6051458,-0.47527313,-3.6249313,0.0,0.0,0.0,0.0,0.0,0.0,0.0,0.0,0.0,0.0,0.0,0.0,3.0,-0.855009,-3.0,3.0,3.0,-2.840115,-3.0,-1.4587137,-3.0,-3.0,1.5739107,-3.0
2025-06-06 16:33:29.815,-1.701651,2.245907,-11.31685,-0.3927439,-0.098046735,-0.37083253,-1.280427,-0.288742,8.940104,-0.09135543,0.06664276,7.5300217,-1.1740232,-0.6101608,1.3080025,1.6778286,0.37296295,-7.4897385,0.09700118,-0.21923065,1.1639595,-0.45580503,0.16643524,0.8941803,1.5823339,-0.33863068,-2.3993301,-0.10593414,-0.008888245,-0.6671257,-1.2663321,-0.005607605,-0.514534,1.4913661,0.027198792,-0.3607216,0.091362,0.26317596,-7.9609375,-0.83129376,0.25157928,4.4184036,1.5824102,-0.31642914,-3.0096893,0.0,0.0,0.0,0.0,0.0,0.0,0.0,0.0,0.0,0.0,0.0,0.0,3.0,-0.953659,-3.0,3.0,3.0,-2.530315,-3.0,-1.394245,-3.0,-3.0,1.7502683,-3.0
2025-06-06 16:33:29.866,-3.077991,1.963049,-12.497793,-0.33602995,-0.08037108,-0.4141725,-0.964866,-1.401633,9.35704,-0.089371786,0.09677887,7.426262,-1.2129331,-0.9454727,1.9598694,1.705447,0.6139755,-8.540779,0.08868514,-0.1871872,1.4264145,-0.44420835,0.3874588,0.42786407,1.5731786,-0.16407013,-1.223774,-0.104789734,-0.014076233,-0.68787766,-1.2596946,0.08556366,-0.42786407,1.4912899,-0.018043518,-0.35095596,0.11249542,0.3181839,-8.925308,-0.8118388,0.2916336,4.76997,1.5660833,-0.096702576,-2.777752,0.0,0.0,0.0,0.0,0.0,0.0,0.0,0.0,0.0,0.0,0.0,0.0,3.0,-1.0915407,-3.0,3.0,3.0,-2.1089506,-3.0,-1.339076,-3.0,-3.0,1.9774662,-3.0
2025-06-06 16:33:29.917,-3.987148,1.889256,-13.779852,-0.13949196,0.284203,-0.39419582,-0.159761,-2.30225,9.891577,-0.08479415,0.15827179,7.200428,-1.2402463,-0.22418976,1.3983383,1.7365749,0.69698334,-9.781033,0.08311568,-0.013160706,1.5216293,-0.42688963,0.24700165,-0.3228798,1.5830969,0.33481598,-0.69153976,-0.08243561,0.42125702,-2.2601662,-1.2702231,-0.003929138,0.4718094,1.5101345,0.25608063,-1.2677193,0.13225555,0.2727127,-9.289082,-0.7753703,0.83538055,4.2926674,1.5476965,-0.4619217,-1.6144028,0.0,0.0,0.0,0.0,0.0,0.0,0.0,0.0,0.0,0.0,0.0,0.0,3.0,-1.3506337,-3.0,3.0,3.0,-1.4757426,-3.0,-1.2321833,-3.0,-3.0,2.3142798,-3.0
2025-06-06 16:33:29.968,-4.513007,2.784566,-14.645903,-0.08475216,0.44266048,-0.2134391,0.192618,-2.914844,9.914497,-0.083954915,-0.032081604,7.3786545,-1.2535977,-0.071144104,-0.0579834,1.7660244,0.5163193,-10.6831455,0.08113204,0.0076675415,1.5301743,-0.41750547,0.0787735,-0.37537384,1.6235327,0.47405243,0.060424805,-0.06687164,0.47908783,-2.4444962,-1.2580161,0.3107834,0.3985672,1.5128047,-0.0963974,-1.0138092,0.1366806,0.099601746,-9.16457,-0.73317975,0.4868698,5.340046,1.5232824,-0.32772064,-1.1200104,0.0,0.0,0.0,0.0,0.0,0.0,0.0,0.0,0.0,0.0,0.0,0.0,3.0,-1.5164891,-3.0,3.0,3.0,-1.0574982,-3.0,-1.1249559,-3.0,-3.0,2.4112403,-3.0
2025-06-06 16:33:30.020,-4.649077,3.692114,-15.247075,0.094753176,0.34305847,-0.14396869,-0.020604,-1.788783,8.878814,-0.0904399,-0.24715424,7.840084,-1.2664151,-0.1845932,-0.64271164,1.7828853,0.30056,-10.87602,0.07876693,-0.017814636,1.6900902,-0.4146063,-0.017814636,-0.30212784,1.6650366,0.49510956,0.22278214,-0.061531067,0.016899109,-2.4017715,-1.2432151,0.2590561,0.54261017,1.5050228,-0.23693085,-0.57801056,0.13965607,0.07144928,-9.336689,-0.7134959,0.21274567,5.893036,1.5206884,0.05672455,-1.4374008,0.0,0.0,0.0,0.0,0.0,0.0,0.0,0.0,0.0,0.0,0.0,0.0,3.0,-1.5904893,-3.0,3.0,3.0,-0.853157,-3.0,-1.0702219,-3.0,-3.0,2.419495,-3.0
2025-06-06 16:33:30.073,-4.362455,4.670775,-15.904077,0.1573581,0.33278733,-0.2273206,-0.424359,-1.279733,9.885343,-0.10165511,-0.33916473,8.382088,-1.2764859,-0.12271881,-0.8306999,1.791354,0.0014877319,-10.860151,0.07251082,-0.08113861,1.9781799,-0.4146063,-0.01789093,-0.27161026,1.7049383,0.7921982,-0.73182297,-0.058250427,0.011024475,-2.3163185,-1.2288718,0.21762848,0.4754715,1.4911373,-0.12187958,-0.18005753,0.1404953,-0.05420685,-9.317158,-0.70411175,0.06694794,5.8539696,1.5282415,0.21335602,-1.9110413,0.0,0.0,0.0,0.0,0.0,0.0,0.0,0.0,0.0,0.0,0.0,0.0,3.0,-1.6410136,-3.0,3.0,3.0,-0.75501007,-3.0,-1.0442319,-3.0,-3.0,2.414547,-3.0
2025-06-06 16:33:30.124,-3.936959,5.393216,-16.662846,0.17028269,0.23659573,-0.24544711,-1.105232,0.105662,9.622268,-0.11279403,-0.12264252,8.56031,-1.2868619,-0.114860535,-0.76600266,1.7902095,-0.056495667,-10.746624,0.060532674,-0.05382538,2.3590431,-0.4195654,-0.12004852,0.0018310547,1.7450689,0.64403534,-1.7047386,-0.06603241,-0.75359344,-1.4935532,-1.2157493,0.5183029,0.08972168,1.4841945,-0.011711121,-0.07019043,0.14286041,0.28087616,-9.551537,-0.7022044,0.032920837,5.794155,1.5388464,0.2073288,-2.2162209,0.0,0.0,0.0,0.0,0.0,0.0,0.0,0.0,0.0,0.0,0.0,0.0,3.0,-1.6477649,-3.0,3.0,3.0,-0.7360378,-3.0,-1.0523747,-3.0,-3.0,2.3695843,-3.0
2025-06-06 16:33:30.175,-3.118798,6.010195,-17.526968,0.25438246,0.11162616,-0.30850857,-1.490272,0.590288,10.29935,-0.11340438,0.007896423,8.350346,-1.29884,-0.34397125,-0.3265419,1.7840297,-0.22525787,-10.377966,0.055573568,-0.18024445,2.6471367,-0.4233801,-0.09037018,0.12634659,1.7800878,0.6306076,-2.7313652,-0.08861542,-0.30086517,-0.776989,-1.1981254,0.13774872,-0.41199493,1.4844234,0.0118637085,-0.11779785,0.1568222,0.30986786,-10.168003,-0.7022807,0.029945374,5.5146103,1.5477728,0.07335663,-2.4066544,0.0,0.0,0.0,0.0,0.0,0.0,0.0,0.0,0.0,0.0,0.0,0.0,3.0,-1.6391323,-3.0,3.0,3.0,-0.73572177,-3.0,-1.0509903,-3.0,-3.0,2.365172,-3.0
2025-06-06 16:33:30.226,-2.786518,6.089279,-18.465828,0.023558175,-0.03026537,-0.32392064,-1.550344,0.610828,9.864791,-0.11248885,0.037498474,8.329594,-1.3135648,-0.36899567,0.35095596,1.7779262,-0.06580353,-10.277866,0.04443465,-0.13072968,3.0597382,-0.4271948,-0.06931305,0.22156143,1.79466,0.11631012,-2.6398125,-0.09654999,0.11898041,-1.203022,-1.1977439,-0.1027298,0.061645508,1.4844234,-0.0077438354,-0.115356445,0.17017365,0.21251678,-10.565956,-0.70144147,0.06465912,5.4523544,1.5479254,-0.029411316,-2.2699318,0.0,0.0,0.0,0.0,0.0,0.0,0.0,0.0,0.0,0.0,0.0,0.0,3.0,-1.7040803,-3.0,3.0,3.0,-0.5948097,-3.0,-0.99972105,-3.0,-3.0,2.4584277,-3.0
2025-06-06 16:33:30.277,-2.997137,5.977003,-19.186646,-0.09429911,0.040339604,-0.15959825,-1.287989,-0.21386,9.980678,-0.11164962,0.05580902,8.242924,-1.3298154,-0.2741623,0.34363174,1.7781551,0.038871765,-10.463417,0.038636312,0.008201599,3.007248,-0.42872068,0.06549835,0.20080948,1.7983221,0.0017929077,-2.1612892,-0.08792877,0.25371552,-1.5399399,-1.2075095,-0.10601044,0.75867844,1.4844997,-0.052375793,-0.10803223,0.17810822,0.0963974,-10.725872,-0.6961772,0.12340546,5.761196,1.5398382,-0.27843475,-1.6278343,0.0,0.0,0.0,0.0,0.0,0.0,0.0,0.0,0.0,0.0,0.0,0.0,3.0,-1.8201464,-3.0,3.0,3.0,-0.35843727,-3.0,-0.9122925,-3.0,-3.0,2.5737333,-3.0
2025-06-06 16:33:30.328,-3.306446,6.133232,-19.43519,-0.08924181,0.116097994,-0.033445552,-0.881456,-0.928257,9.782989,-0.10844527,0.025062561,8.106201,-1.3401914,-0.17505646,-0.23620987,1.7806728,0.0074386597,-10.500038,0.038865194,-0.01750946,3.0048065,-0.42902586,-0.03376007,0.24231339,1.799848,-0.015983582,-1.2591743,-0.08243561,0.04611969,-1.5338364,-1.2075095,0.057640076,1.0540924,1.4844234,0.00064849854,-0.12512589,0.18009186,-0.020561218,-10.677044,-0.6859538,0.24448395,6.1176453,1.5241216,-0.22922516,-1.1248932,0.0,0.0,0.0,0.0,0.0,0.0,0.0,0.0,0.0,0.0,0.0,0.0,3.0,-1.869611,-3.0,3.0,3.0,-0.20344253,-3.0,-0.8523436,-3.0,-3.0,2.5980718,-3.0
2025-06-06 16:33:30.379,-3.586504,6.298245,-19.519474,-0.04863168,0.071489856,-0.023515223,-0.996094,-1.107326,9.193825,-0.107529745,-0.0749588,8.126957,-1.3456845,-0.0699234,-0.3619423,1.7808254,0.018882751,-10.469521,0.03901778,-0.028190613,2.9828339,-0.43291685,-0.0863266,0.49988556,1.8028997,0.13584137,-0.96131897,-0.080451965,-0.0038528442,-1.5753403,-1.2054496,-0.009880066,1.3665962,1.4811428,-0.107688904,0.12390137,0.17978668,-0.015296936,-10.66972,-0.68297833,-0.0049209595,6.339817,1.5152715,-0.08068085,-1.0614166,0.0,0.0,0.0,0.0,0.0,0.0,0.0,0.0,0.0,0.0,0.0,0.0,3.0,-1.8727493,-3.0,3.0,3.0,-0.17191108,-3.0,-0.8304543,-3.0,-3.0,2.5815833,-3.0
2025-06-06 16:33:30.430,-3.686255,6.537382,-19.623526,0.026136514,0.093993045,-0.03031649,-1.192326,-0.960034,9.392718,-0.10722457,-0.0030136108,8.180668,-1.350491,-0.0787735,-0.2508583,1.7806728,-0.020561218,-10.50248,0.038712606,-0.016746521,3.0206757,-0.4374945,-0.08266449,0.5865555,1.8135809,0.23334503,-1.4276352,-0.07846832,0.008201599,-1.6400414,-1.2023978,0.09479523,1.3946762,1.4748867,-0.08312225,0.31311417,0.18016815,0.034980774,-10.690472,-0.68274945,0.0007247925,6.2275124,1.513059,0.061683655,-1.0601959,0.0,0.0,0.0,0.0,0.0,0.0,0.0,0.0,0.0,0.0,0.0,0.0,3.0,-1.8902688,-3.0,3.0,3.0,-0.17223616,-3.0,-0.83004785,-3.0,-3.0,2.5652416,-3.0
2025-06-06 16:33:30.481,-3.614428,6.792004,-19.76109,0.037312888,0.08242265,-0.0594035,-1.335755,-0.631609,9.895221,-0.10836898,-0.031089783,8.189213,-1.3548398,-0.16971588,-0.2081337,1.7807491,-0.0051498413,-10.500038,0.03741561,-0.10913849,3.1927986,-0.4409277,-0.11608124,0.6964226,1.8258642,0.2009201,-1.7816429,-0.07839203,0.015449524,-1.6058578,-1.1996512,0.0033950806,1.3287544,1.4726741,-0.0333786,0.34729385,0.18169403,0.04146576,-10.775921,-0.68274945,0.00011444092,6.143284,1.5132116,0.023536682,-1.0955963,0.0,0.0,0.0,0.0,0.0,0.0,0.0,0.0,0.0,0.0,0.0,0.0,3.0,-1.8945869,-3.0,3.0,3.0,-0.1553367,-3.0,-0.8279209,-3.0,-3.0,2.5625384,-3.0
2025-06-06 16:33:30.532,-3.534556,6.979974,-19.94333,0.044018652,0.05758621,-0.072487205,-1.428993,-0.313035,9.801786,-0.10882674,-0.007209778,8.177006,-1.3581204,0.001335144,-0.14587784,1.7807491,-0.0023269653,-10.464638,0.034440145,-0.033836365,3.2098885,-0.44138548,0.021629333,0.6768913,1.8335699,0.19886017,-1.9549866,-0.07854462,0.007209778,-1.6351585,-1.1964469,0.0825119,1.2188911,1.472369,-0.023002625,0.31311417,0.18306732,0.08174896,-10.832073,-0.681071,0.033683777,6.0212097,1.5132116,0.048561096,-1.0736237,0.0,0.0,0.0,0.0,0.0,0.0,0.0,0.0,0.0,0.0,0.0,0.0,3.0,-1.9078972,-3.0,3.0,3.0,-0.13073094,-3.0,-0.82499886,-3.0,-3.0,2.5712874,-3.0
2025-06-06 16:33:30.583,-3.462899,7.090696,-20.11034,0.014889858,0.042816155,-0.028367551,-1.278477,-0.192077,9.104357,-0.10905562,0.056037903,8.21851,-1.362164,-0.06198883,-0.13855362,1.7818172,0.01247406,-10.540321,0.03321944,-0.104789734,3.3380623,-0.44161436,-0.016059875,0.6683464,1.8401312,0.099220276,-1.9867249,-0.07816315,0.029029846,-1.6937523,-1.1960654,-0.03261566,1.3214302,1.4724452,0.018501282,0.30578995,0.18604279,0.060691833,-10.962692,-0.67885846,0.10845184,6.0138855,1.5131353,-0.014305115,-1.0699615,0.0,0.0,0.0,0.0,0.0,0.0,0.0,0.0,0.0,0.0,0.0,0.0,3.0,-1.9261004,-3.0,3.0,3.0,-0.070698574,-3.0,-0.8089074,-3.0,-3.0,2.600726,-3.0
2025-06-06 16:33:30.634,-3.465556,7.166802,-20.268734,0.006713426,0.016845917,-0.040591385,-1.123894,-0.661068,9.615899,-0.108903036,0.028038025,8.206303,-1.3640714,-0.04512787,-0.19226456,1.7819698,-0.03513336,-10.512245,0.03238021,-0.005760193,3.2379646,-0.4412329,-0.008964539,0.65369797,1.8431829,0.055503845,-1.7718773,-0.075035095,0.06298065,-1.6913109,-1.1969047,-0.031929016,1.4020004,1.4725215,0.009880066,0.30578995,0.18650055,0.03414154,-10.926071,-0.6771037,0.02948761,6.1689186,1.5128301,-0.024604797,-1.0614166,0.0,0.0,0.0,0.0,0.0,0.0,0.0,0.0,0.0,0.0,0.0,0.0,3.0,-1.934965,-3.0,3.0,3.0,-0.023793535,-3.0,-0.7885161,-3.0,-3.0,2.6124482,-3.0
2025-06-06 16:33:30.685,-3.440001,7.229495,-20.295343,0.02487918,0.035344295,0.0024491507,-1.284243,-0.693525,9.792068,-0.10905562,-0.01247406,8.196537,-1.3640714,0.051231384,-0.30701065,1.7818935,-0.012626648,-10.542763,0.032151327,0.035438538,3.2587166,-0.44130918,-0.0118637085,0.64637375,1.8466161,0.038261414,-1.7718773,-0.07564545,-0.0104904175,-1.6913109,-1.1955314,0.04863739,1.4178696,1.4722927,-0.007820129,0.3228798,0.18688202,0.018959045,-10.912643,-0.6767222,0.0025558472,6.2153053,1.5129064,-0.0017929077,-1.0919342,0.0,0.0,0.0,0.0,0.0,0.0,0.0,0.0,0.0,0.0,0.0,0.0,3.0,-1.9339211,-3.0,3.0,3.0,-0.016028242,-3.0,-0.78488547,-3.0,-3.0,2.6053345,-3.0
2025-06-06 16:33:30.736,-3.388206,7.293529,-20.343735,0.017239263,0.024391202,-0.027090373,-1.234741,-0.461859,9.598776,-0.10913192,-0.013084412,8.1904335,-1.3644528,0.018043518,-0.29358292,1.7818935,0.020332336,-10.518349,0.031769857,-0.052604675,3.261158,-0.44077513,-0.018501282,0.61219025,1.8486761,0.0007247925,-1.7633324,-0.07549286,-0.056648254,-1.6888695,-1.1927848,0.088768005,1.3702583,1.4715297,0.008888245,0.34119034,0.18756866,0.042762756,-10.94194,-0.67534894,-0.018043518,6.129856,1.5128301,-0.024223328,-1.0614166,0.0,0.0,0.0,0.0,0.0,0.0,0.0,0.0,0.0,0.0,0.0,0.0,3.0,-1.9323407,-3.0,3.0,3.0,-0.017314272,-3.0,-0.78698695,-3.0,-3.0,2.604222,-3.0
2025-06-06 16:33:30.787,-3.326633,7.358763,-20.391586,0.010206022,0.01308777,-0.011711281,-1.296294,-0.442883,9.832941,-0.10897933,0.050621033,8.179447,-1.3643003,-0.019950867,-0.2459755,1.7818935,-0.025978088,-10.529335,0.031540975,-0.07724762,3.2684822,-0.44024107,0.008964539,0.5914383,1.8501257,0.029563904,-1.8133812,-0.07595062,-0.0737381,-1.7145042,-1.1914115,0.011787415,1.3665962,1.4713771,0.005683899,0.33874893,0.18802643,-0.013389587,-10.979782,-0.6746623,-0.0063705444,6.115204,1.5129064,0.022392273,-1.0760651,0.0,0.0,0.0,0.0,0.0,0.0,0.0,0.0,0.0,0.0,0.0,0.0,3.0,-1.9307535,-3.0,3.0,3.0,-0.018370705,-3.0,-0.78973323,-3.0,-3.0,2.6073842,-3.0
2025-06-06 16:33:30.838,-3.314427,7.372865,-20.408792,-0.00058152626,0.0018962478,-0.0016389514,-1.266888,-0.530003,9.647262,-0.10905562,0.030174255,8.207523,-1.3646817,-0.060081482,-0.23132706,1.7818172,0.021781921,-10.508583,0.031769857,0.016746521,3.261158,-0.44016477,0.07183075,0.5999832,1.8500494,0.019340515,-1.8109398,-0.07610321,0.042762756,-1.682766,-1.1911826,-0.010185242,1.3372993,1.4715297,0.057182312,0.33630753,0.18810272,0.005607605,-10.979782,-0.6744334,0.029640198,6.1286354,1.513059,-0.0075149536,-1.0882721,0.0,0.0,0.0,0.0,0.0,0.0,0.0,0.0,0.0,0.0,0.0,0.0,3.0,-1.9356807,-3.0,3.0,3.0,-0.0045592356,-3.0,-0.78660524,-3.0,-3.0,2.6154618,-3.0
2025-06-06 16:33:30.889,-3.318022,7.374932,-20.42059,0.0044766646,0.00858229,-0.010431414,-1.24751,-0.60417,9.676796,-0.10867415,0.01285553,8.214848,-1.3649106,0.09395599,-0.2508583,1.7819698,-0.016899109,-10.541542,0.03184615,0.07991791,3.269703,-0.4400122,-0.08609772,0.5877762,1.8503546,-0.022773743,-1.7560081,-0.07610321,0.021629333,-1.7254906,-1.1908011,0.027885437,1.3702583,1.4714534,-0.0015640259,0.33996964,0.18825531,0.013618469,-10.962692,-0.67412823,0.0076675415,6.1945534,1.5129064,-0.007286072,-1.0882721,0.0,0.0,0.0,0.0,0.0,0.0,0.0,0.0,0.0,0.0,0.0,0.0,3.0,-1.9324282,-3.0,3.0,3.0,-0.01374598,-3.0,-0.77903086,-3.0,-3.0,2.6027553,-3.0
2025-06-06 16:33:30.940,-3.31438,7.383692,-20.440594,0.0036469526,0.0059442073,-0.00042484803,-1.289225,-0.523443,9.770151,-0.108903036,0.03276825,8.208744,-1.3650632,-0.03261566,-0.21789932,1.7818935,0.014839172,-10.543983,0.03184615,-0.054359436,3.2440681,-0.4397833,-0.066185,0.5938797,1.850736,-0.016822815,-1.8011742,-0.0762558,-0.017585754,-1.727932,-1.1905723,0.00034332275,1.375145,1.4713771,-0.034446716,0.33996964,0.1883316,0.062065125,-10.994431,-0.67389935,-0.0358963,6.1274147,1.5129064,-0.0049972534,-1.0809479,0.0,0.0,0.0,0.0,0.0,0.0,0.0,0.0,0.0,0.0,0.0,0.0,3.0,-1.9327619,-3.0,3.0,3.0,-0.02142747,-3.0,-0.7881383,-3.0,-3.0,2.6047933,-3.0
2025-06-06 16:33:30.991,-3.302574,7.389711,-20.43803,0.0008992285,-0.0020984965,0.00017270033,-1.266518,-0.515711,9.685184,-0.108903036,-0.009727478,8.196537,-1.3650632,-0.016746521,-0.2093544,1.7819698,0.016899109,-10.535439,0.03184615,-0.03429413,3.2330818,-0.43955442,0.039100647,0.5951004,1.8505834,-0.0146102905,-1.8207054,-0.0762558,0.030632019,-1.7132835,-1.1905723,-0.018424988,1.314106,1.4714534,-0.024986267,0.34241104,0.18825531,0.08563995,-10.951706,-0.67405194,0.064964294,6.098114,1.5129064,0.0104904175,-1.0858307,0.0,0.0,0.0,0.0,0.0,0.0,0.0,0.0,0.0,0.0,0.0,0.0,3.0,-1.9367392,-3.0,3.0,3.0,-0.0084870625,-3.0,-0.78518814,-3.0,-3.0,2.6116405,-3.0
2025-06-06 16:33:31.042,-3.303116,7.389266,-20.450306,-0.0011544306,0.0006898937,-0.005637029,-1.231153,-0.548641,9.7075,-0.10897933,-0.041618347,8.183109,-1.3656735,-0.009269714,-0.22766495,1.7818935,-0.0157547,-10.526894,0.031922445,-0.040473938,3.269703,-0.43932554,0.006904602,0.58045197,1.8508886,0.041770935,-1.7767601,-0.076179504,0.0019454956,-1.6986351,-1.1902671,0.06816864,1.375145,1.4715297,-0.031318665,0.33386612,0.18810272,0.028038025,-10.995651,-0.6735179,0.015068054,6.166477,1.5129827,-0.014152527,-1.0650787,0.0,0.0,0.0,0.0,0.0,0.0,0.0,0.0,0.0,0.0,0.0,0.0,3.0,-1.9340091,-3.0,3.0,3.0,-0.015624719,-3.0,-0.78102005,-3.0,-3.0,2.6024225,-3.0
2025-06-06 16:33:31.093,-3.30546,7.392494,-20.46415,0.0014893244,0.0038908974,-0.003693518,-1.264934,-0.551496,9.695162,-0.10897933,0.064888,8.200199,-1.365521,0.023155212,-0.23620987,1.7819698,0.015602112,-10.508583,0.03199874,-0.0146865845,3.2574959,-0.43924925,0.037651062,0.592659,1.8508886,0.014305115,-1.8084984,-0.07633209,-0.005455017,-1.7084007,-1.1901908,0.03452301,1.4020004,1.4714534,-0.010261536,0.33630753,0.18848419,0.00995636,-11.0103,-0.6735942,0.011024475,6.123749,1.5128301,-0.037345886,-1.0797272,0.0,0.0,0.0,0.0,0.0,0.0,0.0,0.0,0.0,0.0,0.0,0.0,3.0,-1.9369377,-3.0,3.0,3.0,-0.012684779,-3.0,-0.7896425,-3.0,-3.0,2.6109283,-3.0
2025-06-06 16:33:31.144,-3.299573,7.401375,-20.467695,0.0017945301,-2.5377087e-05,-0.0042559328,-1.280889,-0.539204,9.711582,-0.10905562,-0.07991791,8.141605,-1.3659024,0.08098602,-0.22156143,1.7818172,0.008583069,-10.504921,0.03184615,-0.02544403,3.2745857,-0.43932554,0.06893158,0.5914383,1.8511175,-0.008201599,-1.8011742,-0.076179504,-0.025672913,-1.7120628,-1.1902671,0.099220276,1.3287544,1.4714534,-0.00667572,0.33874893,0.18817902,0.022392273,-10.981003,-0.6735942,-0.027885437,6.1408424,1.5129064,0.014076233,-1.0589752,0.0,0.0,0.0,0.0,0.0,0.0,0.0,0.0,0.0,0.0,0.0,0.0,3.0,-1.9320191,-3.0,3.0,3.0,-0.013216453,-3.0,-0.782753,-3.0,-3.0,2.6044416,-3.0
2025-06-06 16:33:31.195,-3.294662,7.407105,-20.48112,0.00025647614,0.0061996016,6.1051614e-05,-1.249851,-0.542133,9.711091,-0.10913192,-0.0020217896,8.1904335,-1.366055,-0.049858093,-0.19470596,1.7818172,0.012397766,-10.548866,0.03199874,0.03238678,3.2379646,-0.43932554,0.012550354,0.592659,1.8513464,-0.013008118,-1.7987328,-0.0762558,0.00957489,-1.7022972,-1.1901908,0.0022506714,1.359272,1.4713771,-0.0038528442,0.33630753,0.1884079,0.010032654,-10.963913,-0.6733653,0.024375916,6.1213074,1.5129064,0.03665924,-1.0870514,0.0,0.0,0.0,0.0,0.0,0.0,0.0,0.0,0.0,0.0,0.0,0.0,3.0,-1.9369224,-3.0,3.0,3.0,-0.0089125205,-3.0,-0.7845717,-3.0,-3.0,2.6104572,-3.0
2025-06-06 16:33:31.246,-3.294883,7.409341,-20.48188,0.00066435954,0.0020753187,-0.0042845216,-1.261944,-0.522334,9.659348,-0.108903036,0.010719299,8.200199,-1.366055,0.014533997,-0.21423721,1.7819698,0.008964539,-10.532997,0.03199874,-0.019950867,3.2623787,-0.43940184,0.01033783,0.5877762,1.8513464,-0.0062942505,-1.8268089,-0.07633209,-0.0035476685,-1.7059593,-1.1901908,0.039787292,1.3409615,1.4713771,0.028953552,0.33386612,0.18856049,-0.022468567,-10.999313,-0.6733653,0.008964539,6.133518,1.5128301,0.048942566,-1.0699615,0.0,0.0,0.0,0.0,0.0,0.0,0.0,0.0,0.0,0.0,0.0,0.0,3.0,-1.9342914,-3.0,3.0,3.0,-0.007959561,-3.0,-0.78522563,-3.0,-3.0,2.6082723,-3.0
2025-06-06 16:33:31.297,-3.292384,7.418273,-20.494324,-0.00027000243,-0.00035136967,-0.0061562825,-1.254346,-0.523053,9.73548,-0.10913192,-0.030097961,8.18433,-1.3661313,0.099372864,-0.2105751,1.7818935,0.009269714,-10.536659,0.03199874,0.052757263,3.2867928,-0.43932554,-0.02040863,0.5877762,1.8514227,0.027503967,-1.8341331,-0.07633209,-0.019111633,-1.7120628,-1.1901908,-0.012168884,1.3421822,1.4714534,-0.018196106,0.34119034,0.18825531,-0.04131317,-10.938278,-0.6730601,0.013465881,6.1213074,1.5129064,-0.01712799,-1.0687408,0.0,0.0,0.0,0.0,0.0,0.0,0.0,0.0,0.0,0.0,0.0,0.0,3.0,-1.9354736,-3.0,3.0,3.0,-0.01497932,-3.0,-0.7800871,-3.0,-3.0,2.6055443,-3.0
2025-06-06 16:33:31.348,-3.283921,7.427467,-20.497543,0.0019020772,0.004490191,0.0012175591,-1.288544,-0.554965,9.715622,-0.108903036,0.029640198,8.1904335,-1.3663602,0.0008773804,-0.21423721,1.7818935,-0.04245758,-10.524452,0.03199874,0.018882751,3.2391853,-0.43940184,-0.0024032593,0.5963211,1.851499,0.008354187,-1.830471,-0.076408386,-0.024909973,-1.7181664,-1.1899619,-0.039253235,1.3788071,1.4714534,0.016288757,0.33996964,0.1884079,-0.02155304,-10.968796,-0.6732127,-0.018882751,6.101776,1.5128301,-0.017814636,-1.0919342,0.0,0.0,0.0,0.0,0.0,0.0,0.0,0.0,0.0,0.0,0.0,0.0,3.0,-1.934864,-3.0,3.0,3.0,-0.0148545075,-3.0,-0.7858898,-3.0,-3.0,2.6094377,-3.0
2025-06-06 16:33:31.399,-3.282906,7.431335,-20.502995,0.004284731,0.003880984,-0.003972404,-1.255421,-0.553016,9.667945,-0.10897933,0.035209656,8.163578,-1.3665891,0.032310486,-0.20325089,1.7818172,-0.021858215,-10.539101,0.032075033,0.00064849854,3.2721443,-0.43940184,0.0062179565,0.57434845,1.8515753,0.008354187,-1.818264,-0.07633209,0.016288757,-1.694973,-1.1901145,-0.034217834,1.3519478,1.4715297,-0.018806458,0.33508682,0.1883316,-0.010185242,-10.943161,-0.6730601,0.0146865845,6.1127625,1.5129064,-0.021705627,-1.0943756,0.0,0.0,0.0,0.0,0.0,0.0,0.0,0.0,0.0,0.0,0.0,0.0,3.0,-1.9374729,-3.0,3.0,3.0,-0.011413889,-3.0,-0.7813874,-3.0,-3.0,2.6096814,-3.0
2025-06-06 16:33:31.450,-3.279299,7.439057,-20.51283,-0.00021247639,0.0011549367,-0.0009479407,-1.270151,-0.548485,9.733647,-0.10905562,-0.050697327,8.198978,-1.3666654,0.0157547,-0.19958878,1.7818935,-0.022392273,-10.535439,0.032075033,0.02910614,3.2184334,-0.43932554,-0.04032135,0.5841141,1.8518041,0.0005722046,-1.8255882,-0.07633209,-0.014228821,-1.6986351,-1.1898093,0.01247406,1.387352,1.4715297,0.012245178,0.33752823,0.18825531,0.02407074,-10.965134,-0.673289,-0.013008118,6.146946,1.5128301,-0.019569397,-1.0748444,0.0,0.0,0.0,0.0,0.0,0.0,0.0,0.0,0.0,0.0,0.0,0.0,3.0,-1.9344174,-3.0,3.0,3.0,-0.017727332,-3.0,-0.7814937,-3.0,-3.0,2.6020057,-3.0
2025-06-06 16:33:31.501,-3.278547,7.441291,-20.514763,-0.0013360495,-0.0011643964,-0.0002327222,-1.263246,-0.537506,9.713207,-0.10882674,-0.013847351,8.189213,-1.3668942,-0.03955841,-0.19592667,1.7818935,0.010566711,-10.475624,0.03199874,0.004386902,3.252613,-0.43940184,0.004081726,0.57801056,1.8515753,-0.007820129,-1.8622093,-0.076408386,-0.0157547,-1.7059593,-1.1899619,-0.007972717,1.3800278,1.471606,0.00034332275,0.33996964,0.1884079,-0.013923645,-10.967575,-0.673289,-0.029258728,6.0993347,1.5129827,0.013923645,-1.0540924,0.0,0.0,0.0,0.0,0.0,0.0,0.0,0.0,0.0,0.0,0.0,0.0,3.0,-1.9339441,-3.0,3.0,3.0,-0.016012626,-3.0,-0.78728616,-3.0,-3.0,2.6076431,-3.0
2025-06-06 16:33:31.553,-3.277199,7.443042,-20.518236,-0.00020530308,0.0005984385,-0.0028253738,-1.249145,-0.569472,9.696187,-0.108903036,0.012931824,8.196537,-1.3669705,0.07053375,-0.19104385,1.7819698,-0.023765564,-10.543983,0.032151327,0.032310486,3.2428474,-0.43924925,-0.001411438,0.57190704,1.8518804,-0.004386902,-1.8280296,-0.07633209,0.021400452,-1.6913109,-1.189733,0.04787445,1.347065,1.471606,-0.009346008,0.34119034,0.1884079,-0.020103455,-10.973679,-0.6729838,-0.034370422,6.162815,1.5128301,0.022163391,-1.0809479,0.0,0.0,0.0,0.0,0.0,0.0,0.0,0.0,0.0,0.0,0.0,0.0,3.0,-1.9354321,-3.0,3.0,3.0,-0.017045097,-3.0,-0.7833816,-3.0,-3.0,2.6049922,-3.0
2025-06-06 16:33:31.604,-3.277977,7.441769,-20.52537,-0.0004188092,0.0012941093,-0.0014010456,-1.261661,-0.516431,9.700815,-0.10897933,-0.016746521,8.175785,-1.3671994,-0.016212463,-0.18738174,1.7820461,0.024986267,-10.53788,0.031769857,-0.009498596,3.2672615,-0.43932554,0.017051697,0.5914383,1.8517278,-0.010108948,-1.8780823,-0.076408386,0.023155212,-1.6876488,-1.1898856,0.051231384,1.3678169,1.4714534,0.0008010864,0.33630753,0.1883316,0.0047683716,-10.973679,-0.673289,-0.02620697,6.0846863,1.5129064,-0.014915466,-1.0748444,0.0,0.0,0.0,0.0,0.0,0.0,0.0,0.0,0.0,0.0,0.0,0.0,3.0,-1.9363365,-3.0,3.0,3.0,-0.01331337,-3.0,-0.7851638,-3.0,-3.0,2.606766,-3.0
2025-06-06 16:33:31.655,-3.27598,7.445029,-20.527817,-0.00011376056,0.00088303187,-0.0017704968,-1.283711,-0.557972,9.732733,-0.108903036,-0.002708435,8.196537,-1.3672757,-0.11302948,-0.17517471,1.7819698,-0.0010299683,-10.525673,0.03199874,0.014228821,3.2269783,-0.43924925,-0.0019454956,0.5889969,1.8521856,-0.004081726,-1.8048363,-0.07633209,0.0045394897,-1.7120628,-1.1898093,-0.013084412,1.3690376,1.4713771,0.017280579,0.34851456,0.18856049,0.016593933,-10.950485,-0.6730601,-0.024299622,6.1176453,1.5129827,0.010871887,-1.0540924,0.0,0.0,0.0,0.0,0.0,0.0,0.0,0.0,0.0,0.0,0.0,0.0,3.0,-1.9337419,-3.0,3.0,3.0,-0.010305362,-3.0,-0.7835395,-3.0,-3.0,2.6081629,-3.0
2025-06-06 16:33:31.706,-3.275974,7.4489,-20.53647,0.0029355565,9.2607166e-05,-0.0019891865,-1.288387,-0.545756,9.711913,-0.10905562,0.086250305,8.187992,-1.3674283,0.027427673,-0.1727333,1.7819698,0.038261414,-10.496376,0.03199874,-0.0034713745,3.2513924,-0.43924925,0.0014877319,0.5889969,1.8521856,0.034828186,-1.8316917,-0.076408386,-0.007133484,-1.7084007,-1.1899619,-0.03551483,1.3531685,1.4713771,0.011787415,0.330204,0.1883316,-0.00995636,-10.973679,-0.6731364,0.034828186,6.1359596,1.513059,0.033607483,-1.0907135,0.0,0.0,0.0,0.0,0.0,0.0,0.0,0.0,0.0,0.0,0.0,0.0,3.0,-1.9397401,-3.0,3.0,3.0,-0.011709766,-3.0,-0.7856617,-3.0,-3.0,2.6084607,-3.0
2025-06-06 16:33:31.757,-3.271832,7.446898,-20.54022,0.00028897417,-0.0018729302,-0.0022994888,-1.283361,-0.530964,9.689403,-0.10920821,0.015144348,8.191654,-1.3675046,0.002937317,-0.21423721,1.7818935,0.009269714,-10.524452,0.03199874,-0.05039215,3.2416267,-0.43932554,-0.03643036,0.5828934,1.8521093,0.03955841,-1.8329124,-0.076408386,-0.024909973,-1.7169456,-1.189733,-0.04550934,1.347065,1.4713771,0.0051498413,0.34607315,0.1883316,0.00957489,-10.978561,-0.6730601,-0.0034713745,6.133518,1.5128301,-0.013847351,-1.0772858,0.0,0.0,0.0,0.0,0.0,0.0,0.0,0.0,0.0,0.0,0.0,0.0,3.0,-1.9344709,-3.0,3.0,3.0,-0.015908794,-3.0,-0.7826621,-3.0,-3.0,2.603731,-3.0
2025-06-06 16:33:31.808,-3.273827,7.446425,-20.545385,0.0011244458,0.0051994054,0.00045502477,-1.257815,-0.561272,9.702596,-0.10897933,0.053901672,8.200199,-1.3676572,-0.0007247925,-0.1690712,1.7818935,0.029182434,-10.55497,0.03199874,-0.033454895,3.2452888,-0.43924925,-0.007972717,0.56824493,1.8522619,-0.011482239,-1.851223,-0.07633209,0.009880066,-1.7059593,-1.1899619,0.0065994263,1.334858,1.4713771,-0.023612976,0.34607315,0.1883316,0.048789978,-10.95903,-0.6729838,-0.041236877,6.0846863,1.5128301,-0.014915466,-1.0589752,0.0,0.0,0.0,0.0,0.0,0.0,0.0,0.0,0.0,0.0,0.0,0.0,3.0,-1.9378268,-3.0,3.0,3.0,-0.01586433,-3.0,-0.7858675,-3.0,-3.0,2.606937,-3.0
2025-06-06 16:33:31.859,-3.275606,7.448082,-20.545147,0.0021249384,0.0029868865,-0.00014009757,-1.281828,-0.541474,9.688194,-0.108903036,-0.0008010864,8.177006,-1.3678098,-0.0064468384,-0.16418839,1.7818935,-0.018424988,-10.529335,0.03199874,-0.00705719,3.2428474,-0.43924925,-0.012397766,0.5841141,1.8523382,-0.0052261353,-1.8048363,-0.076408386,0.005531311,-1.6986351,-1.1898093,0.008049011,1.3849106,1.4714534,0.022621155,0.3277626,0.18848419,0.026512146,-10.95903,-0.6731364,0.022239685,6.0920105,1.5129827,-0.019264221,-1.0821686,0.0,0.0,0.0,0.0,0.0,0.0,0.0,0.0,0.0,0.0,0.0,0.0,3.0,-1.9379892,-3.0,3.0,3.0,-0.009748893,-3.0,-0.78154296,-3.0,-3.0,2.6070793,-3.0
2025-06-06 16:33:31.910,-3.273575,7.45243,-20.549217,0.0021716258,0.0020708854,0.0006668205,-1.255934,-0.535476,9.703362,-0.10882674,-0.05695343,8.197758,-1.3676572,-0.0034713745,-0.16540909,1.7817409,0.008811951,-10.526894,0.03199874,0.011100769,3.2745857,-0.43924925,-0.060539246,0.5877762,1.8524908,0.04421234,-1.8487816,-0.076408386,0.004081726,-1.7096214,-1.1899619,-0.024528503,1.3726997,1.4715297,0.007896423,0.33630753,0.18848419,-0.0146102905,-10.957809,-0.6729838,-0.0073623657,6.1164246,1.5129827,-0.023765564,-1.08461,0.0,0.0,0.0,0.0,0.0,0.0,0.0,0.0,0.0,0.0,0.0,0.0,3.0,-1.9362143,-3.0,3.0,3.0,-0.016629057,-3.0,-0.7800204,-3.0,-3.0,2.6024916,-3.0
2025-06-06 16:33:31.961,-3.265961,7.457736,-20.54762,0.00033658673,0.0012508426,0.0012947376,-1.276079,-0.529966,9.699387,-0.108903036,0.049552917,8.183109,-1.3678861,-0.040626526,-0.16418839,1.7819698,-0.083732605,-10.536659,0.031922445,-0.037498474,3.2330818,-0.43932554,-0.022315979,0.57678986,1.8524145,-0.008354187,-1.8927307,-0.076408386,-0.002632141,-1.715725,-1.1898093,-0.0021743774,1.3726997,1.4715297,-0.015525818,0.34241104,0.18825531,-0.042533875,-10.985886,-0.6730601,-0.038642883,6.094452,1.5129064,0.011482239,-1.0528717,0.0,0.0,0.0,0.0,0.0,0.0,0.0,0.0,0.0,0.0,0.0,0.0,3.0,-1.9363769,-3.0,3.0,3.0,-0.015971141,-3.0,-0.7848876,-3.0,-3.0,2.60685,-3.0
2025-06-06 16:33:32.012,-3.26564,7.455217,-20.55202,0.00044017204,0.0015175812,-0.0016627752,-1.274039,-0.547048,9.686136,-0.10875045,-0.035057068,8.200199,-1.3677335,0.045967102,-0.16296768,1.7818172,-0.0052261353,-10.536659,0.032151327,0.026893616,3.236744,-0.43917295,3.8146973e-05,0.5877762,1.8524145,0.011405945,-1.8463402,-0.07633209,0.011558533,-1.7010765,-1.1899619,0.0023269653,1.3250923,1.4715297,-0.01789093,0.33752823,0.18817902,-0.0548172,-10.956589,-0.6730601,0.03200531,6.101776,1.5129827,0.011787415,-1.0626373,0.0,0.0,0.0,0.0,0.0,0.0,0.0,0.0,0.0,0.0,0.0,0.0,3.0,-1.9381956,-3.0,3.0,3.0,-0.013732629,-3.0,-0.7806317,-3.0,-3.0,2.604558,-3.0
2025-06-06 16:33:32.063,-3.263531,7.46384,-20.55458,0.003461878,0.0011790746,0.00017175784,-1.289694,-0.541776,9.687963,-0.108903036,0.0308609,8.2355995,-1.3679624,-0.022087097,-0.15930557,1.7819698,-0.014381409,-10.50248,0.032151327,-0.050621033,3.2562752,-0.43932554,-0.01964569,0.58167267,1.8525671,0.0371933,-1.8573265,-0.076408386,0.014915466,-1.7059593,-1.1898856,-0.004234314,1.3800278,1.4714534,-0.0047683716,0.33752823,0.1883316,-0.05924225,-11.020065,-0.6729838,-0.005836487,6.078583,1.5129064,0.017662048,-1.0833893,0.0,0.0,0.0,0.0,0.0,0.0,0.0,0.0,0.0,0.0,0.0,0.0,3.0,-1.9374362,-3.0,3.0,3.0,-0.01483603,-3.0,-0.7852085,-3.0,-3.0,2.6051605,-3.0
2025-06-06 16:33:32.114,-3.259373,7.46317,-20.556023,0.003557592,0.0030352846,-0.00085109234,-1.273833,-0.535215,9.710576,-0.10913192,0.04322052,8.185551,-1.368115,0.011634827,-0.15808487,1.7818172,-0.012550354,-10.541542,0.032151327,-0.058937073,3.269703,-0.43924925,-0.02292633,0.5889969,1.8524908,-0.0020980835,-1.8707542,-0.076408386,0.00019073486,-1.7047386,-1.1898856,-0.022239685,1.326313,1.4714534,-0.001335144,0.33752823,0.1884079,-0.04436493,-10.968796,-0.6731364,0.020484924,6.0968933,1.5129064,-0.014839172,-1.0785065,0.0,0.0,0.0,0.0,0.0,0.0,0.0,0.0,0.0,0.0,0.0,0.0,3.0,-1.9388701,-3.0,3.0,3.0,-0.010482864,-3.0,-0.78173804,-3.0,-3.0,2.6077693,-3.0
2025-06-06 16:33:32.165,-3.256563,7.465119,-20.56373,0.0014774211,0.0049692313,-0.0002033483,-1.279701,-0.550457,9.715116,-0.108903036,-0.05054474,8.20142,-1.3680387,-0.028190613,-0.14953995,1.7817409,0.018959045,-10.55497,0.03199874,-0.030632019,3.2465096,-0.43909666,-0.027961731,0.57556915,1.8525671,-0.017280579,-1.879303,-0.076408386,-0.0037765503,-1.7022972,-1.189733,-0.013084412,1.3409615,1.4715297,-0.0011062622,0.33508682,0.18848419,0.01941681,-10.944382,-0.6729838,0.004005432,6.1249695,1.5129064,-0.021476746,-1.0943756,0.0,0.0,0.0,0.0,0.0,0.0,0.0,0.0,0.0,0.0,0.0,0.0,3.0,-1.9370598,-3.0,3.0,3.0,-0.0106401015,-3.0,-0.7798353,-3.0,-3.0,2.6053176,-3.0
2025-06-06 16:33:32.216,-3.255516,7.464992,-20.565533,-0.0005542642,0.001028697,-0.00038365828,-1.271673,-0.548154,9.703182,-0.10905562,0.029563904,8.189213,-1.3680387,-0.002632141,-0.15442276,1.7818935,0.011482239,-10.557411,0.032151327,0.0015640259,3.2599373,-0.43909666,0.01285553,0.56824493,1.8526434,-0.011711121,-1.8670921,-0.076408386,0.0014877319,-1.694973,-1.1898856,0.039711,1.3653755,1.4714534,0.0075149536,0.33752823,0.1884079,0.0025558472,-10.985886,-0.67275494,0.01941681,6.081024,1.5128301,0.039100647,-1.0479889,0.0,0.0,0.0,0.0,0.0,0.0,0.0,0.0,0.0,0.0,0.0,0.0,3.0,-1.9400929,-3.0,3.0,3.0,-0.007512288,-3.0,-0.7856682,-3.0,-3.0,2.6081595,-3.0
2025-06-06 16:33:32.267,-3.255156,7.462497,-20.568922,-0.0011168187,0.001681869,-0.004930485,-1.264757,-0.54122,9.701331,-0.10882674,0.033302307,8.1904335,-1.368115,-0.04924774,-0.18860245,1.7818935,-0.01964569,-10.535439,0.032151327,-0.026893616,3.2355232,-0.43924925,-0.0182724,0.5658035,1.8526434,-0.02407074,-1.8695335,-0.076408386,0.010948181,-1.70718,-1.189733,0.01285553,1.3409615,1.4713771,-0.010185242,0.33874893,0.1884079,-0.025749207,-10.951706,-0.67275494,0.010032654,6.1200867,1.5129064,0.010414124,-1.0370026,0.0,0.0,0.0,0.0,0.0,0.0,0.0,0.0,0.0,0.0,0.0,0.0,3.0,-1.9355823,-3.0,3.0,3.0,-0.005952673,-3.0,-0.78064257,-3.0,-3.0,2.6067092,-3.0
2025-06-06 16:33:32.318,-3.252056,7.463927,-20.576283,-0.0012135274,0.0021129479,0.0035562827,-1.27955,-0.536526,9.741494,-0.10882674,-0.002784729,8.205082,-1.3683438,-0.07228851,-0.15564346,1.7818172,-0.0008773804,-10.518349,0.032075033,0.0059890747,3.231861,-0.43917295,0.005455017,0.56702423,1.852796,-0.026741028,-1.871975,-0.076408386,-0.004310608,-1.7059593,-1.1898856,0.02773285,1.3824692,1.4715297,-0.0015640259,0.34119034,0.1884079,0.022697449,-10.968796,-0.67283124,-0.017662048,6.0663757,1.5129064,-0.036888123,-1.0870514,0.0,0.0,0.0,0.0,0.0,0.0,0.0,0.0,0.0,0.0,0.0,0.0,3.0,-1.9386005,-3.0,3.0,3.0,-0.0077273417,-3.0,-0.7801453,-3.0,-3.0,2.6079602,-3.0
2025-06-06 16:33:32.369,-3.246548,7.468631,-20.571934,0.0048500607,0.0020874836,-0.0025118953,-1.278901,-0.538303,9.681296,-0.10875045,0.053749084,8.214848,-1.3682675,-0.045433044,-0.14953995,1.7818172,-0.003929138,-10.546425,0.03222762,0.036964417,3.2550545,-0.43909666,0.036582947,0.592659,1.852796,-0.02117157,-1.8707542,-0.076408386,-0.002937317,-1.7022972,-1.1896567,-0.02155304,1.387352,1.4715297,-0.013923645,0.34729385,0.18848419,-0.00064849854,-10.952927,-0.67275494,0.040779114,6.1213074,1.5129827,-0.021018982,-1.0809479,0.0,0.0,0.0,0.0,0.0,0.0,0.0,0.0,0.0,0.0,0.0,0.0,3.0,-1.9397968,-3.0,3.0,3.0,-0.002406435,-3.0,-0.78216606,-3.0,-3.0,2.6116211,-3.0
2025-06-06 16:33:32.420,-3.243422,7.469216,-20.580292,0.0031285898,0.0036508797,-0.0017580526,-1.250673,-0.536233,9.709826,-0.10867415,0.10860443,8.189213,-1.3685727,0.01285553,-0.18249893,1.7818935,-0.001335144,-10.519569,0.032075033,0.0017929077,3.2599373,-0.43924925,0.005455017,0.5841141,1.8529485,0.033073425,-1.8365746,-0.076408386,0.007209778,-1.6888695,-1.1898093,0.01651764,1.3360786,1.4714534,0.008888245,0.34851456,0.1883316,0.007972717,-10.950485,-0.67290753,0.024604797,6.1115417,1.5129064,-0.0024032593,-1.0748444,0.0,0.0,0.0,0.0,0.0,0.0,0.0,0.0,0.0,0.0,0.0,0.0,3.0,-1.9400016,-3.0,3.0,3.0,-0.0072727967,-3.0,-0.7831605,-3.0,-3.0,2.606217,-3.0
2025-06-06 16:33:32.471,-3.241914,7.472973,-20.5831,-0.0021929538,-0.0015824551,0.00058103754,-1.305754,-0.513223,9.71555,-0.10882674,0.0002670288,8.211185,-1.368649,-0.06679535,-0.18127823,1.7820461,-0.025138855,-10.536659,0.032075033,-0.010643005,3.2172127,-0.43902037,-0.015296936,0.56824493,1.852796,-0.044288635,-1.8597679,-0.076408386,0.0020217896,-1.6925316,-1.1898093,-0.051383972,1.3397408,1.4715297,0.021629333,0.34241104,0.1883316,-0.03391266,-10.966354,-0.67267865,-0.030174255,6.0724792,1.5129064,0.008201599,-1.0870514,0.0,0.0,0.0,0.0,0.0,0.0,0.0,0.0,0.0,0.0,0.0,0.0,3.0,-1.9347931,-3.0,3.0,3.0,-0.003712969,-3.0,-0.7803237,-3.0,-3.0,2.6102173,-3.0
2025-06-06 16:33:32.522,-3.236789,7.479637,-20.58529,0.0023624077,0.002191889,-0.0024599368,-1.272497,-0.563706,9.729017,-0.10905562,0.060768127,8.192875,-1.3685727,0.051078796,-0.13855362,1.7818935,0.013160706,-10.513466,0.032151327,0.03955841,3.2709236,-0.43917295,0.05191803,0.56946564,1.8531011,-0.005455017,-1.818264,-0.076408386,-0.011100769,-1.7132835,-1.1898093,-0.007209778,1.3946762,1.4715297,0.0017929077,0.33874893,0.18848419,0.039863586,-10.981003,-0.67267865,-0.030174255,6.1127625,1.5128301,0.013008118,-1.0431061,0.0,0.0,0.0,0.0,0.0,0.0,0.0,0.0,0.0,0.0,0.0,0.0,3.0,-1.9408325,-3.0,3.0,3.0,-0.0072572995,-3.0,-0.78312606,-3.0,-3.0,2.6104465,-3.0
2025-06-06 16:33:32.573,-3.241896,7.475714,-20.590963,-0.00090238755,-0.0025680077,-0.0052968822,-1.288257,-0.541598,9.694966,-0.10882674,0.07457733,8.206303,-1.3687253,0.012779236,-0.16540909,1.7819698,-0.002708435,-10.559853,0.03199874,0.018196106,3.2355232,-0.43909666,0.008888245,0.57068634,1.8531011,0.018119812,-1.8414574,-0.07633209,0.0009536743,-1.7022972,-1.1898093,0.0118637085,1.3556099,1.4714534,0.034980774,0.33996964,0.18848419,-0.0118637085,-10.989548,-0.67260236,0.0046920776,6.105438,1.5129064,0.00919342,-1.0601959,0.0,0.0,0.0,0.0,0.0,0.0,0.0,0.0,0.0,0.0,0.0,0.0,3.0,-1.939094,-3.0,3.0,3.0,-0.0053473283,-3.0,-0.7838869,-3.0,-3.0,2.6082342,-3.0
2025-06-06 16:33:32.624,-3.234337,7.480097,-20.596085,0.0026090753,0.001962867,-0.0013226803,-1.285779,-0.509101,9.700068,-0.10882674,-0.018882751,8.186771,-1.3684964,0.019493103,-0.13611221,1.7819698,0.03299713,-10.515907,0.03199874,-0.02910614,3.2269783,-0.43917295,-0.025978088,0.57190704,1.8531774,0.017738342,-1.8658714,-0.076408386,-0.0009536743,-1.6961937,-1.1898856,-0.020256042,1.3482857,1.4714534,0.0146102905,0.34363174,0.1884079,0.02445221,-10.966354,-0.67260236,0.027427673,6.129856,1.5129064,-0.010871887,-1.0943756,0.0,0.0,0.0,0.0,0.0,0.0,0.0,0.0,0.0,0.0,0.0,0.0,3.0,-1.9392388,-3.0,3.0,3.0,-0.0074789096,-3.0,-0.7797832,-3.0,-3.0,2.6058092,-3.0
2025-06-06 16:33:32.675,-3.233508,7.483843,-20.596188,4.00204e-05,-0.0008610058,0.0012674232,-1.273232,-0.545042,9.698292,-0.10882674,0.058021545,8.183109,-1.3688016,-0.009117126,-0.12756729,1.7818935,-0.040779114,-10.515907,0.03222762,-0.015602112,3.2501717,-0.43924925,0.05268097,0.5828934,1.8532537,0.0019454956,-1.89151,-0.076408386,0.017662048,-1.7047386,-1.189733,-0.03124237,1.3800278,1.4715297,0.010795593,0.33996964,0.18825531,-0.0007247925,-10.971237,-0.67260236,-0.029029846,6.0675964,1.513059,0.018119812,-1.0577545,0.0,0.0,0.0,0.0,0.0,0.0,0.0,0.0,0.0,0.0,0.0,0.0,3.0,-1.9386085,-3.0,3.0,3.0,-0.004900532,-3.0,-0.7847046,-3.0,-3.0,2.6114144,-3.0
2025-06-06 16:33:32.726,-3.232177,7.484613,-20.599466,0.003789162,0.0032638356,0.0002388483,-1.272506,-0.521855,9.699244,-0.108903036,-0.037651062,8.206303,-1.3690305,-0.040168762,-0.13489151,1.7817409,-0.025749207,-10.543983,0.031922445,0.009422302,3.2635994,-0.43917295,-0.019264221,0.5609207,1.8531011,-0.01750946,-1.8927307,-0.076408386,-0.006828308,-1.7035179,-1.1898093,0.062065125,1.359272,1.4715297,0.00995636,0.34485245,0.1883316,-0.01499176,-10.950485,-0.67244977,0.02407074,6.098114,1.5129064,-0.055656433,-1.0467682,0.0,0.0,0.0,0.0,0.0,0.0,0.0,0.0,0.0,0.0,0.0,0.0,3.0,-1.9401027,-3.0,3.0,3.0,-0.005076127,-3.0,-0.77433985,-3.0,-3.0,2.6051874,-3.0
2025-06-06 16:33:32.777,-3.228215,7.486153,-20.600195,-0.0012847194,0.0021231233,-0.0012199677,-1.256454,-0.53775,9.713154,-0.10875045,0.07297516,8.206303,-1.3689542,0.020637512,-0.16662979,1.7818172,0.025520325,-10.497597,0.032151327,-0.007972717,3.2477303,-0.43909666,0.1014328,0.56702423,1.8531774,-0.009346008,-1.8597679,-0.076408386,0.033226013,-1.6888695,-1.1896567,0.026664734,1.4251938,1.4714534,0.016288757,0.3314247,0.1884079,0.01499176,-10.981003,-0.67267865,-0.004386902,6.0871277,1.513059,-0.020866394,-1.0870514,0.0,0.0,0.0,0.0,0.0,0.0,0.0,0.0,0.0,0.0,0.0,0.0,3.0,-1.9429195,-3.0,3.0,3.0,0.00092772953,-3.0,-0.787672,-3.0,-3.0,2.6143332,-3.0
2025-06-06 16:33:32.828,-3.229107,7.483396,-20.597334,0.004263909,0.00038479274,-0.0050277524,-1.27801,-0.550046,9.68915,-0.10905562,0.027656555,8.187992,-1.3688779,0.0008773804,-0.16052628,1.7819698,-0.018882751,-10.506142,0.03222762,-0.009346008,3.2513924,-0.43909666,-0.051460266,0.58167267,1.8531774,-0.042762756,-1.8158226,-0.076408386,0.0008010864,-1.6852074,-1.189733,0.0052261353,1.3556099,1.4713771,0.010643005,0.33752823,0.1883316,-0.03414154,-10.983444,-0.67252606,-0.016212463,6.1493874,1.5129064,-0.015144348,-1.0907135,0.0,0.0,0.0,0.0,0.0,0.0,0.0,0.0,0.0,0.0,0.0,0.0,3.0,-1.9348441,-3.0,3.0,3.0,-0.0034442712,-3.0,-0.77542585,-3.0,-3.0,2.604797,-3.0
2025-06-06 16:33:32.879,-3.220174,7.484364,-20.601196,0.0023255115,0.00312386,0.0011829493,-1.260175,-0.541964,9.718446,-0.10897933,-0.033073425,8.191654,-1.3688779,-0.0699234,-0.122680664,1.7818935,0.0011062622,-10.50248,0.032151327,0.02773285,3.240406,-0.43924925,0.014457703,0.56702423,1.8534063,0.050697327,-1.8292503,-0.07648468,-0.015983582,-1.7035179,-1.189733,-0.04360199,1.375145,1.4714534,0.012779236,0.34363174,0.18825531,-0.03528595,-10.963913,-0.67244977,0.06717682,6.0675964,1.5129827,0.022239685,-1.0809479,0.0,0.0,0.0,0.0,0.0,0.0,0.0,0.0,0.0,0.0,0.0,0.0,3.0,-1.9431483,-3.0,3.0,3.0,-0.006425338,-3.0,-0.7805015,-3.0,-3.0,2.6084619,-3.0
2025-06-06 16:33:32.930,-3.219841,7.483527,-20.592922,0.00039824922,-0.0006860191,-0.0020028874,-1.296009,-0.554918,9.675296,-0.10882674,0.03704071,8.2355995,-1.3690305,-0.01789093,-0.1678505,1.7820461,0.0012588501,-10.540321,0.032151327,0.008430481,3.2428474,-0.43894407,0.034370422,0.57434845,1.85333,-0.032539368,-1.9012756,-0.076408386,0.00064849854,-1.6839867,-1.1895804,0.028953552,1.3897934,1.4714534,-0.031700134,0.33508682,0.18825531,0.006904602,-10.971237,-0.67244977,-0.019950867,6.105438,1.5129827,-0.012550354,-1.0589752,0.0,0.0,0.0,0.0,0.0,0.0,0.0,0.0,0.0,0.0,0.0,0.0,3.0,-1.9369782,-3.0,3.0,3.0,-0.0047365,-3.0,-0.78300047,-3.0,-3.0,2.607391,-3.0
2025-06-06 16:33:32.981,-3.217889,7.476848,-20.594748,-0.0014277492,-0.0010302503,0.0007077659,-1.267843,-0.553486,9.704828,-0.10897933,0.051231384,8.18433,-1.3690305,0.034980774,-0.1312294,1.7818935,0.013313293,-10.536659,0.03199874,-0.0016403198,3.236744,-0.43909666,-0.036201477,0.5584793,1.8534063,-0.010414124,-1.8561058,-0.07610321,0.022621155,-1.6937523,-1.189733,0.018577576,1.3360786,1.4714534,0.009727478,0.33752823,0.1884079,0.07671356,-10.9700165,-0.67252606,0.017662048,6.044403,1.5128301,0.021858215,-1.051651,0.0,0.0,0.0,0.0,0.0,0.0,0.0,0.0,0.0,0.0,0.0,0.0,3.0,-1.942725,-3.0,3.0,3.0,-0.005808549,-3.0,-0.7807073,-3.0,-3.0,2.6066928,-3.0
2025-06-06 16:33:33.032,-3.215704,7.478076,-20.585287,0.00037192967,-0.0037211117,-0.0019045032,-1.286413,-0.537775,9.707839,-0.108903036,-0.054359436,8.1574745,-1.3692594,0.013084412,-0.15442276,1.7818935,0.03414154,-10.543983,0.032151327,0.006828308,3.2477303,-0.43902037,-0.07778168,0.5560379,1.8534826,-0.0036239624,-1.9110413,-0.076408386,-0.0018692017,-1.7120628,-1.1898093,0.037498474,1.4032211,1.4714534,-0.0004196167,0.33630753,0.1883316,0.0008773804,-10.9822235,-0.6722972,-0.018959045,6.065155,1.5129827,-0.038719177,-1.063858,0.0,0.0,0.0,0.0,0.0,0.0,0.0,0.0,0.0,0.0,0.0,0.0,3.0,-1.9371432,-3.0,3.0,3.0,-0.012238102,-3.0,-0.778874,-3.0,-3.0,2.6003144,-3.0
2025-06-06 16:33:33.083,-3.218906,7.476535,-20.589436,-0.0026973889,0.0022187673,-0.0015443371,-1.27603,-0.523912,9.704394,-0.10875045,-0.076942444,8.1904335,-1.3689542,0.07595062,-0.1336708,1.7819698,0.015830994,-10.511024,0.032151327,0.017356873,3.2428474,-0.43879148,0.037117004,0.56946564,1.8534063,0.014305115,-1.8658714,-0.076408386,-0.0014877319,-1.6900902,-1.189733,-0.045967102,1.3958969,1.4714534,-0.010871887,0.33996964,0.1884079,-0.01651764,-10.989548,-0.67252606,-0.036125183,6.0431824,1.5127538,-0.008277893,-1.0699615,0.0,0.0,0.0,0.0,0.0,0.0,0.0,0.0,0.0,0.0,0.0,0.0,3.0,-1.9392356,-3.0,3.0,3.0,-0.011914449,-3.0,-0.78217924,-3.0,-3.0,2.608522,-3.0
2025-06-06 16:33:33.134,-3.218268,7.475949,-20.581264,0.0017747903,-0.0014037683,-0.0016552178,-1.284198,-0.565236,9.708866,-0.10867415,0.10196686,8.195316,-1.3691068,0.038337708,-0.10192871,1.7819698,0.020561218,-10.484169,0.032075033,-0.06763458,3.2355232,-0.43879148,0.037879944,0.5633621,1.85333,0.017204285,-1.89151,-0.076408386,-0.009422302,-1.7108421,-1.1895804,-0.0146865845,1.3128853,1.4714534,0.024986267,0.34241104,0.1883316,-0.012779236,-10.955368,-0.67252606,-0.016899109,6.085907,1.5129827,-0.021781921,-1.0711823,0.0,0.0,0.0,0.0,0.0,0.0,0.0,0.0,0.0,0.0,0.0,0.0,3.0,-1.9401821,-3.0,3.0,3.0,-0.009630995,-3.0,-0.78581804,-3.0,-3.0,2.6094115,-3.0
2025-06-06 16:33:33.185,-3.219209,7.470529,-20.583204,0.0003207217,0.0005197765,-0.00085512403,-1.248436,-0.513094,9.722305,-0.10882674,0.06427765,8.194096,-1.3694882,0.024223328,-0.1690712,1.7818172,-0.023841858,-10.550087,0.032075033,-0.0017929077,3.2501717,-0.43902037,0.023918152,0.5548172,1.8537115,0.0046920776,-1.8695335,-0.076408386,-0.0018692017,-1.7035179,-1.189733,-0.04840851,1.3409615,1.471606,0.010108948,0.33508682,0.1883316,-0.0065994263,-10.979782,-0.6722972,0.067863464,6.1078796,1.5129827,-0.0036239624,-1.0699615,0.0,0.0,0.0,0.0,0.0,0.0,0.0,0.0,0.0,0.0,0.0,0.0,3.0,-1.9429023,-3.0,3.0,3.0,0.00010411255,-3.0,-0.7785614,-3.0,-3.0,2.6117887,-3.0
2025-06-06 16:33:33.236,-3.213524,7.472335,-20.579609,0.0016671384,0.0012950168,0.0012701459,-1.30305,-0.536707,9.709469,-0.10905562,-0.07823944,8.191654,-1.3693357,-0.04108429,-0.15198135,1.7818935,-0.0015640259,-10.512245,0.032151327,-0.0015640259,3.224537,-0.43879148,-0.023918152,0.5877762,1.8537115,0.011558533,-1.86343,-0.076408386,-0.00064849854,-1.7096214,-1.1898093,0.008125305,1.3922348,1.4713771,-0.009803772,0.33996964,0.18848419,0.06435394,-10.939499,-0.6723735,-0.008964539,6.1164246,1.5128301,-0.0046157837,-1.0711823,0.0,0.0,0.0,0.0,0.0,0.0,0.0,0.0,0.0,0.0,0.0,0.0,3.0,-1.9388683,-3.0,3.0,3.0,-0.0065494347,-3.0,-0.77609754,-3.0,-3.0,2.6032748,-3.0
2025-06-06 16:33:33.287,-3.216379,7.469859,-20.575579,-2.7663467e-05,0.0011531914,-0.0013410237,-1.284169,-0.550428,9.693438,-0.10897933,-0.058250427,8.209965,-1.3692594,0.047187805,-0.10803223,1.7818935,-0.010414124,-10.563517,0.032151327,-0.013465881,3.2257576,-0.43886778,0.0050735474,0.57556915,1.8535589,0.014762878,-1.903717,-0.076408386,-0.0011825562,-1.6852074,-1.189733,-0.026664734,1.3812485,1.4714534,0.007972717,0.330204,0.1883316,0.023918152,-10.935837,-0.6722209,-0.0061416626,6.0663757,1.5128301,-0.028953552,-1.0760651,0.0,0.0,0.0,0.0,0.0,0.0,0.0,0.0,0.0,0.0,0.0,0.0,3.0,-1.9420775,-3.0,3.0,3.0,-0.007902579,-3.0,-0.7795747,-3.0,-3.0,2.6083853,-3.0
2025-06-06 16:33:33.338,-3.213076,7.471544,-20.57284,0.003628749,0.0010735171,0.0003073525,-1.284403,-0.53609,9.70667,-0.10905562,-0.02445221,8.173344,-1.3695645,-0.023841858,-0.16540909,1.7818935,0.020256042,-10.551308,0.03222762,-0.04749298,3.2391853,-0.43902037,0.036201477,0.5877762,1.8534826,0.05016327,-1.8866272,-0.076408386,0.0182724,-1.6876488,-1.1896567,0.06389618,1.3726997,1.4715297,0.023231506,0.34363174,0.18848419,0.05466461,-10.963913,-0.6722972,-0.014381409,6.0956726,1.5129064,-0.04825592,-1.0772858,0.0,0.0,0.0,0.0,0.0,0.0,0.0,0.0,0.0,0.0,0.0,0.0,3.0,-1.9415141,-3.0,3.0,3.0,-0.0075125266,-3.0,-0.7818462,-3.0,-3.0,2.6058304,-3.0
2025-06-06 16:33:33.389,-3.213795,7.466603,-20.57443,-0.0029904644,0.0002728997,-0.00073548174,-1.253813,-0.554671,9.67497,-0.10798751,0.12332916,7.9206543,-1.3694882,-0.3371048,0.06652832,1.7829616,0.062446594,-10.636759,0.03199874,0.095329285,3.023117,-0.43902037,-0.008430481,0.56824493,1.8539404,-0.0004196167,-1.9134827,-0.07648468,-0.05634308,-1.6144028,-1.1900382,-0.084495544,1.432518,1.4715297,-0.02620697,0.330204,0.18993378,-0.09151459,-10.884567,-0.6718394,0.09120941,5.978485,1.5126776,-0.014381409,-1.109024,0.0,0.0,0.0,0.0,0.0,0.0,0.0,0.0,0.0,0.0,0.0,0.0,3.0,-1.938558,-3.0,3.0,3.0,0.012490554,-3.0,-0.7835366,-3.0,-3.0,2.6210392,-3.0
2025-06-06 16:33:33.440,-3.189857,7.503921,-20.590616,0.004502478,0.011662744,-0.018796079,-1.150646,-0.782399,10.065399,-0.10821639,0.0048446655,8.152592,-1.3700223,-0.006980896,-0.08117676,1.7829616,-0.0048446655,-10.5561905,0.032151327,-0.03314972,3.2867928,-0.43810484,-0.020484924,0.5535965,1.8553137,0.0051498413,-1.8646507,-0.07595062,-0.003929138,-1.7425804,-1.1894279,-0.015449524,1.3739204,1.4713771,0.00919342,0.34241104,0.19023895,-0.03299713,-11.038376,-0.6710765,-0.011787415,6.1567116,1.5129064,0.014381409,-1.0699615,0.0,0.0,0.0,0.0,0.0,0.0,0.0,0.0,0.0,0.0,0.0,0.0,3.0,-1.9432504,-3.0,3.0,3.0,0.009659095,-3.0,-0.7701307,-3.0,-3.0,2.615983,-3.0
2025-06-06 16:33:33.491,-3.191005,7.502499,-20.611536,-0.007944058,0.013437499,0.015903667,-1.323085,-0.528699,9.86418,-0.108521566,-0.0015640259,8.158695,-1.3701749,-0.049934387,-0.1324501,1.782809,-0.021400452,-10.547646,0.03260909,0.028114319,3.2184334,-0.43795225,0.022621155,0.53894806,1.8555425,0.00919342,-1.8451195,-0.07602692,-0.0034713745,-1.7328148,-1.1889701,-0.027427673,1.387352,1.471606,-0.011329651,0.33996964,0.19016266,-0.0023269653,-11.020065,-0.6711528,-0.055732727,6.123749,1.5127538,-0.0146102905,-1.0797272,0.0,0.0,0.0,0.0,0.0,0.0,0.0,0.0,0.0,0.0,0.0,0.0,3.0,-1.9434377,-3.0,3.0,3.0,0.007174058,-3.0,-0.77662915,-3.0,-3.0,2.616693,-3.0
2025-06-06 16:33:33.542,-3.181405,7.509833,-20.598331,0.008841297,-0.003329355,-0.0041621914,-1.303356,-0.480299,9.535275,-0.10821639,0.019874573,8.1574745,-1.3700223,-0.023078918,-0.128788,1.7830379,0.02773285,-10.564737,0.03222762,-0.01964569,3.236744,-0.43833372,-0.044441223,0.5462723,1.8555425,0.011787415,-1.8744164,-0.07602692,-0.01941681,-1.7132835,-1.1890464,-0.036354065,1.3519478,1.471606,0.009269714,0.33874893,0.19008636,0.015678406,-11.0457,-0.6710002,-0.016975403,6.1005554,1.5128301,-0.0074386597,-1.0589752,0.0,0.0,0.0,0.0,0.0,0.0,0.0,0.0,0.0,0.0,0.0,0.0,3.0,-1.941862,-3.0,3.0,3.0,0.004363222,-3.0,-0.777158,-3.0,-3.0,2.6132119,-3.0
2025-06-06 16:33:33.593,-3.176721,7.50062,-20.60133,-0.0025023832,-0.0018840305,-0.002916637,-1.21303,-0.526824,9.709789,-0.10836898,0.03429413,8.208744,-1.3700223,-0.043678284,-0.12145996,1.7829616,0.029258728,-10.557411,0.03238021,0.004005432,3.2184334,-0.43779966,-0.043067932,0.5206375,1.85539,0.038719177,-1.8927307,-0.07602692,0.023918152,-1.6876488,-1.189199,-0.022087097,1.359272,1.4714534,0.01789093,0.33996964,0.19023895,-0.027885437,-11.033493,-0.6710002,0.031318665,6.061493,1.5127538,-0.008888245,-1.0748444,0.0,0.0,0.0,0.0,0.0,0.0,0.0,0.0,0.0,0.0,0.0,0.0,3.0,-1.9460603,-3.0,3.0,3.0,0.008201165,-3.0,-0.7770258,-3.0,-3.0,2.6158574,-3.0
2025-06-06 16:33:33.644,-3.176944,7.503693,-20.589188,0.0025657213,0.0050314176,-0.0021985215,-1.278625,-0.590115,9.770002,-0.10859786,0.037269592,8.175785,-1.3700986,0.004081726,-0.15808487,1.7828853,-0.05016327,-10.581827,0.03238021,-0.034980774,3.2513924,-0.43795225,0.028114319,0.54261017,1.8554662,0.010414124,-1.8646507,-0.0762558,-0.013618469,-1.7108421,-1.1892753,-0.023918152,1.3812485,1.471606,0.03452301,0.3314247,0.19008636,-0.017738342,-11.032272,-0.6710002,0.0062179565,6.105438,1.5128301,-0.002632141,-1.072403,0.0,0.0,0.0,0.0,0.0,0.0,0.0,0.0,0.0,0.0,0.0,0.0,3.0,-1.943986,-3.0,3.0,3.0,0.014983816,-3.0,-0.77690715,-3.0,-3.0,2.6200342,-3.0
2025-06-06 16:33:33.695,-3.177223,7.508518,-20.600998,1.2060225e-05,0.0023942252,0.00071106455,-1.332852,-0.509864,9.683948,-0.10821639,0.030479431,8.158695,-1.3703275,0.04322052,-0.1300087,1.7827327,0.025901794,-10.542763,0.03222762,0.0062942505,3.2343025,-0.43802854,0.048561096,0.53040314,1.8556188,0.005836487,-1.8976135,-0.07610321,-0.014533997,-1.7145042,-1.1891227,-0.022621155,1.3726997,1.471606,0.0118637085,0.33874893,0.19016266,0.009498596,-11.055466,-0.6710002,0.0059127808,6.093231,1.5127538,0.008735657,-1.0650787,0.0,0.0,0.0,0.0,0.0,0.0,0.0,0.0,0.0,0.0,0.0,0.0,3.0,-1.9450246,-3.0,3.0,3.0,0.015383525,-3.0,-0.77529424,-3.0,-3.0,2.6190927,-3.0
2025-06-06 16:33:33.746,-3.170303,7.511379,-20.58803,0.005270231,0.0018062238,-0.00031981413,-1.29454,-0.561631,9.641191,-0.10836898,-0.012168884,8.139164,-1.3700986,-0.034446716,-0.122680664,1.7829616,-0.018348694,-10.580606,0.032532796,0.021247864,3.2538338,-0.43772337,0.016822815,0.5218582,1.85539,0.0059890747,-1.879303,-0.0762558,-0.00019073486,-1.727932,-1.1892753,-0.05214691,1.4093246,1.4715297,0.018119812,0.33508682,0.19008636,-0.022773743,-11.044479,-0.6707713,-0.012702942,6.105438,1.5127538,0.00957489,-1.0736237,0.0,0.0,0.0,0.0,0.0,0.0,0.0,0.0,0.0,0.0,0.0,0.0,3.0,-1.9422343,-3.0,3.0,3.0,0.015007181,-3.0,-0.7736706,-3.0,-3.0,2.6189468,-3.0
2025-06-06 16:33:33.797,-3.170207,7.508366,-20.591318,0.002136667,0.0016256694,-0.0036855768,-1.245673,-0.522149,9.700031,-0.108521566,-0.03124237,8.183109,-1.3700223,-0.01537323,-0.11657715,1.7828853,0.026741028,-10.580606,0.032456502,-0.012626648,3.2452888,-0.43795225,-0.021476746,0.53040314,1.8554662,0.007820129,-1.8805237,-0.076179504,0.020256042,-1.7242699,-1.1888175,-0.031852722,1.3922348,1.4715297,-0.039405823,0.33508682,0.19031525,-0.0075149536,-10.994431,-0.6710765,-0.031166077,6.082245,1.5127538,-0.013313293,-1.0821686,0.0,0.0,0.0,0.0,0.0,0.0,0.0,0.0,0.0,0.0,0.0,0.0,3.0,-1.9430491,-3.0,3.0,3.0,0.0065757465,-3.0,-0.7719905,-3.0,-3.0,2.6137967,-3.0
2025-06-06 16:33:33.848,-3.165762,7.508917,-20.585854,-0.0016085827,-0.00051778683,0.00082721625,-1.290317,-0.523014,9.717336,-0.10844527,0.119132996,8.158695,-1.3704801,-0.04299164,-0.128788,1.7828853,-0.023536682,-10.589151,0.03222762,-0.019111633,3.231861,-0.43779966,0.08869171,0.5059891,1.85539,-0.011024475,-1.9171448,-0.076179504,-0.054969788,-1.6888695,-1.1888938,0.051383972,1.399559,1.4714534,0.019340515,0.34485245,0.19008636,-0.026664734,-11.040817,-0.6710002,-0.008811951,6.05661,1.5128301,0.019111633,-1.0614166,0.0,0.0,0.0,0.0,0.0,0.0,0.0,0.0,0.0,0.0,0.0,0.0,3.0,-1.9454824,-3.0,3.0,3.0,0.013320727,-3.0,-0.78386694,-3.0,-3.0,2.6214125,-3.0
2025-06-06 16:33:33.899,-3.169553,7.508775,-20.583916,0.0015370591,0.005015029,-0.0039817593,-1.286881,-0.56631,9.70146,-0.108292684,-0.038108826,8.161137,-1.3701749,0.04825592,-0.119018555,1.7830379,-0.016365051,-10.525673,0.032303914,0.011940002,3.2574959,-0.43764707,-0.013999939,0.54261017,1.85539,0.0019454956,-1.8658714,-0.07610321,-0.05191803,-1.719387,-1.1893516,-0.03238678,1.3507271,1.4715297,0.009269714,0.34119034,0.19016266,-0.0022506714,-11.037155,-0.6708476,-0.031471252,6.143284,1.5128301,-0.008811951,-1.0699615,0.0,0.0,0.0,0.0,0.0,0.0,0.0,0.0,0.0,0.0,0.0,0.0,3.0,-1.9391578,-3.0,3.0,3.0,0.009620948,-3.0,-0.7704931,-3.0,-3.0,2.614547,-3.0
2025-06-06 16:33:33.950,-3.168707,7.512686,-20.58406,0.0024627293,-0.0014351843,0.0062055006,-1.299586,-0.522716,9.70828,-0.108521566,-0.0030136108,8.173344,-1.3703275,0.01247406,-0.08728027,1.7829616,0.04207611,-10.545204,0.032303914,-0.019950867,3.236744,-0.43810484,-0.061454773,0.5084305,1.8554662,0.009117126,-1.8548851,-0.076179504,-0.005683899,-1.694973,-1.1889701,-0.006904602,1.3421822,1.4715297,-0.028419495,0.33874893,0.19023895,-0.014839172,-11.035934,-0.6710002,0.022621155,6.1042175,1.5129064,0.016441345,-1.0467682,0.0,0.0,0.0,0.0,0.0,0.0,0.0,0.0,0.0,0.0,0.0,0.0,3.0,-1.9479063,-3.0,3.0,3.0,0.0040131044,-3.0,-0.775338,-3.0,-3.0,2.6132202,-3.0
2025-06-06 16:33:34.001,-3.169059,7.509698,-20.574492,-0.00030817278,-0.0018258936,-0.0029101619,-1.259265,-0.527513,9.67337,-0.10836898,0.051078796,8.14893,-1.3704038,0.026741028,-0.16418839,1.7828853,0.05016327,-10.557411,0.032303914,0.007972717,3.2538338,-0.43757078,0.005836487,0.5206375,1.85539,0.001411438,-1.8866272,-0.07633209,0.021781921,-1.7242699,-1.1888938,-0.0346756,1.3311958,1.4715297,0.012168884,0.34119034,0.19008636,-0.018348694,-11.037155,-0.6708476,0.07938385,6.052948,1.5129064,-0.038108826,-1.1004791,0.0,0.0,0.0,0.0,0.0,0.0,0.0,0.0,0.0,0.0,0.0,0.0,3.0,-1.947359,-3.0,3.0,3.0,0.016985936,-3.0,-0.7782403,-3.0,-3.0,2.6200974,-3.0
2025-06-06 16:33:34.052,-3.168241,7.508817,-20.578905,-0.00026864107,-0.0018035534,-0.00062824873,-1.26483,-0.523874,9.713887,-0.108292684,0.0522995,8.179447,-1.3703275,-0.011787415,-0.15930557,1.782809,0.023765564,-10.55497,0.032303914,-0.037269592,3.2257576,-0.43779966,0.02696991,0.53772736,1.8555425,0.011405945,-1.8695335,-0.07633209,0.0017929077,-1.7145042,-1.1888938,-0.03566742,1.3543892,1.4715297,-0.008354187,0.33874893,0.19016266,0.00019073486,-11.017624,-0.6707713,0.0863266,6.09079,1.5129064,-0.0037765503,-1.0882721,0.0,0.0,0.0,0.0,0.0,0.0,0.0,0.0,0.0,0.0,0.0,0.0,3.0,-1.9458839,-3.0,3.0,3.0,0.021493359,-3.0,-0.77335805,-3.0,-3.0,2.620008,-3.0
2025-06-06 16:33:34.103,-3.168902,7.510695,-20.574408,0.005725919,0.0013013524,-0.00089292787,-1.324126,-0.521872,9.686445,-0.108521566,-0.03200531,8.194096,-1.3705564,0.03665924,-0.15320206,1.7830379,0.09143829,-10.548866,0.032456502,-0.002937317,3.2477303,-0.43772337,0.020942688,0.5206375,1.8556188,-0.0051498413,-1.8268089,-0.07610321,-0.012702942,-1.7303734,-1.1888938,-0.021324158,1.4056625,1.4715297,0.031547546,0.33752823,0.19023895,0.006752014,-11.021286,-0.6710002,-0.03742218,6.09079,1.5129064,-0.026283264,-1.0785065,0.0,0.0,0.0,0.0,0.0,0.0,0.0,0.0,0.0,0.0,0.0,0.0,3.0,-1.9427773,-3.0,3.0,3.0,0.014940901,-3.0,-0.7743718,-3.0,-3.0,2.6172826,-3.0
2025-06-06 16:33:34.154,-3.16992,7.510769,-20.574324,0.0030778707,0.00075448834,-0.000681743,-1.296867,-0.541158,9.687243,-0.10844527,0.02620697,8.195316,-1.3704038,0.020332336,-0.10559082,1.7830379,0.02620697,-10.573282,0.032456502,-0.023384094,3.2257576,-0.43787596,-0.092048645,0.53040314,1.8556188,0.020103455,-1.8805237,-0.07610321,0.046806335,-1.7242699,-1.1891227,0.08785248,1.399559,1.4715297,-0.007209778,0.33996964,0.19008636,0.002937317,-11.037155,-0.6708476,-0.043373108,6.1078796,1.5128301,-0.014152527,-1.0650787,0.0,0.0,0.0,0.0,0.0,0.0,0.0,0.0,0.0,0.0,0.0,0.0,3.0,-1.9448706,-3.0,3.0,3.0,0.0020409059,-3.0,-0.7747585,-3.0,-3.0,2.6081312,-3.0
2025-06-06 16:33:34.205,-3.16289,7.513665,-20.567554,0.0024406335,0.00039299577,-0.0032706074,-1.275369,-0.526523,9.698502,-0.10836898,0.02002716,8.168461,-1.3702512,-0.020866394,-0.11413574,1.7828853,0.007133484,-10.542763,0.03238021,-0.026359558,3.2477303,-0.43757078,-0.023460388,0.5242996,1.8554662,-0.02872467,-1.9049377,-0.0762558,-0.03299713,-1.7059593,-1.1890464,-0.013084412,1.4020004,1.4715297,0.010948181,0.33508682,0.19016266,-0.01712799,-11.0457,-0.6708476,0.04169464,6.05661,1.5129064,-0.0011825562,-1.0882721,0.0,0.0,0.0,0.0,0.0,0.0,0.0,0.0,0.0,0.0,0.0,0.0,3.0,-1.9444891,-3.0,3.0,3.0,0.01170568,-3.0,-0.7794822,-3.0,-3.0,2.618377,-3.0
2025-06-06 16:33:34.256,-3.159615,7.514619,-20.565582,0.0007162831,0.000999358,-0.001104933,-1.282232,-0.526635,9.701405,-0.108292684,-0.03742218,8.185551,-1.3704038,-0.030479431,-0.10925293,1.7828853,-0.013389587,-10.553749,0.032303914,0.034980774,3.231861,-0.43779966,0.056266785,0.5218582,1.8556188,-0.0024795532,-1.879303,-0.07633209,-0.0051498413,-1.715725,-1.1891227,0.1064682,1.3604927,1.4715297,-0.019340515,0.33630753,0.19016266,-0.020256042,-11.022507,-0.6709239,0.035057068,6.1115417,1.5128301,-0.013389587,-1.0748444,0.0,0.0,0.0,0.0,0.0,0.0,0.0,0.0,0.0,0.0,0.0,0.0,3.0,-1.9446793,-3.0,3.0,3.0,0.015546126,-3.0,-0.7723601,-3.0,-3.0,2.6154768,-3.0
2025-06-06 16:33:34.307,-3.158987,7.520007,-20.56489,-0.00076726417,0.00049560366,0.00087919214,-1.313754,-0.529763,9.692712,-0.108140096,0.032310486,8.163578,-1.3704801,0.016670227,-0.10437012,1.7829616,0.037574768,-10.550087,0.032456502,0.015220642,3.2208748,-0.43772337,-0.013542175,0.53284454,1.8555425,-0.028266907,-1.8597679,-0.076179504,0.039863586,-1.7035179,-1.1886649,0.010414124,1.3849106,1.4715297,-0.027961731,0.33386612,0.19016266,-0.027427673,-11.018845,-0.6708476,-0.012397766,6.085907,1.5127538,-0.030479431,-1.0565338,0.0,0.0,0.0,0.0,0.0,0.0,0.0,0.0,0.0,0.0,0.0,0.0,3.0,-1.94461,-3.0,3.0,3.0,0.012518091,-3.0,-0.77484566,-3.0,-3.0,2.6165779,-3.0
2025-06-06 16:33:34.358,-3.156818,7.524163,-20.559341,-0.00027455774,0.00086678285,-0.0032751625,-1.28939,-0.541922,9.681535,-0.108140096,-0.050849915,8.14893,-1.3702512,-0.029945374,-0.11047363,1.7827327,-0.0447464,-10.532997,0.03238021,-0.0032424927,3.2208748,-0.43787596,0.013771057,0.53284454,1.8556951,-0.025672913,-1.8731956,-0.0762558,0.030784607,-1.7303734,-1.1887412,-0.08716583,1.387352,1.4715297,-0.044441223,0.33264542,0.19016266,-0.013694763,-11.042038,-0.670695,0.044441223,6.105438,1.5129064,-0.008811951,-1.0711823,0.0,0.0,0.0,0.0,0.0,0.0,0.0,0.0,0.0,0.0,0.0,0.0,3.0,-1.9448185,-3.0,3.0,3.0,0.018042488,-3.0,-0.76865256,-3.0,-3.0,2.6206968,-3.0
2025-06-06 16:33:34.409,-3.155199,7.525937,-20.557655,0.0021064554,0.004408911,-0.00054845226,-1.310456,-0.541998,9.707588,-0.10821639,0.076942444,8.174564,-1.3702512,0.066185,-0.128788,1.7829616,0.053138733,-10.561073,0.03238021,0.018196106,3.248951,-0.4374182,0.0046157837,0.5169754,1.8555425,-0.010948181,-1.8695335,-0.07610321,-0.014381409,-1.7047386,-1.1885886,0.034217834,1.4312973,1.4714534,0.033073425,0.33996964,0.19016266,-0.010795593,-11.037155,-0.6707713,-0.01537323,6.133518,1.5129064,0.0046920776,-1.0626373,0.0,0.0,0.0,0.0,0.0,0.0,0.0,0.0,0.0,0.0,0.0,0.0,3.0,-1.9454502,-3.0,3.0,3.0,0.010557337,-3.0,-0.7800053,-3.0,-3.0,2.6160715,-3.0
2025-06-06 16:33:34.460,-3.154708,7.517397,-20.558762,0.0019276114,-0.0018936472,-0.00089809403,-1.251671,-0.529821,9.707468,-0.10859786,0.005302429,8.152592,-1.3703275,-0.022773743,-0.11413574,1.7828853,0.05657196,-10.567179,0.032303914,-0.024223328,3.248951,-0.4374945,0.026741028,0.52796173,1.8556188,0.008735657,-1.8866272,-0.0762558,-0.05191803,-1.6961937,-1.1888175,-0.0014877319,1.3446236,1.4714534,-0.0012588501,0.330204,0.19008636,-0.008277893,-11.02739,-0.6707713,-0.07442474,6.0749207,1.5128301,-0.011634827,-1.0894928,0.0,0.0,0.0,0.0,0.0,0.0,0.0,0.0,0.0,0.0,0.0,0.0,3.0,-1.937797,-3.0,3.0,3.0,0.005651159,-3.0,-0.77800745,-3.0,-3.0,2.6143715,-3.0
2025-06-06 16:33:34.511,-3.15021,7.520808,-20.5553,0.00068109727,0.0035883095,0.001709934,-1.307141,-0.519107,9.683296,-0.10821639,-0.01903534,8.137943,-1.3703275,0.008888245,-0.076293945,1.7829616,-0.021705627,-10.553749,0.032303914,-0.045051575,3.2465096,-0.4374182,0.023231506,0.5194168,1.8556951,0.010948181,-1.9281311,-0.076179504,0.011329651,-1.7145042,-1.1888938,-0.007972717,1.33852,1.4715297,-0.011558533,0.33630753,0.19008636,-0.002784729,-11.0457,-0.6705424,-0.03528595,6.0590515,1.5128301,0.0014877319,-1.0650787,0.0,0.0,0.0,0.0,0.0,0.0,0.0,0.0,0.0,0.0,0.0,0.0,3.0,-1.9455184,-3.0,3.0,3.0,0.0055720042,-3.0,-0.7737403,-3.0,-3.0,2.6176877,-3.0
2025-06-06 16:33:34.562,-3.148705,7.523853,-20.548187,-0.00031883674,0.00096315995,0.0015732398,-1.280836,-0.540058,9.697123,-0.10859786,0.04673004,8.212406,-1.3704801,-0.044136047,-0.10925293,1.7828853,-0.036582947,-10.596476,0.032303914,0.0059890747,3.203785,-0.4374182,-0.04032135,0.5169754,1.8554662,0.011024475,-1.9269104,-0.076179504,-0.076179504,-1.7169456,-1.1885886,0.080451965,1.3800278,1.4714534,-0.03261566,0.33508682,0.19023895,-0.02002716,-11.02739,-0.6706187,0.015296936,6.0724792,1.5127538,-0.034065247,-1.0894928,0.0,0.0,0.0,0.0,0.0,0.0,0.0,0.0,0.0,0.0,0.0,0.0,3.0,-1.9441191,-3.0,3.0,3.0,0.0019493531,-3.0,-0.7764593,-3.0,-3.0,2.6104913,-3.0
2025-06-06 16:33:34.614,-3.149384,7.521797,-20.546776,-0.00013552481,0.0020479343,-0.0015683703,-1.297201,-0.520492,9.689603,-0.10867415,-0.04245758,8.175785,-1.3703275,0.048789978,-0.12145996,1.7830379,0.00667572,-10.528114,0.03238021,-0.0011825562,3.2477303,-0.4374945,-0.011482239,0.49622345,1.8556188,0.021400452,-1.9415588,-0.07610321,-0.018959045,-1.7096214,-1.1887412,0.03894806,1.347065,1.4715297,0.008201599,0.33874893,0.19008636,0.011177063,-11.013962,-0.670695,0.0308609,6.0260925,1.5127538,-0.0032424927,-1.0614166,0.0,0.0,0.0,0.0,0.0,0.0,0.0,0.0,0.0,0.0,0.0,0.0,3.0,-1.9459131,-3.0,3.0,3.0,0.006109519,-3.0,-0.77737147,-3.0,-3.0,2.6137145,-3.0
2025-06-06 16:33:34.665,-3.150203,7.521765,-20.542078,0.0032230122,0.0024704437,-0.0005994508,-1.303751,-0.545616,9.684752,-0.10836898,0.10684967,8.163578,-1.3704801,-0.041007996,-0.14343643,1.7830379,0.059394836,-10.576944,0.032303914,0.00019073486,3.2343025,-0.4374945,-0.03742218,0.52796173,1.8555425,-0.022621155,-1.9415588,-0.07602692,-0.0447464,-1.7010765,-1.1888175,0.0422287,1.3543892,1.4714534,-0.012397766,0.33874893,0.19016266,-0.0037002563,-11.029831,-0.6705424,-0.040397644,6.040741,1.5127538,0.025901794,-1.0711823,0.0,0.0,0.0,0.0,0.0,0.0,0.0,0.0,0.0,0.0,0.0,0.0,3.0,-1.9401759,-3.0,3.0,3.0,0.005494399,-3.0,-0.78280103,-3.0,-3.0,2.613691,-3.0
2025-06-06 16:33:34.716,-3.1516,7.5202,-20.540197,0.0011236429,0.0012679992,-0.00013638003,-1.305902,-0.53089,9.687439,-0.10798751,0.05580902,8.202641,-1.3706326,0.034370422,-0.09460449,1.7829616,-0.04184723,-10.557411,0.032456502,-0.030632019,3.2513924,-0.4374945,0.0011825562,0.5096512,1.8554662,-0.01285553,-1.9098206,-0.07610321,-0.1052475,-1.7291527,-1.1889701,-0.05580902,1.2994576,1.4715297,-0.027961731,0.33630753,0.19016266,0.03452301,-11.022507,-0.670695,-0.020179749,6.0309753,1.5128301,-0.030403137,-1.0772858,0.0,0.0,0.0,0.0,0.0,0.0,0.0,0.0,0.0,0.0,0.0,0.0,3.0,-1.9418827,-3.0,3.0,3.0,0.0037070941,-3.0,-0.7742867,-3.0,-3.0,2.61746,-3.0
2025-06-06 16:33:34.767,-3.152238,7.522509,-20.534199,0.0016935627,0.0040903534,0.0019402651,-1.296604,-0.567844,9.723661,-0.10836898,-0.07343292,8.144047,-1.3708615,-0.06549835,-0.08972168,1.7828853,-0.008049011,-10.539101,0.03260909,0.030632019,3.2538338,-0.43757078,0.031089783,0.5047684,1.8554662,-0.033836365,-1.9220276,-0.07595062,-0.012702942,-1.7084007,-1.1885886,0.0046157837,1.4068832,1.4715297,0.01499176,0.33874893,0.19023895,-0.0059127808,-11.024948,-0.6704661,-0.030479431,6.0737,1.5127538,-0.005455017,-1.0772858,0.0,0.0,0.0,0.0,0.0,0.0,0.0,0.0,0.0,0.0,0.0,0.0,3.0,-1.9443268,-3.0,3.0,3.0,0.010280175,-3.0,-0.77292013,-3.0,-3.0,2.618284,-3.0
2025-06-06 16:33:34.818,-3.152714,7.523333,-20.530617,-0.0007915068,0.0010858566,0.00024404938,-1.293579,-0.544298,9.728902,-0.108521566,0.001335144,8.169682,-1.3708615,0.006980896,-0.11413574,1.7829616,0.008125305,-10.56962,0.032303914,0.0008010864,3.2428474,-0.4374182,0.017051697,0.53162384,1.8555425,0.004005432,-1.8854065,-0.076179504,0.018806458,-1.6998558,-1.1888175,0.04070282,1.3507271,1.4715297,0.012168884,0.33386612,0.19016266,0.021400452,-11.020065,-0.6705424,0.009803772,6.0956726,1.5129064,-0.0047683716,-1.0589752,0.0,0.0,0.0,0.0,0.0,0.0,0.0,0.0,0.0,0.0,0.0,0.0,3.0,-1.9480596,-3.0,3.0,3.0,0.013476295,-3.0,-0.77500534,-3.0,-3.0,2.6177669,-3.0
2025-06-06 16:33:34.869,-3.149889,7.526537,-20.527105,0.002360261,0.00198046,0.0026310838,-1.284443,-0.514197,9.696493,-0.10836898,0.05886078,8.169682,-1.370709,0.0573349,-0.14465714,1.7829616,0.006904602,-10.551308,0.032303914,-0.010719299,3.2306404,-0.4373419,-0.012626648,0.5169754,1.8556188,-0.013923645,-1.8854065,-0.0762558,-0.004081726,-1.7022972,-1.1885886,0.021095276,1.3885727,1.4715297,0.020713806,0.3289833,0.19016266,0.016899109,-11.02739,-0.6705424,-0.00957489,6.0846863,1.5128301,0.026741028,-1.0443268,0.0,0.0,0.0,0.0,0.0,0.0,0.0,0.0,0.0,0.0,0.0,0.0,3.0,-1.9436175,-3.0,3.0,3.0,0.012702508,-3.0,-0.7779653,-3.0,-3.0,2.6163456,-3.0
2025-06-06 16:33:34.920,-3.151334,7.52544,-20.523558,-6.461209e-05,-0.0009929353,0.001794914,-1.315792,-0.53546,9.693543,-0.10836898,-0.05794525,8.168461,-1.3704801,-0.00064849854,-0.10803223,1.7830379,0.021247864,-10.557411,0.03238021,0.005302429,3.2257576,-0.4374945,0.032081604,0.5157547,1.8555425,0.002937317,-1.8951721,-0.07610321,0.007820129,-1.7084007,-1.1886649,0.004005432,1.3458443,1.4716823,0.029258728,0.34485245,0.19016266,0.0333786,-11.016403,-0.6705424,0.031166077,6.085907,1.5128301,0.021247864,-1.0736237,0.0,0.0,0.0,0.0,0.0,0.0,0.0,0.0,0.0,0.0,0.0,0.0,3.0,-1.9453316,-3.0,3.0,3.0,0.016860766,-3.0,-0.7734198,-3.0,-3.0,2.6189885,-3.0
2025-06-06 16:33:34.971,-3.151826,7.524756,-20.518963,3.8292525e-05,-0.0006497861,0.002320136,-1.31103,-0.543209,9.72262,-0.10821639,-0.006980896,8.166019,-1.3707852,0.04535675,-0.10681152,1.7829616,-0.012397766,-10.594034,0.03238021,-0.01941681,3.2428474,-0.43757078,0.043067932,0.53772736,1.8555425,0.0049972534,-1.8756409,-0.0762558,0.025596619,-1.7084007,-1.1886649,0.05832672,1.3897934,1.4714534,-0.0059127808,0.34119034,0.19023895,-0.031166077,-11.009079,-0.6704661,0.0036239624,6.085907,1.5127538,-0.015602112,-1.0797272,0.0,0.0,0.0,0.0,0.0,0.0,0.0,0.0,0.0,0.0,0.0,0.0,3.0,-1.9468783,-3.0,3.0,3.0,0.016289992,-3.0,-0.7726607,-3.0,-3.0,2.6185884,-3.0
2025-06-06 16:33:35.022,-3.148769,7.528357,-20.513187,-0.0020916373,0.002932607,-0.0012539318,-1.282472,-0.530604,9.682527,-0.108292684,0.059700012,8.172123,-1.3706326,0.032157898,-0.14587784,1.7830379,-0.044136047,-10.5232315,0.032532796,0.037879944,3.2465096,-0.4374945,-0.03856659,0.514534,1.8556188,0.0030136108,-1.8695335,-0.07610321,0.050086975,-1.7084007,-1.1886649,-0.026512146,1.3775864,1.4715297,-0.015296936,0.33752823,0.19001007,0.002784729,-11.037155,-0.6704661,-0.017356873,6.089569,1.5129064,0.022697449,-1.0699615,0.0,0.0,0.0,0.0,0.0,0.0,0.0,0.0,0.0,0.0,0.0,0.0,3.0,-1.9442347,-3.0,3.0,3.0,0.011665387,-3.0,-0.77424425,-3.0,-3.0,2.6161897,-3.0
2025-06-06 16:33:35.073,-3.145743,7.527462,-20.51187,0.0011623893,-0.0016989558,-2.2951079e-05,-1.282235,-0.533963,9.703002,-0.10836898,-0.053596497,8.158695,-1.3707852,0.018577576,-0.103149414,1.782809,-0.039024353,-10.558632,0.032456502,0.03429413,3.2452888,-0.4374182,0.0037002563,0.5206375,1.8555425,-0.027809143,-1.8829651,-0.0762558,-0.03391266,-1.7010765,-1.1887412,0.08808136,1.3910141,1.4714534,-0.005302429,0.33508682,0.19008636,0.0017166138,-11.051804,-0.6705424,-0.042533875,6.0834656,1.5127538,-0.03276825,-1.0479889,0.0,0.0,0.0,0.0,0.0,0.0,0.0,0.0,0.0,0.0,0.0,0.0,3.0,-1.9429797,-3.0,3.0,3.0,0.0068719815,-3.0,-0.77254766,-3.0,-3.0,2.6131713,-3.0
2025-06-06 16:33:35.124,-3.144583,7.526921,-20.505827,-0.00076496036,0.0011219849,-0.0001540253,-1.284665,-0.547206,9.689696,-0.108292684,-0.06916046,8.172123,-1.3710141,0.012702942,-0.10803223,1.7829616,-0.0037002563,-10.531776,0.032456502,0.017814636,3.2294197,-0.4374182,0.01033783,0.5169754,1.8555425,-0.015602112,-1.8963928,-0.076179504,-0.05382538,-1.7108421,-1.1885886,0.007820129,1.3678169,1.471606,0.017051697,0.34607315,0.19016266,-0.0009536743,-11.012741,-0.6705424,-0.025901794,6.0419617,1.5127538,-0.0034713745,-1.0748444,0.0,0.0,0.0,0.0,0.0,0.0,0.0,0.0,0.0,0.0,0.0,0.0,3.0,-1.9437362,-3.0,3.0,3.0,0.006394906,-3.0,-0.7751878,-3.0,-3.0,2.615988,-3.0
2025-06-06 16:33:35.175,-3.145745,7.527371,-20.504465,0.00014376277,0.0030405205,-0.0012486086,-1.287866,-0.504877,9.703697,-0.108292684,0.05558014,8.170902,-1.3706326,0.031089783,-0.10437012,1.7829616,0.008354187,-10.572062,0.032532796,0.030708313,3.2416267,-0.4373419,-0.010719299,0.5096512,1.8556188,-0.025749207,-1.8902893,-0.07610321,0.05214691,-1.7132835,-1.1889701,-0.08319855,1.3617134,1.4715297,0.011100769,0.34119034,0.19016266,-0.008354187,-11.051804,-0.67031354,-0.012702942,6.0712585,1.5128301,-0.002861023,-1.072403,0.0,0.0,0.0,0.0,0.0,0.0,0.0,0.0,0.0,0.0,0.0,0.0,3.0,-1.9465513,-3.0,3.0,3.0,0.015447421,-3.0,-0.7750844,-3.0,-3.0,2.6231909,-3.0
2025-06-06 16:33:35.226,-3.142198,7.529673,-20.50218,-0.00040601593,0.0032022952,-0.0009505412,-1.286086,-0.543384,9.683903,-0.108292684,0.018806458,8.142826,-1.3708615,-0.011253357,-0.13855362,1.7830379,0.104789734,-10.558632,0.032456502,-0.011711121,3.2501717,-0.4374945,-0.0333786,0.5230789,1.8556188,-0.0146102905,-1.9024963,-0.0762558,-0.05847931,-1.7108421,-1.1885886,-0.042152405,1.359272,1.4713771,-0.04283905,0.34363174,0.19008636,0.0062942505,-11.02739,-0.6705424,0.01613617,6.151829,1.5128301,-0.032920837,-1.0797272,0.0,0.0,0.0,0.0,0.0,0.0,0.0,0.0,0.0,0.0,0.0,0.0,3.0,-1.9424546,-3.0,3.0,3.0,0.0075247716,-3.0,-0.77280843,-3.0,-3.0,2.6127784,-3.0
2025-06-06 16:33:35.277,-3.141222,7.529397,-20.502924,0.0013874844,0.0046846205,-0.0006216688,-1.28971,-0.503968,9.696312,-0.10844527,-0.0031661987,8.161137,-1.3709378,-0.0090408325,-0.10681152,1.7827327,-0.011100769,-10.565958,0.03222762,-0.048103333,3.2269783,-0.4374182,-0.034065247,0.5255203,1.8556951,0.0258255,-1.8731956,-0.07633209,-0.022087097,-1.7096214,-1.1886649,-0.009498596,1.3690376,1.4714534,0.004081726,0.33996964,0.19016266,0.029182434,-11.039597,-0.67023724,0.07083893,6.045624,1.5129064,-0.026512146,-1.0626373,0.0,0.0,0.0,0.0,0.0,0.0,0.0,0.0,0.0,0.0,0.0,0.0,3.0,-1.949968,-3.0,3.0,3.0,0.009877486,-3.0,-0.77339756,-3.0,-3.0,2.6172068,-3.0
2025-06-06 16:33:35.328,-3.144361,7.531599,-20.498026,0.001976114,0.0023905076,-0.0031850687,-1.285317,-0.576694,9.682464,-0.10821639,0.030097961,8.180668,-1.3708615,0.05405426,-0.13855362,1.782809,-0.00957489,-10.578165,0.03238021,0.0024795532,3.231861,-0.4373419,-0.036888123,0.514534,1.8556188,-0.031471252,-1.8768616,-0.076179504,0.012779236,-1.7132835,-1.1888175,0.04512787,1.4105453,1.4715297,-0.01651764,0.3289833,0.19023895,-0.007820129,-11.020065,-0.67016095,-0.005760193,6.102997,1.5129064,0.0146102905,-1.0711823,0.0,0.0,0.0,0.0,0.0,0.0,0.0,0.0,0.0,0.0,0.0,0.0,3.0,-1.9441055,-3.0,3.0,3.0,0.012850089,-3.0,-0.77611405,-3.0,-3.0,2.6157918,-3.0
2025-06-06 16:33:35.379,-3.147013,7.529666,-20.49854,0.00026816982,-0.0013295045,-7.585201e-05,-1.283652,-0.517767,9.692077,-0.108292684,0.04184723,8.179447,-1.3710904,-0.03803253,-0.08972168,1.7828853,0.023002625,-10.559853,0.032456502,0.015525818,3.2257576,-0.4373419,-0.03528595,0.5181961,1.8556951,-0.04764557,-1.8939514,-0.07602692,0.05077362,-1.6986351,-1.1886649,0.031089783,1.3360786,1.4714534,-0.004005432,0.33386612,0.19023895,0.018882751,-11.038376,-0.6704661,0.042915344,6.1078796,1.5128301,0.033988953,-1.0675201,0.0,0.0,0.0,0.0,0.0,0.0,0.0,0.0,0.0,0.0,0.0,0.0,3.0,-1.9477895,-3.0,3.0,3.0,0.018940015,-3.0,-0.7731814,-3.0,-3.0,2.6186707,-3.0
2025-06-06 16:33:35.430,-3.147374,7.528188,-20.49279,0.00016400858,0.0022737975,0.001283742,-1.282133,-0.55656,9.69318,-0.10867415,-0.09113312,8.164799,-1.3710904,-0.03643036,-0.13977432,1.7828853,0.018043518,-10.552528,0.032456502,-0.0032424927,3.2208748,-0.4372656,0.009880066,0.5096512,1.8556951,-0.016441345,-1.8097191,-0.07595062,0.021095276,-1.6998558,-1.1886649,0.05016327,1.3983383,1.471606,0.0434494,0.33996964,0.19031525,0.043678284,-11.044479,-0.67016095,0.010566711,6.110321,1.5128301,0.02002716,-1.0797272,0.0,0.0,0.0,0.0,0.0,0.0,0.0,0.0,0.0,0.0,0.0,0.0,3.0,-1.9461282,-3.0,3.0,3.0,0.022339625,-3.0,-0.7711967,-3.0,-3.0,2.619013,-3.0
2025-06-06 16:33:35.481,-3.150957,7.522907,-20.489517,0.0008309338,0.004177812,0.0010661867,-1.2851,-0.526784,9.71359,-0.108521566,0.031929016,8.161137,-1.3711667,0.028114319,-0.11657715,1.7831142,0.009269714,-10.575724,0.032303914,0.0207901,3.248951,-0.4373419,-0.030937195,0.50354767,1.8555425,-0.0002670288,-1.8451195,-0.076179504,0.02872467,-1.715725,-1.1887412,-0.0049972534,1.3665962,1.4715297,-0.0020980835,0.33508682,0.19023895,0.04032135,-11.0151825,-0.6705424,-0.023384094,6.098114,1.5128301,-0.047950745,-1.0821686,0.0,0.0,0.0,0.0,0.0,0.0,0.0,0.0,0.0,0.0,0.0,0.0,3.0,-1.946782,-3.0,3.0,3.0,0.015594764,-3.0,-0.771353,-3.0,-3.0,2.61832,-3.0
2025-06-06 16:33:35.532,-3.151231,7.52782,-20.48347,-0.0010060602,-7.714355e-05,9.948377e-07,-1.284571,-0.544697,9.67929,-0.10836898,0.09098053,8.164799,-1.3709378,-0.020103455,-0.13977432,1.7828853,-0.035438538,-10.55497,0.03238021,-0.0024795532,3.2111092,-0.4374182,-0.023231506,0.5255203,1.8557714,0.034370422,-1.9110413,-0.0762558,-0.03803253,-1.715725,-1.1886649,-0.041007996,1.3763657,1.4714534,-0.0047683716,0.33874893,0.19008636,0.027885437,-11.024948,-0.67008466,0.038414,6.0883484,1.5129064,-0.019721985,-1.0504303,0.0,0.0,0.0,0.0,0.0,0.0,0.0,0.0,0.0,0.0,0.0,0.0,3.0,-1.9468131,-3.0,3.0,3.0,0.012257976,-3.0,-0.77500945,-3.0,-3.0,2.6182659,-3.0
2025-06-06 16:33:35.583,-3.155452,7.52439,-20.482994,-0.0032030456,-3.9112827e-05,-0.0026617842,-1.272168,-0.547113,9.674574,-0.10844527,-0.06603241,8.181889,-1.3710141,0.07442474,-0.12390137,1.7828853,0.054740906,-10.543983,0.032303914,-0.041618347,3.2538338,-0.4371893,-0.004081726,0.5206375,1.8558477,-0.032310486,-1.8463402,-0.07602692,-0.008125305,-1.6998558,-1.1885123,-0.0076675415,1.3897934,1.4715297,0.026512146,0.33752823,0.19016266,-0.004310608,-11.024948,-0.67023724,0.067481995,6.0993347,1.5128301,0.0146102905,-1.0675201,0.0,0.0,0.0,0.0,0.0,0.0,0.0,0.0,0.0,0.0,0.0,0.0,3.0,-1.9481709,-3.0,3.0,3.0,0.019230885,-3.0,-0.77104,-3.0,-3.0,2.6190145,-3.0
2025-06-06 16:33:35.634,-3.15446,7.525973,-20.479076,0.0017451373,0.0043572667,0.0023321263,-1.276635,-0.522383,9.748256,-0.108140096,0.0059127808,8.1574745,-1.3710904,-0.022010803,-0.111694336,1.7830379,-0.01247406,-10.5561905,0.032456502,0.012397766,3.2330818,-0.4374182,0.008430481,0.5169754,1.8557714,-0.04840851,-1.8292503,-0.07633209,-0.05924225,-1.6913109,-1.1888175,0.047187805,1.3958969,1.471606,0.00064849854,0.34119034,0.19008636,0.0146865845,-11.050583,-0.6706187,0.002784729,6.085907,1.5128301,-0.04131317,-1.0626373,0.0,0.0,0.0,0.0,0.0,0.0,0.0,0.0,0.0,0.0,0.0,0.0,3.0,-1.9436405,-3.0,3.0,3.0,0.015884323,-3.0,-0.77314144,-3.0,-3.0,2.6169708,-3.0
2025-06-06 16:33:35.685,-3.150704,7.528804,-20.47659,0.00085119705,0.0029737442,0.0021407336,-1.289006,-0.502108,9.706915,-0.1080638,0.04711151,8.166019,-1.3711667,-0.020713806,-0.08483887,1.7830379,-0.03177643,-10.579386,0.03238021,0.024223328,3.236744,-0.4372656,0.016441345,0.5230789,1.855924,-0.049171448,-1.8866272,-0.076179504,0.0015640259,-1.7022972,-1.1888175,-0.05306244,1.347065,1.471606,-0.010261536,0.33264542,0.19016266,-0.029029846,-11.023727,-0.67000836,-0.04261017,6.082245,1.5128301,0.0019454956,-1.0797272,0.0,0.0,0.0,0.0,0.0,0.0,0.0,0.0,0.0,0.0,0.0,0.0,3.0,-1.9444723,-3.0,3.0,3.0,0.018367333,-3.0,-0.7723952,-3.0,-3.0,2.6243262,-3.0
2025-06-06 16:33:35.736,-3.148723,7.532866,-20.47354,0.0020415813,0.002788146,-0.0006689149,-1.275877,-0.54177,9.682039,-0.10836898,-0.002708435,8.161137,-1.3711667,-0.020561218,-0.09338379,1.7830379,-0.02368927,-10.558632,0.032456502,-0.017814636,3.2355232,-0.4373419,0.015907288,0.5242996,1.8558477,-0.0008010864,-1.8097191,-0.076179504,-0.04070282,-1.7132835,-1.1888175,-0.029945374,1.3922348,1.4715297,0.0118637085,0.33264542,0.19008636,0.03162384,-11.039597,-0.6705424,-0.0065994263,6.106659,1.5127538,0.009727478,-1.0882721,0.0,0.0,0.0,0.0,0.0,0.0,0.0,0.0,0.0,0.0,0.0,0.0,3.0,-1.9457365,-3.0,3.0,3.0,0.0127358865,-3.0,-0.7707938,-3.0,-3.0,2.6176388,-3.0
2025-06-06 16:33:35.789,-3.149196,7.529172,-20.473967,0.0015262904,0.0010419441,-0.00010855948,-1.300345,-0.525673,9.693279,-0.10836898,0.09906769,8.1904335,-1.3713193,0.0020217896,-0.128788,1.7831142,-0.049934387,-10.5928135,0.032303914,0.01247406,3.2391853,-0.4374182,-0.010185242,0.5133133,1.8557714,-0.016365051,-1.8646507,-0.07633209,0.0409317,-1.7132835,-1.1886649,-0.048179626,1.3775864,1.4715297,-0.019950867,0.33630753,0.19016266,0.016365051,-11.042038,-0.67031354,-0.023384094,6.0834656,1.5128301,-0.012550354,-1.0626373,0.0,0.0,0.0,0.0,0.0,0.0,0.0,0.0,0.0,0.0,0.0,0.0,3.0,-1.9473403,-3.0,3.0,3.0,0.015213294,-3.0,-0.77416664,-3.0,-3.0,2.6219704,-3.0
2025-06-06 16:33:35.840,-3.150122,7.529239,-20.471058,7.6881755e-05,0.00034163074,-0.0005382072,-1.318165,-0.531146,9.703342,-0.10844527,-0.027656555,8.159916,-1.3711667,-0.01712799,-0.1324501,1.782809,-0.036354065,-10.545204,0.032456502,-0.023918152,3.2257576,-0.4374182,0.041389465,0.526741,1.8558477,0.024375916,-1.89151,-0.0762558,0.008125305,-1.6913109,-1.1887412,0.012168884,1.4044418,1.4714534,-0.013694763,0.34241104,0.19008636,0.032539368,-11.0151825,-0.67038983,0.051689148,6.1530495,1.5129064,0.032844543,-1.0553131,0.0,0.0,0.0,0.0,0.0,0.0,0.0,0.0,0.0,0.0,0.0,0.0,3.0,-1.9476522,-3.0,3.0,3.0,0.01725368,-3.0,-0.7707359,-3.0,-3.0,2.6176152,-3.0
2025-06-06 16:33:35.891,-3.155336,7.52747,-20.475706,-0.0008165697,0.0015044564,5.201081e-06,-1.272483,-0.567196,9.725783,-0.108292684,0.0030136108,8.152592,-1.3714719,-0.0472641,-0.119018555,1.7829616,-0.023460388,-10.548866,0.032456502,0.039100647,3.2330818,-0.4373419,0.07144928,0.5218582,1.8557714,-0.047416687,-1.8646507,-0.0762558,-0.025138855,-1.7242699,-1.1885886,0.0925827,1.3812485,1.4715297,-0.025978088,0.330204,0.19008636,0.0024795532,-11.051804,-0.67038983,-0.032234192,6.068817,1.5127538,-0.0047683716,-1.072403,0.0,0.0,0.0,0.0,0.0,0.0,0.0,0.0,0.0,0.0,0.0,0.0,3.0,-1.9438189,-3.0,3.0,3.0,0.017432494,-3.0,-0.77461237,-3.0,-3.0,2.6186373,-3.0
2025-06-06 16:33:35.942,-3.154181,7.528477,-20.477633,0.0026156201,0.0037198202,0.000987385,-1.286224,-0.521326,9.683127,-0.10836898,0.009117126,8.155033,-1.3713193,-0.05558014,-0.07873535,1.7830379,0.014839172,-10.580606,0.032456502,0.030403137,3.224537,-0.4373419,0.027427673,0.52796173,1.855924,-0.0358963,-1.8951721,-0.076179504,0.050315857,-1.7132835,-1.1888175,-0.0002670288,1.4142075,1.4715297,-0.011711121,0.33508682,0.19008636,-0.0062179565,-11.01152,-0.67031354,-0.02483368,6.085907,1.5128301,0.0010299683,-1.0736237,0.0,0.0,0.0,0.0,0.0,0.0,0.0,0.0,0.0,0.0,0.0,0.0,3.0,-1.9459537,-3.0,3.0,3.0,0.02002005,-3.0,-0.77080214,-3.0,-3.0,2.6215947,-3.0
2025-06-06 16:33:35.993,-3.154056,7.528668,-20.47567,0.0012233013,0.0020963498,-1.7453292e-08,-1.281211,-0.536015,9.731964,-0.10821639,0.029258728,8.151371,-1.3711667,-0.017280579,-0.12756729,1.7829616,-0.0004196167,-10.578165,0.032303914,0.0019454956,3.2379646,-0.4372656,-0.0075149536,0.514534,1.8558477,-0.057487488,-1.8377953,-0.07610321,0.031166077,-1.7242699,-1.1887412,0.02658844,1.3665962,1.4715297,-0.010871887,0.34119034,0.19023895,0.007286072,-11.032272,-0.67016095,-0.06755829,6.1091003,1.5128301,0.018424988,-1.08461,0.0,0.0,0.0,0.0,0.0,0.0,0.0,0.0,0.0,0.0,0.0,0.0,3.0,-1.9442053,-3.0,3.0,3.0,0.016734524,-3.0,-0.77258784,-3.0,-3.0,2.6192913,-3.0
2025-06-06 16:33:36.044,-3.15584,7.528668,-20.47606,-0.0010212444,0.000998817,0.0005754699,-1.286925,-0.528982,9.670252,-0.10844527,-0.006904602,8.178226,-1.3711667,0.0004196167,-0.08728027,1.7829616,0.04398346,-10.590372,0.032456502,-0.005378723,3.2379646,-0.4373419,-0.0062179565,0.5072098,1.8557714,-0.00957489,-1.9110413,-0.07602692,-0.009346008,-1.7425804,-1.1887412,-0.027198792,1.3812485,1.4715297,0.05115509,0.34363174,0.19031525,-0.0062942505,-11.009079,-0.67038983,-0.008354187,6.060272,1.5128301,-0.011024475,-1.0711823,0.0,0.0,0.0,0.0,0.0,0.0,0.0,0.0,0.0,0.0,0.0,0.0,3.0,-1.9467233,-3.0,3.0,3.0,0.016539259,-3.0,-0.7726654,-3.0,-3.0,2.6205392,-3.0
2025-06-06 16:33:36.095,-3.156015,7.530744,-20.473568,3.5499997e-05,-0.0028600188,-0.0025951823,-1.289816,-0.529018,9.67253,-0.108140096,-0.021247864,8.173344,-1.3716245,-0.044670105,-0.1300087,1.7828853,-0.03414154,-10.553749,0.03238021,-0.030479431,3.2233162,-0.4372656,-0.027122498,0.5230789,1.855924,-0.048332214,-1.8841858,-0.07633209,0.037269592,-1.6766624,-1.1885886,0.043678284,1.4166489,1.4714534,-0.015602112,0.33752823,0.19023895,-0.024528503,-11.031052,-0.67008466,-0.012626648,6.1164246,1.5127538,0.024528503,-1.0443268,0.0,0.0,0.0,0.0,0.0,0.0,0.0,0.0,0.0,0.0,0.0,0.0,3.0,-1.9454473,-3.0,3.0,3.0,0.01635818,-3.0,-0.76889974,-3.0,-3.0,2.616782,-3.0
2025-06-06 16:33:36.146,-3.152134,7.531152,-20.473478,0.0008524188,0.00090284133,0.002628082,-1.273413,-0.533357,9.72202,-0.108292684,0.04261017,8.151371,-1.3714719,0.02292633,-0.079956055,1.782809,0.02407074,-10.550087,0.03260909,0.046424866,3.2123299,-0.4372656,-0.028572083,0.5181961,1.855924,0.005531311,-1.8927307,-0.076179504,0.04070282,-1.7096214,-1.1886649,-0.027198792,1.4483871,1.4715297,-0.019950867,0.33264542,0.19008636,0.03665924,-11.044479,-0.6698558,0.10585785,6.078583,1.5128301,-0.035820007,-1.0785065,0.0,0.0,0.0,0.0,0.0,0.0,0.0,0.0,0.0,0.0,0.0,0.0,3.0,-1.9539989,-3.0,3.0,3.0,0.020146413,-3.0,-0.77074826,-3.0,-3.0,2.6207507,-3.0
2025-06-06 16:33:36.197,-3.152444,7.529368,-20.471926,0.004345102,0.006244753,0.0018772063,-1.273777,-0.524361,9.710085,-0.108292684,-0.014228821,8.16724,-1.3716245,-0.013694763,-0.15564346,1.7828853,0.0497818,-10.5561905,0.03238021,-0.03856659,3.2220955,-0.4374182,-0.0015640259,0.5108719,1.8560766,0.012321472,-1.8207054,-0.07610321,-0.04360199,-1.7267113,-1.1888175,-0.022163391,1.4129868,1.4715297,0.00667572,0.3289833,0.19023895,0.022621155,-11.044479,-0.67000836,-0.054969788,6.085907,1.5128301,-0.0024795532,-1.0748444,0.0,0.0,0.0,0.0,0.0,0.0,0.0,0.0,0.0,0.0,0.0,0.0,3.0,-1.9407248,-3.0,3.0,3.0,0.014602346,-3.0,-0.77532625,-3.0,-3.0,2.6163366,-3.0
2025-06-06 16:33:36.248,-3.15282,7.53134,-20.48041,0.0005902703,0.005112872,0.0013855471,-1.292073,-0.532032,9.672082,-0.10836898,-0.014457703,8.186771,-1.3714719,-0.0030136108,-0.07507324,1.7830379,-0.006828308,-10.540321,0.032303914,-0.0064468384,3.248951,-0.4372656,-0.015983582,0.5133133,1.8560003,0.060768127,-1.9000549,-0.07602692,-0.009803772,-1.7120628,-1.1888175,-0.05016327,1.3653755,1.4716823,0.018196106,0.33508682,0.19008636,0.006752014,-11.042038,-0.67008466,0.002632141,6.0675964,1.5128301,-0.017967224,-1.0662994,0.0,0.0,0.0,0.0,0.0,0.0,0.0,0.0,0.0,0.0,0.0,0.0,3.0,-1.9485672,-3.0,3.0,3.0,0.009794278,-3.0,-0.77008504,-3.0,-3.0,2.6183922,-3.0
2025-06-06 16:33:36.299,-3.150868,7.534764,-20.470667,0.0026592186,0.0016848186,-0.0016704721,-1.311462,-0.559396,9.695788,-0.10844527,0.023994446,8.18433,-1.3714719,0.053215027,-0.11657715,1.7828853,0.014457703,-10.580606,0.032456502,-0.007972717,3.2416267,-0.4372656,0.014381409,0.5242996,1.8560766,0.03139496,-1.8731956,-0.07595062,0.06603241,-1.6913109,-1.1888175,-0.016975403,1.3726997,1.4715297,0.029945374,0.33508682,0.19016266,-0.0062179565,-11.018845,-0.67000836,-0.028114319,6.05661,1.5127538,-0.024223328,-1.0614166,0.0,0.0,0.0,0.0,0.0,0.0,0.0,0.0,0.0,0.0,0.0,0.0,3.0,-1.9493906,-3.0,3.0,3.0,0.015541477,-3.0,-0.775255,-3.0,-3.0,2.6209528,-3.0
2025-06-06 16:33:36.350,-3.150372,7.535214,-20.47472,0.00018301522,0.0030841713,-0.0034227301,-1.301785,-0.542007,9.723177,-0.1080638,0.05367279,8.18433,-1.3717008,-0.046195984,-0.11657715,1.7829616,0.008201599,-10.572062,0.03238021,0.012626648,3.2343025,-0.4373419,-0.002708435,0.5157547,1.8560003,-0.008964539,-1.879303,-0.07602692,0.03490448,-1.7218285,-1.1885886,0.034370422,1.3922348,1.4716823,0.014533997,0.33752823,0.19016266,-0.0074386597,-11.012741,-0.6697795,-0.012626648,6.115204,1.5127538,-0.0030899048,-1.0553131,0.0,0.0,0.0,0.0,0.0,0.0,0.0,0.0,0.0,0.0,0.0,0.0,3.0,-1.9451591,-3.0,3.0,3.0,0.018839044,-3.0,-0.7733737,-3.0,-3.0,2.6189313,-3.0
2025-06-06 16:33:36.401,-3.149129,7.53632,-20.47201,0.0012486434,0.0017582098,4.8921578e-05,-1.311794,-0.540294,9.697823,-0.108292684,0.063438416,8.179447,-1.3714719,-0.023155212,-0.103149414,1.7829616,0.0012588501,-10.570841,0.03238021,0.011405945,3.219654,-0.4372656,0.011329651,0.5120926,1.855924,0.00995636,-1.8341331,-0.07602692,0.011711121,-1.6974144,-1.1887412,0.0018692017,1.408104,1.471606,0.055885315,0.33996964,0.19016266,-0.015068054,-11.02739,-0.6697795,0.09159088,6.068817,1.5128301,0.0258255,-1.0699615,0.0,0.0,0.0,0.0,0.0,0.0,0.0,0.0,0.0,0.0,0.0,0.0,3.0,-1.9517932,-3.0,3.0,3.0,0.026576562,-3.0,-0.77293515,-3.0,-3.0,2.6244345,-3.0
2025-06-06 16:33:36.452,-3.152013,7.535607,-20.47273,0.001508715,0.0007443131,-0.0011110416,-1.262592,-0.539512,9.69287,-0.10836898,-0.03856659,8.166019,-1.3715482,-0.0104904175,-0.11291504,1.7829616,-0.057106018,-10.573282,0.032456502,0.017662048,3.236744,-0.4372656,-0.0050735474,0.5133133,1.8560003,-0.028114319,-1.8451195,-0.07602692,-0.07892609,-1.7181664,-1.1887412,0.041999817,1.3812485,1.4715297,0.00957489,0.34119034,0.19008636,-0.026817322,-11.046921,-0.67008466,0.024986267,6.133518,1.5129064,-0.009651184,-1.0675201,0.0,0.0,0.0,0.0,0.0,0.0,0.0,0.0,0.0,0.0,0.0,0.0,3.0,-1.9432827,-3.0,3.0,3.0,0.021188779,-3.0,-0.76721466,-3.0,-3.0,2.616349,-3.0
2025-06-06 16:33:36.503,-3.150016,7.541145,-20.472252,0.0009073094,0.0022626622,0.004051747,-1.328242,-0.554721,9.708566,-0.10836898,-0.024681091,8.175785,-1.3714719,-0.03513336,-0.08483887,1.7829616,0.008583069,-10.5561905,0.03238021,-0.023994446,3.2269783,-0.4372656,-0.026893616,0.5059891,1.8560766,0.03025055,-1.8414574,-0.07633209,-0.07144928,-1.7242699,-1.1885886,0.03276825,1.4251938,1.4716823,0.0077438354,0.33508682,0.19023895,-0.035209656,-11.023727,-0.67008466,0.048103333,6.085907,1.5127538,-0.004463196,-1.0589752,0.0,0.0,0.0,0.0,0.0,0.0,0.0,0.0,0.0,0.0,0.0,0.0,3.0,-1.9488052,-3.0,3.0,3.0,0.011027856,-3.0,-0.77224773,-3.0,-3.0,2.6154644,-3.0
2025-06-06 16:33:36.554,-3.14998,7.538623,-20.467674,0.00059723423,-0.0029653318,-0.00200753,-1.282969,-0.534291,9.714577,-0.10821639,-0.022773743,8.161137,-1.3717008,-0.04497528,-0.12390137,1.7828853,-0.0033187866,-10.550087,0.032456502,-0.017738342,3.2501717,-0.4372656,0.034980774,0.514534,1.8560003,-0.005531311,-1.8731956,-0.07633209,-0.008506775,-1.70718,-1.1885123,0.051460266,1.3922348,1.4714534,-0.00957489,0.33630753,0.19016266,-0.033302307,-11.02861,-0.67008466,-0.04901886,6.065155,1.5128301,0.003929138,-1.0907135,0.0,0.0,0.0,0.0,0.0,0.0,0.0,0.0,0.0,0.0,0.0,0.0,3.0,-1.9425168,-3.0,3.0,3.0,0.011553807,-3.0,-0.77567405,-3.0,-3.0,2.6165333,-3.0
2025-06-06 16:33:36.605,-3.149485,7.540838,-20.475103,-0.001683946,0.0031754868,0.0009536304,-1.274311,-0.540373,9.721245,-0.10821639,0.03414154,8.159916,-1.3714719,0.009727478,-0.07385254,1.7828853,0.009346008,-10.563517,0.032532796,-0.0004196167,3.252613,-0.4372656,-0.0233078,0.5169754,1.8561529,-0.014762878,-1.8768616,-0.0762558,0.06931305,-1.7425804,-1.1888175,-0.016899109,1.3495064,1.4715297,-0.0016403198,0.34241104,0.19016266,-0.028648376,-11.031052,-0.67016095,-0.1292038,6.065155,1.5128301,0.03177643,-1.0650787,0.0,0.0,0.0,0.0,0.0,0.0,0.0,0.0,0.0,0.0,0.0,0.0,3.0,-1.9425782,-3.0,3.0,3.0,0.0065858793,-3.0,-0.77438015,-3.0,-3.0,2.6172068,-3.0
2025-06-06 16:33:36.656,-3.152191,7.540815,-20.475779,4.9445178e-05,0.002488246,-0.0024694314,-1.292372,-0.548037,9.689854,-0.108292684,-0.034446716,8.155033,-1.3714719,-0.012321472,-0.07385254,1.7828853,-0.04207611,-10.545204,0.03238021,-0.028114319,3.2343025,-0.4373419,-0.027046204,0.5120926,1.8561529,0.006904602,-1.9610901,-0.076179504,0.015678406,-1.6644554,-1.1888175,0.0422287,1.3934555,1.4714534,0.0059127808,0.33508682,0.19008636,-0.017967224,-11.024948,-0.67016095,0.0774765,6.052948,1.5128301,0.01499176,-1.072403,0.0,0.0,0.0,0.0,0.0,0.0,0.0,0.0,0.0,0.0,0.0,0.0,3.0,-1.951775,-3.0,3.0,3.0,0.012686772,-3.0,-0.76955223,-3.0,-3.0,2.6162014,-3.0
2025-06-06 16:33:36.707,-3.15203,7.539114,-20.476149,-2.6529003e-06,-0.0022145086,-0.0027270594,-1.274752,-0.537601,9.723557,-0.10836898,-0.051689148,8.181889,-1.3715482,0.0049209595,-0.11657715,1.7830379,0.0033950806,-10.595255,0.03238021,-0.0030899048,3.2428474,-0.4373419,-0.027122498,0.5242996,1.8560766,-0.021476746,-1.8744164,-0.07610321,0.016746521,-1.682766,-1.1886649,0.052757263,1.411766,1.4716823,0.010795593,0.33874893,0.19031525,0.0063705444,-11.024948,-0.67023724,-0.024757385,6.0639343,1.5128301,-0.021018982,-1.0540924,0.0,0.0,0.0,0.0,0.0,0.0,0.0,0.0,0.0,0.0,0.0,0.0,3.0,-1.9448328,-3.0,3.0,3.0,0.015047593,-3.0,-0.7740366,-3.0,-3.0,2.6158676,-3.0
2025-06-06 16:33:36.758,-3.149875,7.540234,-20.47342,-0.0023441343,-0.0001736079,-0.0013299409,-1.31311,-0.524928,9.677554,-0.10836898,0.09738922,8.173344,-1.3714719,-0.04802704,-0.072631836,1.782809,0.0065231323,-10.519569,0.03238021,-0.0020980835,3.228199,-0.4373419,0.0019454956,0.5047684,1.8562292,-0.018424988,-1.8756409,-0.07633209,-0.009498596,-1.70718,-1.1887412,0.0073623657,1.4020004,1.4713771,-0.0035476685,0.330204,0.19008636,-0.024757385,-11.009079,-0.67000836,0.042533875,6.1005554,1.5127538,-0.035743713,-1.0589752,0.0,0.0,0.0,0.0,0.0,0.0,0.0,0.0,0.0,0.0,0.0,0.0,3.0,-1.9488541,-3.0,3.0,3.0,0.019093676,-3.0,-0.7733437,-3.0,-3.0,2.6216035,-3.0
2025-06-06 16:33:36.809,-3.149603,7.538068,-20.473948,-0.0014289708,-0.00019877554,0.0007982612,-1.286175,-0.531639,9.70514,-0.10844527,-0.027580261,8.177006,-1.3717008,0.0146865845,-0.11291504,1.7830379,-0.019569397,-10.574503,0.03238021,-0.027503967,3.2477303,-0.4371893,-0.003929138,0.5157547,1.8561529,0.0030899048,-1.8573265,-0.0762558,-0.0065231323,-1.7047386,-1.1886649,0.030937195,1.4032211,1.4716823,0.01537323,0.34607315,0.19008636,0.04070282,-11.031052,-0.67000836,0.01285553,6.1042175,1.5128301,0.0060653687,-1.0809479,0.0,0.0,0.0,0.0,0.0,0.0,0.0,0.0,0.0,0.0,0.0,0.0,3.0,-1.9468675,-3.0,3.0,3.0,0.016785903,-3.0,-0.77034676,-3.0,-3.0,2.616453,-3.0
2025-06-06 16:33:36.860,-3.150251,7.537966,-20.475428,-6.789331e-05,0.0008892627,-0.0009649751,-1.288425,-0.535516,9.709664,-0.10821639,0.058403015,8.175785,-1.3717008,-0.016441345,-0.111694336,1.7828853,0.032157898,-10.55497,0.032456502,0.024986267,3.236744,-0.4371893,0.0010299683,0.52918243,1.8560003,0.0146865845,-1.8768616,-0.07595062,-0.010108948,-1.7230492,-1.1886649,0.092048645,1.3653755,1.4714534,0.0037002563,0.33508682,0.19016266,0.0371933,-11.037155,-0.6698558,0.034217834,6.0834656,1.5129064,0.0090408325,-1.0614166,0.0,0.0,0.0,0.0,0.0,0.0,0.0,0.0,0.0,0.0,0.0,0.0,3.0,-1.9493916,-3.0,3.0,3.0,0.01568417,-3.0,-0.77704626,-3.0,-3.0,2.6167414,-3.0
2025-06-06 16:33:36.911,-3.149184,7.538161,-20.473425,2.2060962e-05,-0.0029619634,0.0012005597,-1.296456,-0.534275,9.68746,-0.108521566,-0.077934265,8.164799,-1.3717008,-0.015830994,-0.11657715,1.782809,-0.014152527,-10.58671,0.032456502,0.007133484,3.2294197,-0.4373419,0.036506653,0.5181961,1.8561529,-0.023078918,-1.8561058,-0.07610321,0.015449524,-1.7181664,-1.1888938,-0.14591217,1.3372993,1.4715297,0.0049209595,0.33630753,0.19008636,-0.03604889,-11.026169,-0.67008466,-0.09479523,6.0834656,1.5128301,0.010948181,-1.0675201,0.0,0.0,0.0,0.0,0.0,0.0,0.0,0.0,0.0,0.0,0.0,0.0,3.0,-1.9394841,-3.0,3.0,3.0,0.020210547,-3.0,-0.7686979,-3.0,-3.0,2.624194,-3.0
2025-06-06 16:33:36.962,-3.149736,7.53531,-20.474157,0.0004032234,0.0037489845,0.00088640035,-1.279024,-0.540603,9.716484,-0.10821639,0.011253357,8.177006,-1.3716245,-0.028572083,-0.07019043,1.7828853,0.0076675415,-10.546425,0.03238021,0.016593933,3.2379646,-0.4372656,0.02483368,0.5218582,1.8562292,-0.037498474,-1.8292503,-0.076179504,0.0004196167,-1.6986351,-1.1885886,-0.045280457,1.411766,1.4715297,0.03314972,0.33874893,0.19016266,0.024375916,-11.044479,-0.6698558,0.022621155,6.1115417,1.5126776,0.00034332275,-1.0626373,0.0,0.0,0.0,0.0,0.0,0.0,0.0,0.0,0.0,0.0,0.0,0.0,3.0,-1.9522108,-3.0,3.0,3.0,0.020443005,-3.0,-0.76825875,-3.0,-3.0,2.624135,-3.0
