openverse-orca/OrcaGym/envs/legged_gym/legged_real_env/logs/robot_log_20250604_172410.csv
timestamp,imu_angle_roll,imu_angle_pitch,imu_angle_yaw,imu_angular_velocity_roll,imu_angular_velocity_pitch,imu_angular_velocity_yaw,imu_acc_x,imu_acc_y,imu_acc_z,fl_joint1_pos,fl_joint1_vel,fl_joint1_torque,fl_joint2_pos,fl_joint2_vel,fl_joint2_torque,fl_joint3_pos,fl_joint3_vel,fl_joint3_torque,fr_joint1_pos,fr_joint1_vel,fr_joint1_torque,fr_joint2_pos,fr_joint2_vel,fr_joint2_torque,fr_joint3_pos,fr_joint3_vel,fr_joint3_torque,hl_joint1_pos,hl_joint1_vel,hl_joint1_torque,hl_joint2_pos,hl_joint2_vel,hl_joint2_torque,hl_joint3_pos,hl_joint3_vel,hl_joint3_torque,hr_joint1_pos,hr_joint1_vel,hr_joint1_torque,hr_joint2_pos,hr_joint2_vel,hr_joint2_torque,hr_joint3_pos,hr_joint3_vel,hr_joint3_torque,fl_force_x,fl_force_y,fl_force_z,fr_force_x,fr_force_y,fr_force_z,hl_force_x,hl_force_y,hl_force_z,hr_force_x,hr_force_y,hr_force_z,fl_hip_action,fl_thigh_action,fl_calf_action,fr_hip_action,fr_thigh_action,fr_calf_action,hl_hip_action,hl_thigh_action,hl_calf_action,hr_hip_action,hr_thigh_action,hr_calf_action
2025-06-04 17:24:28.943,-0.752673,-0.765284,-171.79584,0.0022084524,0.00024288002,-0.0021434738,0.153238,-0.125239,9.810103,-0.013847351,-0.08090973,0.57923126,-0.9881541,0.02910614,-0.31311417,1.9038677,-0.04749298,-4.8297844,0.01285553,-0.051841736,-0.5999832,-0.9857127,0.084114075,-0.35095596,1.9034022,-0.015830994,-4.7296867,-0.016365051,0.015296936,0.7843132,-0.97251385,-0.017280579,-1.0162506,1.932574,0.0182724,-6.0737,0.019798279,0.028114319,-0.8526726,-0.97983146,-0.007209778,-0.61951447,1.9287084,0.038871765,-5.875946,0.0,0.0,0.0,0.0,0.0,0.0,0.0,0.0,0.0,0.0,0.0,0.0,-0.14494948,0.45688584,-0.013371799,-0.15853773,0.27897996,0.081532925,-0.55506325,-0.36158547,-0.66840714,-0.18477619,-0.048014313,-0.70632935
2025-06-04 17:24:28.997,-0.99206,-0.608622,-171.85541,-0.17807773,0.19943462,-0.08883111,0.099649,-0.373161,12.295633,-0.022087097,-0.011177063,0.665905,-0.95847577,0.4390335,6.298313,1.8963146,-0.40676117,-2.605629,0.0046157837,-0.23601532,0.0970459,-0.9629008,0.2148056,2.9034882,1.8979853,-0.22014618,-1.990387,-0.028038025,0.025749207,-0.7818718,-0.9841868,0.055656433,-8.836195,1.9118221,-0.5690384,-10.578165,0.015449524,-0.037651062,-1.0699615,-0.9689214,0.18184662,-3.8458824,1.9007086,-0.7126236,-10.122833,0.0,0.0,0.0,0.0,0.0,0.0,0.0,0.0,0.0,0.0,0.0,0.0,-0.38468516,0.62991095,-0.72968316,-0.22992471,0.04967258,0.4506275,-0.6762047,-0.8640235,-0.6226304,-0.5001559,-0.46820682,-0.7233279
2025-06-04 17:24:29.049,-1.054591,-1.172235,-172.1023,0.16816773,-0.8477496,-0.04717164,1.409287,-2.05975,12.696043,-0.036506653,-0.17597198,0.80506516,-0.94634503,-0.04634857,11.189747,1.8223095,-1.7504501,-2.5372696,-0.014915466,-0.3358841,0.9027252,-0.9654948,0.20938873,-0.83802414,1.9005793,0.033607483,0.5633621,-0.0333786,-0.1303482,-1.0321198,-1.045756,-1.0876083,-10.8748,1.9024379,-0.15239716,-11.46563,0.011634827,-0.18383026,-2.235752,-1.0057714,-1.1320877,-5.1654854,1.8909429,-0.0017929077,-12.720531,0.0,0.0,0.0,0.0,0.0,0.0,0.0,0.0,0.0,0.0,0.0,0.0,-0.6124159,0.40767384,-0.9197972,0.42260808,0.28249717,0.597489,-0.6287231,-0.9364274,-0.5552072,-0.5692931,-0.47776845,-0.86304104
2025-06-04 17:24:29.100,-1.236304,-3.64203,-172.20824,-0.18507305,-0.6783557,-0.15649287,2.639347,-0.585012,9.11836,-0.051994324,-0.1897049,1.18227,-0.9565684,-0.07991791,7.713131,1.7306805,-1.5989304,-0.7501335,-0.0035476685,0.4139328,0.8233757,-0.92856854,0.4983902,-0.64393234,1.915533,0.20992279,0.72449875,-0.04497528,-0.20786285,-0.02746582,-1.1196085,-1.39431,-8.610361,1.8872554,-0.26973724,-9.102312,-0.002708435,-0.3447342,-1.3922348,-1.0574987,-0.99933624,-3.6395836,1.8833135,-0.096473694,-13.285725,0.0,0.0,0.0,0.0,0.0,0.0,0.0,0.0,0.0,0.0,0.0,0.0,-0.71434164,0.18625876,-0.96480596,0.8729742,0.6072724,0.3263795,-0.6507314,-0.8782327,0.3850733,-0.78069615,-0.46558407,-0.7907922
2025-06-04 17:24:29.151,-1.778502,-5.097299,-172.9159,-0.36863214,-0.17019808,-0.22768164,0.659163,0.789125,6.335171,-0.07778168,-0.42743683,2.7423515,-0.9847972,-0.44239044,5.032425,1.6746807,-0.461998,-3.6359215,0.028572083,0.63518524,0.09460449,-0.84510297,1.4165115,-0.26550674,1.906454,-0.25875092,-0.048217773,-0.049095154,-0.19229889,-0.5572586,-1.2155138,-1.8412399,-1.2225533,1.8975551,0.0049972534,-0.064086914,-0.019721985,-0.23891449,-1.3958969,-1.0922887,-0.61977386,-3.4857712,1.8700384,-0.18016815,-11.791561,0.0,0.0,0.0,0.0,0.0,0.0,0.0,0.0,0.0,0.0,0.0,0.0,-0.84796876,-0.19171135,-0.99438065,0.97994655,0.90674347,-0.05663701,-0.70589936,-0.49264246,0.9629078,-0.93187726,-0.38548416,-0.56753886
2025-06-04 17:24:29.201,-2.441244,-5.014917,-173.2347,-0.14853424,0.15090254,-0.07166395,1.214549,-1.186668,8.650985,-0.09677887,-0.21648407,1.9537659,-1.0267588,-0.5298233,-0.026245117,1.672926,0.21030426,-7.1540413,0.050468445,0.22296906,1.0785065,-0.73966473,2.0367088,-0.31555557,1.868307,-0.68668365,-0.38758087,-0.053520203,-0.08289337,-0.33996964,-1.2342058,0.2916336,-0.8197136,1.9460018,1.1509323,0.49256134,-0.032539368,-0.0573349,-2.6800957,-1.1112859,-0.46512604,-1.0162506,1.8684362,0.03162384,-10.023956,0.0,0.0,0.0,0.0,0.0,0.0,0.0,0.0,0.0,0.0,0.0,0.0,-0.89904803,-0.20483012,-0.9962732,0.98593205,0.96591693,-0.7253254,-0.7599553,-0.052582007,0.9825272,-0.9716104,-0.3925099,-0.49495474
2025-06-04 17:24:29.252,-2.922487,-4.816573,-173.87907,-0.15178117,0.17186415,-0.27867338,0.920273,-0.797754,9.804937,-0.11791229,-0.39722443,2.4676895,-1.0678049,-1.0464859,2.268711,1.6849804,0.15499115,-7.348133,0.06328583,0.19115448,1.072403,-0.65612286,1.362114,-0.015258789,1.7770594,-1.6688919,-0.285038,-0.056266785,0.024147034,-0.91493225,-1.1581408,1.5084457,-1.2433052,1.9881923,0.73459625,0.08728027,-0.034599304,0.1656723,-3.383232,-1.134403,-0.3158188,-0.73060226,1.8732427,0.06450653,-9.551537,0.0,0.0,0.0,0.0,0.0,0.0,0.0,0.0,0.0,0.0,0.0,0.0,-0.89072263,-0.06292475,-0.98761976,0.9717923,0.9755084,-0.9619872,-0.8169548,-0.22235936,0.9065627,-0.9814339,-0.5816382,-0.51113564
2025-06-04 17:24:29.303,-3.105795,-4.622115,-175.21716,0.08976038,0.05875106,-0.38129476,0.694671,-0.87379,9.817375,-0.13759613,-0.49686432,3.2709236,-1.1049601,-0.5488205,6.2433815,1.6846752,-0.049858093,-6.4484634,0.07091522,0.07991791,0.9649811,-0.6040904,0.88077545,-0.2508583,1.6888636,-1.3637161,-0.42298126,-0.058555603,-0.085868835,-1.051651,-1.1278483,0.27881622,-0.20080948,2.0038326,0.2855301,0.5560379,-0.029335022,0.072517395,-3.6774254,-1.1675909,-0.5223465,-2.1466408,1.8814062,0.05367279,-10.141148,0.0,0.0,0.0,0.0,0.0,0.0,0.0,0.0,0.0,0.0,0.0,0.0,-0.8857373,-0.1414619,-0.9719458,0.9630366,0.97327065,-0.9823248,-0.82250535,-0.4027131,0.78550255,-0.96843517,-0.66334665,-0.3345625
2025-06-04 17:24:29.354,-2.822936,-4.339558,-175.82655,0.1552891,0.14070593,-0.059804544,0.640454,-0.564662,8.729838,-0.14606476,0.10921478,2.658123,-1.1370798,-0.36289215,5.4511337,1.6841412,0.035743713,-6.4533463,0.07572174,0.10570526,0.6964226,-0.57540387,0.39218903,0.22400284,1.6329402,-0.9053421,-0.4388504,-0.060920715,0.11638641,-1.1200104,-1.1450182,-0.22441864,-1.256733,2.0056636,0.003929138,0.07751465,-0.028877258,-0.029563904,-3.297779,-1.2036016,-0.688591,-2.2430763,1.893308,0.32489777,-9.408714,0.0,0.0,0.0,0.0,0.0,0.0,0.0,0.0,0.0,0.0,0.0,0.0,-0.8841647,-0.29120445,-0.9343635,0.9519466,0.9678767,-0.98761547,-0.78702736,-0.43648213,0.6196717,-0.9301052,-0.7274032,-0.109496534
2025-06-04 17:24:29.405,-2.261346,-3.869055,-175.84698,-0.076312184,-0.05728242,-0.026582045,-1.719338,0.483495,13.701229,-0.15216827,-0.22197723,3.6798668,-1.1702715,-0.48793793,3.170826,1.6828442,-0.21778107,-4.921341,0.08022308,-0.15384674,1.2774849,-0.5826518,-0.45375824,5.060501,1.6240138,0.027198792,-4.2133217,-0.063438416,0.0146102905,-0.74403,-1.1683642,-0.2514267,-0.012817383,1.9900234,-0.32932281,0.3668251,-0.037651062,-0.4102707,-1.4520493,-1.249378,-0.88222504,-0.5951004,1.9119238,0.29506683,-6.979477,0.0,0.0,0.0,0.0,0.0,0.0,0.0,0.0,0.0,0.0,0.0,0.0,-0.8886344,-0.36504295,-0.7772399,0.9256407,0.9582374,-0.99140435,-0.70968676,-0.52070236,0.09951895,-0.85154426,-0.79793346,0.14861882
2025-06-04 17:24:29.456,-2.398928,-4.319875,-175.95682,-0.03842079,-0.27910116,-0.009448549,-1.387443,1.883341,7.89854,-0.15399933,0.19481659,2.1820412,-1.1920153,-0.39066315,1.8927307,1.674223,-0.05092621,-3.6310387,0.07480621,0.170784,0.5218582,-0.6080577,-0.15293121,4.07782,1.624319,0.033836365,-3.8409996,-0.063438416,-0.12172699,-0.14587784,-1.1901842,-0.27133942,-1.7914085,1.9508846,-0.08670807,-5.396202,-0.044898987,-0.028419495,-1.9098206,-1.2921789,-0.6404495,-0.99061584,1.9280981,0.17765045,-5.3168526,0.0,0.0,0.0,0.0,0.0,0.0,0.0,0.0,0.0,0.0,0.0,0.0,-0.89715517,-0.4094421,-0.109324396,0.770723,0.9200333,-0.99210423,-0.4229169,-0.7190989,-0.692783,-0.5851779,-0.8599749,0.44762388
2025-06-04 17:24:29.507,-2.225698,-4.586203,-175.72511,0.2012377,-0.07581513,0.08388754,1.010786,-0.914804,9.481323,-0.13996124,0.21816254,1.0455475,-1.2050616,-0.1027298,1.0382233,1.7046642,0.3810501,0.99427795,0.08319855,0.22960663,-1.2408638,-0.62102765,-0.1530838,3.756771,1.624319,0.011405945,-4.007019,-0.06122589,-0.06450653,0.7452507,-1.2045275,-0.069236755,-5.7563133,1.9379146,0.036125183,-14.524757,-0.041999817,-0.00049591064,-0.9320221,-1.3201025,-0.5250931,-2.4115372,1.9465612,0.13370514,-2.1564064,0.0,0.0,0.0,0.0,0.0,0.0,0.0,0.0,0.0,0.0,0.0,0.0,-0.9446778,-0.26513654,0.8689667,-0.07205407,0.7266618,-0.9903465,0.3976715,-0.831125,-0.9718473,0.27333817,-0.9104745,0.8311279
2025-06-04 17:24:29.559,-1.901046,-4.871231,-175.41502,0.10688925,-0.213789,-0.11957045,1.773732,-2.853636,9.996176,-0.11867523,0.4720688,-0.3704872,-1.1791216,0.53066254,-0.4327469,1.8164349,1.9540787,0.35828018,0.081214905,-0.057258606,-4.0131226,-0.64635724,-0.49022675,1.486229,1.6329402,0.13889313,-4.9652863,-0.04802704,0.28011322,2.9108124,-1.2226092,-0.5673599,-5.4145126,1.9366176,0.04962921,-17.814604,-0.020637512,0.4920578,0.3277626,-1.3572576,-0.73604584,-0.8294792,1.9728063,0.40332794,0.48401642,0.0,0.0,0.0,0.0,0.0,0.0,0.0,0.0,0.0,0.0,0.0,0.0,-0.9690561,0.010441433,0.9870318,-0.7862488,0.20853744,-0.9799972,0.93604094,-0.83207303,-0.9938993,0.9528465,-0.8137836,0.9818839
2025-06-04 17:24:29.609,-1.000695,-5.578981,-176.43948,0.43549067,-0.3438595,-0.4964642,3.295734,-1.999686,10.207315,-0.10532379,0.23319244,-0.98939514,-1.1099192,1.426506,-1.2103462,1.9064617,1.4976883,0.33264542,0.06481171,-0.2035904,-5.6659813,-0.69419354,-0.8865738,-5.679409,1.656515,0.24456024,-6.8134575,-0.020484924,0.3409958,3.9008179,-1.263579,-1.1567307,-1.2713814,1.9331081,-0.07061005,-17.366598,0.018959045,0.8159256,0.63904953,-1.3716009,-0.39051056,0.15198135,2.0003486,0.46642303,0.4766922,0.0,0.0,0.0,0.0,0.0,0.0,0.0,0.0,0.0,0.0,0.0,0.0,-0.9800286,0.26787516,0.9847439,-0.9290083,0.17550753,-0.9569297,0.981197,-0.7875245,-0.9960498,0.9902621,-0.7007767,0.97888446
2025-06-04 17:24:29.660,0.38925,-6.595164,-177.60684,0.51098645,-0.2478636,-0.36114553,2.596155,-1.087774,10.049515,-0.09799957,0.14965057,-0.7830925,-1.0171458,1.7142105,-0.91859436,1.9626904,0.8640671,0.48645782,0.0497818,-0.3649521,-5.322956,-0.74325055,-0.9521103,-3.523613,1.6819209,0.3610611,-7.696041,-0.0052261353,0.21183014,4.036316,-1.3085924,-0.8597183,0.05065918,1.9098384,-0.55438995,-14.077974,0.043525696,0.43483734,1.4300766,-1.3564184,0.20877838,-0.21789932,2.0198035,0.31978607,0.57556915,0.0,0.0,0.0,0.0,0.0,0.0,0.0,0.0,0.0,0.0,0.0,0.0,-0.9835484,0.40702286,0.9607811,-0.93146086,0.1893312,-0.9318888,0.98185927,-0.72225296,-0.99202836,0.98501915,-0.54684204,0.9620789
2025-06-04 17:24:29.711,1.850854,-7.124573,-178.67438,0.4934382,-0.05782611,-0.37910274,0.968165,0.086552,10.152411,-0.09334564,0.08098602,-0.6939812,-0.93116254,1.3151169,-0.4766922,1.9946575,0.46123505,0.5938797,0.028266907,-0.813179,-2.9999237,-0.7945201,-0.88687897,-1.0919342,1.7069453,0.34496307,-8.618904,0.0011062622,-0.024681091,4.295109,-1.3354479,-0.39836884,1.806057,1.8602474,-0.97515106,-10.205845,0.061683655,0.25539398,0.514534,-1.3195684,0.6229019,-0.31921768,2.0291114,0.12149811,0.5987625,0.0,0.0,0.0,0.0,0.0,0.0,0.0,0.0,0.0,0.0,0.0,0.0,-0.98613787,0.54614335,0.9030487,-0.91924155,0.17180426,-0.9086632,0.97763044,-0.67116714,-0.9814025,0.971508,-0.31696966,0.9352121
2025-06-04 17:24:29.762,3.379583,-7.362324,-179.80975,0.44247118,-0.105402686,-0.38469946,-0.001261,1.090441,10.046554,-0.09044647,0.042915344,-1.0589752,-0.8522746,1.4112473,-0.53650665,2.0082378,0.2804947,0.33386612,0.005836487,-0.45505524,-2.4664688,-0.8394572,-0.7527542,-0.19226456,1.7241114,0.31291962,-8.617683,0.0061416626,0.01789093,4.1925697,-1.3500963,-0.3131485,2.092926,1.8014247,-1.1302567,-7.306629,0.07274628,0.1467514,0.6341667,-1.2562444,0.94493866,-0.14953995,2.031629,0.037879944,0.60852814,0.0,0.0,0.0,0.0,0.0,0.0,0.0,0.0,0.0,0.0,0.0,0.0,-0.98989826,0.69667566,0.72013086,-0.92236835,0.13831988,-0.87730795,0.97114223,-0.6445893,-0.95780724,0.9403094,-0.030899944,0.86934775
2025-06-04 17:24:29.814,4.774466,-7.434995,178.99173,0.3027301,0.06686939,-0.46137628,-0.655203,1.276256,9.034473,-0.08975983,0.034599304,-0.99916077,-0.7803294,1.2000656,-0.5999832,2.0044231,-0.063591,-0.27893448,-0.018577576,-0.5023575,-1.260395,-0.8697459,-0.33283234,-0.8868561,1.7402095,0.3029251,-8.711681,0.013465881,0.05054474,3.80682,-1.3540636,-0.01033783,2.1026917,1.7503078,-0.95241547,-5.1239777,0.07862091,0.029640198,0.45349884,-1.1837652,1.1635208,2.2845802,2.027738,-0.09037018,0.43030548,0.0,0.0,0.0,0.0,0.0,0.0,0.0,0.0,0.0,0.0,0.0,0.0,-0.9956626,0.7843547,0.2214306,0.027630407,0.3737629,-0.93545836,0.9505552,-0.46865937,-0.4455432,0.85882163,0.32828486,0.7402048
2025-06-04 17:24:29.864,5.764966,-6.85527,177.43187,0.13201965,0.15550534,-0.44841298,-1.992557,3.213254,9.185218,-0.08808136,0.08678436,-1.2896919,-0.715861,0.99155426,-0.2508583,1.9536114,-1.0476303,-0.15198135,-0.026664734,-0.43857574,3.0634003,-0.8638713,0.10845184,1.3665962,1.7511958,0.16017914,-9.872585,0.023536682,0.19580841,2.8070488,-1.3444506,0.330925,4.3622475,1.7281063,-0.45871735,-0.5999832,0.08205414,0.10494232,0.23132706,-1.0760381,1.8774796,2.5055313,2.0145392,-0.19565582,0.15198135,0.0,0.0,0.0,0.0,0.0,0.0,0.0,0.0,0.0,0.0,0.0,0.0,-0.9956202,0.70439506,-0.29843792,0.36071265,0.5961462,-0.89004296,0.8800873,-0.526085,-0.31367832,0.2013114,0.44184935,0.12681006
2025-06-04 17:24:29.916,6.26872,-6.074666,176.57877,-0.36115566,0.44013867,-0.25933126,-2.66554,4.340092,9.427369,-0.08945465,0.12706757,-1.260395,-0.68763226,0.7277298,-0.3314247,1.8702984,-1.5115738,-0.08728027,-0.035820007,-0.34862518,4.7602043,-0.82648724,1.1913681,0.4400711,1.76058,0.09662628,-9.375755,0.030174255,0.03513336,2.3089943,-1.3293444,0.81676483,0.41565704,1.7292507,0.072898865,-1.1078033,0.07526398,-0.18268585,-1.7096214,-0.99135184,1.4826584,2.5006485,1.9725012,-0.77487946,-3.076828,0.0,0.0,0.0,0.0,0.0,0.0,0.0,0.0,0.0,0.0,0.0,0.0,-0.99832934,0.6869533,-0.852658,0.3682001,0.61344504,-0.30100977,0.78774774,-0.7392072,-0.26484734,-0.9121709,-0.28476006,-0.6202384
2025-06-04 17:24:29.967,5.367737,-5.183739,176.36752,-0.53745496,-0.05121552,0.24573803,4.155518,3.646622,7.790121,-0.08693695,-0.020713806,-0.8844147,-0.68152875,-0.06351471,0.43152618,1.7584515,-1.7557907,-0.0579834,-0.04840851,-0.07312775,3.7701988,-0.78338116,0.49907684,1.760891,1.7719477,-0.063819885,-2.1857033,0.022850037,-0.27591705,4.1486244,-1.3240038,0.027580261,-1.3238716,1.7650325,1.0309219,-5.950409,0.054130554,-0.22930145,-5.7441063,-0.9783819,0.18024445,-8.126957,1.9466375,0.015602112,-13.968109,0.0,0.0,0.0,0.0,0.0,0.0,0.0,0.0,0.0,0.0,0.0,0.0,-0.99477935,0.8085932,-0.97613144,0.8900548,0.5039711,0.05201148,0.3398076,-0.9302312,-0.3324034,-0.99289036,-0.3096192,-0.7242459
2025-06-04 17:24:30.018,3.871651,-5.261901,177.86815,-0.66481054,0.22898643,0.68070525,4.506822,1.831241,7.070192,-0.08907318,-0.0063705444,-0.5877762,-0.6594035,0.54454803,0.02746582,1.6766644,-1.3094711,-0.34729385,-0.024528503,0.57483673,2.9071503,-0.78109235,-0.08609772,1.2176704,1.7903346,0.3686905,-0.44861603,-0.0065994263,-0.6442642,4.848095,-1.332625,-0.110816956,-4.9115753,1.8110378,0.7607651,-8.050049,0.041542053,-0.37403107,-4.9762726,-0.975559,-0.040855408,-7.577629,1.9453405,0.0009536743,-15.119247,0.0,0.0,0.0,0.0,0.0,0.0,0.0,0.0,0.0,0.0,0.0,0.0,-0.98647106,0.79598045,-0.98692304,0.9513943,0.47757626,-0.060473833,-0.40955886,-0.9517896,-0.2441522,-0.99360406,-0.17567812,-0.8054584
2025-06-04 17:24:30.069,1.370007,-4.196423,179.71347,-1.2108333,0.59648687,0.5050329,1.905832,0.715169,12.325085,-0.09479523,0.042686462,-0.13733292,-0.6477305,-0.049171448,2.330967,1.6620922,1.0155869,-10.126497,-0.0015640259,0.39058685,3.0597382,-0.79482526,-0.25562286,2.8131523,1.8099421,0.2540207,-2.080719,-0.043907166,-0.12554169,1.3617134,-1.3414751,-0.1556778,-3.7933922,1.8510921,0.46123505,-6.9514008,0.027961731,0.0447464,-5.938202,-0.97510123,-0.13591766,-3.5553513,1.9287084,-0.29125214,-14.109711,0.0,0.0,0.0,0.0,0.0,0.0,0.0,0.0,0.0,0.0,0.0,0.0,-0.9753659,0.7850218,-0.99054587,0.9271878,0.41610098,-0.18841188,-0.8569935,-0.9695593,-0.25720394,-0.9908489,-0.31206867,-0.89774275
2025-06-04 17:24:30.120,-1.220413,-3.931091,-179.03345,-0.88392144,-0.32521003,0.3227139,0.91313,-2.972174,11.672501,-0.08960724,0.021781921,-0.7782097,-0.67008466,-0.28636932,3.5382614,1.6855145,-0.011711121,-6.6034927,0.022087097,0.81150055,0.6756706,-0.8006236,0.07259369,-0.25574112,1.7892665,-0.39936066,-0.3619423,-0.0661087,-0.91381073,1.0919342,-1.3636004,-0.39958954,-2.1161194,1.85834,0.030326843,-5.901581,0.016822815,-0.15918732,-3.7299156,-0.99623466,-0.35953522,-4.942093,1.8910192,-0.93097687,-11.004196,0.0,0.0,0.0,0.0,0.0,0.0,0.0,0.0,0.0,0.0,0.0,0.0,-0.8693131,0.066635914,-0.9962345,0.9275746,0.7553042,0.45281735,-0.58131003,-0.9761818,-0.010909551,-0.97630775,-0.5966223,-0.94214034
2025-06-04 17:24:30.172,-3.742464,-5.365198,-178.26073,-0.70277923,-0.7990496,0.04953639,4.642263,-1.072571,8.200638,-0.087776184,-0.21595001,0.21423721,-0.7454631,-1.2182236,-4.994583,1.6771221,-0.21785736,-5.4035263,0.04673004,0.2512741,0.41077423,-0.74180096,1.2833786,-0.7916374,1.8292445,0.8206558,0.20203018,-0.08869171,-0.3232193,2.9559784,-1.4104449,-1.1740494,2.8314629,1.8668087,0.043144226,-3.523613,-0.0036239624,-0.2349472,-3.7067223,-1.0516241,-1.1265182,-5.1166534,1.8649267,-0.12187958,-13.293049,0.0,0.0,0.0,0.0,0.0,0.0,0.0,0.0,0.0,0.0,0.0,0.0,-0.90148795,0.02096763,-0.9970286,0.9821598,0.90305746,0.25974151,-0.5564518,-0.8608947,0.8405304,-0.9817379,-0.5030183,-0.8553003
2025-06-04 17:24:30.222,-5.251642,-6.653604,-178.16302,-0.4168127,-0.05565881,0.04851867,0.970594,-0.892071,7.457275,-0.094184875,0.032539368,0.4425125,-0.80253094,-1.2360764,-3.6078415,1.6818523,0.4330063,-8.671396,0.063056946,0.120277405,0.99427795,-0.6796214,1.2449265,-0.330204,1.8471736,0.068626404,0.49011993,-0.091362,0.030174255,1.4825668,-1.4528643,-0.27706146,3.810482,1.8961818,0.67546844,2.6276054,-0.010948181,-0.078697205,-3.6005173,-1.0929754,-0.70919037,-3.2025642,1.8456243,-0.4971695,-10.321812,0.0,0.0,0.0,0.0,0.0,0.0,0.0,0.0,0.0,0.0,0.0,0.0,-0.9390418,-0.16277446,-0.9988292,0.99263716,0.962299,-0.06371645,-0.65676296,-0.5714307,0.9758457,-0.9892508,-0.43174982,-0.7187141
2025-06-04 17:24:30.273,-6.466878,-6.733927,-177.92969,-0.4539,-0.03154686,0.013169871,-0.405958,-1.00524,8.792963,-0.09838104,0.038337708,0.0018310547,-0.86188763,-1.1671066,-5.40963,1.7093182,0.46100616,-9.853056,0.0724411,-0.0258255,0.46204376,-0.62118024,1.0149002,-0.38636017,1.8290156,-0.4341507,-0.49988556,-0.09143829,0.32550812,0.2471962,-1.4370714,0.7061386,2.802166,1.9318111,0.5815506,2.5458145,-0.014076233,-0.023765564,-3.958191,-1.1256292,-0.48229218,-1.6156235,1.8296789,-0.27332306,-8.212406,0.0,0.0,0.0,0.0,0.0,0.0,0.0,0.0,0.0,0.0,0.0,0.0,-0.9373814,-0.1331711,-0.99823356,0.9894114,0.97261345,-0.6113435,-0.68262124,-0.41176695,0.9783709,-0.9902733,-0.41301364,-0.67838156
2025-06-04 17:24:30.324,-7.260992,-6.339152,-177.96143,0.13306777,0.31192335,0.027573077,0.794778,-4.176954,10.198887,-0.10051727,-0.023460388,0.2887001,-0.90590924,-0.8184433,-3.6981773,1.7338085,0.39463043,-10.628214,0.07648468,-0.20893097,1.641262,-0.58425397,0.12645721,0.5621414,1.7627925,-1.4410782,0.2484169,-0.091667175,-0.40843964,0.9430084,-1.4031206,0.1745987,7.433586,1.9514949,0.050239563,4.590523,-0.013847351,-0.05870819,-4.1657143,-1.1469915,-0.32520294,-0.49500275,1.8153356,-0.24806976,-7.638668,0.0,0.0,0.0,0.0,0.0,0.0,0.0,0.0,0.0,0.0,0.0,0.0,-0.9333012,-0.18872283,-0.99677354,0.9817375,0.97541726,-0.8528627,-0.69394636,-0.41656303,0.9627728,-0.9881878,-0.4758036,-0.606078
2025-06-04 17:24:30.375,-7.373955,-5.947479,-178.09546,0.14526309,0.12822187,-0.08907389,0.034781,-3.161585,9.478106,-0.10349274,-0.05466461,0.64637375,-0.9403941,-0.4014206,-4.437935,1.750288,0.38570404,-10.987106,0.077552795,-0.03879547,1.1993599,-0.5620524,0.24295807,0.04333496,1.6926783,-1.0493088,-0.2874794,-0.092811584,0.0409317,1.2823677,-1.3730608,0.5018234,6.3947525,1.9671352,0.3359604,2.5238419,-0.013847351,-0.1506424,-3.8568687,-1.1694982,-0.22907257,-0.7342644,1.8134283,0.048789978,-7.831539,0.0,0.0,0.0,0.0,0.0,0.0,0.0,0.0,0.0,0.0,0.0,0.0,-0.9275347,-0.13183722,-0.99311364,0.9736888,0.97601575,-0.93095344,-0.7096913,-0.4377229,0.92469954,-0.9867225,-0.581856,-0.5613018
2025-06-04 17:24:30.426,-7.111247,-5.73244,-178.29369,0.17412618,0.07043475,-0.04726999,0.245411,-1.938968,9.733356,-0.10852814,-0.032081604,0.8612175,-0.9630534,-0.5119705,-2.5226212,1.7521954,0.019569397,-9.766384,0.07816315,-0.123939514,1.4508286,-0.55060834,0.062675476,0.12390137,1.640951,-0.9832382,-0.48523712,-0.09059906,0.15209198,0.1678505,-1.3451372,0.46764374,3.1146698,1.9787319,0.23517609,1.9256897,-0.013313293,0.011100769,-4.2108803,-1.1972692,-0.36388397,-1.2701607,1.8202184,0.115242004,-8.098877,0.0,0.0,0.0,0.0,0.0,0.0,0.0,0.0,0.0,0.0,0.0,0.0,-0.91944546,-0.086155474,-0.98798335,0.9669513,0.9753005,-0.9577342,-0.71313155,-0.5245749,0.8541424,-0.98536575,-0.6494862,-0.5484636
2025-06-04 17:24:30.477,-6.675662,-5.685047,-178.51538,0.1484636,0.028425688,-0.064425826,1.375034,-0.918326,9.041847,-0.116996765,-0.37288666,1.3617134,-0.9818217,-0.14896393,-1.5240707,1.7521191,0.0062179565,-9.679712,0.079078674,-0.0207901,0.8612175,-0.5434367,0.24311066,0.06286621,1.6066188,-0.6860733,-0.27649307,-0.08983612,0.1203537,0.44495392,-1.3337694,0.6636429,1.5448227,1.9820888,0.11714935,1.3641548,-0.016059875,-0.08747101,-3.577324,-1.2261083,-0.34946442,-1.86343,1.8311285,0.104255676,-8.716564,0.0,0.0,0.0,0.0,0.0,0.0,0.0,0.0,0.0,0.0,0.0,0.0,-0.9179737,-0.080554105,-0.982988,0.96084654,0.9730782,-0.9664705,-0.70196986,-0.57535183,0.7885495,-0.9825296,-0.6815491,-0.52719593
2025-06-04 17:24:30.528,-6.067851,-5.49165,-178.7764,0.22709751,0.09993547,-0.11070166,0.926732,-1.216806,9.404009,-0.1254654,-0.1620102,2.0587463,-1.0021921,-0.6133652,-0.00793457,1.7521954,0.027809143,-9.595484,0.07823944,-0.11013031,1.1126862,-0.53901166,0.04108429,-0.015258789,1.5858668,-0.30620575,-0.5084305,-0.085487366,0.13103485,0.072631836,-1.3263689,0.0073623657,1.2823677,1.9826992,0.0901413,1.1419868,-0.018196106,-0.03124237,-3.65057,-1.2527349,-0.7780075,-1.6205063,1.8441747,0.20465851,-9.169453,0.0,0.0,0.0,0.0,0.0,0.0,0.0,0.0,0.0,0.0,0.0,0.0,-0.9135817,-0.13219368,-0.9780116,0.9576674,0.97092843,-0.96944666,-0.6898484,-0.5660808,0.76330376,-0.97738653,-0.6990425,-0.47198722
2025-06-04 17:24:30.579,-5.271465,-5.1645,-179.2168,0.27390748,0.1572557,-0.15538919,1.115349,-1.061316,9.454114,-0.13347626,-0.23769379,2.363926,-1.0248514,-0.23365021,-0.083618164,1.7519665,-0.031318665,-9.551537,0.07862091,0.012245178,1.0125885,-0.5358836,-0.0030899048,0.07019043,1.5717524,-0.29636383,-0.15930557,-0.07953644,0.16109467,-0.22766495,-1.3155352,0.21945953,1.3043404,1.9825466,0.041618347,0.7904167,-0.0182724,-0.040016174,-3.7494469,-1.2770727,-0.36022186,-1.072403,1.8549322,0.10082245,-8.578621,0.0,0.0,0.0,0.0,0.0,0.0,0.0,0.0,0.0,0.0,0.0,0.0,-0.9148279,-0.14821598,-0.96970475,0.95413226,0.9701775,-0.97605944,-0.6808545,-0.5601058,0.70941246,-0.9728309,-0.7173132,-0.40467036
2025-06-04 17:24:30.630,-4.485645,-4.745938,-179.74,0.27450237,0.16285563,-0.18634968,1.311562,-0.895911,9.267005,-0.14431,-0.18268585,2.6642265,-1.0471293,-0.5233383,0.7733269,1.7520428,-0.00011444092,-9.435568,0.0787735,0.0104904175,0.7379265,-0.5360362,-0.18375397,0.5255203,1.5652674,0.096092224,-1.4923325,-0.07228851,0.034980774,-0.18860245,-1.3005053,0.22525787,0.5535965,1.9820888,-0.017280579,0.27405167,-0.0182724,-0.04802704,-3.6066208,-1.3018682,-0.49365997,0.037231445,1.8643163,0.22922516,-8.349125,0.0,0.0,0.0,0.0,0.0,0.0,0.0,0.0,0.0,0.0,0.0,0.0,-0.91110516,-0.19243096,-0.9537214,0.94715345,0.96794075,-0.98054034,-0.6539346,-0.5687021,0.60242325,-0.96396595,-0.7395655,-0.31176305
2025-06-04 17:24:30.681,-3.987634,-4.517564,179.73888,0.12936953,-0.0393504,-0.12766649,-1.102667,1.378243,10.867746,-0.15338898,0.1732254,2.8607597,-1.0695597,-0.08304596,0.16174698,1.7397594,-0.3998947,-7.22118,0.07518768,-0.13568878,1.3226509,-0.5575511,-0.39104462,2.8461113,1.5806788,0.20130157,-3.0829315,-0.06977081,0.08205414,-0.060424805,-1.3006579,-0.014915466,1.0870514,1.9718654,-0.20305634,0.2532997,-0.022163391,-0.015296936,-3.2306404,-1.3235357,-0.29384613,0.24109268,1.8679022,-0.01789093,-6.6816216,0.0,0.0,0.0,0.0,0.0,0.0,0.0,0.0,0.0,0.0,0.0,0.0,-0.96590513,0.6825074,-0.849245,0.6980872,0.9516213,-0.9855081,-0.72764105,-0.85603184,-0.8194345,-0.9831926,-0.80507445,-0.5089795
2025-06-04 17:24:30.732,-3.214843,-4.170354,179.81006,0.4888514,0.21640068,0.18331723,-0.373195,-1.745563,13.607226,-0.15079498,0.51555634,0.34363174,-1.0230204,0.8486557,12.039368,1.7113018,-0.8614731,-2.4103165,0.07648468,0.075416565,-0.7086296,-0.56937665,-0.21976471,1.8524437,1.5878505,-0.1051712,-1.8133812,-0.07030487,-0.03200531,-0.12512589,-1.3007342,0.8374405,-7.975586,1.8925197,-1.0386276,-9.15114,-0.024528503,-0.13339996,-2.9852753,-1.3345983,-0.19573212,-2.1808205,1.8551611,-0.44742584,-6.85252,0.0,0.0,0.0,0.0,0.0,0.0,0.0,0.0,0.0,0.0,0.0,0.0,-0.91056,0.5852363,-0.741948,0.24917322,0.7075272,-0.968402,-0.3251265,-0.9119631,-0.7537603,-0.90841293,-0.81042063,-0.55832183
2025-06-04 17:24:30.783,-2.326967,-4.335693,-179.48518,0.37013972,-0.17727672,0.14715381,1.13949,-1.224873,7.330948,-0.13957977,0.21144867,1.4496078,-0.998759,0.6194687,10.60746,1.6699505,-0.6835556,-0.14465714,0.06900787,-0.18238068,-1.5521469,-0.59707135,-0.42339325,-0.87709045,1.5829676,-0.014076233,-1.7987328,-0.07061005,0.09464264,1.715725,-1.2876116,-0.015296936,-6.6291313,1.8515499,-0.91236115,-7.671627,-0.031852722,-0.05558014,-2.3126564,-1.3437536,-0.16620636,-0.8905182,1.8446325,-0.060081482,-8.534676,0.0,0.0,0.0,0.0,0.0,0.0,0.0,0.0,0.0,0.0,0.0,0.0,-0.85030264,-0.10893486,-0.6895858,0.068493344,0.74268794,-0.9461238,0.14748903,-0.8540325,-0.71714365,-0.77281016,-0.8337434,-0.6926061
2025-06-04 17:24:30.834,-1.525736,-4.580807,-179.62225,0.11841788,0.018889332,-0.2981894,3.336655,1.078622,7.876554,-0.13744354,-0.6798935,3.0743866,-1.0268351,-0.40058136,0.88075256,1.653471,-0.24539948,-0.87342453,0.05924225,-0.17597198,-1.6082993,-0.6103465,-0.23662567,-0.10070801,1.593954,0.42728424,-4.035095,-0.06755829,0.059700012,3.6444664,-1.2940203,-0.17139435,-4.352482,1.8195064,-0.481987,-7.622795,-0.034217834,0.14431,-2.3541603,-1.3535955,-0.26744843,-0.99549866,1.8392919,-0.079307556,-9.701687,0.0,0.0,0.0,0.0,0.0,0.0,0.0,0.0,0.0,0.0,0.0,0.0,-0.91934955,-0.21253593,-0.6242515,0.31384504,0.78384465,-0.9425813,0.23551756,-0.7441236,-0.38109523,-0.70520973,-0.79807645,-0.42944148
2025-06-04 17:24:30.885,-1.164784,-4.296983,179.28485,-0.05977126,0.14289926,-0.29044047,-0.00387,2.246334,9.159456,-0.14690399,-0.35015106,2.6434746,-1.0612437,-0.5439377,0.6378288,1.6531658,0.19481659,-1.4312973,0.05290985,0.044288635,-0.69276047,-0.6290385,-0.57834625,2.2943459,1.6230983,0.5226517,-5.5719833,-0.054283142,0.13767242,2.614174,-1.3132464,-0.34267426,-0.032348633,1.8121822,-0.047416687,-4.7956047,-0.026054382,0.2173233,-2.7997246,-1.359165,-0.09807587,-0.5084305,1.8314337,-0.3334427,-5.289997,0.0,0.0,0.0,0.0,0.0,0.0,0.0,0.0,0.0,0.0,0.0,0.0,-0.96899223,0.4491138,-0.12316145,0.18641253,0.7894077,-0.9528498,0.6989324,-0.6484796,-0.70892084,-0.7781554,-0.8689365,0.38849366
2025-06-04 17:24:30.936,-0.741907,-3.458265,179.04662,0.37908152,0.42154533,0.113366656,-3.21032,-0.292601,10.427047,-0.14202118,0.11425018,0.3997879,-1.0465189,0.14614105,11.182423,1.6815472,0.37174225,1.7962914,0.064582825,0.21686554,-3.6432457,-0.64483136,-0.03261566,1.3885727,1.6497248,0.23868561,-5.9235535,-0.03124237,0.37036896,3.150074,-1.3052355,0.5415726,-2.8119316,1.7923458,-0.24608612,-6.922104,-0.034828186,-0.27057648,-0.16418839,-1.3763311,-0.24074554,-0.2874794,1.857221,0.45024872,-0.004272461,0.0,0.0,0.0,0.0,0.0,0.0,0.0,0.0,0.0,0.0,0.0,0.0,-0.9543614,0.2008716,0.5254802,0.5896512,0.63776106,-0.96852267,0.95304656,-0.5186385,-0.8932406,-0.3821677,-0.8029093,0.8931726
2025-06-04 17:24:30.987,0.074369,-2.461675,179.31169,0.34616494,0.099822916,0.009667326,0.749092,-0.078401,10.765191,-0.12172699,0.1291275,-0.79652023,-1.0105082,1.4475632,-1.4374008,1.7637157,1.8618393,0.06652832,0.09159088,0.1845932,-3.2391853,-0.648112,-0.04436493,-1.6754417,1.6665858,0.39966583,-7.2309456,-0.014457703,0.20549774,4.3891068,-1.275786,0.1442337,0.31921768,1.7830379,0.04009247,-10.037384,-0.043525696,-0.13645172,0.56946564,-1.3799932,-0.06175995,-0.30945206,1.9187902,1.0898209,0.4742508,0.0,0.0,0.0,0.0,0.0,0.0,0.0,0.0,0.0,0.0,0.0,0.0,-0.9518949,0.105791755,0.9076746,0.8548959,0.5910567,-0.9857489,0.97722626,-0.44319373,-0.9121693,0.27589998,-0.5410879,0.99496424
2025-06-04 17:24:31.039,1.209195,-2.405725,179.1197,0.4290808,0.2590268,-0.033884466,1.020465,0.036712,11.391234,-0.1064682,0.3482437,-0.9454498,-0.97991437,0.45467377,-0.35217667,1.8640423,1.7050552,0.5120926,0.12111664,0.20290375,-3.2782478,-0.65253705,-0.20748138,-2.306553,1.6919917,0.52684784,-9.0681305,0.008201599,0.13355255,2.7191582,-1.2647997,0.3584671,1.6510277,1.7847164,0.020332336,-10.211948,-0.02658844,0.21503448,0.9832916,-1.3329198,0.837059,-0.4412918,1.9712042,0.8258438,0.5157547,0.0,0.0,0.0,0.0,0.0,0.0,0.0,0.0,0.0,0.0,0.0,0.0,-0.96986115,0.22744432,0.94749814,0.8824568,0.6161261,-0.9905361,0.9691405,-0.4693577,-0.89541125,0.56685674,-0.062078226,0.99689853
2025-06-04 17:24:31.089,2.023523,-1.830685,179.39095,-0.008471514,0.24363863,0.10181968,-0.172516,0.862886,10.334684,-0.09830475,0.40416718,-1.359272,-0.94848126,0.77472687,-0.80628586,1.9340801,0.92617035,0.9063873,0.13744354,0.38539886,-2.8192558,-0.65612286,-0.0472641,-1.9134827,1.7093867,0.105018616,-8.180668,0.017356873,-0.07724762,3.9301147,-1.2555681,-0.0009536743,0.87953186,1.7837245,-0.051078796,-9.746853,-0.00019073486,0.64243317,0.76478195,-1.2283208,2.3690453,-0.9320221,2.0045447,0.68439484,0.10437012,0.0,0.0,0.0,0.0,0.0,0.0,0.0,0.0,0.0,0.0,0.0,0.0,-0.98605216,0.44659,0.8793051,0.7902576,0.6392683,-0.98690915,0.9628113,-0.51319575,-0.7309606,0.4302095,0.4381276,0.98933685
2025-06-04 17:24:31.140,2.103225,-1.633122,179.66382,0.015323554,0.008627476,-0.0011119841,0.335479,0.834367,10.610472,-0.09296417,0.10227203,-0.98939514,-0.88546246,1.0048294,-0.5047684,1.9692516,0.6066513,0.547493,0.14286041,0.1594925,-3.2172127,-0.6603953,-0.20442963,-0.7403679,1.7135066,0.027198792,-7.8510704,0.016975403,-0.010032654,3.9630737,-1.2580096,-0.17513275,1.2872505,1.786166,0.1883316,-8.684824,0.014076233,0.13896942,0.46326447,-1.0582616,2.6496544,-0.58045197,2.0233893,0.37899017,0.42664337,0.0,0.0,0.0,0.0,0.0,0.0,0.0,0.0,0.0,0.0,0.0,0.0,-0.99380636,0.5836102,0.42511207,0.66509366,0.6569296,-0.9742963,0.94132346,-0.4550409,-0.17257947,-0.2611886,0.75632524,0.9083556
2025-06-04 17:24:31.191,2.009082,-1.777483,179.69206,-0.19591251,-0.023528364,0.018200869,-0.73553,1.375707,8.52683,-0.09212494,0.07808685,-0.99549866,-0.82007855,1.0477066,-0.8197136,1.9536114,-0.51754,0.10192871,0.14392853,-0.0023269653,-3.3258553,-0.6623027,-0.060386658,-0.79774094,1.7136592,-0.05252838,-7.812008,0.018806458,0.021705627,3.851986,-1.2686144,-0.22975922,3.5138474,1.8108089,0.45612335,-4.7357903,-0.0045394897,-0.4153824,0.68421555,-0.89300895,2.9735985,-0.5938797,2.0278144,0.091285706,0.46082306,0.0,0.0,0.0,0.0,0.0,0.0,0.0,0.0,0.0,0.0,0.0,0.0,-0.9976811,0.56093836,-0.8128804,0.6396766,0.6846012,-0.84010446,0.81635743,-0.48492754,0.05662298,-0.91936606,0.768628,-0.24011679
2025-06-04 17:24:31.242,1.499965,-1.830403,179.84966,-0.20817058,0.02193294,0.11112277,-0.210235,0.222245,6.944552,-0.09326935,-0.17292023,0.015258789,-0.7801005,0.42835236,-0.08605957,1.8252087,-2.5178185,-0.032348633,0.14377594,-0.10631561,-3.0426483,-0.65780133,0.2109909,-2.1210022,1.7241114,0.28690338,-7.758297,0.012550354,-0.31085968,4.5001907,-1.2850176,-0.17101288,2.6153946,1.8504055,0.77114105,-5.2643623,-0.0358963,-0.5285263,-0.8502312,-0.7855871,1.5285873,0.9784088,1.9486212,-0.6524277,-6.654766,0.0,0.0,0.0,0.0,0.0,0.0,0.0,0.0,0.0,0.0,0.0,0.0,-0.9974672,0.3741359,-0.9915402,0.83070505,0.54631674,0.69635105,0.156929,-0.79264057,0.30457568,-0.9874787,-0.31153283,-0.7312705
2025-06-04 17:24:31.293,-0.116249,-1.08155,179.85716,-0.05733424,-0.4687497,0.10911823,1.310555,-2.646035,16.341385,-0.10410309,-0.2262497,-0.21789932,-0.7807109,-0.26798248,-0.53284454,1.7833233,-0.25707245,-9.500267,0.11516571,-1.0776138,2.7374687,-0.6781718,-0.4430008,-0.25574112,1.8155879,1.6924667,0.7122917,3.8146973e-05,-0.011711121,0.80872726,-1.31523,-1.154747,0.49256134,1.8967159,0.81645966,-4.26215,-0.036735535,0.19130707,-3.589531,-0.8190801,-1.0003281,-10.542763,1.9364141,0.56835175,-17.589989,0.0,0.0,0.0,0.0,0.0,0.0,0.0,0.0,0.0,0.0,0.0,0.0,-0.966754,0.6914593,-0.99446255,0.98386914,0.6639867,0.12378856,-0.85018736,-0.85476935,0.57022715,-0.99038476,-0.080939926,-0.8599174
2025-06-04 17:24:31.344,-0.900879,-2.751876,-179.81706,-0.61560005,-0.3831556,0.16771351,-1.171911,-0.216708,11.154761,-0.106925964,-0.073661804,0.6952019,-0.771403,0.14247894,4.2475014,1.7591381,-0.62992096,-7.639889,0.10059357,-0.18009186,0.30456924,-0.6796977,0.15140533,0.0592041,1.8313044,-0.05832672,0.10681152,-0.026741028,-0.57987213,-0.5889969,-1.3594042,-0.5703354,0.03112793,1.9251735,0.24745941,-0.16540909,-0.04673004,-0.6231308,-0.5242996,-0.8445623,-0.30368805,-6.884262,1.9317602,-0.34015656,-14.4173355,0.0,0.0,0.0,0.0,0.0,0.0,0.0,0.0,0.0,0.0,0.0,0.0,-0.9298595,-0.3989357,-0.9994297,0.980032,0.8856753,0.6459601,-0.7584634,-0.8816003,0.8697429,-0.9722392,-0.4945129,-0.84830576
2025-06-04 17:24:31.395,-2.762511,-4.969753,-179.16249,-0.67912257,-1.2323713,0.05864964,3.870937,1.327582,9.213753,-0.110435486,-0.32978058,1.5411606,-0.86059064,-1.4834976,-7.9230957,1.7335033,-0.49983978,-6.5217056,0.09525299,0.057029724,0.17761612,-0.6427714,0.76000214,-1.248188,1.8741816,1.0409927,0.23620987,-0.054969788,-0.3998947,1.109024,-1.4076983,-1.4299393,5.4804306,1.9623287,0.6521225,-0.018920898,-0.06290436,-0.20946503,-0.6256218,-0.9077337,-1.3671494,-8.279545,1.9367956,0.3193283,-17.242085,0.0,0.0,0.0,0.0,0.0,0.0,0.0,0.0,0.0,0.0,0.0,0.0,-0.92817914,-0.34356806,-0.99924237,0.9937353,0.9676965,0.11436203,-0.77342296,-0.37697527,0.991346,-0.96751165,-0.3376931,-0.71195394
2025-06-04 17:24:31.446,-4.158384,-6.604128,-178.89577,-0.29869613,0.071683414,0.23821124,2.098091,0.390056,7.786467,-0.110054016,0.2981186,-0.1312294,-0.89805096,-0.39226532,-9.677271,1.7257977,0.09487152,-9.112078,0.09616852,-0.39402008,1.3629341,-0.6002757,0.7442093,0.03479004,1.8686122,-0.18512726,-0.3973465,-0.06793976,-0.2941513,0.5108719,-1.4132677,0.19290924,9.77737,1.972018,0.01903534,3.9154663,-0.072135925,-0.0875473,-1.0370026,-0.9426,-0.5314255,-7.4641037,1.9266485,-0.3647995,-12.460518,0.0,0.0,0.0,0.0,0.0,0.0,0.0,0.0,0.0,0.0,0.0,0.0,-0.93805677,-0.2850572,-0.9987275,0.98836887,0.9732389,-0.5208284,-0.75011677,-0.33281016,0.987598,-0.9821036,-0.23460685,-0.72183573
2025-06-04 17:24:31.497,-5.032546,-6.460222,-177.93376,-0.25440183,0.19831249,0.38101766,0.815301,-1.690899,9.38065,-0.09830475,0.43239594,-1.5094223,-0.9204051,-0.23311615,-8.603037,1.7425823,0.4150772,-11.095751,0.0938797,-0.16994476,0.8990631,-0.5715892,0.33298492,0.036010742,1.8052882,-1.4856339,-0.4803543,-0.07526398,0.020332336,0.3314247,-1.3922106,1.2372208,3.994812,1.9749935,0.38021088,1.9281311,-0.07190704,0.12020111,-1.3812485,-0.96648,-0.7632828,-4.744335,1.9093298,-0.39218903,-11.695126,0.0,0.0,0.0,0.0,0.0,0.0,0.0,0.0,0.0,0.0,0.0,0.0,-0.93240905,-0.27000117,-0.9981519,0.9814056,0.97437185,-0.7435208,-0.7409648,-0.2782826,0.9824569,-0.98609674,-0.3225697,-0.6125518
2025-06-04 17:24:31.548,-5.6725,-6.228334,-177.26967,-0.24745455,-0.13726929,0.072606705,1.010862,-1.140351,9.254737,-0.08769989,0.17673492,-1.4251938,-0.9519908,-0.6165695,-5.774624,1.7506695,-0.010261536,-9.768826,0.090675354,-0.0064468384,0.08239746,-0.55556744,0.10471344,0.03112793,1.7280024,-1.157341,-0.6939812,-0.08098602,-0.06214142,0.29968643,-1.3552843,0.8306503,5.7135887,1.9809444,0.15323639,2.9071503,-0.07007599,0.0035476685,-1.8353539,-0.999439,-0.45238495,-4.70039,1.8989538,-0.09021759,-11.242237,0.0,0.0,0.0,0.0,0.0,0.0,0.0,0.0,0.0,0.0,0.0,0.0,-0.92696124,-0.22335842,-0.99652064,0.9747855,0.97578514,-0.8633191,-0.7213543,-0.33409333,0.9625432,-0.98705465,-0.44067582,-0.6178748
2025-06-04 17:24:31.600,-5.978523,-6.321043,-177.03012,-0.10746547,-0.15523377,0.06429208,0.731382,-0.991617,8.626636,-0.08274078,0.028266907,-1.2115669,-0.9769389,-0.47763824,-4.1400795,1.7508221,-0.01033783,-9.820097,0.087623596,0.011329651,0.5120926,-0.5475566,0.08930206,0.21667862,1.6698664,-0.9041977,-0.52918243,-0.08350372,-0.089912415,0.84046555,-1.3412462,0.32779694,6.6010513,1.9831569,0.13507843,2.7411308,-0.06946564,-0.036888123,-1.4227524,-1.0352209,-0.4645157,-5.4242783,1.8946813,-0.07854462,-11.385063,0.0,0.0,0.0,0.0,0.0,0.0,0.0,0.0,0.0,0.0,0.0,0.0,-0.92436534,-0.19361208,-0.9947581,0.9724149,0.9764367,-0.9092632,-0.7145722,-0.3997832,0.942776,-0.98675966,-0.52154595,-0.58574104
2025-06-04 17:24:31.650,-6.087333,-6.373289,-176.77127,-0.0064337025,-0.014659701,0.05617424,1.442032,-1.297648,10.037389,-0.08098602,-0.20824432,-0.526741,-1.0001322,-0.85689545,-2.1808205,1.7507458,-0.045585632,-9.513695,0.08518219,-0.07198334,0.91737366,-0.5409953,-0.0863266,0.004272461,1.6298121,-0.74359894,-0.30701065,-0.08464813,0.16345978,-0.111694336,-1.3214861,0.7828903,3.2623787,1.9889553,0.10234833,2.3285255,-0.06977081,-0.063056946,-1.3153267,-1.0677984,-0.5183792,-5.7343407,1.894605,0.005836487,-11.283741,0.0,0.0,0.0,0.0,0.0,0.0,0.0,0.0,0.0,0.0,0.0,0.0,-0.91896844,-0.13160908,-0.9921072,0.9705249,0.9766686,-0.9384759,-0.7249446,-0.42550772,0.9152962,-0.986922,-0.5950646,-0.5611135
2025-06-04 17:24:31.702,-5.995062,-6.432149,-176.67915,0.08731421,-0.030927565,0.040480223,1.586788,-1.448223,9.890464,-0.08167267,-0.093803406,-0.5841141,-1.0213419,-0.2877426,-0.1678505,1.7473888,-0.1279831,-8.952164,0.082206726,-0.026435852,0.8917389,-0.53664654,0.014533997,0.040893555,1.6010493,-0.39310455,-0.0030517578,-0.08647919,-0.19313812,1.3080025,-1.3120257,-0.15079498,5.224079,1.9906337,-0.023155212,2.310215,-0.06977081,0.18817902,-2.691082,-1.1044958,-0.8348465,-4.8285637,1.8990301,0.115470886,-11.601128,0.0,0.0,0.0,0.0,0.0,0.0,0.0,0.0,0.0,0.0,0.0,0.0,-0.9133036,-0.16236484,-0.98866373,0.96590286,0.9751471,-0.95443344,-0.7218231,-0.48339215,0.87472594,-0.9832684,-0.6356726,-0.5290273
2025-06-04 17:24:31.753,-5.827159,-6.514092,-176.61925,0.15975271,-0.025819946,-0.0056678345,1.14637,-1.426212,9.451047,-0.08213043,0.0075912476,-0.61951447,-1.0443064,-0.5047226,0.45594025,1.743269,-0.03124237,-9.008316,0.0812912,0.03314972,1.2018013,-0.53389996,0.061073303,0.04699707,1.5844935,-0.33245087,-0.45716095,-0.0850296,0.06717682,0.4718094,-1.3092028,-0.048103333,3.589531,1.99071,0.030937195,1.9220276,-0.071372986,-0.010566711,-1.2372017,-1.1392858,-0.64403534,-4.4525833,1.9052099,0.043678284,-11.669491,0.0,0.0,0.0,0.0,0.0,0.0,0.0,0.0,0.0,0.0,0.0,0.0,-0.9119644,-0.16443963,-0.9842851,0.9642481,0.9743606,-0.96435905,-0.72727025,-0.46829572,0.85041976,-0.9800974,-0.6727983,-0.47284287
2025-06-04 17:24:31.804,-5.55669,-6.5318,-176.66699,0.15140437,0.01865331,-0.012372865,1.135982,-1.261009,9.382692,-0.08319855,-0.0023269653,-0.4742508,-1.0671946,-0.56064606,1.2079048,1.7387676,-0.13492584,-8.50782,0.081214905,-0.05252838,1.0418854,-0.5325267,-0.04512787,-0.08117676,1.571371,-0.19252777,-0.12390137,-0.08327484,-0.0050735474,0.11291504,-1.3024889,0.095710754,2.8204765,1.9902523,0.008583069,1.5582504,-0.07129669,-0.007209778,-1.4593735,-1.171787,-0.5043411,-4.081482,1.9112371,0.11386871,-11.02739,0.0,0.0,0.0,0.0,0.0,0.0,0.0,0.0,0.0,0.0,0.0,0.0,-0.9072613,-0.17057136,-0.97647923,0.96006554,0.9735501,-0.97402155,-0.72511005,-0.4927021,0.7788763,-0.9765649,-0.71052516,-0.4283846
2025-06-04 17:24:31.855,-5.195857,-6.44472,-176.83493,0.123292446,0.059409995,-0.07722809,1.177869,-0.964607,9.206637,-0.0863266,0.026512146,-0.15076065,-1.0890146,-0.6406021,2.3285255,1.7343426,-0.08571625,-8.378424,0.08075714,-0.065574646,0.9234772,-0.53138226,0.04634857,-0.17517471,1.5626734,-0.057106018,-0.35095596,-0.080833435,0.09830475,0.111694336,-1.2956225,0.3143692,1.5362778,1.9884212,0.06122589,0.6573601,-0.070762634,-0.1468277,-1.45327,-1.2010076,-0.44902802,-4.07782,1.9141363,0.026435852,-10.138706,0.0,0.0,0.0,0.0,0.0,0.0,0.0,0.0,0.0,0.0,0.0,0.0,-0.9031608,-0.18789919,-0.96443,0.9549682,0.9714825,-0.97949666,-0.71323395,-0.51742643,0.6885675,-0.9705535,-0.73977053,-0.36090076
2025-06-04 17:24:31.906,-4.736212,-6.186706,-177.19359,0.09401642,0.094048604,-0.13443778,1.082275,-1.029958,9.069933,-0.089149475,-0.093803406,0.11779785,-1.1127421,-0.54454803,3.273365,1.7289257,-0.08319855,-8.054932,0.080070496,0.031700134,0.72938156,-0.53130597,0.06839752,-0.15442276,1.5577906,-0.11135101,-0.41931915,-0.0774765,-0.022315979,-0.083618164,-1.2896715,0.009422302,1.7926292,1.9825466,-0.17665863,0.526741,-0.070762634,-0.40225983,-1.4923325,-1.2285497,-0.3900528,-4.0753784,1.9173406,0.12348175,-9.79324,0.0,0.0,0.0,0.0,0.0,0.0,0.0,0.0,0.0,0.0,0.0,0.0,-0.9026699,-0.25555122,-0.94504124,0.94849586,0.9683826,-0.982915,-0.6882583,-0.5295871,0.59063065,-0.9558909,-0.7610899,-0.24683067
2025-06-04 17:24:31.956,-4.259511,-5.865202,-177.57681,0.23138422,0.13427898,-0.15176116,1.237067,-0.85704,8.366819,-0.09349823,-0.09449005,0.363163,-1.1388346,-0.7265091,2.7997246,1.7268658,-0.0062179565,-8.009766,0.08060455,0.026130676,0.5828934,-0.53145856,0.051002502,-0.072631836,1.5547389,-0.005531311,-0.41931915,-0.073280334,0.07335663,-0.29846573,-1.2906634,-0.05329132,1.9635315,1.9702632,-0.33512115,0.64393234,-0.06908417,0.042915344,-1.3836899,-1.2533453,-0.19374847,-3.207447,1.9242834,0.13362885,-8.981461,0.0,0.0,0.0,0.0,0.0,0.0,0.0,0.0,0.0,0.0,0.0,0.0,-0.9032128,-0.31526926,-0.91177523,0.94118106,0.965344,-0.9856351,-0.64838153,-0.5304254,0.46311858,-0.934397,-0.7842914,-0.09507733
2025-06-04 17:24:32.008,-3.217663,-5.086444,-178.04427,0.23594819,0.16071513,-0.17293134,0.273724,-0.763561,10.844381,-0.099220276,-0.27179718,1.1920357,-1.1669909,-0.6814194,3.170826,1.7269421,-0.022239685,-7.6044846,0.08174896,-0.062217712,0.4779129,-0.5371806,-0.40691376,1.8524437,1.5625209,0.6231308,-3.1805916,-0.0699234,-0.0075912476,0.03967285,-1.2909685,-0.33046722,2.8204765,1.9497402,-0.31513214,0.5963211,-0.067100525,0.038490295,-0.76600266,-1.2831762,-0.49671173,-1.8902893,1.9361852,0.15499115,-7.5507736,0.0,0.0,0.0,0.0,0.0,0.0,0.0,0.0,0.0,0.0,0.0,0.0,-0.90354395,-0.37470934,-0.8090661,0.9187739,0.95777637,-0.9883867,-0.5586623,-0.56851786,0.13081484,-0.8853765,-0.8152659,0.1314897
2025-06-04 17:24:32.058,-2.651322,-4.656495,-178.4615,0.2232315,-0.03864674,-0.09558332,-1.215471,1.275961,9.744626,-0.10303497,-0.00011444092,0.3253212,-1.1833941,-0.11981964,0.6768913,1.716795,-0.33275604,-4.7504387,0.07854462,0.013694763,0.99427795,-0.5625865,-0.33535004,3.19524,1.5884608,0.56064606,-4.125431,-0.06916046,0.00011444092,0.5120926,-1.3019549,-0.16376495,1.785305,1.9147975,-0.500679,-2.0282288,-0.07045746,0.009269714,-0.96131897,-1.3092687,-0.37509918,-1.8451195,1.9446539,0.05382538,-5.3827744,0.0,0.0,0.0,0.0,0.0,0.0,0.0,0.0,0.0,0.0,0.0,0.0,-0.91140157,-0.40291947,-0.38960534,0.81369245,0.9316516,-0.99003017,-0.2954325,-0.6960438,-0.53729963,-0.73305357,-0.8566782,0.40147066
2025-06-04 17:24:32.110,-1.995331,-4.574817,-178.48987,0.43278432,0.05872272,0.012847333,0.668056,-0.314232,8.927445,-0.0976944,0.17490387,-0.69031906,-1.1897265,-0.053215027,0.2459755,1.720686,0.06649017,-1.1602974,0.082588196,0.14316559,-0.41321564,-0.579066,-0.39958954,2.3883438,1.6047114,0.4882431,-4.4647903,-0.06626129,-0.008049011,1.5191879,-1.3070666,-0.023841858,-1.3739204,1.8847377,-0.27690887,-9.002213,-0.06839752,0.14362335,-0.76234055,-1.3291051,-0.2540207,-1.6888695,1.9583868,0.13080597,-3.0536346,0.0,0.0,0.0,0.0,0.0,0.0,0.0,0.0,0.0,0.0,0.0,0.0,-0.94323903,-0.29647797,0.6474585,0.17762722,0.81673485,-0.9895366,0.41161606,-0.8115852,-0.93947124,-0.17566504,-0.9085512,0.74453545
2025-06-04 17:24:32.161,-1.122778,-4.387042,-178.39265,0.36989266,0.012565096,-0.089543246,0.793714,-0.889781,10.264512,-0.09181976,0.108299255,-0.7342644,-1.1773669,0.69561005,-1.2860298,1.8000317,1.6384506,0.45349884,0.08289337,0.0045394897,-3.1573982,-0.60195416,-0.247612,0.87342453,1.6301173,0.47000885,-5.9601746,-0.053977966,0.11669159,3.9386597,-1.3146197,-0.40050507,-1.9208069,1.8702419,-0.08640289,-14.156099,-0.0548172,0.17498016,0.7806511,-1.3572576,-0.6334305,-1.5704575,1.9796728,0.22586823,-0.5230789,0.0,0.0,0.0,0.0,0.0,0.0,0.0,0.0,0.0,0.0,0.0,0.0,-0.9662392,-0.06537593,0.96621674,-0.7003573,0.41849774,-0.9798355,0.93447137,-0.8177422,-0.98779917,0.80140096,-0.8687979,0.96962094
2025-06-04 17:24:32.212,-0.210241,-4.732633,-179.11636,0.41371444,-0.15886125,-0.37513268,2.397606,-1.23861,10.555449,-0.088768005,-0.116996765,-0.7745476,-1.1203715,1.0776138,-0.711071,1.8942547,1.4664841,0.39124298,0.07007599,-0.29972076,-5.670864,-0.6417033,-0.5537796,-4.7626457,1.6615504,0.6029892,-7.6813927,-0.030021667,0.49671173,3.9923706,-1.3412462,-0.9165573,0.2838173,1.8667324,-0.08312225,-14.464943,-0.010032654,0.9315109,0.7550163,-1.3763311,-0.20587921,-0.20447159,2.006147,0.5060959,0.41931915,0.0,0.0,0.0,0.0,0.0,0.0,0.0,0.0,0.0,0.0,0.0,0.0,-0.98082757,0.23138137,0.98298454,-0.9322565,0.22022703,-0.95710063,0.98270637,-0.81276,-0.99546975,0.98224723,-0.7410302,0.9786127
2025-06-04 17:24:32.262,0.85545,-5.370841,179.7477,0.39933074,-0.17427723,-0.3665895,2.601072,-0.786038,10.516257,-0.0875473,0.04940033,-0.79529953,-1.0311075,1.6036606,-0.711071,1.9552135,0.94272614,0.49744415,0.05252838,-0.3433609,-5.3986435,-0.68549603,-0.9570694,-4.580757,1.693899,0.4997635,-8.828869,-0.014228821,0.1947403,4.5746536,-1.3747393,-0.63495636,2.2491798,1.8481929,-0.5085373,-11.758602,0.027427673,0.4014206,0.57801056,-1.3684728,0.16559601,-0.27771378,2.0224738,0.4304123,0.6585808,0.0,0.0,0.0,0.0,0.0,0.0,0.0,0.0,0.0,0.0,0.0,0.0,-0.9909777,0.44309482,0.9351361,-0.059844535,0.47502542,-0.972192,0.983626,-0.5611274,-0.9552356,0.9798225,-0.5030895,0.9774208
2025-06-04 17:24:32.314,2.154559,-5.443766,178.86023,0.45912907,0.2944344,-0.2538531,-0.917985,1.441749,11.304002,-0.08716583,0.009803772,-0.8685417,-0.93474835,1.5578842,-0.38025665,1.9874096,0.38669586,0.96131897,0.052604675,-0.1845169,-1.9806213,-0.7120463,-0.586586,-0.6756706,1.7221278,0.43972015,-10.094757,-0.002784729,0.11394501,4.0375366,-1.3695513,0.24059296,3.6188278,1.8005092,-1.1719131,-6.892807,0.049095154,0.60726166,0.2923622,-1.3265111,0.72330475,0.13733292,2.0294166,0.19069672,0.57678986,0.0,0.0,0.0,0.0,0.0,0.0,0.0,0.0,0.0,0.0,0.0,0.0,-0.9857305,0.4443008,0.89235973,0.6181886,0.58101404,-0.9792634,0.9645998,-0.4954324,-0.8744537,0.9028013,-0.028831283,0.98207474
2025-06-04 17:24:32.365,3.47359,-4.841566,178.35141,0.4823422,0.16891143,-0.08177866,-1.455946,2.438395,9.804342,-0.08480072,0.007820129,-1.0980377,-0.8710429,0.8862686,-0.19958878,2.0014477,0.18825531,0.77088547,0.060081482,0.2591324,-0.83680344,-0.72455853,-0.40355682,1.7389183,1.7379969,0.33054352,-9.849392,0.008277893,0.046958923,3.7067223,-1.346358,0.41820526,3.6969566,1.7506893,-0.7995987,-4.6076126,0.06404877,0.22449493,0.58045197,-1.2067297,2.1954002,-0.7000847,2.037046,0.049476624,0.48523712,0.0,0.0,0.0,0.0,0.0,0.0,0.0,0.0,0.0,0.0,0.0,0.0,-0.99108905,0.5611007,0.7293235,0.67761993,0.6887704,-0.9786227,0.95284224,-0.533471,-0.62650025,0.49117804,0.54892814,0.9555683
2025-06-04 17:24:32.416,5.008575,-4.598953,178.42522,0.2701914,-0.06637864,0.03466421,-1.017233,2.317123,9.107763,-0.08563995,0.053138733,-1.0211334,-0.814738,0.8559799,-0.38880157,1.9996929,-0.046043396,0.033569336,0.07320404,0.12439728,-0.8197136,-0.72669476,-0.010871887,2.7179375,1.7395228,0.011634827,-8.8789215,0.018043518,0.048942566,3.2465096,-1.3355242,0.0951767,3.2050056,1.7371852,-0.0049972534,-4.7309074,0.057258606,-0.32100677,0.60730743,-1.0262182,3.2271996,-0.75745773,2.0397162,0.07320404,0.42420197,0.0,0.0,0.0,0.0,0.0,0.0,0.0,0.0,0.0,0.0,0.0,0.0,-0.99690545,0.6207634,-0.16763665,0.4754938,0.6946672,-0.9363036,0.9264071,-0.47876722,-0.04260343,-0.502824,0.7566246,0.58717895
2025-06-04 17:24:32.468,5.692456,-4.698302,178.63968,-0.05437067,-0.025980761,0.13768245,-2.208769,1.684491,7.868722,-0.09037018,0.051460266,-0.56946564,-0.76819867,0.8162308,0.07873535,1.9208813,-1.5616226,-0.49134064,0.080451965,0.011711121,-1.0077057,-0.71425885,0.40912628,-0.13489151,1.739828,-0.008659363,-8.426033,0.0207901,-0.06725311,3.732357,-1.3308703,0.2840805,3.9508667,1.7680843,0.83019257,-2.5738907,0.023231506,-0.05039215,-2.268711,-0.8848455,1.646843,3.949646,2.0182776,-0.3723526,-1.4886703,0.0,0.0,0.0,0.0,0.0,0.0,0.0,0.0,0.0,0.0,0.0,0.0,-0.9986607,0.50020033,-0.9572013,0.5934435,0.6823624,-0.18221517,0.71363324,-0.7211671,-0.18097983,-0.9670059,0.27478606,-0.75505245
2025-06-04 17:24:32.521,4.349263,-3.670476,178.62498,-0.72953284,0.538399,-0.05012481,3.360621,2.388025,6.945585,-0.08960724,0.10456085,-1.1834908,-0.7604167,0.0976944,0.33874893,1.7857647,-2.4729576,0.010375977,0.06122589,-0.43865204,1.6607933,-0.66871136,0.50540924,-3.294117,1.7714137,0.4466629,-2.732586,0.0061416626,-0.1958847,4.6735344,-1.323546,0.119514465,-1.9659729,1.8105037,0.92876434,-6.58152,0.0036239624,-0.3532791,-2.6886406,-0.8277776,1.1709213,-7.630123,1.9636511,-0.6587601,-13.949799,0.0,0.0,0.0,0.0,0.0,0.0,0.0,0.0,0.0,0.0,0.0,0.0,-0.994496,0.4488681,-0.9924246,0.94953007,0.43434083,0.6595038,-0.20692587,-0.8480077,0.5466269,-0.9880091,-0.20528966,-0.62260664
2025-06-04 17:24:32.574,1.922007,-2.837624,179.01225,-0.6259712,-0.12495325,0.3089805,0.30055,-0.58925,15.323182,-0.10028839,0.15232086,0.5169754,-0.76964825,-0.2575302,0.35950089,1.7353344,0.5073166,-11.07622,0.06481171,0.022239685,1.2103462,-0.70029706,-0.86055756,-0.15808487,1.8453425,1.2145615,0.64149094,-0.024757385,-0.19664764,1.5155258,-1.3508593,-1.0326767,1.1664009,1.8873317,1.2364578,-2.5751114,-0.005836487,-0.021629333,-4.4306107,-0.83014274,-0.77510834,-8.782482,1.9705938,0.64373016,-18.09903,0.0,0.0,0.0,0.0,0.0,0.0,0.0,0.0,0.0,0.0,0.0,0.0,-0.9602254,0.5973699,-0.996927,0.9807911,0.7412324,0.05155289,-0.9224929,-0.8882828,0.52737504,-0.98651177,-0.029717142,-0.9422526
2025-06-04 17:24:32.629,0.152651,-3.826851,179.53801,-0.79415643,-0.32996458,0.12720376,0.051897,-0.26248,13.039156,-0.10318756,0.01499176,0.5975418,-0.7715556,0.013008118,2.473793,1.7378521,-0.2776718,-7.606926,0.06679535,0.15163422,0.9442291,-0.6843516,0.43613434,0.14587784,1.8438166,-0.27820587,-0.3985672,-0.050849915,-0.3949356,-0.12756729,-1.3887011,-0.48397064,0.7159538,1.9205196,0.31238556,-0.72816086,-0.016288757,-0.23792267,-2.0636292,-0.8419683,-0.07564545,-7.4067307,1.9576238,-0.6116104,-15.548943,0.0,0.0,0.0,0.0,0.0,0.0,0.0,0.0,0.0,0.0,0.0,0.0,-0.9778284,0.4686835,-0.99831784,0.9329768,0.6754998,0.062279724,-0.9574741,-0.95163184,0.5298025,-0.9820614,-0.2866074,-0.9362185
2025-06-04 17:24:32.683,-2.113406,-5.539235,-179.92186,-0.56383127,-0.7478866,0.21607584,1.798969,0.524239,8.597293,-0.109062195,0.04108429,0.40345,-0.7766673,-0.11356354,0.37170792,1.7033672,-0.6826401,-4.663769,0.07381439,0.03993988,0.6231766,-0.6787059,-0.035972595,0.22156143,1.8351954,-0.051612854,-0.4388504,-0.07976532,-0.6227493,0.7867546,-1.4228045,-0.48664093,0.9454498,1.9406612,0.38845062,-1.6107407,-0.039787292,-0.5044937,-1.3800278,-0.87271476,-0.53409576,-9.123062,1.9387792,-0.29773712,-16.194706,0.0,0.0,0.0,0.0,0.0,0.0,0.0,0.0,0.0,0.0,0.0,0.0,-0.9304137,-0.29285815,-0.9990166,0.9763889,0.91206014,0.28649387,-0.72802246,-0.87807006,0.8854209,-0.9700878,-0.4507971,-0.8377716
2025-06-04 17:24:32.736,-3.609204,-7.455795,-179.13953,-0.48107913,-0.76228404,0.22751324,3.754916,0.147559,8.308253,-0.104408264,0.090065,0.08483887,-0.8474681,-1.1223221,-8.096437,1.692915,-0.011100769,-7.031967,0.07801056,0.21579742,0.49744415,-0.63590497,0.7481003,-0.6732292,1.8470973,0.32634735,0.020141602,-0.097846985,-0.13217926,1.9073792,-1.4635454,-1.0403824,6.0968933,1.9760616,0.64006805,-0.111694336,-0.048561096,-0.1355362,-1.9293518,-0.9210851,-1.1117172,-9.30373,1.9364141,0.018196106,-15.898071,0.0,0.0,0.0,0.0,0.0,0.0,0.0,0.0,0.0,0.0,0.0,0.0,-0.9400786,-0.33896753,-0.99906474,0.9919214,0.96708345,-0.10998135,-0.7331258,-0.40736684,0.9898039,-0.97384274,-0.29890677,-0.6689631
2025-06-04 17:24:32.789,-5.037988,-8.345704,-178.3571,-0.28825715,0.19687347,0.336655,1.948483,-1.291689,9.112324,-0.09601593,0.3498459,-1.5545883,-0.8800456,-0.3873062,-10.50248,1.7053509,0.58200836,-9.959259,0.081596375,0.081214905,1.1541939,-0.5948588,0.44734955,0.115356445,1.8242091,-0.5157852,-0.23498917,-0.10608673,-0.12653351,1.5875473,-1.4597307,0.082359314,11.222706,1.9817073,-0.110435486,4.002136,-0.051383972,0.25966644,-2.581215,-0.9474828,-0.5829239,-6.8915863,1.9219183,-0.45482635,-11.579155,0.0,0.0,0.0,0.0,0.0,0.0,0.0,0.0,0.0,0.0,0.0,0.0,-0.9408006,-0.31033713,-0.9986396,0.9864246,0.9738113,-0.5782318,-0.71726644,-0.3358124,0.9859229,-0.9840107,-0.25519732,-0.70139295
2025-06-04 17:24:32.843,-6.088288,-7.653869,-177.08772,-0.11283582,0.24426197,0.41041926,1.529824,-2.579408,10.142904,-0.07953644,0.14232635,-2.113678,-0.9028575,-0.3545761,-9.663843,1.7361736,0.5034256,-11.165331,0.08106232,-0.0925827,1.2579536,-0.5675456,0.39539337,-0.012817383,1.7608851,-1.1792374,0.051879883,-0.1115036,-0.2072525,2.351719,-1.4339434,0.5649185,10.540321,1.9783504,0.009117126,3.819027,-0.052986145,-0.0012588501,-2.355381,-0.9680822,-0.63503265,-5.467003,1.9016241,-0.20824432,-11.286182,0.0,0.0,0.0,0.0,0.0,0.0,0.0,0.0,0.0,0.0,0.0,0.0,-0.9364814,-0.30939874,-0.9982053,0.98095715,0.9753299,-0.73020506,-0.70938253,-0.32348552,0.98052114,-0.986876,-0.34180966,-0.6359552
2025-06-04 17:24:32.895,-6.637375,-7.169777,-176.36494,-0.107526466,-0.011346333,0.14987223,0.861397,-1.741751,9.006884,-0.06877899,0.15903473,-1.740139,-0.92986554,-0.8675003,-7.7558556,1.7518902,0.011100769,-10.004425,0.08068085,-0.060920715,1.117569,-0.5535075,0.11592865,0.2911415,1.7019099,-0.92891693,-0.285038,-0.113334656,-0.18901825,1.8133812,-1.4070116,0.14492035,10.768597,1.9782741,-0.067481995,4.1168823,-0.054512024,0.04840851,-2.3395119,-0.9966924,-0.6458664,-5.0507355,1.8917822,-0.22327423,-10.952927,0.0,0.0,0.0,0.0,0.0,0.0,0.0,0.0,0.0,0.0,0.0,0.0,-0.9307728,-0.26475918,-0.9971995,0.97756475,0.97646517,-0.82118756,-0.69560814,-0.35331985,0.96871597,-0.98792523,-0.4350694,-0.6305982
2025-06-04 17:24:32.949,-6.79415,-7.033543,-175.95757,0.061758194,-0.021838414,0.042384937,0.432492,-2.315678,9.303723,-0.06397247,-0.07129669,-2.0245667,-0.95359296,-0.34175873,-6.0346375,1.7534161,-0.009803772,-9.822538,0.079689026,0.04146576,1.0150299,-0.5459544,0.10181427,0.15808487,1.6575068,-0.7109451,-0.22278214,-0.11379242,0.052604675,1.6730003,-1.3862597,0.2665329,8.373539,1.9798763,0.08205414,3.158619,-0.056114197,-0.15552521,-1.5619125,-1.0314825,-0.5553818,-5.7477684,1.8892645,0.022621155,-11.363087,0.0,0.0,0.0,0.0,0.0,0.0,0.0,0.0,0.0,0.0,0.0,0.0,-0.9269442,-0.18532202,-0.99548566,0.97438276,0.97666293,-0.88907367,-0.69767255,-0.4109872,0.947189,-0.9886323,-0.52835244,-0.6205836
2025-06-04 17:24:33.002,-6.752763,-6.990145,-175.79819,0.07030109,0.029450405,0.077633254,1.564393,-1.434257,10.065565,-0.064964294,-0.19237518,-1.7682152,-0.97526044,-0.5131149,-3.6530113,1.7534161,0.025138855,-9.806667,0.079841614,0.16674042,0.56946564,-0.539622,0.11203766,0.061645508,1.6239375,-0.32238007,-0.27161026,-0.1128006,0.01209259,1.5655746,-1.3684832,0.71842194,5.806362,1.9822414,0.20030975,2.211338,-0.05886078,-0.2136612,-1.4813461,-1.0648229,-0.5749893,-5.783169,1.8892645,0.0018692017,-11.405815,0.0,0.0,0.0,0.0,0.0,0.0,0.0,0.0,0.0,0.0,0.0,0.0,-0.92260695,-0.1290554,-0.9933233,0.97069126,0.97643715,-0.92533195,-0.695622,-0.48599634,0.91280043,-0.9887438,-0.5865638,-0.6094891
2025-06-04 17:24:33.055,-6.621162,-6.939524,-175.71239,0.025601692,-0.0012771621,-0.01803288,1.414569,-0.883077,10.235328,-0.06977081,-0.18909454,-0.5902176,-0.9969279,-0.4315567,-1.3910141,1.7509747,-0.08823395,-9.309834,0.07938385,0.11631012,0.7135124,-0.5356547,-0.0048446655,0.028686523,1.5984553,-0.29636383,-0.25940323,-0.10799408,0.031013489,1.6571312,-1.3535296,0.12149811,4.8786163,1.9847591,0.03879547,2.3883438,-0.062675476,0.03856659,-1.6607933,-1.0976293,-0.6509781,-5.520714,1.8910192,0.029182434,-11.372852,0.0,0.0,0.0,0.0,0.0,0.0,0.0,0.0,0.0,0.0,0.0,0.0,-0.91993004,-0.13717556,-0.9911125,0.9686132,0.97504175,-0.94040793,-0.70142025,-0.5004401,0.8926613,-0.9863816,-0.62463,-0.5643767
2025-06-04 17:24:33.108,-6.492859,-6.881077,-175.7881,0.058203746,0.03407244,-0.06268024,0.920094,-1.187851,9.725208,-0.074653625,-0.21587372,-0.481575,-1.0230204,-0.3006363,-0.11657715,1.7473125,-0.16864777,-9.158464,0.079078674,0.04634857,0.9369049,-0.5332133,0.08464813,-0.040893555,1.5844172,-0.09075165,-0.58167267,-0.1027298,0.029945374,1.1114655,-1.3420855,0.21640778,4.253605,1.9865139,0.035057068,2.2027931,-0.065574646,-0.022315979,-1.5936508,-1.1302831,-0.56324005,-5.1435127,1.8929266,-0.010108948,-10.939499,0.0,0.0,0.0,0.0,0.0,0.0,0.0,0.0,0.0,0.0,0.0,0.0,-0.91768277,-0.13867402,-0.9874405,0.9657515,0.97444564,-0.9567038,-0.70716393,-0.50192416,0.86007774,-0.98390734,-0.6585149,-0.52260536
2025-06-04 17:24:33.162,-6.293082,-6.813238,-175.89026,0.1487098,0.058915228,-0.019978102,1.053768,-1.55033,9.606336,-0.07762909,-0.002632141,-0.6268425,-1.0452219,-0.4302597,0.6707878,1.7434978,-0.071144104,-9.038834,0.07923126,-0.060539246,1.1761665,-0.53168744,0.010948181,-0.026245117,1.5715998,-0.21465302,-0.01159668,-0.09799957,-0.05329132,0.95277405,-1.3335406,0.18695831,3.3661385,1.9865139,0.016822815,1.662014,-0.067100525,-0.020637512,-1.5252914,-1.1614873,-0.7052231,-4.187687,1.8964361,0.0014877319,-10.664837,0.0,0.0,0.0,0.0,0.0,0.0,0.0,0.0,0.0,0.0,0.0,0.0,-0.9111691,-0.15809143,-0.98248094,0.9630339,0.9738217,-0.9671352,-0.7154866,-0.50454086,0.8185747,-0.98051244,-0.6931033,-0.4780736
2025-06-04 17:24:33.215,-5.959672,-6.673129,-175.99274,0.15102275,0.04639518,-0.06290648,1.03834,-1.59768,9.539719,-0.080451965,-0.005607605,-0.42786407,-1.0694834,-0.86811066,1.52285,1.7390728,-0.079307556,-8.596933,0.07900238,0.061302185,0.8245964,-0.5310008,-0.053596497,-0.08850098,1.5629023,-0.08304596,-0.2874794,-0.093193054,-0.056419373,0.8148308,-1.3218676,0.21305084,2.453041,1.986285,0.01537323,1.2079048,-0.0674057,0.010032654,-1.5814438,-1.192539,-0.81638336,-4.121765,1.9003271,0.07549286,-10.53788,0.0,0.0,0.0,0.0,0.0,0.0,0.0,0.0,0.0,0.0,0.0,0.0,-0.9044389,-0.17984894,-0.97524816,0.96031463,0.9731773,-0.9743471,-0.7186178,-0.5031083,0.7686333,-0.9759206,-0.7231557,-0.41820663
2025-06-04 17:24:33.266,-5.50269,-6.507066,-176.24783,0.24702664,0.11568351,-0.08973374,1.107008,-1.579887,9.547771,-0.084495544,0.029716492,-0.21789932,-1.0929056,-0.664711,1.9940491,1.7342663,-0.018501282,-8.351568,0.07892609,-0.049095154,1.2347603,-0.5306956,-0.11363983,-0.00061035156,1.5588588,-0.032310486,-0.45227814,-0.08716583,0.12889862,0.12634659,-1.3075243,0.029335022,1.7950706,1.9851406,0.0051498413,0.91615295,-0.067481995,0.022239685,-1.6302757,-1.2225988,-0.50281525,-3.261158,1.9069647,0.051689148,-10.160679,0.0,0.0,0.0,0.0,0.0,0.0,0.0,0.0,0.0,0.0,0.0,0.0,-0.90107095,-0.20330682,-0.9601806,0.95514625,0.9712569,-0.9807923,-0.71194565,-0.51647186,0.6682861,-0.96804816,-0.755365,-0.32834908
2025-06-04 17:24:33.318,-4.920661,-6.260188,-176.60307,0.21078618,0.10462678,-0.1475452,1.148926,-1.006477,8.678377,-0.087623596,-0.034751892,-0.056762695,-1.1160227,-0.3030777,2.2638283,1.7312145,-0.002861023,-8.413824,0.079078674,0.01964569,0.72327805,-0.53008527,0.18856049,-0.3253212,1.555807,-0.008964539,-0.46814728,-0.08304596,0.24089813,0.16174698,-1.3014971,0.28316498,1.5448227,1.9787319,-0.028190613,0.25452042,-0.06687164,-0.028877258,-1.3226509,-1.2496831,-0.25623322,-3.961853,1.9151281,0.075416565,-9.386742,0.0,0.0,0.0,0.0,0.0,0.0,0.0,0.0,0.0,0.0,0.0,0.0,-0.89886165,-0.23683792,-0.9329648,0.9455938,0.9678348,-0.9849015,-0.680959,-0.5533942,0.48926392,-0.9548848,-0.78366107,-0.2349018
2025-06-04 17:24:33.368,-4.163259,-5.746561,-177.07819,0.35835394,0.26581895,-0.19139597,1.225848,-1.282526,8.817501,-0.093193054,-0.071372986,0.37170792,-1.1392924,-0.21266937,2.7948418,1.7309093,0.0346756,-8.08423,0.07953644,-0.01712799,0.7525749,-0.5309245,-0.03932953,-0.1678505,1.552679,-0.07587433,-0.37170792,-0.07778168,0.10379791,0.18005753,-1.2993609,0.13210297,1.7914085,1.9591243,-0.42346954,0.632946,-0.06504059,0.05252838,-1.6998558,-1.274555,-0.195961,-2.769207,1.924436,0.13477325,-8.843517,0.0,0.0,0.0,0.0,0.0,0.0,0.0,0.0,0.0,0.0,0.0,0.0,-0.89665896,-0.3133707,-0.8835816,0.92920685,0.9607856,-0.9866856,-0.62212086,-0.5781342,0.30367416,-0.9240421,-0.8022617,-0.08985681
2025-06-04 17:24:33.419,-3.087015,-4.907265,-177.62225,0.061472118,0.0765526,-0.19946301,-0.451752,-0.069236,12.628028,-0.10082245,-0.13561249,1.1114655,-1.1640154,-0.451622,1.9989319,1.7286968,-0.29361725,-6.2763405,0.079689026,-0.3269577,1.4398422,-0.543513,-0.619545,2.6678886,1.570074,0.62236786,-3.9923706,-0.074272156,-0.005302429,0.49256134,-1.3045489,-0.1077652,2.2931252,1.9298275,-0.350914,-0.16296768,-0.06526947,-0.13889313,-0.90882874,-1.299732,-0.6354141,-1.6351585,1.9349645,0.115623474,-7.483635,0.0,0.0,0.0,0.0,0.0,0.0,0.0,0.0,0.0,0.0,0.0,0.0,-0.89711803,-0.3767484,-0.7341835,0.89182484,0.9481181,-0.98832905,-0.49567434,-0.61389065,-0.053034455,-0.8569597,-0.8281191,0.15899011
2025-06-04 17:24:33.470,-2.382858,-4.641655,-178.07147,0.22936328,-0.01976224,-0.089167826,-0.550348,1.321715,9.15338,-0.10135651,0.051231384,0.23865128,-1.1769091,-0.13835907,0.49500275,1.7151165,-0.1895523,-3.8702965,0.076179504,0.1253128,0.6280632,-0.56823224,-0.36403656,2.855877,1.595251,0.3485489,-4.068054,-0.07259369,-0.07671356,0.8661003,-1.3116442,-0.098228455,0.8514519,1.893893,-0.30353546,-3.5407028,-0.06679535,-0.038108826,-1.2750435,-1.3233068,-0.23235321,-1.6278343,1.9438909,0.06320953,-4.9201202,0.0,0.0,0.0,0.0,0.0,0.0,0.0,0.0,0.0,0.0,0.0,0.0,-0.9153217,-0.3920402,-0.19156267,0.72837865,0.9144807,-0.9894741,-0.15229815,-0.73249626,-0.6696101,-0.6564929,-0.86822635,0.4627034
2025-06-04 17:24:33.521,-1.527245,-4.453554,-178.08427,0.22416835,0.084278144,0.051733214,0.355262,0.572143,9.327655,-0.09563446,0.08426666,-0.62073517,-1.1853777,-0.21945953,0.46326447,1.7290783,0.16162872,0.03479004,0.08060455,0.32222748,-0.9454498,-0.58593243,-0.36937714,2.654461,1.6153926,0.40180206,-5.4230576,-0.06755829,-0.005836487,2.223545,-1.3167559,-0.091667175,-1.3080025,1.8669612,-0.17185211,-10.341345,-0.063056946,0.047340393,-0.4351883,-1.3433721,-0.3081894,-1.4813461,1.9583868,0.0850296,-2.1844826,0.0,0.0,0.0,0.0,0.0,0.0,0.0,0.0,0.0,0.0,0.0,0.0,-0.95140916,-0.2510345,0.7748679,-0.062286012,0.76916575,-0.98805255,0.6109407,-0.819398,-0.95975095,0.027603917,-0.9117839,0.818091
2025-06-04 17:24:33.573,-0.952439,-4.245005,-178.02089,0.34283176,-0.028267946,-0.1487221,1.215689,-1.137088,10.74851,-0.09082794,0.03124237,-0.7818718,-1.1630999,0.6270218,-1.2652779,1.8236828,1.8993759,0.11413574,0.07892609,0.0025558472,-4.0387573,-0.60843915,-0.36151886,0.45838165,1.6432399,0.66028595,-6.900131,-0.05153656,0.3143692,4.0473022,-1.3253008,-0.15628815,-1.0833893,1.85834,-0.090904236,-13.8069725,-0.043373108,0.4781723,0.49500275,-1.3702276,-0.3835678,-0.7098503,1.9813513,0.29064178,0.23132706,0.0,0.0,0.0,0.0,0.0,0.0,0.0,0.0,0.0,0.0,0.0,0.0,-0.96957874,-0.00043321957,0.97528636,-0.79719883,0.3297786,-0.97499824,0.96080583,-0.81366974,-0.9902941,0.8864511,-0.8402046,0.9774536
2025-06-04 17:24:33.624,-0.065475,-4.55433,-178.956,0.35311568,-0.20494208,-0.41003805,2.953436,-1.310446,11.187003,-0.08785248,-0.04688263,-0.7428093,-1.101298,1.064415,-0.69031906,1.9101238,1.417656,0.23254776,0.06374359,-0.2412796,-5.36446,-0.64879864,-0.9069443,-5.75021,1.6751307,0.52181244,-8.423592,-0.026893616,0.3435135,4.490425,-1.3529192,-0.7249832,1.2347603,1.853915,-0.140419,-13.682459,0.0015640259,0.8004379,0.49744415,-1.3818243,-0.037956238,-0.10803223,2.007444,0.63137054,0.3680458,0.0,0.0,0.0,0.0,0.0,0.0,0.0,0.0,0.0,0.0,0.0,0.0,-0.9820386,0.26902512,0.98066473,-0.9417997,0.22003244,-0.9514631,0.98407483,-0.8029102,-0.995485,0.9847625,-0.71512365,0.9756417
2025-06-04 17:24:33.678,0.920695,-5.221063,-179.99706,0.36037335,-0.16369912,-0.31274614,2.125576,-0.480094,10.613835,-0.08708954,0.056800842,-0.9808502,-1.012263,1.4185715,-0.72449875,1.9649029,0.86193085,0.33874893,0.04802704,-0.3256607,-5.6086044,-0.69304913,-0.94264984,-5.0702667,1.7049617,0.6140518,-9.158466,-0.013542175,0.09868622,4.950638,-1.3851916,-0.4756546,2.5702286,1.8307216,-0.6682205,-10.382849,0.034217834,0.38921356,0.9442291,-1.366184,0.30757904,-0.34607315,2.0230842,0.16414642,0.65125656,0.0,0.0,0.0,0.0,0.0,0.0,0.0,0.0,0.0,0.0,0.0,0.0,-0.9852551,0.41278282,0.95218027,-0.9517937,0.24840195,-0.92100734,0.984575,-0.7426165,-0.992296,0.97969246,-0.5840391,0.9537602
2025-06-04 17:24:33.731,1.877722,-5.705805,179.14738,0.27515525,-0.08284669,-0.24653476,0.721797,0.520384,10.538521,-0.08579254,-0.013694763,-1.1102448,-0.92360944,1.3051224,-0.62073517,1.9961834,0.38837433,0.592659,0.02658844,-0.9292984,-3.383232,-0.7447764,-0.8296585,-2.3175392,1.7322749,0.4137802,-9.743191,-0.010871887,0.041923523,4.905472,-1.4090716,-0.6171799,4.5636673,1.7855556,-0.7859421,-7.5959396,0.055503845,0.27217865,0.7428093,-1.3296392,0.61763763,-0.4412918,2.031095,0.06664276,0.58045197,0.0,0.0,0.0,0.0,0.0,0.0,0.0,0.0,0.0,0.0,0.0,0.0,-0.9930612,0.606463,0.8326411,0.037091136,0.46035293,-0.96425337,0.9762007,-0.50108224,-0.8700168,0.9546217,-0.22957957,0.9533777
2025-06-04 17:24:33.782,3.103306,-5.639012,178.43848,0.44588742,0.24772036,-0.17008352,-1.890077,2.755893,10.68534,-0.08563995,0.049324036,-1.0675201,-0.83892316,1.3392258,-0.33386612,2.0023632,0.018424988,0.481575,0.03162384,0.5817032,-1.0870514,-0.7674357,-0.245018,1.6534691,1.7482203,0.24654388,-10.285191,-0.0031661987,0.09815216,4.0717163,-1.3941942,0.17353058,6.2629128,1.7340572,-0.9460068,-3.2379646,0.06771088,0.172081,0.25452042,-1.247318,1.620903,-0.1324501,2.034986,0.082969666,0.4742508,0.0,0.0,0.0,0.0,0.0,0.0,0.0,0.0,0.0,0.0,0.0,0.0,-0.9910529,0.604205,0.67421496,0.5796635,0.61304677,-0.9734138,0.9543529,-0.5093523,-0.6495851,0.7352853,0.40422457,0.93946785
2025-06-04 17:24:33.833,4.330456,-4.979698,178.16125,0.179541,0.090700485,-0.042593222,-1.955068,3.032535,9.647272,-0.08426666,0.14591217,-1.3531685,-0.7828471,1.0026932,-0.25818253,1.9941998,-0.13759613,0.006713867,0.040245056,0.1594925,0.35705948,-0.76835126,-0.1064682,3.4381638,1.7521113,-0.006752014,-9.325703,0.005683899,0.1002121,3.847103,-1.3741289,0.17436981,4.5746536,1.7043025,-0.34519196,-2.2479591,0.06938934,0.10066986,0.18249893,-1.0790136,3.2775536,-1.3775864,2.0367408,0.110206604,0.35217667,0.0,0.0,0.0,0.0,0.0,0.0,0.0,0.0,0.0,0.0,0.0,0.0,-0.99591655,0.645445,0.020910943,0.50395304,0.679296,-0.9499559,0.928664,-0.5047863,-0.17106311,-0.13684937,0.7267414,0.66825116
2025-06-04 17:24:33.884,5.203903,-4.79472,178.38367,0.12758887,-0.017042633,0.1326359,-2.147459,2.258425,7.986586,-0.08731842,-0.008735657,-0.9832916,-0.7441661,0.7204819,0.021362305,1.9276714,-1.2566757,0.060424805,0.055122375,0.2877426,-1.0321198,-0.75324506,0.5005264,0.9369049,1.752035,-0.008735657,-9.226826,0.0132369995,-0.01651764,3.5980759,-1.3632189,0.14698029,4.895706,1.724139,0.598793,-1.2762642,0.03627777,-0.6546402,0.5999832,-0.9115484,2.4606743,-0.03479004,2.016828,-0.30643463,-0.34851456,0.0,0.0,0.0,0.0,0.0,0.0,0.0,0.0,0.0,0.0,0.0,0.0,-0.9987762,0.5532024,-0.9217154,0.47380245,0.65565944,-0.41437897,0.8110984,-0.6695744,-0.13809673,-0.9279441,0.4074311,-0.6637205
2025-06-04 17:24:33.934,4.719683,-4.283007,178.72992,-0.9059827,0.64836925,0.05848399,1.219816,2.137355,7.874063,-0.09311676,0.3482437,-1.3324165,-0.73592633,-0.40782928,0.54016876,1.7957592,-2.365612,-0.0030517578,0.052452087,-0.21701813,0.83436203,-0.7162425,0.9119034,-3.0780487,1.7690486,0.13195038,-4.065613,0.0062942505,-0.49877167,5.8539696,-1.3568865,0.3950119,-0.21301651,1.7702205,0.8259201,-4.1608315,0.0118637085,-0.51776886,-3.0780487,-0.8305242,1.6487503,-6.1933327,1.9603704,-0.9937668,-10.701458,0.0,0.0,0.0,0.0,0.0,0.0,0.0,0.0,0.0,0.0,0.0,0.0,-0.99661,0.38738862,-0.99366677,0.9268789,0.3949276,0.7929754,0.022386402,-0.87192404,0.41041362,-0.986768,-0.26906994,-0.69650394
2025-06-04 17:24:33.986,2.169256,-3.211846,179.30011,-1.1753702,0.15475959,0.31520873,2.754605,0.500109,5.378717,-0.09700775,-0.77381134,1.4129868,-0.75965375,-0.083351135,-0.87953186,1.7228222,0.72727203,-10.908979,0.061149597,0.24089813,-0.3936844,-0.74218243,-0.69194794,0.049438477,1.852743,1.5215683,0.6366081,-0.0283432,-0.5198288,3.5260544,-1.3782488,-0.7008743,1.4142075,1.8484981,1.484642,-3.3344002,-0.0025558472,0.16086578,-5.2069893,-0.82754874,-0.48793793,-12.3921585,1.9554876,0.60878754,-17.683987,0.0,0.0,0.0,0.0,0.0,0.0,0.0,0.0,0.0,0.0,0.0,0.0,-0.96030915,0.6091856,-0.9968322,0.9867116,0.71584165,0.20994225,-0.88970053,-0.87638074,0.6092665,-0.98790646,-0.0052182944,-0.9202584
2025-06-04 17:24:34.037,0.205057,-3.642118,-179.84198,-0.8238398,-0.21371293,0.22306363,-0.028676,-1.645841,14.805989,-0.098228455,0.035057068,-0.026245117,-0.75835675,0.09326935,2.1246643,1.7422009,0.007133484,-9.518578,0.06351471,0.13507843,1.3080025,-0.7124278,0.4893875,-0.12512589,1.8609828,-0.0011825562,0.072631836,-0.05443573,-0.476799,0.29602432,-1.4115893,-0.21175385,1.4935532,1.8972499,0.57338715,0.20325089,-0.0060653687,-0.31772614,-2.7167168,-0.83243155,-0.07007599,-7.348133,1.9511389,-0.4881668,-15.518425,0.0,0.0,0.0,0.0,0.0,0.0,0.0,0.0,0.0,0.0,0.0,0.0,-0.9338404,-0.51733744,-0.999667,0.9838391,0.89670414,0.73312217,-0.80162334,-0.8687167,0.92050624,-0.9626718,-0.47890693,-0.84384763
2025-06-04 17:24:34.088,-2.139148,-5.659573,-179.39308,-0.6584538,-1.2006716,0.06691781,3.864086,0.641972,9.105391,-0.09967804,-0.12195587,0.50354767,-0.85265607,-1.7116165,-9.750515,1.7331219,-0.36380768,-7.381096,0.070991516,0.16407013,0.68177414,-0.6605479,1.1426926,-1.4044418,1.9008845,1.0364914,0.27283096,-0.082588196,-0.18619537,1.8536644,-1.4645373,-1.421318,8.936295,1.9430263,0.60375214,1.9317932,-0.021858215,-0.17681122,-2.548256,-0.88431144,-1.2112045,-10.728313,1.9453405,0.018424988,-16.571907,0.0,0.0,0.0,0.0,0.0,0.0,0.0,0.0,0.0,0.0,0.0,0.0,-0.9308785,-0.42259654,-0.9994728,0.9946875,0.9725277,0.20475872,-0.8018073,-0.3614289,0.994066,-0.95856184,-0.2885582,-0.7319657
2025-06-04 17:24:34.138,-3.709684,-7.234287,-178.6977,-0.4174396,0.04787131,0.4367099,2.875002,0.051539,7.746257,-0.09700775,0.23410797,-0.7501335,-0.89469403,-0.38707733,-12.81941,1.7291546,0.19100189,-9.650415,0.080070496,0.20450592,1.170063,-0.6091258,0.85811615,0.03967285,1.892187,-0.28194427,-0.30212784,-0.1001358,-0.17154694,2.0831604,-1.4640795,0.13599396,12.146793,1.9492061,-0.039787292,5.3290596,-0.03566742,-0.076408386,-2.4322891,-0.91322684,-0.28614044,-7.6740685,1.9285558,-0.43079376,-12.409248,0.0,0.0,0.0,0.0,0.0,0.0,0.0,0.0,0.0,0.0,0.0,0.0,-0.94048214,-0.40415832,-0.99917966,0.9901173,0.97501814,-0.3697526,-0.7785728,-0.3171077,0.9921865,-0.97569937,-0.17173296,-0.73288333
2025-06-04 17:24:34.190,-4.933412,-6.981501,-177.31467,-0.25076875,0.22345997,0.44124132,1.98461,-1.876088,9.302499,-0.084724426,0.35694122,-1.9134827,-0.91224164,-0.24173737,-11.39971,1.7499065,0.50785065,-11.983215,0.08098602,0.0021743774,0.95399475,-0.576472,0.65517426,0.079956055,1.8277186,-1.1167526,-0.15564346,-0.1128006,-0.08388519,2.3907852,-1.4373003,1.1449814,7.963379,1.9503505,0.3725052,3.12566,-0.041236877,0.050621033,-2.4628067,-0.93321586,-0.33184052,-5.626919,1.9081854,-0.34275055,-11.652401,0.0,0.0,0.0,0.0,0.0,0.0,0.0,0.0,0.0,0.0,0.0,0.0,-0.9338382,-0.4069953,-0.9989058,0.98476887,0.9748167,-0.5853455,-0.75956064,-0.22367276,0.99032885,-0.98131925,-0.24477041,-0.6301248
2025-06-04 17:24:34.241,-5.787044,-6.504418,-176.65463,-0.1578194,0.09432672,0.12607452,1.72614,-2.508965,10.413051,-0.07686615,0.24967194,-1.8695335,-0.940623,-0.34542084,-9.295185,1.7627239,0.18512726,-10.977341,0.07961273,0.01712799,0.9723053,-0.5585429,0.1417923,0.436409,1.7618006,-1.2949753,0.07751465,-0.11684418,-0.5438614,3.2721443,-1.4009081,0.36914825,10.948044,1.955157,0.20236969,4.290226,-0.04283905,0.075035095,-2.929123,-0.9580877,-0.47481537,-4.63081,1.8910192,-0.21564484,-10.351109,0.0,0.0,0.0,0.0,0.0,0.0,0.0,0.0,0.0,0.0,0.0,0.0,-0.92512786,-0.38562086,-0.9982277,0.98023576,0.9762569,-0.7495255,-0.73703635,-0.23535596,0.98396146,-0.9828393,-0.31357068,-0.62682426
2025-06-04 17:24:34.292,-6.155814,-6.327144,-176.41422,-0.03617612,-0.055832908,-0.0023179369,0.093807,-2.006473,8.920355,-0.073661804,0.06427765,-0.90882874,-0.96862286,-0.52028656,-7.504387,1.7663097,-0.018348694,-10.341345,0.08052826,0.03955841,0.5462723,-0.54816693,0.15895844,-0.2496376,1.7039698,-0.90335846,-0.76722336,-0.11539459,0.3079605,0.4425125,-1.3639818,0.8735275,7.5971603,1.9627101,0.06679535,4.137638,-0.044517517,-0.10059357,-2.322422,-0.987766,-0.63892365,-5.5255966,1.884992,-0.02773285,-11.022507,0.0,0.0,0.0,0.0,0.0,0.0,0.0,0.0,0.0,0.0,0.0,0.0,-0.49237564,-0.92041844,-0.99822915,0.97911364,0.97425425,-0.5398513,-0.96996784,0.40941027,0.9194893,-0.6521044,-0.8637311,-0.8280841
2025-06-04 17:24:34.344,-5.942643,-6.313529,-176.12563,0.36272243,0.18469815,0.392278,3.071335,-1.087223,9.143502,-0.05619049,0.43994904,-1.7462425,-1.0253855,-0.71575165,-15.246204,1.7761517,0.30384064,-11.878233,0.082359314,0.091667175,0.7806511,-0.54427594,0.27080536,-0.252079,1.6835994,-0.11478424,-0.38025665,-0.12966156,-0.54958344,3.2831306,-1.2876879,2.0659294,14.49424,1.9527156,0.0118637085,4.1596107,-0.038719177,-0.017204285,-1.3067818,-1.0509374,-1.1712265,-11.602348,1.8856024,0.028572083,-13.81918,0.0,0.0,0.0,0.0,0.0,0.0,0.0,0.0,0.0,0.0,0.0,0.0,-0.19981916,-0.8851917,-0.949407,0.9792627,0.980801,-0.9448607,-0.9745803,0.09515981,0.7695999,-0.47186518,-0.9198484,-0.67194796
2025-06-04 17:24:34.395,-5.031579,-6.213441,-174.55669,0.37088397,-0.03862157,0.47363806,2.209001,0.015863,8.808701,-0.029258728,0.48534393,-1.5277328,-1.0755869,-1.0807419,-11.642633,1.7805004,0.0051498413,-10.570841,0.0812912,0.19985199,0.46082306,-0.53893536,0.4669571,-0.6243973,1.6399592,-0.6105423,-1.0370026,-0.13629913,0.36403656,1.1944771,-1.235808,1.5849686,6.3471413,1.9479091,0.06893158,2.1808205,-0.039634705,-0.19054413,-0.06286621,-1.1344793,-1.6797256,-6.5705338,1.9003271,0.068244934,-13.262531,0.0,0.0,0.0,0.0,0.0,0.0,0.0,0.0,0.0,0.0,0.0,0.0,-0.37326866,-0.8442576,-0.12694013,0.95429003,0.97315663,-0.992312,-0.97287124,0.049342655,0.04383747,0.41267863,-0.9611652,0.44265908
2025-06-04 17:24:34.446,-3.880541,-5.890847,-173.39847,0.97544235,0.6504846,0.38147527,0.145128,-1.149461,3.258576,-0.0033950806,0.45879364,-3.9008179,-1.1474596,-1.3534927,-6.369114,1.8175793,0.9371567,-6.482643,0.089149475,0.05130768,0.18127823,-0.5332133,0.054893494,-0.42908478,1.6039485,-0.744133,-0.4425125,-0.13111115,0.2022171,0.2874794,-1.2158953,0.18016815,9.654079,1.8974025,-0.9302139,0.40589142,-0.02193451,0.23365021,1.3739204,-1.232517,-1.5156174,-2.838787,1.9359564,0.30033112,-2.4261856,0.0,0.0,0.0,0.0,0.0,0.0,0.0,0.0,0.0,0.0,0.0,0.0,-0.95600027,-0.42487898,0.9885854,0.57702017,0.85426235,-0.9989518,-0.7616966,-0.8230867,-0.9943945,0.9747471,-0.97752297,0.98018837
2025-06-04 17:24:34.497,-2.711423,-3.235096,-172.09471,-0.53149253,0.3571546,0.0757424,-2.548118,-0.557061,16.424665,-0.013542175,-0.18795013,-2.3004494,-1.1947619,-1.2230301,4.265812,1.9164562,1.1076736,0.64149094,0.10059357,-0.3142929,-1.0247955,-0.5937907,-1.2396622,6.393532,1.664831,1.6109085,-12.316471,-0.14606476,-0.2980423,5.192341,-1.2717425,-0.75740814,-2.9510956,1.8481166,-0.47275543,-12.135805,0.016746521,0.8410263,0.11657715,-1.3191106,-1.6233444,-0.18494034,1.9782995,0.6847763,0.514534,0.0,0.0,0.0,0.0,0.0,0.0,0.0,0.0,0.0,0.0,0.0,0.0,-0.99720657,0.4041371,0.99699205,-0.5365925,-0.17224617,-0.99864435,0.38122025,-0.9697612,-0.9985509,0.99591285,-0.9081738,0.9944652
2025-06-04 17:24:34.548,-2.381961,-2.952661,-172.04848,0.37622032,-0.77602655,-0.094624944,3.903343,-0.567321,11.310105,-0.037498474,-0.24745941,-1.5045395,-1.0661265,2.8206291,-0.31921768,1.9635296,0.67790985,0.7721062,0.07671356,0.0074386597,-6.2018776,-0.71052045,-2.2413292,-7.224842,1.7098445,0.09304047,-8.394295,-0.1354599,0.15293121,7.094223,-1.3293444,-1.7304611,1.7242699,1.8303401,-0.19207,-12.438545,0.052986145,0.62114716,-0.14099503,-1.3724401,-0.38936615,0.18738174,2.008512,0.5692673,0.3253212,0.0,0.0,0.0,0.0,0.0,0.0,0.0,0.0,0.0,0.0,0.0,0.0,-0.9970244,0.6523824,0.99494827,-0.91804034,-0.7195253,-0.99418575,0.9678715,-0.94540733,-0.9982393,0.9981081,-0.62128556,0.9963479
2025-06-04 17:24:34.600,-0.393675,-5.76727,-172.20013,0.934273,-0.8914838,-0.06094536,3.598965,-1.756101,9.443207,-0.057792664,-0.77007294,-0.5255203,-0.91193646,2.3644676,-0.8990631,1.9977856,0.39791107,0.7721062,0.08563995,0.20618439,-9.445335,-0.853419,-3.046917,-10.4121475,1.7311305,0.38974762,-10.299839,-0.108299255,0.53531647,7.666744,-1.4262377,-1.9661331,6.2800026,1.8038661,-0.810585,-8.583506,0.067100525,0.11669159,1.2005806,-1.3510778,-0.94524384,3.0634003,2.0254493,0.06763458,0.6964226,0.0,0.0,0.0,0.0,0.0,0.0,0.0,0.0,0.0,0.0,0.0,0.0,-0.99685097,0.8335465,0.98095554,-0.9480662,-0.8487215,-0.98908025,0.98995906,-0.87288105,-0.99501854,0.99813277,0.1171574,0.99537164
2025-06-04 17:24:34.651,0.823816,-6.414337,-172.6221,-0.37218174,0.7065946,-0.5837126,3.344897,1.653423,10.845787,-0.074043274,0.4188156,-2.7826347,-0.7943675,1.5807724,0.44739532,2.0180798,0.19550323,0.98939514,0.06900787,-0.9495163,-4.326847,-0.9445903,-1.7872238,-13.267414,1.7632502,0.6610489,-12.71809,-0.09334564,0.02620697,8.7275505,-1.4623247,-0.8301163,5.2753487,1.7340572,-1.5097427,-2.4750137,0.08556366,0.24143219,0.22766495,-1.2612035,3.3491173,-0.9295807,2.0229316,0.39653778,0.022583008,0.0,0.0,0.0,0.0,0.0,0.0,0.0,0.0,0.0,0.0,0.0,0.0,-0.99801093,0.95481455,0.84658396,-0.95392245,-0.893664,-0.98742384,0.9763491,-0.8213456,-0.9838713,0.99619,0.8377848,0.98580414
2025-06-04 17:24:34.702,0.952335,-6.295563,-173.93916,-0.2734968,0.575013,-0.5973605,0.195653,2.626921,11.168221,-0.08396149,-0.14453888,-0.2887001,-0.69137067,1.2389755,0.2862587,2.0213604,-0.0036239624,0.11657715,0.046272278,-0.6203842,-3.7140465,-1.0499521,-1.4564133,-10.453651,1.7990321,0.5562973,-14.139011,-0.083732605,0.5233383,6.167698,-1.5013872,-0.54668427,6.544899,1.6561611,-1.7473984,1.1212311,0.096702576,0.0951004,-0.022583008,-1.0587957,4.930462,0.036010742,2.026136,0.29262543,0.6012039,0.0,0.0,0.0,0.0,0.0,0.0,0.0,0.0,0.0,0.0,0.0,0.0,-0.99834836,0.97539735,-0.7470771,-0.91423994,-0.89124763,-0.82165444,0.7564652,-0.8823294,-0.9715439,0.9859765,0.9465729,0.3425193
2025-06-04 17:24:34.753,0.579087,-6.132727,-175.00119,-0.041990176,-0.15158875,-0.17548011,1.474413,1.028264,6.795828,-0.08319855,-0.09914398,-0.60608673,-0.6252238,0.8143997,-0.07385254,1.8749523,-2.5624504,-0.363163,0.032157898,-0.037727356,-5.7807274,-1.1540972,-2.0545616,-2.7557793,1.8145198,0.30971527,-11.901428,-0.077171326,0.14888763,6.1005554,-1.5535723,-1.0266495,10.534218,1.5866573,-1.1982346,3.3978806,0.09227753,-0.17803192,1.2079048,-0.8492162,3.100933,0.4400711,1.9823431,-0.9018326,-0.033569336,0.0,0.0,0.0,0.0,0.0,0.0,0.0,0.0,0.0,0.0,0.0,0.0,-0.9972006,0.9162919,-0.9960739,-0.5292919,-0.6644744,0.9892551,-0.2095564,-0.98312825,-0.992442,0.88688385,-0.10792636,-0.9836736
2025-06-04 17:24:34.804,-0.356808,-4.743656,-175.49394,-1.0704631,1.6900712,-0.252155,0.381093,2.764354,4.308387,-0.101509094,-1.139183,4.8493156,-0.5939433,0.20832062,0.06652832,1.7668438,1.1678696,-15.382925,0.012931824,-0.3848648,-1.6974144,-1.2251269,-1.1179733,0.91737366,1.909048,1.731453,-0.15076065,-0.07434845,0.7579422,0.16662979,-1.5663134,0.5348587,1.2262154,1.5448482,-0.11539459,0.48523712,0.093421936,-0.6067276,1.0565338,-0.8685949,0.14820099,-8.764172,1.9245886,-0.82889557,-13.809414,0.0,0.0,0.0,0.0,0.0,0.0,0.0,0.0,0.0,0.0,0.0,0.0,-0.8813319,-0.16907282,-0.9987475,0.91732305,0.667411,0.9990418,-0.9086147,-0.9938879,-0.9245574,-0.5431719,-0.8631551,-0.99765724
2025-06-04 17:24:34.856,-2.093859,-1.662793,-176.35303,-0.74104095,-0.49769512,-0.43984455,-4.426301,-3.17288,18.883165,-0.12989044,0.043296814,2.133213,-0.727534,-2.5318565,-6.0065613,1.8253613,-0.12340546,-12.534981,0.039482117,-0.22701263,2.9596405,-1.1252543,5.410122,-2.8900604,1.9514674,1.1552048,0.19470596,-0.07434845,-0.3055191,0.3680458,-1.5684496,-1.3937759,9.59182,1.5273006,-0.7606125,4.3036537,0.079460144,-0.27339935,-5.0873566,-0.9557226,-2.1269646,-11.580376,1.9141363,-0.18062592,-16.232548,0.0,0.0,0.0,0.0,0.0,0.0,0.0,0.0,0.0,0.0,0.0,0.0,-0.23209307,-0.7776381,-0.99944097,0.9722126,0.92043936,0.9945979,-0.88079953,-0.9522879,-0.03434324,-0.8363967,-0.9403988,-0.9967448
2025-06-04 17:24:34.908,-4.327685,-5.148641,-176.27493,-0.61263686,-0.8717306,0.35865062,3.239432,0.707836,8.015762,-0.116539,0.3596878,2.8119316,-0.87302655,-2.1542778,-13.014725,1.8078899,-0.31772614,-10.663614,0.056800842,0.08327484,0.8624382,-0.89065045,3.654827,-1.1236725,1.9933528,0.5527115,0.252079,-0.095329285,-0.5777359,1.8414574,-1.639403,-1.2248611,13.401695,1.537524,-0.022315979,11.447319,0.058250427,-0.4065323,-4.6198196,-1.0856512,-2.4518242,-5.602501,1.905744,-0.26844025,-14.900742,0.0,0.0,0.0,0.0,0.0,0.0,0.0,0.0,0.0,0.0,0.0,0.0,0.2609673,-0.95581675,-0.9998254,0.99426913,0.96509635,0.9757686,-0.9305054,-0.43579352,0.985086,-0.43854132,-0.8794079,-0.9643906
2025-06-04 17:24:34.960,-5.275355,-6.495832,-174.89835,0.14874719,0.056626543,0.5816781,3.274341,-0.863724,8.900031,-0.080070496,0.83797455,0.7403679,-0.9717509,-1.6049576,-15.071642,1.808424,0.22182465,-13.272297,0.071754456,-0.17284393,1.6632347,-0.743632,1.9666672,0.095825195,2.0148678,0.49007416,0.42420197,-0.11249542,-0.020103455,1.387352,-1.6076647,1.1909866,12.841381,1.6435726,2.04739,9.112076,0.054969788,0.0409317,-4.364689,-1.1838415,-1.6731644,-3.1476326,1.868131,-0.9140396,-10.790569,0.0,0.0,0.0,0.0,0.0,0.0,0.0,0.0,0.0,0.0,0.0,0.0,0.46550784,-0.96832263,-0.9997302,0.99780476,0.9815183,0.8434218,-0.9690837,0.32498887,0.9992468,-0.05683649,-0.7931253,-0.88871634
2025-06-04 17:24:35.011,-4.629121,-5.658602,-173.07545,0.76537913,0.7529314,0.80406487,1.023381,-2.429188,9.541798,-0.027122498,1.1063766,-2.23209,-1.0427805,-1.3518906,-13.330893,1.8230724,0.22159576,-14.429541,0.07923126,-0.4178238,2.5494766,-0.65520734,1.7830276,-0.3949051,2.0191402,0.017356873,-0.08850098,-0.12195587,0.15453339,0.7513542,-1.4663683,2.9120293,13.0733185,1.7184932,0.6951523,12.058899,0.0623703,0.040473938,-3.0035858,-1.2435033,-0.6612015,-2.4554825,1.809461,-1.2905502,-5.4193954,0.0,0.0,0.0,0.0,0.0,0.0,0.0,0.0,0.0,0.0,0.0,0.0,0.6144388,-0.9208239,-0.99117416,0.9954722,0.97554755,-0.35515115,-0.989386,0.5769954,0.99558425,0.06411731,-0.8956382,-0.8941296
2025-06-04 17:24:35.062,-2.794586,-3.937033,-170.87706,1.0859162,0.66047627,0.8570148,4.066624,-4.737282,9.069311,0.027503967,1.0155869,-2.0660706,-1.1141917,-1.5291214,-7.5751877,1.8295574,0.049705505,-13.427328,0.07846832,-0.23441315,2.4274063,-0.6056163,0.5298233,0.5877762,1.917898,-2.312893,-0.18616104,-0.12928009,-1.6864395,2.7704277,-1.2675463,3.0447044,11.665829,1.8054683,1.8319321,4.361027,0.06580353,-0.108299255,-2.059967,-1.3131597,-1.48983,1.5265121,1.752622,-0.9595871,-4.7748528,0.0,0.0,0.0,0.0,0.0,0.0,0.0,0.0,0.0,0.0,0.0,0.0,0.34674904,-0.8947425,0.17535341,0.9852301,0.9681136,-0.99031895,-0.9914187,0.47895974,0.6281208,0.79083014,-0.9694981,0.44880074
2025-06-04 17:24:35.113,-0.890251,-3.294008,-169.47119,0.26363057,-0.08993415,-0.022516074,-3.117798,0.730016,-2.210923,0.04436493,-0.20023346,-0.77088547,-1.2251269,-2.568554,-0.079956055,1.8661785,0.96904755,-5.340046,0.08960724,0.5257797,-3.6408043,-0.5726573,1.0219193,-2.605629,1.7763728,-2.209591,-1.9891663,-0.12775421,0.3898239,0.9369049,-1.1088511,1.7591476,9.074234,1.8619258,0.40210724,3.4723434,0.0774765,0.17124176,-0.7074089,-1.4000585,-1.6595078,4.2218666,1.7914556,0.65914154,3.203785,0.0,0.0,0.0,0.0,0.0,0.0,0.0,0.0,0.0,0.0,0.0,0.0,-0.8992395,-0.59082365,0.99910504,0.89828944,0.79887676,-0.99973,-0.91852516,-0.80260706,-0.9987446,0.995058,-0.986089,0.9956254
2025-06-04 17:24:35.164,0.214569,-1.194751,-169.21019,-0.5146144,-0.07520957,-0.10182636,-7.154841,2.018598,24.069738,0.013389587,-0.30704498,-2.7997246,-1.3092028,-1.0562515,6.3007545,1.939497,0.3748703,3.9264526,0.102882385,-0.6547165,0.6622429,-0.633311,-1.4320755,7.376213,1.8133754,1.400795,-18.727703,-0.15071869,-0.064201355,3.5309372,-1.1676775,-1.7577744,-2.5018692,1.8363674,-0.14148712,-13.050125,0.08106232,-0.035209656,0.5169754,-1.4386632,-0.8562851,1.9513245,1.8806432,1.672554,1.039444,0.0,0.0,0.0,0.0,0.0,0.0,0.0,0.0,0.0,0.0,0.0,0.0,-0.9965663,0.19018665,0.99941844,-0.08044832,-0.45753846,-0.99964345,-0.018355438,-0.9687092,-0.9991865,0.9985164,-0.936447,0.9976436
2025-06-04 17:24:35.215,1.50697,-2.509849,-169.55792,0.60608256,-1.6957645,0.1785725,2.526541,1.712825,11.936876,-0.023231506,-1.1832047,-0.028686523,-1.1652361,2.7963676,-0.19592667,1.9806957,0.72948456,0.4339676,0.076408386,-0.008430481,-3.4747849,-0.7877299,-2.061123,-8.603035,1.8258113,-0.46245575,-10.80888,-0.13950348,0.15247345,5.590294,-1.2659441,-2.3377647,1.3397408,1.8281276,-0.029258728,-13.189289,0.09723663,0.76847076,-2.8607597,-1.4727666,-2.1292534,10.591593,1.9451879,0.33557892,3.7457848,0.0,0.0,0.0,0.0,0.0,0.0,0.0,0.0,0.0,0.0,0.0,0.0,-0.9940488,0.39291573,0.99864584,-0.57944,-0.8050236,-0.99857134,0.8220576,-0.92855245,-0.99830955,0.9990978,-0.7501484,0.9971879
2025-06-04 17:24:35.266,3.003916,-5.203252,-169.55318,0.251552,-0.36674362,-0.2538405,2.672986,0.307076,9.511129,-0.051460266,-0.8899307,-0.16174698,-1.0267588,2.5183525,-0.84046555,2.0086956,0.54180145,0.48401642,0.06587982,-0.53577423,-4.052185,-0.89675397,-1.7811203,-14.283054,1.8191737,-0.04299164,-12.5813675,-0.111579895,0.24105072,7.537346,-1.3354479,-1.4825821,0.5841141,1.7926509,-0.867424,-8.206303,0.10997772,0.35251617,-2.2955666,-1.5100744,0.012245178,7.183338,1.9479345,0.4215622,3.548027,0.0,0.0,0.0,0.0,0.0,0.0,0.0,0.0,0.0,0.0,0.0,0.0,-0.99361306,0.6432374,0.9975009,-0.784741,-0.89840055,-0.9970804,0.9771347,-0.86589813,-0.99613523,0.9991885,-0.23513912,0.9986434
2025-06-04 17:24:35.317,3.528247,-5.944407,-170.76881,-0.08246134,0.18546684,-0.56341076,-0.634629,0.845382,8.619948,-0.06977081,0.356102,-2.157627,-0.8962199,2.0407524,-0.83680344,2.0275402,0.30086517,0.25696182,0.04009247,-0.69301605,-2.056305,-0.9732005,-1.5060043,-14.289158,1.8299311,0.08205414,-13.836269,-0.090293884,0.5158615,6.9147797,-1.3854967,-0.91632843,2.564125,1.7381008,-1.2377548,-3.6285973,0.121421814,-0.55438995,-0.19104385,-1.4517858,1.7690659,6.3092995,1.9503759,-0.006904602,4.8541985,0.0,0.0,0.0,0.0,0.0,0.0,0.0,0.0,0.0,0.0,0.0,0.0,-0.99525166,0.856398,0.9881924,-0.82509804,-0.9354924,-0.9970108,0.9734104,-0.7504295,-0.9860712,0.9987305,0.62542236,0.99793273
2025-06-04 17:24:35.368,2.714709,-4.962244,-172.85239,-1.181441,0.9576657,-0.8470905,3.007677,7.136921,12.62663,-0.07663727,-0.019264221,-3.80682,-0.7755229,1.6934586,1.2591743,2.037611,0.14461517,0.3216591,-0.0018692017,-0.8587265,-0.08850098,-1.0360667,-1.5539932,-12.472725,1.8458766,0.10196686,-14.406349,-0.07030487,0.66295624,5.027542,-1.4182268,-0.84049225,5.9760437,1.6703517,-1.3611221,-0.2508583,0.13080597,-0.13362885,0.0982666,-1.2409856,5.6477013,-0.285038,1.9660162,1.1589432,0.37781525,0.0,0.0,0.0,0.0,0.0,0.0,0.0,0.0,0.0,0.0,0.0,0.0,-0.9981681,0.9703302,0.52751684,-0.9542201,-0.89465415,-0.9816764,0.92495954,-0.8218548,-0.97253525,0.9943116,0.9404575,0.9473529
2025-06-04 17:24:35.418,1.712092,-4.501276,-173.97995,-0.63029444,0.40425298,-0.30379358,2.202584,2.061602,12.261729,-0.08113861,0.33634186,-2.449379,-0.6772563,1.3149643,0.30823135,2.0057201,-0.7101822,-0.08850098,-0.015678406,-0.29132843,-2.6617851,-1.1186167,-1.3324356,-7.5300217,1.8485469,-0.110054016,-13.481041,-0.05443573,0.04070282,6.2604713,-1.4687334,-1.0362625,7.675289,1.618243,-0.97263336,0.31799698,0.12615204,-0.119895935,-0.00061035156,-0.99509025,4.9612846,-1.4996567,1.9873022,0.69957733,0.39246368,0.0,0.0,0.0,0.0,0.0,0.0,0.0,0.0,0.0,0.0,0.0,0.0,-0.9986161,0.97143835,-0.95092756,-0.9076759,-0.8519378,0.019378377,0.5839652,-0.9397348,-0.98575985,0.9806847,0.8814129,-0.63337374
2025-06-04 17:24:35.470,0.899161,-4.401492,-174.1427,-0.32337546,0.35714337,0.019351285,-1.243831,-2.504646,1.532616,-0.09685516,-0.61382294,2.3028908,-0.6153056,0.7456589,-0.8599968,1.8551922,-3.0020561,-1.1383247,-0.016212463,-0.398674,-2.4713516,-1.2085711,-1.2504959,-4.448921,1.8801326,0.83286285,-7.3334846,-0.046424866,0.7200241,2.9401093,-1.518706,-0.015830994,3.1976814,1.5758998,-0.6859207,1.7364769,0.12340546,-0.07129669,-0.19348526,-0.86287284,0.7944107,9.394064,1.906278,-1.4988327,-5.4316025,0.0,0.0,0.0,0.0,0.0,0.0,0.0,0.0,0.0,0.0,0.0,0.0,-0.96742016,0.529909,-0.9981726,0.6744417,-0.14418365,0.99951047,-0.8513566,-0.9800483,-0.9662864,0.18996184,-0.8315937,-0.9888536
2025-06-04 17:24:35.520,-2.531834,-0.121306,-175.31271,0.17476478,0.28761262,-0.04510812,-6.01288,-0.840896,24.566969,-0.121269226,0.25470734,0.19958878,-0.6658122,-1.694603,3.7665367,1.8506908,0.6303024,-16.816053,-0.0052261353,0.3319168,2.1893654,-1.2154375,-0.2640152,7.8779297,1.9474238,0.070762634,5.1898994,-0.0497818,-0.5702591,-0.1324501,-1.5132128,-0.41973114,4.002136,1.5557582,-0.37319183,0.9625397,0.11638641,0.21411896,-6.8818207,-0.97754264,-2.046856,-10.92485,1.8578314,0.023612976,-14.358738,0.0,0.0,0.0,0.0,0.0,0.0,0.0,0.0,0.0,0.0,0.0,0.0,-0.4019829,-0.33662137,-0.9968519,0.9611178,0.8417954,0.9956606,-0.914749,-0.98773,-0.75860596,-0.8946551,-0.94359946,-0.99875873
2025-06-04 17:24:35.572,-4.39633,-2.383002,-174.49442,-0.75799793,-1.3502482,0.5002252,2.82381,-1.34318,9.75848,-0.09616852,0.40210724,0.5487137,-0.79726666,-1.888237,-9.093767,1.8461895,-0.6277847,-11.132372,0.026512146,0.17520905,0.62073517,-0.98777264,4.276699,-1.0687408,1.9865626,0.81401825,0.028686523,-0.0825119,-1.0285568,3.5248337,-1.5798937,-1.3223648,11.071335,1.5330226,-0.53188324,5.3302803,0.090065,-0.45101166,-5.5133896,-1.0954168,-2.3437157,-5.662319,1.8537115,-0.18520355,-13.321125,0.0,0.0,0.0,0.0,0.0,0.0,0.0,0.0,0.0,0.0,0.0,0.0,0.1858245,-0.7896674,-0.9992047,0.9660828,0.9251995,0.9883306,-0.8977369,-0.8654629,0.366928,-0.83750093,-0.9433797,-0.9939372
2025-06-04 17:24:35.622,-6.044922,-5.071371,-173.01958,-0.26477706,-0.6748003,0.3619707,2.68957,-0.902832,7.749971,-0.07183075,0.5044174,2.1466408,-0.90339154,-2.0080986,-12.271305,1.8229961,-0.12897491,-12.168764,0.050468445,0.09235382,0.9015045,-0.81260175,3.0047264,-0.64149094,2.0115871,0.54309845,0.5230789,-0.10997772,-0.15476227,1.3434029,-1.6161333,-0.56308746,11.709774,1.5683467,0.88687897,10.729534,0.06275177,-0.5825424,-4.834667,-1.2042882,-1.9953537,-2.5787735,1.8292974,-0.5132675,-10.780804,0.0,0.0,0.0,0.0,0.0,0.0,0.0,0.0,0.0,0.0,0.0,0.0,0.5763736,-0.929742,-0.99958336,0.99217564,0.96647745,0.9540443,-0.95690125,-0.043293104,0.98803484,-0.50975347,-0.9063894,-0.9551738
2025-06-04 17:24:35.673,-6.279548,-5.843907,-171.60236,0.55756694,0.41776043,0.6788414,2.018883,-2.045691,8.737757,-0.033683777,1.2662125,-1.1834908,-0.98510236,-1.2104416,-16.022583,1.8253613,0.35686493,-14.4832535,0.07007599,0.002708435,1.2542915,-0.70174664,1.5004349,0.19348526,2.0254726,0.3306198,0.5621414,-0.12477875,0.32375336,0.95399475,-1.547011,2.5397148,12.736401,1.6615016,1.7690659,8.70924,0.057792664,-0.2109909,-4.638134,-1.274555,-1.1324692,-2.3492775,1.7890142,-1.2009811,-6.081024,0.0,0.0,0.0,0.0,0.0,0.0,0.0,0.0,0.0,0.0,0.0,0.0,0.70709103,-0.9086371,-0.9978642,0.9942215,0.97597665,0.4261564,-0.98361224,0.37871993,0.9950901,-0.3650107,-0.880966,-0.93303865
2025-06-04 17:24:35.724,-4.559642,-4.457305,-169.45578,0.75697225,0.5156545,0.8291275,-0.16702,-2.020073,6.875721,0.021781921,1.1040115,-2.531166,-1.0446116,-1.2983322,-12.212711,1.8400097,-0.0049209595,-13.831388,0.076179504,0.07160187,1.411766,-0.6304881,0.76351166,-0.23132706,1.9890803,-0.60619354,-0.40345,-0.13080597,1.3741684,-0.46570587,-1.3900744,2.1373405,12.071106,1.7519863,0.0024795532,12.414131,0.05558014,-0.118522644,-3.4918747,-1.3274267,-0.7203293,-0.4388504,1.7366766,-1.0472488,-3.3051033,0.0,0.0,0.0,0.0,0.0,0.0,0.0,0.0,0.0,0.0,0.0,0.0,0.7315104,-0.88036406,-0.9522471,0.98905647,0.9725862,-0.8000976,-0.9932782,0.59655285,0.97193986,0.048285976,-0.9396513,-0.810428
2025-06-04 17:24:35.775,-1.859813,-3.125764,-167.05875,1.4758775,0.5093274,0.5806209,0.935115,-5.778352,8.614352,0.06565094,0.38516998,-2.4896622,-1.1128947,-1.6669846,-7.064926,1.8420696,0.0065231323,-13.29549,0.07732391,-0.7479477,2.875412,-0.5898997,0.69423676,0.92103577,1.8506831,-3.0305138,0.38147736,-0.13248444,0.33657074,0.45716095,-1.1956774,3.677639,5.474327,1.8349178,1.6666031,3.0792694,0.056037903,-0.14957428,-1.7303734,-1.395786,-1.6321182,4.24506,1.698377,-0.56224823,-2.1258888,0.0,0.0,0.0,0.0,0.0,0.0,0.0,0.0,0.0,0.0,0.0,0.0,0.12410835,-0.78255576,0.91831386,0.97149354,0.9649455,-0.998023,-0.9897006,0.17141804,-0.70667803,0.84418494,-0.98956245,0.7624917
2025-06-04 17:24:35.826,0.374163,-2.188242,-166.59877,1.2748631,1.2200323,-0.09922986,-1.747975,-1.436509,-0.801082,0.059394836,-0.08434296,-0.6610222,-1.2088763,-1.6238022,-0.42542267,1.9206524,1.7809677,-0.88075256,0.09952545,1.7284012,-6.4435806,-0.56785077,-0.4390335,3.740902,1.7591304,2.1257439,-18.495766,-0.13355255,-0.3232193,2.2552834,-1.1140391,0.5082321,6.3459206,1.7836483,-1.2460709,-2.2504005,0.06549835,-0.1620102,1.6986351,-1.4510229,-0.44986725,0.74403,1.7871069,2.1352806,0.5865555,0.0,0.0,0.0,0.0,0.0,0.0,0.0,0.0,0.0,0.0,0.0,0.0,-0.97793597,0.14535211,0.9995006,0.21031408,0.11482532,-0.9998024,-0.24609922,-0.93109185,-0.9991867,0.99859536,-0.908296,0.99951476
2025-06-04 17:24:35.877,1.092717,1.499078,-166.31508,0.12478006,0.60721207,0.30853,-8.443562,6.899163,17.222698,0.0422287,-0.35007477,-5.056839,-1.2686144,-1.0559464,4.469673,1.9773388,0.71575165,-0.036010742,0.11013031,-0.29254913,-1.9879456,-0.61622113,-0.6962204,0.84290695,1.8508357,0.61992645,-17.004044,-0.16208649,-0.028877258,6.2629128,-1.0991617,-0.046424866,-1.9024963,1.7398555,-1.0029984,-2.5128555,0.066185,0.13889313,1.1981392,-1.4530065,0.22830963,0.103149414,1.869428,1.3668442,0.8502312,0.0,0.0,0.0,0.0,0.0,0.0,0.0,0.0,0.0,0.0,0.0,0.0,-0.9952779,0.22456467,0.9985872,-0.6109857,-0.5191619,-0.99862313,0.65743953,-0.95416033,-0.99896675,0.998535,-0.8998703,0.9977926
2025-06-04 17:24:35.928,1.546898,0.181424,-164.9601,0.39514086,-1.8518466,0.48135865,4.42796,-1.809217,10.814541,-0.0022506714,-0.57071686,-1.9916077,-1.1171671,2.3543968,-0.252079,2.0022106,0.40439606,0.9051666,0.082969666,0.35114288,-8.321051,-0.7638499,-2.798275,-10.797894,1.8390101,-0.78762054,-10.160679,-0.15361786,0.08029938,9.495384,-1.2216936,-2.6662102,0.016479492,1.7432125,0.5035019,-11.624323,0.08922577,-0.050849915,0.35950089,-1.4525487,0.6586075,-0.14343643,1.9447302,1.0132217,0.60608673,0.0,0.0,0.0,0.0,0.0,0.0,0.0,0.0,0.0,0.0,0.0,0.0,-0.9967842,0.6225741,0.9972852,-0.92309767,-0.7932918,-0.9949707,0.9791427,-0.94103754,-0.99859744,0.9990557,-0.6699211,0.99779385
2025-06-04 17:24:35.979,3.995969,-4.790066,-164.62471,0.15073098,-0.2475656,-0.13594829,2.124795,-1.490674,8.250314,-0.046653748,-0.22525787,-0.63904953,-0.9540507,2.514309,-0.44617462,2.0252514,0.30757904,0.3265419,0.08892059,-0.35518646,-6.3617897,-0.88950604,-1.3537979,-16.117798,1.8207759,-0.057411194,-12.422676,-0.12981415,0.67897797,8.587168,-1.3273607,-1.5667343,-0.08117676,1.7403133,-0.57476044,-6.237278,0.107688904,0.1568985,-0.5047684,-1.4815404,0.15110016,6.909897,1.9663213,0.05794525,4.1901283,0.0,0.0,0.0,0.0,0.0,0.0,0.0,0.0,0.0,0.0,0.0,0.0,-0.9958735,0.76427245,0.9916061,-0.9291457,-0.87579894,-0.9924719,0.989439,-0.8665931,-0.995849,0.9988882,-0.041430652,0.99744576
2025-06-04 17:24:36.030,3.770844,-5.067805,-166.85454,-0.42135623,0.23976043,-1.0223376,2.40631,3.056106,11.145583,-0.064964294,-0.13561249,-1.3043404,-0.8244273,1.8645859,0.23865128,2.0360851,0.053215027,0.9710846,0.044288635,-1.1697769,-1.682766,-0.951533,-0.97408295,-16.405891,1.8361872,0.7478714,-15.861446,-0.10746002,0.5138016,7.841305,-1.3870226,-1.1804581,4.3085365,1.6929348,-0.9647751,-2.7142754,0.12584686,0.58330536,-4.04364,-1.4149358,1.3734055,13.02327,1.9568609,-0.021629333,5.512169,0.0,0.0,0.0,0.0,0.0,0.0,0.0,0.0,0.0,0.0,0.0,0.0,-0.9954175,0.8966046,0.9710641,-0.8047702,-0.9412111,-0.99639124,0.95814985,-0.67540073,-0.97680503,0.9980774,0.75605154,0.99616086
2025-06-04 17:24:36.081,2.744675,-4.124758,-169.39754,-0.9463306,0.88379586,-0.931448,0.413741,6.076207,13.76202,-0.07030487,0.13339996,-1.7218285,-0.7239482,1.5549088,0.3216591,2.0395947,0.20488739,0.6243973,-0.0030899048,-0.4830551,-1.2518501,-1.0040995,-1.1686325,-14.496681,1.8606013,0.14377594,-15.252308,-0.080451965,0.16513824,6.254368,-1.416701,-0.6637955,8.004883,1.6381557,-0.9503555,-0.2862587,0.1342392,0.170784,-1.8487816,-1.1971929,4.0247765,7.5751877,1.965711,0.29209137,3.6469078,0.0,0.0,0.0,0.0,0.0,0.0,0.0,0.0,0.0,0.0,0.0,0.0,-0.996547,0.9715838,0.4245692,-0.8281876,-0.9349679,-0.9896052,0.74944633,-0.7034981,-0.9304418,0.9924056,0.96965903,0.9364009
2025-06-04 17:24:36.133,1.921846,-3.943071,-170.67247,-0.281378,-0.20966515,0.07167044,0.238469,2.906916,9.205939,-0.07518768,-0.0004196167,-1.3934555,-0.6458232,1.4638901,-0.44983673,1.9965649,-0.7677078,0.12756729,-0.013313293,0.21251678,-4.022888,-1.0890146,-2.1261253,-7.40551,1.8613642,-0.037574768,-14.270847,-0.06816864,0.10204315,6.028534,-1.4654528,-1.1128616,10.473183,1.5920742,-1.0196304,2.2870216,0.12180328,-0.39600372,1.5240707,-0.9502294,4.5171013,-0.033569336,1.9883703,0.42476654,1.0748444,0.0,0.0,0.0,0.0,0.0,0.0,0.0,0.0,0.0,0.0,0.0,0.0,-0.99715537,0.97506547,-0.93853426,-0.6965474,-0.9118468,-0.41578814,-0.04532887,-0.9028559,-0.964618,0.9773714,0.94505155,-0.61204004
2025-06-04 17:24:36.183,1.505241,-4.463488,-169.79478,-1.0165249,0.68022436,0.052360453,-1.403743,0.145351,3.968873,-0.0951004,-0.15476227,1.0626373,-0.596461,0.702858,0.049438477,1.8437481,-3.1309166,-0.27283096,-0.0030899048,-0.55683136,-1.072403,-1.1781298,-0.5437851,-9.545433,1.8702143,0.60726166,-10.829632,-0.07900238,0.59978485,2.383461,-1.5146624,0.16757965,3.3331795,1.5559108,-0.29521942,1.0431061,0.11638641,-0.28728485,1.2555122,-0.8393743,0.72223663,10.609903,1.9113134,-1.9159317,-4.8090324,0.0,0.0,0.0,0.0,0.0,0.0,0.0,0.0,0.0,0.0,0.0,0.0,-0.9675522,0.6683807,-0.9988379,0.56427616,-0.20852204,0.99853873,-0.9328408,-0.9762641,-0.97308266,0.37236637,-0.76977277,-0.99057174
