openverse-orca/OrcaGym/envs/legged_gym/legged_real_env/logs/robot_log_20250604_172323.csv
timestamp,imu_angle_roll,imu_angle_pitch,imu_angle_yaw,imu_angular_velocity_roll,imu_angular_velocity_pitch,imu_angular_velocity_yaw,imu_acc_x,imu_acc_y,imu_acc_z,fl_joint1_pos,fl_joint1_vel,fl_joint1_torque,fl_joint2_pos,fl_joint2_vel,fl_joint2_torque,fl_joint3_pos,fl_joint3_vel,fl_joint3_torque,fr_joint1_pos,fr_joint1_vel,fr_joint1_torque,fr_joint2_pos,fr_joint2_vel,fr_joint2_torque,fr_joint3_pos,fr_joint3_vel,fr_joint3_torque,hl_joint1_pos,hl_joint1_vel,hl_joint1_torque,hl_joint2_pos,hl_joint2_vel,hl_joint2_torque,hl_joint3_pos,hl_joint3_vel,hl_joint3_torque,hr_joint1_pos,hr_joint1_vel,hr_joint1_torque,hr_joint2_pos,hr_joint2_vel,hr_joint2_torque,hr_joint3_pos,hr_joint3_vel,hr_joint3_torque,fl_force_x,fl_force_y,fl_force_z,fr_force_x,fr_force_y,fr_force_z,hl_force_x,hl_force_y,hl_force_z,hr_force_x,hr_force_y,hr_force_z,fl_hip_action,fl_thigh_action,fl_calf_action,fr_hip_action,fr_thigh_action,fr_calf_action,hl_hip_action,hl_thigh_action,hl_calf_action,hr_hip_action,hr_thigh_action,hr_calf_action
2025-06-04 17:23:44.024,-0.517384,-0.519303,5.794738,0.0011871206,-0.0008158018,0.00042289327,0.086032,-0.073246,9.791225,-0.013160706,-0.025596619,0.54016876,-0.988383,-0.012016296,-0.30456924,1.9029522,0.019111633,-4.7724113,0.012245178,0.002784729,-0.5914383,-0.9873912,0.008811951,-0.2887001,1.9047755,0.030326843,-4.8053703,-0.012016296,-0.016365051,0.58045197,-0.9735057,-0.050697327,-0.9637604,1.9308193,0.0060653687,-6.012665,0.015449524,0.011405945,-0.6610222,-0.98112845,0.0049972534,-0.53772736,1.9269537,0.0598526,-5.773403,0.0,0.0,0.0,0.0,0.0,0.0,0.0,0.0,0.0,0.0,0.0,0.0,-0.2311157,0.6530796,0.11462975,0.30501238,0.32632655,-0.30445215,-0.81674486,-0.40762717,-0.6937227,-0.21653296,0.096186005,-0.8677641
2025-06-04 17:23:44.075,-0.901196,-0.222144,5.765702,-0.43797156,0.30836222,-0.071928,-0.725866,1.094032,14.16453,-0.025520325,-0.123558044,0.3997879,-0.94474286,0.78258514,9.080338,1.8976116,-0.49983978,-0.91371155,0.0118637085,-0.05756378,1.5631332,-0.95389813,0.6373215,2.711834,1.8808192,-0.8099747,-4.232853,-0.029640198,-0.22480011,-1.4715805,-0.9833476,0.07976532,-9.944611,1.9064052,-0.8509445,-9.813993,0.006980896,-0.10494232,-0.3265419,-0.9538152,0.6683731,-3.4406052,1.8834661,-1.0203171,-9.97879,0.0,0.0,0.0,0.0,0.0,0.0,0.0,0.0,0.0,0.0,0.0,0.0,-0.49154174,0.7287575,-0.7548161,0.16055945,-0.123326726,0.009643043,-0.9188104,-0.9110652,-0.110765934,-0.81857526,-0.50360286,-0.6766916
2025-06-04 17:23:44.126,-1.283557,-0.747916,5.983765,0.069003634,-0.875344,0.32373664,-0.48696,-1.544753,10.939157,-0.033988953,-0.11264801,-0.42786407,-0.92460126,-0.12607574,11.66827,1.8214703,-1.4818954,-3.6554527,0.004234314,0.012245178,0.6707878,-0.9846446,-0.80524445,-0.19958878,1.8532771,-0.5361557,-0.010375977,-0.048713684,-0.46596527,-0.10192871,-1.090388,-2.154583,-6.5217056,1.9007595,-0.044822693,-5.8051414,-0.0073623657,-0.3219223,-2.0990295,-0.9978368,-1.0743332,-6.2836647,1.8748449,0.045051575,-11.598686,0.0,0.0,0.0,0.0,0.0,0.0,0.0,0.0,0.0,0.0,0.0,0.0,-0.5150951,0.6826172,-0.94205624,0.56752944,0.15737683,0.102209926,-0.83840716,-0.96129483,-0.5214536,-0.81566477,-0.4679507,-0.88767254
2025-06-04 17:23:44.177,-1.962071,-3.324164,7.17709,-0.12360662,-0.7676294,0.1926537,2.120692,-1.257297,10.122611,-0.034370422,-0.067481995,-0.7476921,-0.91346234,0.19870758,10.185093,1.741972,-1.6314316,-1.4923325,0.018119812,0.14263153,0.6024246,-0.9631297,0.7739639,-0.80628586,1.8446559,-0.061531067,-0.42420197,-0.07022858,-0.11493683,0.64515305,-1.1643206,-1.0613632,-8.382086,1.8834407,-0.3646469,-8.413824,-0.027198792,-0.4227829,-1.5191879,-1.0452154,-0.7590866,-4.3549232,1.870725,-0.16544342,-13.307697,0.0,0.0,0.0,0.0,0.0,0.0,0.0,0.0,0.0,0.0,0.0,0.0,-0.53121054,0.67686135,-0.94059944,0.72059953,0.20118558,0.030865768,-0.784695,-0.9577537,-0.20968103,-0.8817203,-0.5195218,-0.8375101
2025-06-04 17:23:44.228,-2.35926,-5.224033,7.317896,-0.20959274,-0.4898403,-0.013328155,0.621899,0.234632,7.053024,-0.04245758,-0.13217926,0.103149414,-0.9090373,0.12805939,10.358433,1.6717815,-1.0136795,-1.432518,0.034446716,0.23777008,0.95155334,-0.9381816,0.21587372,-0.040893555,1.8359584,-0.2375412,-0.58167267,-0.07740021,-0.16170502,0.35461807,-1.2326037,-1.1988449,-5.032425,1.8739803,-0.20389557,-4.9555206,-0.043296814,-0.31497955,-1.0553131,-1.0804632,-0.3573227,-5.2057686,1.8636297,-0.17284393,-12.329899,0.0,0.0,0.0,0.0,0.0,0.0,0.0,0.0,0.0,0.0,0.0,0.0,-0.5594448,0.6609744,-0.9607541,0.7743546,0.4743807,-0.23760833,-0.7677594,-0.9472909,-0.098984025,-0.93519,-0.51701534,-0.829583
2025-06-04 17:23:44.279,-2.779624,-6.082424,7.534227,-0.07344258,-0.17632076,0.11659646,0.658273,-0.213088,7.991314,-0.049858093,-0.10951996,-0.09094238,-0.907664,0.03490448,9.947052,1.6416454,-0.25455475,-2.986496,0.046272278,0.08213043,0.8111687,-0.87539166,1.1916733,-0.7843132,1.803686,-0.52547455,-0.29724503,-0.07839203,0.031929016,-0.111694336,-1.29135,-1.1524582,-2.9877167,1.8654354,-0.15644073,-3.0328827,-0.054969788,-0.087623596,-1.2664986,-1.1007574,-0.23952484,-5.018997,1.8608831,0.014305115,-12.582588,0.0,0.0,0.0,0.0,0.0,0.0,0.0,0.0,0.0,0.0,0.0,0.0,-0.6851654,0.5970715,-0.9714508,0.7528614,0.62630427,-0.45274657,-0.6963581,-0.9351415,0.058329243,-0.95805186,-0.5505891,-0.7707817
2025-06-04 17:23:44.330,-2.963801,-6.201973,8.110551,-0.08449575,0.018553635,0.26784664,0.56795,-0.47859,9.1219,-0.054359436,-0.06816864,-0.6243973,-0.90468854,0.1429367,7.848629,1.6380596,0.0017929077,-4.361027,0.051078796,0.13698578,0.9393463,-0.80626935,1.1325455,-0.33386612,1.7608088,-0.6441879,-0.49988556,-0.07434845,0.039711,-0.14953995,-1.3397204,-0.7014084,-1.0113678,1.8571956,-0.26584625,-0.91249084,-0.06717682,-0.14667511,-0.3216591,-1.1125829,-0.2022171,-5.912567,1.8609594,0.014305115,-11.9331665,0.0,0.0,0.0,0.0,0.0,0.0,0.0,0.0,0.0,0.0,0.0,0.0,-0.83074474,0.54556364,-0.97728664,0.75785697,0.7368725,-0.6533644,-0.5961367,-0.92605966,0.10058512,-0.9741841,-0.54878366,-0.74125534
2025-06-04 17:23:44.381,-3.286506,-6.176718,8.920892,-0.0944467,-0.024578216,0.24242613,0.843431,-0.916506,9.880098,-0.057792664,-0.012168884,-0.7550163,-0.8991954,0.06397247,6.884262,1.6388226,0.022315979,-4.3903275,0.05344391,-0.03780365,0.7733269,-0.7415721,1.1237717,-0.42176056,1.7126673,-0.78510284,-0.10437012,-0.068244934,0.010719299,0.05432129,-1.372603,-0.33283234,-1.6522484,1.8523891,-0.035057068,-0.99305725,-0.08136749,-0.45528412,0.330204,-1.1212804,-0.12683868,-5.6195908,1.8641638,0.07053375,-12.030823,0.0,0.0,0.0,0.0,0.0,0.0,0.0,0.0,0.0,0.0,0.0,0.0,-0.9100852,0.5117562,-0.9796272,0.76574785,0.7870565,-0.7550645,-0.46815977,-0.9220393,0.103834726,-0.98369515,-0.56554335,-0.7174332
2025-06-04 17:23:44.432,-3.587799,-6.353039,9.384741,-0.040835414,-0.0649492,0.02812914,1.241379,-0.669587,9.218956,-0.061073303,-0.13408661,-1.2677193,-0.897288,0.026664734,6.486305,1.6383648,-0.03314972,-4.3891068,0.056495667,0.09143829,0.76356125,-0.6931254,0.6874466,-0.23620987,1.6729182,-0.5854416,-0.54016876,-0.06481171,0.03742218,0.7000847,-1.3867174,-0.08907318,-1.8902893,1.8529994,0.055885315,-1.3372993,-0.09113312,0.013694763,-0.14587784,-1.1287572,-0.13469696,-5.8173485,1.8708776,0.15575409,-12.375069,0.0,0.0,0.0,0.0,0.0,0.0,0.0,0.0,0.0,0.0,0.0,0.0,-0.9348253,0.5076094,-0.97891563,0.7813845,0.8160233,-0.81241935,-0.34487092,-0.91590035,0.08296093,-0.98808765,-0.5854678,-0.69490993
2025-06-04 17:23:44.483,-3.482616,-6.476316,9.151912,0.06608803,0.010937961,-0.1490286,1.461984,-0.922142,9.401459,-0.06427765,-0.03139496,-1.0052643,-0.8998057,-0.064201355,6.7646294,1.6382122,0.03665924,-4.5062943,0.05870819,0.012016296,0.84656906,-0.65757245,0.6328201,-0.21545792,1.6420954,-0.3142166,-0.5853348,-0.058937073,0.110588074,0.31433487,-1.3936602,-0.39020538,-0.99916077,1.8550594,0.07900238,-1.7438011,-0.091285706,0.08464813,-0.79529953,-1.1321905,0.0064468384,-6.6413383,1.8793463,0.07022858,-12.265202,0.0,0.0,0.0,0.0,0.0,0.0,0.0,0.0,0.0,0.0,0.0,0.0,-0.94609857,0.47753862,-0.97816896,0.79848737,0.83351123,-0.83335406,-0.21188109,-0.9085565,0.093269736,-0.9894436,-0.584885,-0.65759337
2025-06-04 17:23:44.534,-3.285328,-6.466546,8.757578,0.059633482,0.032784577,-0.12276923,1.42183,-0.754029,9.629982,-0.068626404,-0.08640289,-0.99305725,-0.9054515,-0.06175995,6.430153,1.6382885,0.00919342,-4.491646,0.06061554,0.08869171,0.84046555,-0.634608,0.2450943,-0.023803711,1.6202754,-0.25470734,-0.3656044,-0.051612854,0.060386658,0.9649811,-1.3993822,-0.22403717,-1.3031197,1.8559749,-0.040245056,-1.4398422,-0.08823395,0.051002502,-0.8990631,-1.1331823,-0.104789734,-6.507057,1.8840765,0.0447464,-11.885559,0.0,0.0,0.0,0.0,0.0,0.0,0.0,0.0,0.0,0.0,0.0,0.0,-0.95450556,0.44207942,-0.9783023,0.8302552,0.8511283,-0.84431326,-0.10392073,-0.8903381,0.16394383,-0.9904237,-0.5680727,-0.6011596
2025-06-04 17:23:44.585,-3.052174,-6.33764,8.395195,0.07263636,0.06510814,-0.1385417,0.93415,-0.571424,9.475825,-0.07396698,-0.08480072,-0.5658035,-0.9117839,-0.18611908,6.126194,1.6384411,-0.04169464,-4.507515,0.06259918,0.008125305,0.9051666,-0.61713666,0.3271103,-0.34607315,1.6062373,-0.21656036,-0.285038,-0.043754578,0.07953644,0.940567,-1.4031206,-0.04299164,-0.84778976,1.8561275,0.016365051,-0.58167267,-0.08640289,0.18444061,-1.0235748,-1.1338689,-0.012779236,-6.0712585,1.889417,0.090065,-11.708553,0.0,0.0,0.0,0.0,0.0,0.0,0.0,0.0,0.0,0.0,0.0,0.0,-0.9619427,0.4067383,-0.98065484,0.869941,0.876335,-0.8506396,-0.039352663,-0.8610867,0.27925795,-0.99183756,-0.5492221,-0.5338183
2025-06-04 17:23:44.636,-2.730579,-6.167464,7.989985,0.102820836,0.060922217,-0.13656063,0.794115,-0.744077,9.603384,-0.07900238,-0.14133453,-0.6646843,-0.91819257,-0.18527985,5.508507,1.639204,0.002784729,-4.581978,0.06580353,0.15232086,0.87586975,-0.6014964,0.14522552,-0.0018310547,1.5964717,-0.14354706,-0.41443634,-0.03429413,0.21762848,0.76356125,-1.4057909,-0.04261017,-0.07141113,1.8612392,0.0749588,0.083618164,-0.08388519,0.024375916,-1.0711823,-1.1363866,-0.07022858,-5.281452,1.8994116,0.17131805,-11.321583,0.0,0.0,0.0,0.0,0.0,0.0,0.0,0.0,0.0,0.0,0.0,0.0,-0.96750045,0.38154483,-0.9830846,0.8986856,0.90160435,-0.86445665,-0.024960533,-0.8248075,0.37327382,-0.99315447,-0.53942835,-0.48047987
2025-06-04 17:23:44.687,-2.231346,-5.988,7.564345,0.1589836,0.05847963,-0.13550206,0.698118,-0.627464,9.571041,-0.08358002,-0.09616852,-0.39246368,-0.92338055,-0.082206726,4.8505363,1.6409588,0.010261536,-4.9396515,0.068626404,0.03353119,0.95033264,-0.58684796,0.35678864,-0.20569229,1.5906733,-0.10456085,-0.5914383,-0.026359558,0.18817902,0.37170792,-1.4043413,0.16414642,0.19836807,1.8726833,0.109443665,0.5157547,-0.0812912,0.05405426,-1.096817,-1.1408117,-0.09693146,-5.0104523,1.9133734,0.33687592,-11.769588,0.0,0.0,0.0,0.0,0.0,0.0,0.0,0.0,0.0,0.0,0.0,0.0,-0.97058207,0.37118858,-0.9840271,0.9103909,0.91970974,-0.88740283,-0.04211602,-0.8029172,0.39253888,-0.99381936,-0.5387192,-0.45971492
2025-06-04 17:23:44.738,-1.802582,-5.725252,7.218341,0.14170812,0.09897469,-0.10290559,0.848635,-0.396178,10.012316,-0.08937836,-0.069236755,-0.16174698,-0.9243724,-0.035057068,4.5453568,1.6446209,0.0712204,-4.982376,0.07061005,0.08281708,0.84534836,-0.57570904,0.24173737,-0.04699707,1.5863246,-0.18482208,-0.5560379,-0.019340515,0.1656723,0.22644424,-1.3994585,0.22579193,0.1702919,1.8789394,0.07663727,0.6268425,-0.08144379,0.024375916,-0.80140305,-1.1409643,-0.011253357,-5.281452,1.9235204,0.2338028,-11.989319,0.0,0.0,0.0,0.0,0.0,0.0,0.0,0.0,0.0,0.0,0.0,0.0,-0.9722742,0.37285346,-0.9840272,0.9079946,0.92558914,-0.89950293,-0.054395292,-0.8044468,0.37280965,-0.9940327,-0.53539914,-0.4665754
2025-06-04 17:23:44.790,-1.383329,-5.466678,6.944889,0.14311208,0.10228221,-0.096962236,0.990065,-0.303437,9.794241,-0.09395599,-0.17139435,0.15320206,-0.9240672,0.05596161,4.5758743,1.646452,0.001411438,-4.9799347,0.07236481,0.0049209595,0.7013054,-0.5674693,0.07534027,0.00061035156,1.5815943,-0.044059753,-0.4742508,-0.014533997,0.10372162,0.0592041,-1.3950335,0.0009536743,-0.05065918,1.8812282,0.0548172,0.6707878,-0.08403778,-0.08975983,-0.6268425,-1.1411169,-0.015296936,-5.0959015,1.9348882,0.14881134,-12.34943,0.0,0.0,0.0,0.0,0.0,0.0,0.0,0.0,0.0,0.0,0.0,0.0,-0.9734766,0.36975524,-0.98349786,0.8999267,0.92325085,-0.9011141,-0.04209228,-0.8106523,0.36189806,-0.9937383,-0.5289358,-0.46737865
2025-06-04 17:23:44.843,-0.87738,-5.16089,6.664576,0.15391089,0.1091531,-0.09351937,1.110623,-0.107888,9.742105,-0.10082245,-0.22075653,0.50354767,-0.92360944,0.0090408325,4.5917435,1.6481304,0.061912537,-5.142292,0.072898865,-0.03177643,0.95643616,-0.5634257,0.08213043,0.12390137,1.5764827,-0.044898987,-0.31067276,-0.008277893,0.123786926,-0.38147736,-1.390761,0.02773285,-0.330204,1.88222,0.029945374,0.45716095,-0.08594513,-0.028953552,-0.592659,-1.1407354,0.05756378,-5.1288643,1.9450353,0.1128006,-12.622871,0.0,0.0,0.0,0.0,0.0,0.0,0.0,0.0,0.0,0.0,0.0,0.0,-0.9747356,0.36695883,-0.9836247,0.8987814,0.92282045,-0.8990244,-0.024298996,-0.80797875,0.38001066,-0.9936474,-0.51471037,-0.4597272
2025-06-04 17:23:44.895,-0.48576,-4.872936,6.431845,0.03123209,0.038693983,-0.031456575,0.68458,0.909734,10.440193,-0.10822296,-0.17024994,0.79774094,-0.9226176,0.17032623,4.080261,1.6475201,-0.010948181,-4.671093,0.07091522,-0.008354187,1.2445259,-0.5608317,-0.023231506,0.14587784,1.5785426,0.04802704,-0.9820709,-0.0011062622,0.059165955,-0.57312775,-1.3867937,0.022621155,-0.42908478,1.8846614,0.06412506,0.46936798,-0.09120941,-0.121650696,-0.08850098,-1.140888,-0.012168884,-4.606392,1.9503759,0.016593933,-12.334782,0.0,0.0,0.0,0.0,0.0,0.0,0.0,0.0,0.0,0.0,0.0,0.0,-0.97626454,0.3572737,-0.9835922,0.8985725,0.9236851,-0.89889365,-0.00030972064,-0.8021369,0.3879927,-0.9936038,-0.5027348,-0.4470424
2025-06-04 17:23:44.946,-0.403349,-4.74891,6.533057,-0.012325236,0.03347381,0.08355767,0.500156,0.859683,9.584834,-0.111198425,-0.0737381,0.56946564,-0.92071027,0.08922577,3.711605,1.6460705,-0.028419495,-4.9433136,0.06908417,-0.009269714,0.99061584,-0.5613658,0.00019073486,0.38758087,1.5806788,0.002708435,-0.84901047,0.0046920776,0.14034271,-0.5828934,-1.3832079,0.08937836,-0.5084305,1.8870265,0.091667175,0.48767853,-0.097465515,0.0020217896,0.30456924,-1.1422613,-0.039024353,-4.1681557,1.9503759,0.0025558472,-12.058899,0.0,0.0,0.0,0.0,0.0,0.0,0.0,0.0,0.0,0.0,0.0,0.0,-0.97686166,0.36005592,-0.9832964,0.9010935,0.92508245,-0.8983288,0.01804524,-0.7939015,0.39108586,-0.9938307,-0.5072237,-0.43568456
2025-06-04 17:23:44.997,-0.476096,-4.702139,6.786311,-0.038379353,-0.019348022,0.042369384,0.493762,-0.093604,9.735049,-0.110816956,0.013847351,0.23376846,-0.919337,0.07411957,3.9789429,1.6470623,0.04673004,-4.9897003,0.07007599,-0.015144348,0.8636589,-0.56182355,0.028800964,0.30823135,1.580221,-0.02483368,-0.7147331,0.008277893,0.04383087,-0.34485245,-1.3808428,0.0060653687,-0.1702919,1.8893154,0.0059127808,0.42786407,-0.10028839,-0.045890808,0.005493164,-1.1438634,0.0020980835,-4.3988724,1.9506811,-0.0004196167,-11.971008,0.0,0.0,0.0,0.0,0.0,0.0,0.0,0.0,0.0,0.0,0.0,0.0,-0.9773324,0.3599817,-0.9826785,0.90090865,0.925851,-0.89838296,0.045305286,-0.79446024,0.366734,-0.9939391,-0.5150866,-0.43409163
2025-06-04 17:23:45.048,-0.49323,-4.736738,6.767806,0.0030869464,-0.017021794,-0.04145656,0.835757,-0.212236,9.751445,-0.10921478,0.03528595,0.23254776,-0.91979474,-0.03627777,4.274357,1.6479015,-0.021858215,-4.9726105,0.070991516,-0.0075912476,0.99183655,-0.560908,0.009498596,0.2117958,1.5793818,-0.0065231323,-0.68177414,0.011253357,-0.016593933,-0.4400711,-1.3802325,0.04573822,-0.10192871,1.8900783,0.0014877319,0.19104385,-0.09967804,0.026817322,-0.27405167,-1.1434057,-0.001411438,-4.7187004,1.95091,0.016059875,-11.936829,0.0,0.0,0.0,0.0,0.0,0.0,0.0,0.0,0.0,0.0,0.0,0.0,-0.97747695,0.36041206,-0.98196095,0.900344,0.9248356,-0.89706194,0.083897635,-0.7950598,0.35846844,-0.9938808,-0.5143315,-0.42421943
2025-06-04 17:23:45.099,-0.506265,-4.770552,6.683199,0.006574027,-0.0031790996,-0.009992691,0.928672,-0.20949,9.704457,-0.10913849,0.005302429,0.20447159,-0.91979474,0.02117157,4.1205444,1.6482067,0.023155212,-4.9433136,0.071144104,0.03353119,0.9845123,-0.5602214,-0.0065994263,0.15808487,1.5790004,-0.0021743774,-0.65247726,0.013771057,-0.05542755,-0.3253212,-1.3807665,0.00019073486,-0.055541992,1.8903835,0.021476746,0.14709854,-0.098228455,0.02735138,-0.29602432,-1.142719,-0.040855408,-4.638134,1.9512914,-0.026741028,-11.828182,0.0,0.0,0.0,0.0,0.0,0.0,0.0,0.0,0.0,0.0,0.0,0.0,-0.97828186,0.35283688,-0.98169225,0.9018798,0.9250994,-0.89422345,0.12953551,-0.7892729,0.36541325,-0.9938462,-0.50849676,-0.40587366
2025-06-04 17:23:45.150,-0.487717,-4.771993,6.692096,0.022111611,0.0062019574,-0.0010230945,0.837667,-0.203705,9.771797,-0.108299255,0.02696991,0.18249893,-0.91971844,-0.01964569,3.9325562,1.648283,0.05908966,-4.983597,0.071754456,0.083732605,0.855114,-0.5597636,-0.02407074,0.15808487,1.5788478,-0.011405945,-0.69276047,0.015068054,-0.03124237,-0.12756729,-1.3803087,0.019569397,0.014038086,1.8909175,0.008354187,0.1690712,-0.09799957,0.0005722046,-0.206913,-1.1427953,-0.033607483,-4.5258255,1.9516729,0.031089783,-11.616997,0.0,0.0,0.0,0.0,0.0,0.0,0.0,0.0,0.0,0.0,0.0,0.0,-0.97902507,0.34775668,-0.98119146,0.9058422,0.92691433,-0.89207095,0.17279492,-0.776268,0.37178296,-0.99399185,-0.5122104,-0.38317737
2025-06-04 17:23:45.201,-0.442421,-4.759773,6.660138,0.017811574,0.0020785998,-0.015142528,0.718095,0.001059,9.648949,-0.10822296,-0.027656555,0.20569229,-0.9202525,-0.018730164,3.8654137,1.6479778,0.037574768,-4.966507,0.07228851,0.011787415,0.91371155,-0.5595347,-0.052452087,0.2496376,1.579153,-0.0018692017,-0.7013054,0.016746521,-0.016593933,0.0030517578,-1.3780962,0.044670105,-0.00061035156,1.8914516,-0.01033783,0.23987198,-0.09799957,-0.03414154,-0.25574112,-1.1428716,-0.026435852,-4.606392,1.9531225,0.020637512,-11.460747,0.0,0.0,0.0,0.0,0.0,0.0,0.0,0.0,0.0,0.0,0.0,0.0,-0.9795885,0.35066286,-0.98023635,0.9086744,0.9295656,-0.8938774,0.21390481,-0.7669856,0.35405913,-0.9942426,-0.5205756,-0.36683163
2025-06-04 17:23:45.252,-0.387442,-4.748411,6.615827,0.008363356,-0.003598066,-0.0001367989,0.655535,-0.015453,9.767442,-0.107536316,-0.0035476685,0.13611221,-0.9199473,-0.014762878,3.8593102,1.6479778,-0.058555603,-4.876175,0.07259369,0.002708435,0.98939514,-0.5585429,0.05153656,0.2117958,1.5792292,-0.010414124,-0.7049675,0.019187927,0.044822693,0.02746582,-1.3763415,0.09113312,0.2532997,1.8911464,-0.010261536,0.06652832,-0.09731293,0.024299622,-0.31921768,-1.1430242,-0.007972717,-4.6698723,1.9544195,0.024986267,-11.343555,0.0,0.0,0.0,0.0,0.0,0.0,0.0,0.0,0.0,0.0,0.0,0.0,-0.97996575,0.35514593,-0.97900796,0.9086436,0.9303543,-0.89455634,0.26681712,-0.7664893,0.32295555,-0.9943582,-0.5281933,-0.35565177
2025-06-04 17:23:45.303,-0.341935,-4.763929,6.64425,0.032020457,-0.006614606,0.014246913,0.770916,-0.117749,9.712921,-0.10662079,0.0548172,0.05065918,-0.9187266,0.21717072,3.7921715,1.6480541,-0.038108826,-4.8590813,0.07350922,0.002708435,0.7916374,-0.55800885,0.02620697,0.24109268,1.5792292,0.03162384,-0.65369797,0.021400452,-0.031700134,0.21912003,-1.3758074,0.025367737,0.26794815,1.8893154,-0.038108826,-0.03479004,-0.09654999,0.029411316,-0.3241005,-1.1433294,-0.08060455,-4.88472,1.9561743,0.0712204,-11.349659,0.0,0.0,0.0,0.0,0.0,0.0,0.0,0.0,0.0,0.0,0.0,0.0,-0.98039997,0.34979552,-0.976931,0.9049099,0.9284413,-0.89271945,0.34277627,-0.76595795,0.28496176,-0.99410856,-0.53787357,-0.33525765
2025-06-04 17:23:45.354,-0.266225,-4.802363,6.649226,0.03328945,-0.022996545,-0.011287445,0.771313,-0.046523,9.649515,-0.10562897,0.028800964,0.0030517578,-0.9181163,0.03932953,3.7714195,1.6480541,-0.015449524,-4.8505363,0.07480621,-0.015983582,0.7379265,-0.55777997,-0.0037765503,0.13855362,1.5793818,0.025291443,-0.67933273,0.023841858,-0.044059753,0.46692657,-1.3761889,-0.01499176,0.31921768,1.8850429,-0.031013489,-0.35339737,-0.09555817,0.053520203,-0.41565704,-1.1447027,-0.026283264,-4.9201202,1.9599127,0.10349274,-11.493706,0.0,0.0,0.0,0.0,0.0,0.0,0.0,0.0,0.0,0.0,0.0,0.0,-0.98114514,0.34672475,-0.97494864,0.90483505,0.9277784,-0.887187,0.43031028,-0.7560318,0.26964533,-0.99400246,-0.5437741,-0.30235606
2025-06-04 17:23:45.405,-0.119904,-4.851723,6.613177,0.08189917,-0.019674381,-0.0049002385,0.82921,-0.053994,9.708875,-0.1051712,0.025291443,0.040893555,-0.9176585,0.022087097,3.5785446,1.647749,0.02948761,-4.7589836,0.07663727,0.01750946,0.6305046,-0.5571696,-0.03177643,0.11047363,1.5803736,0.035438538,-0.7830925,0.026893616,0.038414,0.6732292,-1.3750445,0.045967102,0.37659454,1.8847377,-0.023155212,-0.68787766,-0.09395599,0.06832123,-0.53040314,-1.14661,0.028648376,-4.938431,1.9646429,0.046806335,-11.276417,0.0,0.0,0.0,0.0,0.0,0.0,0.0,0.0,0.0,0.0,0.0,0.0,-0.982042,0.35011324,-0.9725627,0.90671116,0.92980444,-0.8857444,0.5080576,-0.74175984,0.23297656,-0.99417984,-0.5554972,-0.26930302
2025-06-04 17:23:45.456,0.06781,-4.885267,6.629773,0.072280526,-0.01101664,0.011616301,0.809189,-0.045852,9.632787,-0.10372162,0.036964417,-0.12390137,-0.9161326,0.06656647,3.4650192,1.6474438,-0.05344391,-4.745556,0.07884979,0.02986908,0.5120926,-0.5576274,0.044517517,0.26794815,1.5827388,0.06725311,-0.91127014,0.029335022,0.010414124,1.0955963,-1.3726794,0.08892059,0.6024246,1.88428,-0.033607483,-1.0455475,-0.093193054,-0.017051697,-0.481575,-1.1495092,-0.09304047,-5.049515,1.9697546,0.060691833,-11.234913,0.0,0.0,0.0,0.0,0.0,0.0,0.0,0.0,0.0,0.0,0.0,0.0,-0.9823711,0.35288364,-0.96835935,0.903123,0.9297693,-0.8854866,0.5847818,-0.7381979,0.1493432,-0.9940726,-0.5762601,-0.24667451
2025-06-04 17:23:45.507,0.284646,-4.900547,6.659521,0.06349485,-0.0026382047,0.00795378,0.96564,0.019675,9.710355,-0.10181427,-0.029563904,-0.17883682,-0.9152171,0.033226013,3.6310387,1.6473675,-0.018196106,-4.704052,0.08106232,0.023460388,0.46692657,-0.55808514,-0.018196106,0.31189346,1.5860957,0.10547638,-1.0992584,0.031013489,0.0014877319,1.4618149,-1.370772,-0.05794525,0.52796173,1.8819149,-0.028495789,-1.8402367,-0.09220123,0.037498474,-0.49988556,-1.1526372,0.005531311,-5.37545,1.9733404,0.06793976,-10.735638,0.0,0.0,0.0,0.0,0.0,0.0,0.0,0.0,0.0,0.0,0.0,0.0,-0.9824046,0.35254103,-0.96208614,0.8923263,0.9258992,-0.881882,0.6644666,-0.73983216,0.058936276,-0.9933785,-0.59870386,-0.22078407
2025-06-04 17:23:45.558,0.483241,-4.879255,6.667784,0.08088927,0.0283775,0.00082531385,1.196108,0.18577,9.834231,-0.1001358,0.07083893,-0.24109268,-0.9143016,-0.05092621,3.72015,1.6462231,-0.04398346,-4.5050735,0.08243561,0.030937195,0.33752823,-0.5597636,-0.061454773,0.39246368,1.5899867,0.059928894,-1.2738228,0.033226013,0.083732605,1.7218285,-1.3680254,0.060768127,0.31555557,1.8763454,-0.15720367,-2.4274063,-0.09189606,-0.032920837,-0.48645782,-1.1546972,-0.017356873,-5.6940575,1.9744085,0.002784729,-10.459755,0.0,0.0,0.0,0.0,0.0,0.0,0.0,0.0,0.0,0.0,0.0,0.0,-0.9819486,0.35130006,-0.954146,0.8804338,0.921173,-0.8773255,0.7293136,-0.74059194,-0.044944335,-0.99250555,-0.624963,-0.19971916
2025-06-04 17:23:45.609,0.677837,-4.831203,6.666349,0.076254725,0.023870379,-0.0023228761,1.057018,0.199939,9.795423,-0.09815216,-0.018730164,-0.34363174,-0.9152171,-0.1758194,3.699398,1.643858,0.02483368,-4.151066,0.083732605,0.019569397,0.15808487,-0.56327313,-0.03528595,0.65369797,1.5928859,0.028266907,-1.2774849,0.035209656,-0.022163391,1.8158226,-1.3655077,0.040779114,0.25818253,1.8681056,-0.10639191,-3.1561775,-0.091056824,0.00995636,-0.60852814,-1.1591222,-0.09700775,-5.9601746,1.9747137,-0.017814636,-10.2156105,0.0,0.0,0.0,0.0,0.0,0.0,0.0,0.0,0.0,0.0,0.0,0.0,-0.98102355,0.34702733,-0.9458346,0.8647689,0.9149915,-0.8709803,0.7791576,-0.7440519,-0.13409993,-0.99118876,-0.6460794,-0.18296222
2025-06-04 17:23:45.660,0.888676,-4.791109,6.688952,0.07689629,0.026472298,0.013046842,1.082015,0.104346,9.817269,-0.095329285,0.08052826,-0.604866,-0.9175822,0.048103333,3.8446617,1.6401958,-0.102500916,-3.7470055,0.08594513,0.09143829,-0.032348633,-0.5698344,-0.12332916,1.0333405,1.5964717,0.06649017,-1.4435043,0.03681183,0.013771057,2.04776,-1.3635241,0.031166077,0.12023926,1.8565853,-0.13774872,-3.3588142,-0.09037018,-0.047569275,-0.50110626,-1.1663702,-0.26172638,-5.6488914,1.9748663,0.06427765,-10.038605,0.0,0.0,0.0,0.0,0.0,0.0,0.0,0.0,0.0,0.0,0.0,0.0,-0.9794088,0.3430664,-0.9339098,0.84235126,0.9056915,-0.8662069,0.8162307,-0.745687,-0.23643032,-0.9891958,-0.67811,-0.16590986
2025-06-04 17:23:45.711,1.113895,-4.732794,6.719815,0.08635788,0.03501387,0.005033076,1.02976,0.070006,9.753483,-0.09304047,0.024147034,-0.5999832,-0.92071027,0.030097961,3.928894,1.6363049,-0.13355255,-3.5089645,0.088157654,0.11768341,-0.23620987,-0.57815045,-0.15087128,1.3238716,1.6011256,0.057029724,-1.6864281,0.037879944,0.046272278,2.1100159,-1.3618456,-0.0118637085,-0.00061035156,1.8436153,-0.17284393,-3.9960327,-0.090293884,0.008659363,-0.481575,-1.175144,-0.14530182,-6.0798035,1.97479,0.030479431,-9.779812,0.0,0.0,0.0,0.0,0.0,0.0,0.0,0.0,0.0,0.0,0.0,0.0,-0.97761434,0.34783208,-0.9196717,0.8131413,0.8955208,-0.86226493,0.8454258,-0.75081825,-0.33417004,-0.9867747,-0.70618093,-0.16092895
2025-06-04 17:23:45.762,1.39362,-4.652552,6.760529,0.10533596,0.04289862,0.014443926,0.769488,0.195692,9.768959,-0.090904236,0.06565094,-0.72816086,-0.9239909,-0.039634705,4.2999916,1.6318798,-0.17894745,-3.0096893,0.090675354,0.13561249,-0.665905,-0.5878398,-0.088005066,1.5863266,1.6076106,0.12050629,-2.219883,0.037956238,-0.048484802,2.3529396,-1.3615404,0.025672913,-0.06652832,1.8298824,-0.27881622,-4.2462807,-0.09044647,0.095710754,-0.5902176,-1.1848333,-0.17154694,-5.978485,1.97479,0.004005432,-9.781033,0.0,0.0,0.0,0.0,0.0,0.0,0.0,0.0,0.0,0.0,0.0,0.0,-0.97551703,0.34709677,-0.9037099,0.7791783,0.8825959,-0.85693544,0.8688934,-0.75600463,-0.41571683,-0.98347247,-0.72925806,-0.1593611
2025-06-04 17:23:45.813,1.641511,-4.585098,6.813466,0.10651046,0.026785672,0.0137547655,0.837898,0.282226,9.80732,-0.08922577,-0.01247406,-0.64637375,-0.9265849,-0.12966156,4.4721146,1.6274548,-0.08563995,-2.6105118,0.09220123,0.07106781,-0.7403679,-0.59829205,-0.19870758,1.8658714,1.6140956,0.08708954,-2.2516212,0.038108826,-0.016365051,2.4640274,-1.360396,-0.022010803,-0.23010635,1.8166835,-0.25112152,-4.8053703,-0.090675354,0.08960724,-0.53528595,-1.1950567,-0.17353058,-6.0212097,1.9748663,-0.010719299,-9.699245,0.0,0.0,0.0,0.0,0.0,0.0,0.0,0.0,0.0,0.0,0.0,0.0,-0.9730078,0.35396966,-0.88674694,0.74683744,0.8695128,-0.85244805,0.88238335,-0.75480425,-0.47366086,-0.9801222,-0.7498783,-0.16016063
2025-06-04 17:23:45.864,1.929228,-4.509735,6.833433,0.0870132,0.024566974,-0.00011116002,0.775141,0.355445,9.788464,-0.088005066,0.009880066,-0.64515305,-0.92986554,-0.07259369,4.7052727,1.6223431,-0.0712204,-2.3212013,0.09326935,0.026664734,-0.9686432,-0.60836285,-0.24967194,1.9916077,1.6208857,0.11928558,-2.473793,0.03803253,-0.027122498,2.518959,-1.359099,0.030784607,-0.23743057,1.8040187,-0.24028778,-4.942093,-0.09151459,-0.01499176,-0.4010086,-1.2052801,-0.2073288,-6.0431824,1.9750952,0.036964417,-9.70779,0.0,0.0,0.0,0.0,0.0,0.0,0.0,0.0,0.0,0.0,0.0,0.0,-0.9699377,0.35247937,-0.86730754,0.7137697,0.8571217,-0.85167545,0.89274985,-0.7543318,-0.5327773,-0.9761789,-0.76941586,-0.16229968
2025-06-04 17:23:45.915,2.156841,-4.457809,6.842536,0.07140842,0.008590162,0.0044039018,0.695582,0.474358,9.681902,-0.08693695,-0.039787292,-0.6756706,-0.9329173,-0.043144226,4.605171,1.6171551,-0.07663727,-1.5875473,0.09372711,0.031547546,-0.9698639,-0.61835736,-0.1908493,2.023346,1.6264552,0.05886078,-2.8033867,0.037879944,-0.028266907,2.5836563,-1.357802,0.06938934,-0.2923622,1.7915065,-0.16155243,-5.1520576,-0.09250641,-0.01964569,-0.4010086,-1.2151983,-0.34435272,-6.221409,1.97479,-0.0010299683,-9.732204,0.0,0.0,0.0,0.0,0.0,0.0,0.0,0.0,0.0,0.0,0.0,0.0,-0.9668108,0.35488003,-0.8495349,0.68238467,0.84495056,-0.8498132,0.9002694,-0.7536318,-0.57288766,-0.9722457,-0.78408587,-0.16686043
2025-06-04 17:23:45.966,2.356725,-4.4235,6.873445,0.057598937,0.011962608,0.014821336,0.596767,0.495573,9.706984,-0.08594513,0.047187805,-0.76722336,-0.93612164,-0.09120941,5.084915,1.6128063,-0.08823395,-1.4544907,0.094184875,-0.074272156,-0.90760803,-0.6279704,-0.18474579,2.2345314,1.6311854,0.11478424,-3.0084686,0.03780365,-0.050849915,2.5787735,-1.3575732,0.014533997,-0.2117958,1.7820461,-0.091362,-5.3009834,-0.093421936,-0.018043518,-0.20325089,-1.2236669,-0.15209198,-6.178684,1.9748663,0.03643036,-9.79324,0.0,0.0,0.0,0.0,0.0,0.0,0.0,0.0,0.0,0.0,0.0,0.0,-0.91630256,-0.52409124,-0.749527,0.61785406,0.67515635,-0.31331745,0.7290442,-0.7632017,-0.8740806,-0.6600757,-0.9359311,-0.36349586
2025-06-04 17:23:46.017,2.573253,-4.679154,6.782291,0.27455968,0.028538315,-0.1324515,5.140994,-0.17636,6.454498,-0.085258484,-0.15476227,-0.2081337,-1.0328623,-2.0122185,-1.70718,1.6200542,0.25188446,-1.6400414,0.090675354,0.097465515,-1.4605942,-0.6557414,-0.5881119,2.0184631,1.6676539,0.7840347,-1.4264145,0.035591125,0.11188507,1.5020981,-1.3607012,-0.19351959,0.12023926,1.765414,-0.3194046,-7.233387,-0.082969666,0.32993317,0.07141113,-1.2441137,-0.4201889,-8.059814,1.9737982,-0.025596619,-12.139469,0.0,0.0,0.0,0.0,0.0,0.0,0.0,0.0,0.0,0.0,0.0,0.0,-0.92360485,-0.6549206,-0.70117867,0.7754391,0.6844444,-0.2484596,0.46237043,-0.6997688,-0.32158732,-0.42626578,-0.9425739,-0.4634294
2025-06-04 17:23:46.068,2.415449,-3.953675,6.28514,-0.21379206,0.34277767,-0.19342136,1.563024,1.962041,9.036123,-0.09395599,-0.33550262,0.8587761,-1.107783,-1.0626602,-4.4757767,1.6453075,0.5710983,-4.171818,0.08945465,-0.05695343,-0.15076065,-0.69663495,-0.88977814,5.1557198,1.7194575,1.08181,-3.801937,0.03490448,0.114097595,0.40345,-1.3774096,-0.48984528,3.617607,1.7596157,-0.33679962,-0.9771881,-0.07663727,0.05886078,0.8526726,-1.2644842,-0.5905533,-6.266575,1.965711,-0.21900177,-11.950256,0.0,0.0,0.0,0.0,0.0,0.0,0.0,0.0,0.0,0.0,0.0,0.0,-0.9011575,-0.8315455,-0.7564783,0.946681,0.84216595,-0.5700517,-0.20739366,-0.411568,0.58464074,-0.29702088,-0.9580649,-0.11311565
2025-06-04 17:23:46.119,1.675888,-2.878752,5.765984,-0.4972072,0.14744483,-0.1182063,-2.730633,2.613053,11.175467,-0.104026794,-0.18131256,0.91493225,-1.1733996,-1.2402725,-5.578087,1.6761303,0.61260223,-6.306858,0.090904236,0.11035919,0.14953995,-0.7302043,-0.7439041,9.075457,1.7438716,0.10532379,-4.625927,0.022087097,-0.32604218,-0.74403,-1.3826739,-0.25669098,10.210728,1.7919643,0.3686905,5.623253,-0.071754456,0.3104782,1.5118637,-1.2905767,-0.36624908,-5.236286,1.9542669,-0.2577591,-6.843975,0.0,0.0,0.0,0.0,0.0,0.0,0.0,0.0,0.0,0.0,0.0,0.0,-0.91400623,-0.8663924,-0.15585588,0.9693544,0.93643886,-0.9497596,-0.66544366,-0.3616251,0.39609608,0.29044205,-0.9821732,0.7111789
2025-06-04 17:23:46.170,0.109752,-2.091275,6.001765,-0.98342615,0.5057501,0.29456842,-3.998335,1.607051,8.296912,-0.10738373,-0.11363983,1.2555122,-1.2253557,-0.5751419,-5.728237,1.7503643,1.9227982,-7.5471115,0.09723663,0.02292633,-0.28015518,-0.7352397,0.4216385,6.466774,1.7400569,0.037345886,-8.588387,0.002708435,-0.6321335,-1.8670921,-1.3887011,0.25669098,8.322269,1.8072994,0.56850433,2.0013733,-0.0472641,0.64510345,0.6341667,-1.3445928,-1.0494614,-0.4339676,1.9672369,0.2098465,0.38025665,0.0,0.0,0.0,0.0,0.0,0.0,0.0,0.0,0.0,0.0,0.0,0.0,-0.9910827,-0.5526553,0.9815643,0.5972444,0.69364953,-0.9946183,-0.12022127,-0.94960403,-0.9913088,0.9712172,-0.9834339,0.983727
2025-06-04 17:23:46.221,-2.52253,-0.508956,7.162991,-0.8605371,0.4315749,0.36062828,1.543873,-0.535363,9.288292,-0.10700226,0.004234314,-0.22034073,-1.2374865,-0.22800446,0.20203018,1.8728161,2.0313683,-0.07019043,0.09876251,0.31383514,-2.8119316,-0.72692364,0.26813507,1.4959946,1.7327327,-0.08022308,-8.535896,-0.009880066,-0.4062271,1.3458443,-1.39984,0.026283264,-3.3466072,1.7979152,0.40737152,-13.631189,0.0049209595,0.9810257,0.6036453,-1.3920476,-0.49640656,-0.895401,1.9966863,0.66425323,0.30701065,0.0,0.0,0.0,0.0,0.0,0.0,0.0,0.0,0.0,0.0,0.0,0.0,-0.9988238,0.44302496,0.99774593,-0.68478525,-0.4814653,-0.99636346,0.9547899,-0.98654217,-0.99810284,0.9970488,-0.90114695,0.998383
2025-06-04 17:23:46.272,-4.224116,0.414579,8.384125,-0.18261857,0.083734296,0.5352649,1.235097,-2.465841,13.603934,-0.099372864,0.41225433,-2.6630058,-1.2050616,0.00415802,18.626385,1.9224072,0.41118622,5.224079,0.09334564,0.08441925,-8.117189,-0.8117625,-1.7747116,-11.040817,1.7394465,-0.04009247,-9.109634,-0.0017929077,-0.19657135,5.5500107,-1.3994585,-0.01209259,-3.2428474,1.8082912,-0.048866272,-12.24567,0.03993988,0.4706955,1.5277328,-1.4099767,-0.005302429,-0.30823135,2.018888,0.27873993,0.7391472,0.0,0.0,0.0,0.0,0.0,0.0,0.0,0.0,0.0,0.0,0.0,0.0,-0.9970069,0.62097704,0.9957377,-0.9429377,-0.73697865,-0.98288155,0.99900573,-0.9502368,-0.9975668,0.99916565,-0.5650238,0.9991292
2025-06-04 17:23:46.323,-4.726166,0.308357,10.887185,0.059755027,-0.13028881,0.80042046,-0.218877,-3.069701,9.492867,-0.07900238,0.29598236,-2.67033,-1.1870562,0.2892685,20.221867,1.9256115,0.024986267,6.2030983,0.09037018,-0.10959625,-7.796139,-0.92856854,-2.448391,-9.025406,1.7391413,0.0059890747,-9.019302,-0.020942688,-0.40843964,8.1709,-1.3937365,0.062675476,-3.895935,1.7928035,-0.5169296,-9.553978,0.061912537,0.47267914,0.21667862,-1.3581731,1.2077713,-0.79529953,2.0332313,0.17810822,0.34729385,0.0,0.0,0.0,0.0,0.0,0.0,0.0,0.0,0.0,0.0,0.0,0.0,-0.99764687,0.77203125,0.9918061,-0.9468266,-0.8516257,-0.98274755,0.99907213,-0.9241732,-0.99397016,0.9993566,0.03724944,0.9988567
2025-06-04 17:23:46.374,-4.154136,-0.399988,12.884927,0.27551872,-0.41463882,0.45104462,2.260832,-1.567693,7.678778,-0.079689026,-0.1594162,-0.481575,-1.0433909,4.355587,0.45594025,1.9457531,1.0892105,1.1139069,0.092430115,0.41934967,-9.668726,-1.0318705,-1.6542435,-9.336689,1.7399806,0.09403229,-9.314716,-0.048179626,-0.22541046,8.594492,-1.4017473,-0.6562424,0.5865555,1.7755611,-0.1479721,-10.027618,0.07846832,0.25341034,0.25940323,-1.2172582,2.4390068,-0.6280632,2.0417762,0.16002655,0.27527237,0.0,0.0,0.0,0.0,0.0,0.0,0.0,0.0,0.0,0.0,0.0,0.0,-0.9987898,0.9311069,0.951652,-0.91198856,-0.922677,-0.98755795,0.99732214,-0.9031556,-0.96813655,0.9991097,0.8062208,0.9968177
2025-06-04 17:23:46.425,-2.944069,-2.326429,13.620845,0.4787084,-0.4214852,0.0030794065,4.707824,-1.783528,9.294985,-0.082969666,-0.21335602,-0.5975418,-0.8420512,3.1324425,-0.54016876,1.9844341,0.54294586,0.49744415,0.10852814,0.22792816,-10.658731,-1.1217448,-1.8629837,-6.2030983,1.748907,0.31734467,-10.713665,-0.059318542,-0.040016174,8.010986,-1.4608752,-1.3726425,7.031967,1.7612178,-0.50045013,-7.4567795,0.080833435,0.030403137,1.4435043,-0.9844854,3.7392082,-0.6243973,2.044828,0.09487152,0.526741,0.0,0.0,0.0,0.0,0.0,0.0,0.0,0.0,0.0,0.0,0.0,0.0,-0.9993728,0.9779642,-0.33744085,-0.7968774,-0.948158,-0.9284667,0.9702838,-0.93154156,-0.86012065,0.9966824,0.9632206,0.8539478
2025-06-04 17:23:46.476,-1.714687,-3.294942,13.707461,0.2733315,-0.060221765,0.0016632987,2.354642,0.422074,8.641664,-0.08678436,-0.1645279,-0.7037468,-0.7163951,1.8841934,0.27771378,1.8946362,-1.9586563,0.1324501,0.1128006,-0.08647919,-8.635996,-1.2196337,-1.9900894,-2.023346,1.7688197,0.30712128,-11.061569,-0.061454773,0.08983612,7.619133,-1.5155779,-0.9269333,7.4226,1.7190273,-1.1132431,-2.113678,0.08022308,-0.15964508,1.2506294,-0.804508,3.124813,-0.46448517,2.039106,-0.12630463,-0.1336708,0.0,0.0,0.0,0.0,0.0,0.0,0.0,0.0,0.0,0.0,0.0,0.0,-0.99944186,0.9734989,-0.98372424,-0.38628355,-0.92461497,0.8495351,0.7833451,-0.9865435,-0.9644824,0.9845376,0.67561173,-0.94751036
2025-06-04 17:23:46.527,-0.848491,-2.834239,13.323642,1.0379739,0.7686897,-0.30833086,-3.599439,-4.883372,7.670984,-0.10593414,-0.6839371,4.0131226,-0.6869456,-1.0454178,11.377739,1.8301678,0.90976715,-16.662241,0.10807037,-0.13141632,-6.2641335,-1.3224016,-1.4387131,1.3910141,1.8711299,1.8662643,-1.0662994,-0.04573822,1.0223007,1.7669945,-1.536635,0.34687042,0.4400711,1.6533382,-1.2957382,0.20080948,0.10166168,0.48175812,-3.0939178,-0.741184,0.6796646,0.57678986,1.9203924,-0.5285263,-14.51133,0.0,0.0,0.0,0.0,0.0,0.0,0.0,0.0,0.0,0.0,0.0,0.0,-0.9153557,-0.108899914,-0.99869984,0.9739718,-0.17149906,0.99994504,-0.90529674,-0.98796976,-0.73276746,-0.012227213,-0.8997747,-0.99379045
2025-06-04 17:23:46.578,0.170715,-0.622993,11.141673,0.36495626,-1.0237477,-0.5072955,2.019819,1.840186,14.130396,-0.13477325,-0.16086578,2.920578,-0.7968852,-1.9977951,-3.0255585,1.8169689,-1.5177536,-5.8954773,0.10379791,-0.4152298,1.420311,-1.2685381,1.8748093,-0.8636589,1.9322413,1.3801193,0.27038956,-0.0598526,-0.9686661,0.75867844,-1.5194689,0.16132355,1.2420845,1.629916,-0.06893158,-0.29968643,0.09227753,0.26088715,-3.4320602,-0.8455541,-2.5693932,-15.259632,1.9243597,0.74230194,-20.525826,0.0,0.0,0.0,0.0,0.0,0.0,0.0,0.0,0.0,0.0,0.0,0.0,-0.07611207,-0.6464919,-0.9972799,0.98464245,0.8131244,0.99646497,-0.9325994,-0.9778932,0.27413666,-0.7511731,-0.941448,-0.99797916
2025-06-04 17:23:46.629,-0.024785,-4.263794,10.200659,-0.30118793,-0.82918656,0.031100772,5.5114,5.009386,8.008586,-0.13347626,0.027961731,4.990921,-0.93833417,-2.5370445,-5.0556183,1.7560863,-1.0796738,-5.8210106,0.09777069,-0.16468048,1.3128853,-1.0198923,4.262127,-0.08117676,1.9790095,0.73459625,1.0785065,-0.08106232,-0.8525467,0.9710846,-1.5538012,-0.45986176,6.395973,1.6744716,1.2142563,4.0753784,0.06175995,-0.5096817,-4.7589836,-0.9842565,-2.7496758,-8.864269,1.9469427,-0.022850037,-18.789959,0.0,0.0,0.0,0.0,0.0,0.0,0.0,0.0,0.0,0.0,0.0,0.0,0.43368074,-0.9216043,-0.99978364,0.99421847,0.9533705,0.989496,-0.951102,-0.49151886,0.99362713,-0.36381283,-0.9174967,-0.9616563
2025-06-04 17:23:46.680,-0.51205,-5.706987,10.860838,-0.08928193,-0.16144931,0.44293556,2.420603,2.659883,6.408056,-0.10334015,0.6687546,3.6285973,-1.0652872,-2.1763268,-7.6289024,1.7330456,-0.33420563,-7.704586,0.0976181,-0.17650604,0.83680344,-0.8219096,3.0415,-0.7928581,2.0080776,0.38043976,0.6024246,-0.09227753,0.21053314,-0.48279572,-1.4865099,1.5321732,3.72015,1.7858608,1.7616653,4.7064934,0.049324036,-0.0061416626,-3.7152672,-1.1070898,-2.3640862,-4.9933624,1.9345831,-0.50426483,-15.041122,0.0,0.0,0.0,0.0,0.0,0.0,0.0,0.0,0.0,0.0,0.0,0.0,0.61108935,-0.92630637,-0.9993166,0.99617726,0.9759301,0.72281873,-0.98232645,0.4023614,0.9994957,0.25054199,-0.8435013,-0.8875289
2025-06-04 17:23:46.731,-0.28613,-5.248047,12.382353,0.65029424,1.0142825,0.8324607,4.534679,-0.706055,8.987986,-0.062446594,1.1463547,0.53406525,-1.1457812,-1.6116714,-7.044174,1.7363262,0.083351135,-9.4819565,0.098609924,-0.67394257,2.543373,-0.70525616,1.6389084,0.8880768,2.0037289,-0.13156891,0.22766495,-0.101737976,0.8498001,-1.8219261,-1.283568,5.5157127,-1.9745178,1.8671138,2.2582664,-0.14831924,0.0636673,0.40950775,-3.089035,-1.1968877,-2.0384636,-1.7926292,1.892774,-1.012001,-9.90921,0.0,0.0,0.0,0.0,0.0,0.0,0.0,0.0,0.0,0.0,0.0,0.0,0.7272486,-0.8444232,-0.938742,0.99218154,0.9676685,-0.90899163,-0.9934579,0.4659164,0.98834777,0.72861695,-0.9390029,-0.83892953
2025-06-04 17:23:46.782,0.493507,-4.47572,13.67226,-0.10462507,-0.03401999,0.22316277,2.526099,-0.012294,7.125826,-0.031013489,0.1897049,3.2562752,-1.2511431,-2.2805443,2.703289,1.7323589,-0.24608612,-7.119858,0.09326935,0.075798035,-0.0018310547,-0.6342265,0.8198166,0.5511551,1.8498439,-2.8235283,-0.9784088,-0.096321106,0.57956696,-1.5753403,-1.0733744,3.4814873,-1.912262,1.942416,1.1214828,0.27038956,0.08975983,0.30773163,-2.0318909,-1.3043096,-2.1798363,2.1722755,1.8485998,-0.9813309,-8.249027,0.0,0.0,0.0,0.0,0.0,0.0,0.0,0.0,0.0,0.0,0.0,0.0,-0.31083024,-0.87516916,0.9737241,0.9763166,0.9288635,-0.9989464,-0.9893803,-0.3407376,-0.80781794,0.99285424,-0.9876387,0.9250807
2025-06-04 17:23:46.833,0.224604,-3.661267,13.687698,0.4231701,1.0085088,0.03314038,0.148635,-2.858651,3.070207,-0.029716492,0.051078796,-0.17761612,-1.3530718,-1.6456985,4.326847,1.8307781,1.8017197,1.9757385,0.114860535,2.0846214,-9.6089115,-0.6088969,-1.44207,7.302967,1.7563838,1.9356918,-17.404442,-0.099372864,0.12447357,0.079956055,-1.0855814,-1.0223007,0.7904167,1.8863399,-0.38295746,-11.819639,0.09220123,-0.51685333,4.065613,-1.3755682,-0.62641144,-2.2211037,1.908872,1.4318466,-0.010375977,0.0,0.0,0.0,0.0,0.0,0.0,0.0,0.0,0.0,0.0,0.0,0.0,-0.99758315,0.13789123,0.9996039,-0.343012,-0.2730685,-0.9994975,0.5662093,-0.9910977,-0.9995501,0.9993805,-0.9284903,0.99943024
2025-06-04 17:23:46.884,-0.68445,-0.05902,14.51076,-0.39025605,0.31897867,0.60263926,-4.184619,1.960205,18.290865,-0.05580902,-0.1543808,-0.9710846,-1.3710009,0.36823273,17.069962,1.8585491,-0.10066986,9.52224,0.11417389,0.4893875,-6.745098,-0.75728863,-2.2674217,-6.3703346,1.8224543,-0.17383575,-12.305485,-0.08769989,-0.14247894,7.245594,-1.1762224,-1.536293,-7.7814903,1.8678768,-0.71422577,-11.70245,0.08960724,0.23418427,0.053100586,-1.4023473,-0.1821518,-0.049438477,1.9659399,0.99781036,0.53528595,0.0,0.0,0.0,0.0,0.0,0.0,0.0,0.0,0.0,0.0,0.0,0.0,-0.9980998,0.3841639,0.99836457,-0.95518905,-0.5542209,-0.99127614,0.9973635,-0.98497355,-0.9993054,0.999613,-0.87913144,0.9990444
2025-06-04 17:23:46.935,-1.464998,-0.7679,16.437782,0.16735196,-0.8032679,0.4735221,0.342731,-1.835578,10.023099,-0.072135925,-0.50258636,0.16418839,-1.2342821,4.5285454,-0.08605957,1.8947124,1.6183853,0.68299484,0.111579895,-0.13957977,-9.990997,-0.89545697,-2.4034538,-5.752651,1.7919368,-0.8033371,-7.8181114,-0.09311676,-0.029182434,9.093767,-1.2522875,-2.2562065,-1.0003815,1.8285854,-0.64159393,-10.561073,0.095710754,0.20938873,0.04699707,-1.4105108,-0.14148712,-0.18371964,2.0024848,0.49610138,0.4779129,0.0,0.0,0.0,0.0,0.0,0.0,0.0,0.0,0.0,0.0,0.0,0.0,-0.9980163,0.6562781,0.99674547,-0.9714183,-0.75576735,-0.9842816,0.99920464,-0.9640449,-0.99849993,0.9996587,-0.59295297,0.99885964
2025-06-04 17:23:46.986,-0.961876,-3.477965,16.542921,0.30870008,-0.56639373,-0.31624252,2.470247,-2.527854,7.273841,-0.07923126,-0.03681183,-0.6378288,-1.0123392,3.5965385,-0.6317253,1.9587231,1.0084915,0.47058868,0.11707306,-0.20427704,-9.81155,-1.0294291,-2.586712,-4.2767982,1.7664546,-0.07915497,-9.429466,-0.08304596,0.40599823,6.8989105,-1.3722979,-2.375454,5.9284363,1.790591,-0.96668243,-7.1857796,0.09082794,-0.2262497,1.5655746,-1.360996,0.82653046,-0.62073517,2.0232368,0.12691498,0.9259186,0.0,0.0,0.0,0.0,0.0,0.0,0.0,0.0,0.0,0.0,0.0,0.0,-0.99855757,0.8683934,0.9817061,-0.94073516,-0.8748096,-0.98352903,0.9990264,-0.9250052,-0.9899512,0.9994053,0.40305692,0.99833614
2025-06-04 17:23:47.037,-0.978112,-3.870589,15.534901,-0.44734132,0.302319,-0.3789941,1.809031,1.034222,9.89762,-0.08464813,0.048332214,-1.7511253,-0.8394572,2.7521935,-0.8612175,1.9947338,0.6833267,0.4779129,0.10196686,-0.3646469,-6.5021744,-1.1437212,-2.2030296,-2.9144745,1.7690486,-0.027503967,-10.313267,-0.07274628,-0.09777069,8.277103,-1.4557635,-1.5225601,7.520256,1.7230709,-1.464119,-2.0196838,0.089149475,-0.014915466,1.2079048,-1.1556127,3.7611046,-0.7391472,2.0342994,0.08457184,0.57434845,0.0,0.0,0.0,0.0,0.0,0.0,0.0,0.0,0.0,0.0,0.0,0.0,-0.99946785,0.97691303,0.31732586,-0.9229122,-0.9269897,-0.95217925,0.9935271,-0.93638355,-0.9328245,0.99782634,0.94108313,0.95849156
2025-06-04 17:23:47.088,-2.09737,-3.142175,14.398229,-0.48328742,0.335233,-0.3502177,1.47169,1.712625,9.467401,-0.08731842,0.1215744,-1.2054634,-0.71448773,1.9851303,-0.025024414,1.9599438,-0.60710907,-0.049438477,0.07823944,-0.4088974,-6.1164246,-1.2533556,-2.0801964,0.27771378,1.7706507,-0.029640198,-9.962921,-0.06694794,0.18398285,7.097885,-1.5199267,-1.2237167,8.463875,1.6479976,-1.5676498,2.16251,0.0875473,0.0037002563,1.2591743,-0.91711783,4.1475334,-1.0357819,2.0380378,0.12081146,0.4742508,0.0,0.0,0.0,0.0,0.0,0.0,0.0,0.0,0.0,0.0,0.0,0.0,-0.9996327,0.97480655,-0.9841937,-0.72470593,-0.91918546,0.6516882,0.91147614,-0.9843904,-0.96368366,0.9907411,0.86439073,-0.84741956
2025-06-04 17:23:47.139,-3.088194,-1.33625,13.265805,0.8764282,0.90108216,-0.27868608,-12.612112,-3.08533,16.697626,-0.11348724,-0.3406906,2.699627,-0.70563763,-1.8693924,15.353626,1.914854,0.7229996,-20.403753,0.076179504,0.52944183,-9.04982,-1.3636004,-1.8093491,4.8078117,1.8448848,1.4500809,0.026245117,-0.027275085,1.2966537,0.252079,-1.5526568,0.44940948,1.60952,1.5791042,-0.47382355,0.4803543,0.10349274,1.6238022,-5.8783875,-0.78200126,0.73818207,5.0714874,1.8972753,-0.72719574,-10.562294,0.0,0.0,0.0,0.0,0.0,0.0,0.0,0.0,0.0,0.0,0.0,0.0,-0.9388874,0.015308855,-0.99933827,0.962201,-0.33937892,0.9999798,-0.8789215,-0.98875785,-0.8219565,0.20572798,-0.8988625,-0.9941445
2025-06-04 17:23:47.190,-2.693246,0.514952,11.90214,0.2811777,-1.00345,-0.438663,0.533022,-0.863906,17.722857,-0.12622833,-0.2060318,1.5631332,-0.8207652,-1.8890762,-0.10192871,1.9076061,-2.0093193,-8.107424,0.07938385,-0.17124176,2.023346,-1.3051592,1.9398117,-2.1356544,1.9177455,1.4705276,0.4425125,-0.043678284,-0.4416275,-0.29602432,-1.5337359,-0.9610367,5.925995,1.5711696,-0.9043503,3.7250328,0.108680725,0.0024032593,-3.867855,-0.91543937,-2.562069,-12.31403,1.8838476,0.39813995,-17.011368,0.0,0.0,0.0,0.0,0.0,0.0,0.0,0.0,0.0,0.0,0.0,0.0,-0.17772281,-0.6095617,-0.9970297,0.9860306,0.7953424,0.9973952,-0.9367012,-0.9838122,0.13135752,-0.7523602,-0.9387993,-0.9982028
2025-06-04 17:23:47.241,-3.038531,-3.190443,11.54494,-0.32758427,-1.1261499,0.13213995,4.343953,2.032841,9.723867,-0.12271881,0.27210236,4.0863647,-0.94222516,-2.025341,-7.532463,1.8301678,-1.4075851,-6.791485,0.08281708,0.25928497,0.46936798,-1.0515543,4.7040977,-1.3482857,1.970312,1.0065842,0.56946564,-0.07434845,-0.5932236,1.621727,-1.5792834,-0.44132233,6.708477,1.6111476,0.9270096,5.950409,0.07190704,-0.4719925,-4.4721146,-1.0422399,-2.5827446,-7.163807,1.8925451,0.022010803,-16.241093,0.0,0.0,0.0,0.0,0.0,0.0,0.0,0.0,0.0,0.0,0.0,0.0,0.40730053,-0.9132685,-0.99978745,0.9936546,0.94673747,0.99296284,-0.9436354,-0.61552083,0.9880815,-0.4981649,-0.93197894,-0.9719671
2025-06-04 17:23:47.292,-3.201791,-5.344519,12.628679,0.16646188,-0.2411456,0.5270094,2.843886,1.045827,7.090652,-0.0938797,0.82027435,2.932785,-1.0513254,-1.665535,-9.6870365,1.788969,-0.38661957,-9.578394,0.085258484,-0.058250427,0.99794006,-0.8486125,2.9881706,-0.16052628,2.0022793,0.62503815,0.80140305,-0.09037018,-0.34297943,1.3519478,-1.5428911,1.5630722,5.519493,1.7297847,3.073391,1.8072777,0.054130554,-0.26126862,-3.8275719,-1.1549261,-2.4129906,-3.601738,1.8803381,-0.30338287,-13.282063,0.0,0.0,0.0,0.0,0.0,0.0,0.0,0.0,0.0,0.0,0.0,0.0,0.62967825,-0.9300646,-0.999611,0.9959964,0.9746305,0.8683711,-0.9786348,0.28817755,0.99938434,0.05491995,-0.851309,-0.89325345
2025-06-04 17:23:47.343,-2.369602,-5.04528,14.583779,0.8502919,0.9124067,0.8804579,4.447672,-1.455515,10.088217,-0.0497818,1.1808395,0.72938156,-1.1215159,-1.452446,-8.84474,1.7843914,-0.032844543,-11.266651,0.08945465,-0.8471298,3.375908,-0.71700543,1.4319992,1.588768,2.011816,-0.03704071,0.9430084,-0.10158539,0.5057907,-1.9391174,-1.3665758,3.0951347,7.6447716,1.815234,0.9118271,6.8744926,0.060310364,0.21503448,-3.707943,-1.2373998,-1.7162704,-0.9820709,1.8418096,-0.92243195,-8.28931,0.0,0.0,0.0,0.0,0.0,0.0,0.0,0.0,0.0,0.0,0.0,0.0,0.7598918,-0.87940216,-0.9847213,0.9937026,0.9715995,-0.69292724,-0.9925273,0.4920466,0.9969045,0.5989083,-0.924169,-0.8866582
2025-06-04 17:23:47.394,-0.474809,-4.168496,16.267797,0.4156545,-0.17036054,0.31463462,3.085513,-1.097294,5.872428,-0.0062179565,0.45589447,1.8731956,-1.2076555,-1.8667221,-0.53772736,1.7798901,-0.26676178,-9.967804,0.084724426,-0.07083893,0.44495392,-0.6421611,1.0038376,0.25818253,1.8774623,-2.781643,-0.07751465,-0.103645325,0.13988495,-0.61096954,-1.1504351,3.416027,3.330738,1.9013698,1.2968063,1.5521469,0.08533478,0.81256866,-2.605629,-1.3255193,-1.6825485,2.494545,1.8036627,-0.60611725,-7.971924,0.0,0.0,0.0,0.0,0.0,0.0,0.0,0.0,0.0,0.0,0.0,0.0,-0.043699317,-0.8703799,0.9068402,0.98050565,0.94412863,-0.99785113,-0.9905413,-0.124884464,-0.36064488,0.98391294,-0.9854753,0.8528787
2025-06-04 17:23:47.445,-0.057061,-3.63739,16.567617,0.4422661,0.74485654,0.03147462,-1.535494,-1.62848,0.287297,-0.00034332275,0.30590057,-1.5863266,-1.3156878,-1.7863083,3.9203491,1.8645763,1.5818405,0.7342644,0.1027298,1.7751694,-7.05394,-0.60187787,-0.42339325,4.2426186,1.7620295,1.4895248,-14.9874115,-0.105781555,-0.06526947,0.009155273,-1.1146494,-0.35282135,4.6076126,1.8716915,-0.64380646,-4.379341,0.08861542,-0.11943817,2.4310684,-1.3909795,-0.560112,-1.3885727,1.8708013,1.3041306,0.79529953,0.0,0.0,0.0,0.0,0.0,0.0,0.0,0.0,0.0,0.0,0.0,0.0,-0.9952482,-0.042286318,0.9995807,-0.028506149,0.00856487,-0.9994753,0.28228188,-0.98774606,-0.9995547,0.9993562,-0.940911,0.9994723
2025-06-04 17:23:47.496,-0.186456,-0.290956,17.474085,-0.08534355,0.12401025,0.38785806,-5.638795,2.42765,21.56239,-0.030708313,-0.20069122,-2.3944473,-1.3469683,1.1210251,11.156788,1.9015026,0.13454437,6.5253677,0.11127472,0.047416687,-5.863735,-0.7283732,-2.109188,-2.6153946,1.8345088,0.014381409,-13.437096,-0.10974884,-0.31604767,7.820553,-1.2004839,-0.9440994,-7.687496,1.8484981,-0.5967331,-11.339895,0.088768005,0.46489716,0.07873535,-1.4142492,-0.17223358,-0.17517471,1.9426702,1.2688065,0.42053986,0.0,0.0,0.0,0.0,0.0,0.0,0.0,0.0,0.0,0.0,0.0,0.0,-0.99836135,0.3330285,0.9985779,-0.9123274,-0.55701363,-0.9948345,0.99282324,-0.986839,-0.9992191,0.99945277,-0.8987564,0.99901384
2025-06-04 17:23:47.547,-0.011844,-2.091903,18.64458,0.5865875,-1.3667679,0.1560577,3.089023,-2.206922,9.602359,-0.051612854,-0.75595856,-0.8685417,-1.1692797,3.6430016,-1.399559,1.9480419,1.2646103,0.18982315,0.101890564,0.29247284,-9.275654,-0.8715007,-2.886776,-6.0517273,1.8104762,-0.6922531,-8.770275,-0.107688904,0.2437973,8.88014,-1.2936388,-2.3587456,1.9684143,1.8263729,-0.39150238,-11.565729,0.0951004,-0.38555145,1.3775864,-1.4234807,-0.03856659,-0.119018555,1.9881414,0.6836319,0.6305046,0.0,0.0,0.0,0.0,0.0,0.0,0.0,0.0,0.0,0.0,0.0,0.0,-0.99805844,0.687866,0.99605465,-0.96750057,-0.75494725,-0.9839007,0.999172,-0.96099424,-0.998177,0.99958295,-0.546118,0.99879014
2025-06-04 17:23:47.598,1.641715,-5.644458,18.399574,0.5490159,-0.7507842,-0.17515759,2.871278,-2.148336,7.949851,-0.07030487,-0.61237335,0.04333496,-0.97373456,3.493084,-0.37537384,1.9895458,0.5528641,0.27527237,0.110816956,-0.104637146,-8.958267,-0.99769086,-1.9402695,-7.6948204,1.7924708,0.024681091,-11.44976,-0.08808136,0.20145416,7.471428,-1.4054095,-1.664772,5.6684227,1.7889125,-0.937233,-7.2101936,0.094947815,0.41950226,-1.4618149,-1.3845708,-0.40584564,8.056152,2.0072913,-0.033836365,2.9059296,0.0,0.0,0.0,0.0,0.0,0.0,0.0,0.0,0.0,0.0,0.0,0.0,-0.99846566,0.86098933,0.9776552,-0.936109,-0.856756,-0.98111427,0.99895334,-0.91971815,-0.9887763,0.9991919,0.3489508,0.9979323
2025-06-04 17:23:47.649,1.627843,-5.978296,17.16004,-0.33557186,-0.05070417,-0.3875076,1.415479,1.579242,8.401263,-0.077171326,-0.082588196,-1.3372993,-0.8185527,2.499279,-0.5645828,2.0119,0.33496857,0.49744415,0.07923126,-0.64868927,-5.4267197,-1.0938975,-1.8370438,-5.327839,1.7991847,0.34015656,-12.746166,-0.08052826,0.030403137,8.220951,-1.4638506,-1.3145065,6.986801,1.7166622,-1.361351,-1.8622093,0.09807587,0.5390549,-0.57678986,-1.2019994,2.037548,7.3713264,2.0188117,-0.081596375,2.3785782,0.0,0.0,0.0,0.0,0.0,0.0,0.0,0.0,0.0,0.0,0.0,0.0,-0.99938905,0.97199595,0.49476767,-0.92936784,-0.9146279,-0.9567676,0.9948756,-0.9280574,-0.93885076,0.9974949,0.9152243,0.9709224
2025-06-04 17:23:47.700,1.073773,-5.530231,15.482026,-0.40735507,-0.054100476,-0.53356636,1.726579,2.797664,8.618559,-0.08136749,-0.053596497,-0.8844147,-0.70167035,1.9022751,-0.31799698,1.9857311,-0.69065094,-0.06896973,0.045204163,-0.56194305,-4.7711906,-1.1856829,-1.9809341,-3.2452888,1.8102473,-0.009346008,-11.815975,-0.067481995,0.39943695,7.1161957,-1.518706,-1.1359024,8.745861,1.6450222,-1.4075089,1.6082993,0.09716034,0.049705505,1.0577545,-0.9613683,4.002651,-0.2459755,2.0268226,0.06198883,0.940567,0.0,0.0,0.0,0.0,0.0,0.0,0.0,0.0,0.0,0.0,0.0,0.0,-0.9996462,0.971284,-0.97185326,-0.8229553,-0.9032458,0.40634018,0.9464303,-0.9798829,-0.9622201,0.9910784,0.86934674,-0.6834386
2025-06-04 17:23:47.751,0.912079,-5.265005,14.342141,-0.21523651,0.81894255,-0.4696772,-2.102847,-1.68013,-0.926121,-0.10059357,-0.55698395,1.9757385,-0.62713116,1.0419083,-0.41565704,1.8324566,-2.895855,-0.4022293,0.027198792,-0.5929947,-2.793621,-1.2808977,-1.1965561,-3.4930954,1.8757838,1.7549515,-5.888153,-0.03803253,1.0124588,1.5814438,-1.5585314,0.48099518,2.3248634,1.5817745,-0.5831528,0.9723053,0.10677338,-0.0030136108,-0.18616104,-0.83227897,1.201973,6.503395,1.9292425,-1.8423843,-6.5998306,0.0,0.0,0.0,0.0,0.0,0.0,0.0,0.0,0.0,0.0,0.0,0.0,-0.98282874,0.35108587,-0.99889696,0.8725522,-0.49454272,0.9999249,-0.6483147,-0.9927035,-0.9320675,0.41594687,-0.8700967,-0.99201554
2025-06-04 17:23:47.802,-1.30923,-0.502221,12.129726,0.702546,-0.06942318,-0.3221179,-2.808897,-2.211654,26.040928,-0.13263702,-0.08281708,0.62073517,-0.7046458,-2.1115532,3.925232,1.8521404,0.09616852,-14.787212,0.035743713,0.47527313,0.9356842,-1.3092028,-0.04940033,3.994812,1.9481868,0.42430878,3.5516891,-0.035362244,-0.010566711,-0.3253212,-1.5349566,-0.16757965,3.1329842,1.5668209,-0.5990982,1.9720764,0.118370056,0.07297516,-4.925003,-0.9427526,-2.2224083,-11.610893,1.9026922,0.3548813,-17.426414,0.0,0.0,0.0,0.0,0.0,0.0,0.0,0.0,0.0,0.0,0.0,0.0,-0.41790026,-0.44525516,-0.99521786,0.9869625,0.7198745,0.996807,-0.9336465,-0.9919341,-0.3143742,-0.8011055,-0.9247147,-0.9985631
2025-06-04 17:23:47.853,-2.521188,-2.691799,11.914518,-0.9218293,-1.249682,0.2721646,2.07809,0.088583,10.66933,-0.122795105,0.34168243,2.424965,-0.8444926,-1.9394302,-7.8132286,1.8355846,-0.7526779,-10.480507,0.052604675,0.017356873,1.1615181,-1.0726115,4.572109,-0.87342453,1.9873255,0.8175278,0.25696182,-0.065956116,-1.0135269,1.2518501,-1.5938555,-1.0603714,10.3266945,1.5611751,-0.1996994,7.5397873,0.08869171,-0.7191086,-4.5868607,-1.0611608,-2.450451,-5.6440086,1.8956732,-0.3067398,-15.432976,0.0,0.0,0.0,0.0,0.0,0.0,0.0,0.0,0.0,0.0,0.0,0.0,0.25675914,-0.87798136,-0.9997193,0.99001116,0.92304367,0.99439937,-0.92467415,-0.8546172,0.93037283,-0.65109575,-0.9437609,-0.9886511
2025-06-04 17:23:47.904,-4.152805,-5.470761,13.435226,-0.14705986,-0.54333836,0.50042355,3.984367,-0.026411,8.235689,-0.09479523,0.61351776,2.4725723,-0.95862836,-1.9592667,-12.625315,1.8149853,-0.14575958,-11.623102,0.06778717,0.16483307,0.5975418,-0.8648631,3.4187737,-0.37903595,2.0122738,0.4668808,0.57190704,-0.09037018,-0.5247879,1.7816429,-1.6105639,0.31375885,8.125736,1.673022,3.0480614,3.9093628,0.067100525,-0.27973175,-4.7675285,-1.1788061,-2.1841087,-3.1268806,1.8714117,-0.6864548,-12.000305,0.0,0.0,0.0,0.0,0.0,0.0,0.0,0.0,0.0,0.0,0.0,0.0,0.4565118,-0.9631971,-0.99992996,0.9977631,0.9790625,0.9634994,-0.97103524,0.020234501,0.9995561,0.05635826,-0.7796229,-0.873688
2025-06-04 17:23:47.955,-4.223461,-5.774936,14.986004,0.6952111,0.6626262,0.64421254,2.446968,-2.446981,10.759131,-0.05306244,1.2076187,-1.7792015,-1.0427042,-1.1828232,-13.590906,1.8165874,0.34168243,-14.59556,0.079841614,-0.009269714,0.95643616,-0.726237,2.3005333,0.37781525,2.0276852,0.32474518,0.30090714,-0.10662079,-0.32794952,1.6241684,-1.4978777,4.008526,6.023651,1.7610652,2.607235,1.9781799,0.07198334,-0.034599304,-3.5382614,-1.2511327,-1.2617874,-0.91737366,1.8200659,-1.1634445,-6.2507057,0.0,0.0,0.0,0.0,0.0,0.0,0.0,0.0,0.0,0.0,0.0,0.0,0.59672177,-0.94076777,-0.99876577,0.99671656,0.97886527,0.26652628,-0.98474336,0.320173,0.9994206,0.5223423,-0.77872443,-0.90074337
2025-06-04 17:23:48.006,-2.496701,-4.514091,16.597672,0.5695604,0.34987038,0.5396768,4.101935,-0.804156,5.887098,-0.0002670288,1.0718918,-1.465477,-1.1175486,-1.6621017,-8.255131,1.8222332,-0.036888123,-13.033035,0.08289337,-0.2779007,0.895401,-0.64513654,0.3495407,2.0660706,1.9764918,-0.93349457,-0.7537956,-0.11676788,0.36380768,0.13611221,-1.3107287,4.123272,-1.2921333,1.8425472,1.9193649,1.1273384,0.0938797,-0.26622772,-2.7264824,-1.3049963,-1.5937424,2.990158,1.7630743,-0.9746933,-4.4513626,0.0,0.0,0.0,0.0,0.0,0.0,0.0,0.0,0.0,0.0,0.0,0.0,0.53296316,-0.9354897,-0.84005153,0.9936487,0.96748847,-0.9487704,-0.99222183,0.47950175,0.98922527,0.9403264,-0.92394626,-0.1680514
2025-06-04 17:23:48.057,-0.764759,-3.850302,17.283352,0.40900114,-0.09009292,0.0057152025,-0.300616,-1.448184,7.37076,0.019493103,0.23090363,0.7464714,-1.2211596,-2.1884575,-0.64881516,1.8194103,-0.15628815,-10.359655,0.08274078,0.3333664,-0.28015518,-0.5988261,0.61603546,0.41687775,1.8256587,-2.4693718,-0.68543625,-0.11379242,-0.3157425,0.65247726,-1.1457812,1.8137741,8.898453,1.9039638,0.75862885,3.794613,0.11455536,0.36830902,-2.7215996,-1.3912847,-1.7133713,5.2216377,1.7543005,0.016670227,0.27038956,0.0,0.0,0.0,0.0,0.0,0.0,0.0,0.0,0.0,0.0,0.0,0.0,-0.7915423,-0.89486223,0.98911124,0.94387287,0.930062,-0.9987453,-0.94390893,-0.7403809,-0.9505116,0.9984195,-0.9821064,0.9829814
2025-06-04 17:23:48.108,0.579405,-2.923326,16.749012,0.0782366,0.54690987,-0.2910467,-4.739189,-0.99365,13.975703,-0.0037765503,-0.61504364,-0.665905,-1.3240038,-1.7164993,3.0878143,1.9014263,1.055336,2.4969864,0.08937836,-0.20633698,1.5790024,-0.6204936,-1.3656235,9.195087,1.7985743,1.7237473,-19.181812,-0.12805939,-0.40737152,3.5663376,-1.1853777,-1.6665268,0.16296768,1.8699367,-0.082206726,-14.517433,0.11592865,-0.44101715,1.9659729,-1.443012,-0.6520462,2.4542618,1.8480657,2.4326744,0.004272461,0.0,0.0,0.0,0.0,0.0,0.0,0.0,0.0,0.0,0.0,0.0,0.0,-0.9991154,0.19829935,0.99922216,-0.523729,-0.2981165,-0.9991476,0.708572,-0.9940502,-0.99938345,0.99896336,-0.9584091,0.9986361
2025-06-04 17:23:48.159,0.841819,-2.273603,16.078913,0.29563737,-1.120123,0.04533409,1.381652,2.451824,15.596355,-0.02986908,-0.11211395,-1.7633324,-1.1939989,3.4540215,-2.1026917,1.9517803,1.0798264,0.31799698,0.05214691,0.057868958,-3.9630737,-0.75950116,-2.2479668,-6.8830414,1.8387812,-0.31917572,-12.21027,-0.10761261,0.25112152,6.6694145,-1.2741076,-2.2597923,0.16540909,1.8563564,-0.24959564,-13.481041,0.11264801,-0.26302338,0.06286621,-1.4525487,0.10234833,-0.11779785,1.9310735,1.2449265,0.65369797,0.0,0.0,0.0,0.0,0.0,0.0,0.0,0.0,0.0,0.0,0.0,0.0,-0.9983055,0.5553286,0.99752027,-0.9620807,-0.6274281,-0.9886431,0.99840033,-0.9805887,-0.9990323,0.9995153,-0.80225915,0.99897176
2025-06-04 17:23:48.210,2.661286,-5.724929,16.224241,0.08819248,-0.35820076,-0.020188956,1.869282,-0.54644,9.803103,-0.058174133,0.07671356,-0.7501335,-1.0111948,3.0183067,-0.79529953,1.9948101,0.7478714,-0.14709854,0.052223206,-0.16231537,-6.040741,-0.89194745,-1.7705154,-10.269321,1.8177241,-0.42804718,-11.012741,-0.08037567,0.18352509,7.2968636,-1.3700854,-1.2704849,1.5863266,1.8230922,-1.0769272,-8.155031,0.11821747,0.299263,-0.8624382,-1.471317,0.010643005,4.5258255,1.9582342,0.6418991,2.383461,0.0,0.0,0.0,0.0,0.0,0.0,0.0,0.0,0.0,0.0,0.0,0.0,-0.9982322,0.7707823,0.9911063,-0.96631354,-0.7600897,-0.97752005,0.9993319,-0.95038,-0.9967961,0.99933124,-0.28569022,0.9985
2025-06-04 17:23:48.261,2.984484,-6.540261,15.431483,-0.21009047,0.20529589,-0.5639156,0.996896,1.965593,10.056458,-0.07358551,-0.3233719,-0.58167267,-0.85799664,2.6275291,0.08239746,2.0172405,0.12424469,1.4349594,0.03238678,-0.3646469,-3.3075447,-0.983195,-1.6802597,-10.390175,1.8161219,0.20992279,-13.114822,-0.06656647,0.104408264,6.0419617,-1.4283739,-1.1946487,3.5004196,1.7565639,-1.3269424,-3.9679565,0.12096405,0.26599884,-2.8485527,-1.4108922,0.5395889,10.235142,1.968305,0.22525787,4.400093,0.0,0.0,0.0,0.0,0.0,0.0,0.0,0.0,0.0,0.0,0.0,0.0,-0.9984716,0.89314926,0.9661501,-0.8635141,-0.91327435,-0.9888494,0.99772924,-0.8964919,-0.971487,0.9990189,0.63837034,0.998095
2025-06-04 17:23:48.312,2.559507,-6.041302,13.610384,-0.69375175,0.7271606,-0.8929425,1.00743,4.071773,8.689044,-0.0812912,0.26576996,-2.6044083,-0.7437083,1.9775009,0.28015518,2.029829,0.13683319,0.38025665,-0.0060653687,-0.9506607,-0.40467072,-1.0543009,-1.4621353,-11.053024,1.8323725,0.07732391,-13.689785,-0.048713684,0.6354141,5.09346,-1.464995,-0.65769196,4.699169,1.6860683,-1.4361954,-0.31311417,0.12554169,-0.48854828,-0.09460449,-1.1968877,5.843319,-2.7350273,1.9837164,0.79029083,0.5072098,0.0,0.0,0.0,0.0,0.0,0.0,0.0,0.0,0.0,0.0,0.0,0.0,-0.9993744,0.9739226,0.2515593,-0.8811741,-0.93325996,-0.96800745,0.9863979,-0.92256784,-0.8958241,0.9967861,0.95090586,0.95779073
2025-06-04 17:23:48.363,2.02596,-6.104724,12.358725,0.19625747,-0.27520666,-0.15507096,1.950554,1.236246,9.051158,-0.08342743,-0.3647995,0.083618164,-0.6580302,1.4621353,0.09460449,1.9748974,-0.69683075,-1.1212311,-0.01285553,-0.03993988,-4.052185,-1.1589037,-2.0547905,-4.126652,1.832754,-0.047798157,-12.733959,-0.035820007,0.21717072,5.3205147,-1.5302263,-1.1582565,8.444344,1.6352565,-0.9446335,0.20569229,0.11348724,-0.668602,1.0577545,-0.949085,4.384197,0.0982666,2.006681,0.2917862,0.61341095,0.0,0.0,0.0,0.0,0.0,0.0,0.0,0.0,0.0,0.0,0.0,0.0,-0.99958587,0.9718954,-0.97723705,-0.7216879,-0.9127152,0.5075232,0.9030563,-0.98057866,-0.960069,0.98890364,0.8416181,-0.79706186
2025-06-04 17:23:48.414,1.873672,-5.618517,12.388925,-0.81986356,1.6073915,-0.3526945,-2.774679,0.984829,2.104012,-0.10028839,-0.32169342,1.0321198,-0.6024119,1.0058212,-0.00793457,1.821928,-3.036541,-0.206913,-0.015830994,-0.6896591,-0.68421555,-1.2528979,-0.6927872,-4.474556,1.8995875,1.7271042,-5.6049423,-0.015220642,1.1644363,0.53162384,-1.5572344,0.78517914,1.1725044,1.5842922,-0.17467499,-0.048217773,0.11867523,-0.19039154,-0.2923622,-0.8320501,1.114769,5.8466454,1.9200872,-1.914711,-7.311512,0.0,0.0,0.0,0.0,0.0,0.0,0.0,0.0,0.0,0.0,0.0,0.0,-0.9780312,0.09156316,-0.99907434,0.9033178,-0.331224,0.99992335,-0.697103,-0.9930879,-0.902449,0.33404785,-0.8754038,-0.99187964
2025-06-04 17:23:48.465,-1.049543,-0.636264,11.109755,0.37345412,-0.18711641,-0.03710287,-1.505134,-1.595928,26.291359,-0.1254654,-0.0863266,0.57068634,-0.6950328,-2.495617,-0.3680458,1.8379498,0.5565262,-16.103151,-0.0018692017,0.19390106,3.486992,-1.275252,-0.69797516,9.213398,1.9656581,-0.40721893,5.674526,-0.022392273,-0.18825531,-1.1334419,-1.5364062,-0.8522415,5.098343,1.5694911,-0.6633377,2.560463,0.118522644,0.38265228,-6.532692,-0.9453466,-2.2868767,-11.206837,1.8890356,0.21907806,-16.913712,0.0,0.0,0.0,0.0,0.0,0.0,0.0,0.0,0.0,0.0,0.0,0.0,-0.3462374,-0.56878304,-0.9961276,0.98495275,0.78755975,0.9961383,-0.92905086,-0.98680854,-0.005211256,-0.7548379,-0.93671834,-0.9982329
2025-06-04 17:23:48.516,-3.144322,-3.144867,10.910676,-1.0494587,-1.4482749,0.24238056,1.041747,0.471635,9.692701,-0.11638641,0.5905533,2.3651466,-0.8432719,-2.3203697,-9.389181,1.8384075,-0.44223785,-11.623102,0.03238678,0.32619476,0.44373322,-1.0363718,4.5498314,-1.0455475,1.9963282,0.4695511,0.53772736,-0.053977966,-0.77991486,1.3617134,-1.6131579,-1.3936234,12.154118,1.5776546,0.33039093,8.617683,0.091667175,-0.7551956,-4.9311066,-1.0720708,-2.8980675,-4.945755,1.8827032,-0.28438568,-14.619972,0.0,0.0,0.0,0.0,0.0,0.0,0.0,0.0,0.0,0.0,0.0,0.0,0.25303623,-0.9117765,-0.99983364,0.9937663,0.94652766,0.9937276,-0.9376787,-0.7640808,0.97730726,-0.5631759,-0.937573,-0.98199016
2025-06-04 17:23:48.567,-5.043071,-5.709538,12.373304,-0.19767076,-0.5045102,0.5389598,3.512834,-0.69613,8.294572,-0.08571625,0.7481766,1.694973,-0.9555766,-1.8816757,-13.3785,1.8260479,-0.1795578,-12.56428,0.05580902,0.53539276,0.91615295,-0.83640546,3.3025017,-0.71839523,2.018301,0.5235672,0.26306534,-0.084724426,-0.38784027,1.4911118,-1.626433,0.41934967,10.238804,1.6783626,2.0986595,7.5397873,0.071372986,-0.22640228,-4.675976,-1.1871221,-2.01054,-2.5116348,1.8526434,-0.6772995,-11.138477,0.0,0.0,0.0,0.0,0.0,0.0,0.0,0.0,0.0,0.0,0.0,0.0,0.4784628,-0.94161624,-0.9998463,0.99698913,0.9778299,0.9444467,-0.97310936,0.08153928,0.9993072,-0.15080419,-0.8621918,-0.9081253
2025-06-04 17:23:48.618,-5.080793,-5.865638,14.422304,0.5643176,0.5373057,0.8804864,2.556626,-2.365474,8.641643,-0.038871765,0.97759247,-0.22766495,-1.0329386,-1.4326859,-12.55085,1.8320751,0.17589569,-13.997406,0.07228851,-0.037651062,1.6864281,-0.71052045,1.6820908,0.03479004,2.0285244,-0.12371063,0.7428093,-0.10257721,-0.3133011,-0.17883682,-1.5234362,1.6868973,17.985504,1.7387111,1.0638809,11.101852,0.069999695,0.1002121,-4.151066,-1.2612798,-1.0520554,-2.002594,1.7991613,-1.2635422,-5.4364853,0.0,0.0,0.0,0.0,0.0,0.0,0.0,0.0,0.0,0.0,0.0,0.0,0.6583004,-0.9118819,-0.9984505,0.9957564,0.97739476,0.21514492,-0.986839,0.28184173,0.998892,0.20709096,-0.8718702,-0.9277326
2025-06-04 17:23:48.669,-3.383726,-4.539453,16.739037,0.47702459,0.064902216,0.69908917,0.414701,-0.001155,5.96351,0.020561218,1.1518478,-1.9952698,-1.1001536,-1.1515427,-9.418478,1.8397808,-0.036201477,-13.494469,0.07915497,0.1707077,-0.2899208,-0.63376874,1.1426163,-1.3092232,1.9711512,-0.9560013,0.018920898,-0.12004852,1.0258102,1.1187897,-1.3515459,5.233654,0.3704872,1.8242366,1.5620804,3.0060272,0.07740021,0.3042984,-4.4440384,-1.3234594,-0.7929611,-0.31311417,1.7431616,-1.1169815,-4.302433,0.0,0.0,0.0,0.0,0.0,0.0,0.0,0.0,0.0,0.0,0.0,0.0,0.59421873,-0.84837925,-0.76303065,0.9892519,0.96690625,-0.96464694,-0.9933625,0.35282058,0.9591847,0.7500381,-0.96370906,-0.4607495
2025-06-04 17:23:48.720,-1.426479,-4.11789,18.099417,0.5112407,-0.01565625,0.24226929,-0.714334,-1.198178,8.012733,0.047035217,0.3143692,-0.029907227,-1.1965166,-2.1976128,-0.5133133,1.8375683,0.056648254,-10.630655,0.079460144,0.2034378,0.3680458,-0.5911967,0.9155655,-0.30456924,1.8149012,-2.6086845,-0.14587784,-0.11646271,-0.16262054,0.2471962,-1.1827837,1.9379044,7.6325645,1.892062,0.97148895,3.3502693,0.08983612,0.22792816,-1.1847115,-1.4138677,-1.4877701,5.274128,1.7195867,-0.30971527,-0.28015518,0.0,0.0,0.0,0.0,0.0,0.0,0.0,0.0,0.0,0.0,0.0,0.0,-0.6686414,-0.8465748,0.9918181,0.95667046,0.9155926,-0.99907976,-0.971585,-0.63094085,-0.96051043,0.9937559,-0.99216,0.96554255
2025-06-04 17:23:48.771,0.160591,-3.155494,17.772116,0.66679066,0.8255626,-0.23233147,-1.377477,-1.751139,7.512822,0.02254486,-1.1337662,-0.99671936,-1.2935625,-1.9926834,2.5116348,1.9179058,1.2303543,1.0003815,0.09288788,0.56728363,-1.1859322,-0.60080975,-1.5005112,8.344244,1.7717189,2.000927,-19.234303,-0.12683868,-0.44460297,4.216984,-1.1994158,-1.1971664,0.18249893,1.846667,-0.2779007,-12.339666,0.097465515,-0.5673599,1.7096214,-1.4597204,-0.6978226,0.7428093,1.8225836,2.317852,0.6720085,0.0,0.0,0.0,0.0,0.0,0.0,0.0,0.0,0.0,0.0,0.0,0.0,-0.9983346,0.2265954,0.99960464,-0.15793025,-0.56138456,-0.9996097,0.51656795,-0.9884916,-0.9992415,0.99899584,-0.93303365,0.99908054
2025-06-04 17:23:48.823,1.084162,-1.981629,17.594585,0.6979906,-1.0023429,0.44410774,0.202163,2.819234,16.949009,-0.015220642,-0.86559296,-0.8514519,-1.2103258,4.0574303,-3.765316,1.9480419,1.2292099,-0.028686523,0.0687027,0.16460419,-4.524605,-0.7640025,-2.9105797,-10.369419,1.8376368,-0.02696991,-13.271076,-0.11768341,-0.06214142,8.020752,-1.28044,-2.1077385,-0.31311417,1.8249996,-0.45497894,-11.402151,0.10295868,0.2312088,-0.5560379,-1.4615514,-0.0037765503,1.1969185,1.9173406,1.2681961,0.7379265,0.0,0.0,0.0,0.0,0.0,0.0,0.0,0.0,0.0,0.0,0.0,0.0,-0.9978259,0.5002486,0.9979627,-0.926121,-0.64031374,-0.9936189,0.9972797,-0.9784772,-0.99904597,0.9995226,-0.7985147,0.9992265
2025-06-04 17:23:48.874,2.94653,-5.368253,18.412416,0.1781168,-0.16011082,-0.16960038,3.780658,-0.99067,10.787474,-0.04673004,0.06694794,-3.7335777,-1.0308787,2.6939812,0.33386612,1.991682,0.42346954,0.68055344,0.06473541,-0.25875092,-5.634243,-0.89431256,-1.9875717,-9.74197,1.8248957,-0.3282547,-11.950256,-0.10555267,0.11806488,9.0351715,-1.3671099,-1.5885544,1.1224518,1.7865474,-0.8374405,-7.1577034,0.11432648,-0.11608124,0.34851456,-1.5009954,-0.59581757,7.4226,1.940534,0.010414124,5.6403465,0.0,0.0,0.0,0.0,0.0,0.0,0.0,0.0,0.0,0.0,0.0,0.0,-0.9980863,0.7526002,0.99300295,-0.9595444,-0.7989464,-0.98233485,0.99926347,-0.9472091,-0.9965776,0.9994068,-0.29520968,0.998873
2025-06-04 17:23:48.925,3.180454,-6.157705,17.0252,-0.50723886,0.19394788,-0.7147538,2.37396,3.092203,10.36295,-0.0674057,-0.22258759,-0.06896973,-0.8764598,2.4290886,0.1727333,2.014799,0.38280487,1.0662994,0.03429413,-1.0517502,-1.7254906,-0.98151654,-1.3206863,-11.686581,1.8293208,0.38463593,-14.174412,-0.09113312,0.31604767,7.5092697,-1.4283739,-1.1546707,3.9398804,1.7265804,-1.1590958,-3.9142456,0.12882233,-0.023536682,-2.1795998,-1.4428594,1.5494919,8.986343,1.9554876,1.0465622,1.3336372,0.0,0.0,0.0,0.0,0.0,0.0,0.0,0.0,0.0,0.0,0.0,0.0,-0.9988754,0.9023715,0.963012,-0.95469046,-0.8692348,-0.97956806,0.9989172,-0.9247155,-0.98593575,0.9989701,0.5299854,0.9976404
2025-06-04 17:23:48.976,2.254474,-5.654932,14.90658,-0.9004425,0.6118408,-0.7085674,-0.997543,5.448143,14.184778,-0.073661804,0.48763275,-3.4198532,-0.7554576,2.45747,-0.15808487,2.027998,0.041236877,0.47058868,-0.0052261353,-0.5714035,-1.7291527,-1.0469767,-1.432457,-9.787136,1.8385524,0.21465302,-14.058441,-0.06855011,0.92258453,5.453575,-1.4752947,-1.0783768,6.299534,1.6631801,-1.2533951,-0.056762695,0.13324738,0.274086,-2.0257874,-1.2443426,3.8243523,6.417946,1.9731115,0.13652802,3.4296188,0.0,0.0,0.0,0.0,0.0,0.0,0.0,0.0,0.0,0.0,0.0,0.0,-0.9994957,0.9721842,0.08113477,-0.95462614,-0.89355147,-0.9057105,0.99402857,-0.9411893,-0.9520257,0.99651355,0.8958376,0.9356213
2025-06-04 17:23:49.027,1.357464,-5.545852,13.33666,-0.3490998,-0.12836123,-0.32405734,1.03062,2.513276,8.612144,-0.07900238,0.051612854,-1.4483871,-0.66382855,1.389885,0.5133133,1.9574261,-1.3690567,-0.01159668,-0.023841858,-0.056495667,-3.3771286,-1.1344858,-1.7337418,-5.053177,1.8407649,-0.0011062622,-12.622871,-0.04673004,0.60214996,4.987259,-1.5338885,-1.098671,8.461433,1.6103084,-1.1551285,1.5655746,0.12233734,-0.48618317,2.195469,-0.98974967,4.5026817,-0.06652832,1.9938635,0.3345871,1.0223541,0.0,0.0,0.0,0.0,0.0,0.0,0.0,0.0,0.0,0.0,0.0,0.0,-0.9997204,0.9625778,-0.98704517,-0.8807649,-0.8297092,0.87699854,0.94919634,-0.98953426,-0.9863877,0.9861364,0.62159014,-0.9264675
2025-06-04 17:23:49.078,0.999655,-5.190014,13.04556,-0.71340257,1.5252328,-0.3195941,-2.126953,1.124348,0.80463,-0.09914398,-0.61473846,2.0575256,-0.60569257,0.60123444,0.20080948,1.8145275,-2.7261772,-0.3949051,-0.02872467,-0.5373764,-1.1981392,-1.2283312,-1.1288834,-2.506752,1.9206446,1.9018936,-3.0206757,-0.01750946,1.2505722,0.44739532,-1.5684496,0.2791214,2.0575256,1.5636928,-0.16819,0.33630753,0.12722015,-0.3962326,-0.72694016,-0.87683463,1.3064194,2.9303436,1.9152044,-1.6170883,-9.096207,0.0,0.0,0.0,0.0,0.0,0.0,0.0,0.0,0.0,0.0,0.0,0.0,-0.9774509,-0.3559433,-0.9995011,0.9045208,0.022076175,0.99992937,-0.6518321,-0.99494505,-0.8559086,0.46203214,-0.8395512,-0.99233496
2025-06-04 17:23:49.129,-1.761852,-0.80241,11.701143,-0.10264597,-0.6287035,-0.4290397,-2.701942,-2.741701,25.55966,-0.13195038,-0.045051575,1.7596703,-0.7327983,-2.97192,-6.15427,1.8533611,0.7327652,-17.293354,-0.0046920776,0.63640594,2.1979103,-1.2273394,1.3087082,7.143055,1.9726008,0.41980743,3.3173103,-0.019111633,0.1392746,-2.4774551,-1.5602099,-1.5121841,9.829861,1.5503414,-0.8940506,5.0128937,0.13134003,0.3647995,-5.142292,-0.97983146,-2.2571983,-10.52079,1.8820928,0.013465881,-15.514763,0.0,0.0,0.0,0.0,0.0,0.0,0.0,0.0,0.0,0.0,0.0,0.0,-0.5572327,-0.81244075,-0.9979635,0.9841415,0.87288713,0.9950652,-0.89238197,-0.9680715,0.6857643,-0.36165228,-0.9203123,-0.9950296
2025-06-04 17:23:49.180,-4.416745,-3.805616,11.263139,-0.9511483,-1.1684713,0.28657413,2.38369,0.012023,9.715137,-0.13095856,-0.08365631,3.2562752,-0.8823344,-2.2395744,-12.75349,1.8538189,-0.38829803,-12.93782,0.032539368,0.40225983,0.37781525,-0.9771678,4.5015373,-1.6546898,2.0035,0.58322906,0.57678986,-0.04261017,-0.77861786,0.38636017,-1.6519152,-1.4467239,15.259632,1.6090114,1.6115189,10.355991,0.110816956,-0.67058563,-4.766308,-1.1028936,-2.5312462,-3.99115,1.8650793,-0.54058075,-12.469063,0.0,0.0,0.0,0.0,0.0,0.0,0.0,0.0,0.0,0.0,0.0,0.0,-0.36606374,-0.9686099,-0.9999516,0.9984243,0.9781296,0.98942053,-0.9523461,-0.47619137,0.9989142,-0.092328556,-0.8723326,-0.94185984
2025-06-04 17:23:49.231,-6.039045,-5.545424,12.760348,-0.050885092,-0.11801702,0.53616923,1.812585,-1.581064,8.36663,-0.10562897,0.5841446,0.10559082,-0.98136395,-1.4916611,-15.074083,1.8493176,0.008201599,-14.222019,0.05634308,0.20626068,1.6400414,-0.79719037,3.0460777,-0.7501335,2.0228786,0.3686142,0.48523712,-0.07457733,-0.14827728,0.06896973,-1.6325365,0.72582245,15.559929,1.6874416,1.1929703,12.091858,0.09426117,-0.16765594,-3.7128258,-1.1984136,-1.6275406,-2.822918,1.822965,-1.062355,-7.708248,0.0,0.0,0.0,0.0,0.0,0.0,0.0,0.0,0.0,0.0,0.0,0.0,-0.27130178,-0.9668191,-0.9998569,0.99845177,0.98445946,0.87193346,-0.96887696,0.007839501,0.9996902,0.15257071,-0.8111001,-0.9173751
2025-06-04 17:23:49.282,-5.84244,-5.122557,14.467463,0.6249296,0.53591245,0.7011134,1.406585,-3.665397,9.12525,-0.06389618,1.1296463,-3.347828,-1.0581919,-1.2633896,-13.307697,1.8538952,0.21717072,-15.241322,0.070991516,0.004310608,1.2957954,-0.6847331,1.7643356,0.26916885,2.0260067,0.11669159,0.036010742,-0.0976181,-0.08113861,1.3104439,-1.5245043,3.1373253,10.025177,1.7503841,1.5628433,6.5754166,0.09151459,-0.13149261,-2.847332,-1.2637975,-0.8835983,-1.039444,1.7658209,-1.1202621,-4.1608315,0.0,0.0,0.0,0.0,0.0,0.0,0.0,0.0,0.0,0.0,0.0,0.0,-0.04252638,-0.95398396,-0.99915373,0.99796486,0.98321676,0.16164078,-0.9776569,0.20812793,0.99951047,0.300662,-0.8288377,-0.91227716
2025-06-04 17:23:49.333,-4.302277,-3.797455,16.092056,1.0525938,0.6163313,0.6133359,3.732147,-5.214236,10.25606,-0.024986267,0.8011246,-3.2343025,-1.1289927,-1.2908554,-9.270771,1.8542004,-0.015220642,-14.532082,0.07671356,0.35747528,0.38758087,-0.62110394,0.99918365,0.30212784,1.963827,-1.3653183,0.22034073,-0.11249542,-0.6190872,1.1944771,-1.3845049,3.6298027,9.196308,1.8202693,2.8742638,-0.004272461,0.09082794,0.03177643,-2.7338066,-1.3210943,-1.1372757,1.3946762,1.7147802,-0.7916641,-3.3868942,0.0,0.0,0.0,0.0,0.0,0.0,0.0,0.0,0.0,0.0,0.0,0.0,0.19779997,-0.95179904,-0.97445405,0.9963474,0.97755265,-0.89287907,-0.98700124,0.42368913,0.9970338,0.76950026,-0.91122925,-0.4284205
2025-06-04 17:23:49.384,-1.531457,-2.906129,16.8024,1.4569016,0.55907196,0.07811717,-2.191661,-4.594245,7.5615,-0.0033187866,0.26981354,-0.053100586,-1.2142168,-1.7144394,-3.0707245,1.8394756,-0.045433044,-12.896315,0.081214905,-0.7437515,3.482109,-0.5797526,0.902977,-0.72571945,1.8195552,-2.6632347,0.3277626,-0.11257172,0.16345978,-0.42664337,-1.1847674,3.8698997,0.03479004,1.8969448,1.40522,1.5057602,0.10570526,-0.19603729,-0.7904167,-1.3967016,-1.4917374,4.6686516,1.7034887,-0.1568985,-0.03845215,0.0,0.0,0.0,0.0,0.0,0.0,0.0,0.0,0.0,0.0,0.0,0.0,-0.6830696,-0.8732794,0.983179,0.97536296,0.9277004,-0.9990276,-0.97414446,-0.5179711,-0.9011899,0.9898356,-0.99070305,0.9427121
2025-06-04 17:23:49.435,0.310833,-1.80871,15.85469,-0.108919695,0.5910487,-0.67200077,-9.138189,3.459934,18.959286,-0.027961731,-0.4994583,0.42664337,-1.3063799,-1.3347244,0.6976433,1.9121075,1.1379623,1.6278343,0.083351135,-0.8789444,3.3417244,-0.61469525,-1.2639236,8.448006,1.8154353,2.0833244,-21.34859,-0.12607574,-0.50380707,3.1061249,-1.1909472,-0.79502106,0.63904953,1.8494899,-0.7091141,-10.204624,0.107688904,-0.33618927,1.1920357,-1.4562109,0.19535065,-1.0894928,1.8066381,2.399868,0.26184464,0.0,0.0,0.0,0.0,0.0,0.0,0.0,0.0,0.0,0.0,0.0,0.0,-0.99812675,0.16549368,0.999667,-0.109794654,-0.5433036,-0.9996451,0.5059602,-0.988813,-0.99936146,0.9990813,-0.9288062,0.99924487
2025-06-04 17:23:49.486,1.501181,-1.733742,15.24379,0.58768916,-1.4193623,0.24582307,3.851925,3.20822,14.751003,-0.040779114,-0.23281097,-2.4762344,-1.175078,2.8817406,-0.79529953,1.9641399,0.99147797,0.72816086,0.05214691,0.09372711,-3.916687,-0.77338666,-3.0602684,-7.5764084,1.8515986,-0.57193756,-12.123596,-0.106544495,0.25615692,6.131077,-1.283568,-2.5320091,1.5582504,1.8254573,-0.3823471,-11.732967,0.11051178,0.36067963,-0.3607216,-1.4604833,-0.06465912,0.68665695,1.9047521,1.4274979,0.5242996,0.0,0.0,0.0,0.0,0.0,0.0,0.0,0.0,0.0,0.0,0.0,0.0,-0.9971515,0.46195295,0.9985012,-0.8350767,-0.7486714,-0.99616855,0.99454105,-0.96752,-0.99858016,0.9995259,-0.75377434,0.9992976
2025-06-04 17:23:49.537,3.353479,-5.0443,15.993104,-0.023296375,-0.22071509,-0.15091598,4.566617,0.255338,9.91956,-0.06427765,-0.25669098,-0.72938156,-1.0176035,2.5416222,0.01159668,1.9996929,0.49541473,0.94667053,0.047950745,-0.36144257,-4.778515,-0.9054515,-1.8497086,-11.964905,1.834051,-0.40225983,-11.881897,-0.08945465,-0.040550232,8.627451,-1.3661181,-1.2512589,1.411766,1.7857845,-0.8413315,-7.5922775,0.122413635,0.5753708,-3.1732674,-1.499088,0.28224945,6.002899,1.9298528,0.9708023,2.0868225,0.0,0.0,0.0,0.0,0.0,0.0,0.0,0.0,0.0,0.0,0.0,0.0,-0.99743366,0.717522,0.99531317,-0.8938043,-0.8615982,-0.9910067,0.99871,-0.9308989,-0.9947232,0.9994949,-0.16484948,0.9992438
2025-06-04 17:23:49.588,3.496267,-5.938226,14.992224,-0.14909871,0.11971461,-0.6296333,2.09206,0.020839,8.382379,-0.080451965,-0.06839752,-0.15930557,-0.8735606,2.2424736,-0.547493,2.022581,0.22289276,0.21667862,0.023231506,-0.93852997,-1.6888695,-0.98998517,-1.0446548,-13.293049,1.8317622,-0.029563904,-13.108719,-0.076942444,0.6355667,6.8537407,-1.4206682,-0.8727646,2.3846817,1.7237575,-1.3653946,-2.6410332,0.13179779,-0.051460266,-0.9808502,-1.4162328,3.3491173,0.9637604,1.9502996,0.6960678,2.4005508,0.0,0.0,0.0,0.0,0.0,0.0,0.0,0.0,0.0,0.0,0.0,0.0,-0.9986085,0.9054417,0.9684158,-0.8844234,-0.91634643,-0.9904181,0.997734,-0.8990847,-0.97134715,0.99904066,0.70508516,0.99832684
2025-06-04 17:23:49.639,2.538745,-5.450004,13.121687,-0.6932085,0.40122268,-0.88855875,5.089377,2.332091,7.177748,-0.08480072,0.17024994,-0.19592667,-0.7524821,1.3970566,0.012817383,2.0325756,0.13599396,0.26672745,-0.016441345,-0.72582245,0.38880157,-1.0590311,-1.5734482,-11.399712,1.8391627,0.0035476685,-13.5494,-0.061912537,0.25600433,6.5473404,-1.4659868,-0.7677078,5.1642647,1.6602046,-1.2611008,-0.009155273,0.13866425,-0.55706024,-0.48401642,-1.2061193,6.025055,-0.2496376,1.9676946,0.98781586,0.4779129,0.0,0.0,0.0,0.0,0.0,0.0,0.0,0.0,0.0,0.0,0.0,0.0,-0.99940264,0.974136,0.10072106,-0.8973398,-0.9326809,-0.95580477,0.9852789,-0.9281537,-0.90458834,0.9968183,0.9499071,0.9438167
2025-06-04 17:23:49.690,1.771697,-5.610584,11.965201,0.020903861,-0.2320377,-0.16449359,2.523856,1.793521,8.458926,-0.0838089,-0.087776184,-0.5511551,-0.6632945,1.2171555,0.0982666,1.962843,-1.4741135,-0.2459755,-0.020637512,0.27256012,-4.249943,-1.1577593,-2.0900383,-3.8776245,1.8390864,-0.0063705444,-12.968338,-0.040397644,0.66547394,4.4306107,-1.5323626,-1.3716507,9.347675,1.610995,-0.97263336,1.8023949,0.12081146,-0.76999664,0.9686432,-0.9479406,4.4216576,-0.13977432,1.9944738,0.41110992,0.75745773,0.0,0.0,0.0,0.0,0.0,0.0,0.0,0.0,0.0,0.0,0.0,0.0,-0.9995969,0.97088426,-0.98276675,-0.72256327,-0.9038944,0.70674324,0.8888084,-0.9835512,-0.9699441,0.98715293,0.7695724,-0.87535423
2025-06-04 17:23:49.741,1.451195,-5.15698,12.074965,-0.8272865,1.5545425,-0.22563845,-1.342503,1.018217,1.307208,-0.10120392,-0.07358551,0.6952019,-0.6052348,0.8823776,-0.13611221,1.8142986,-2.8336754,-0.10559082,-0.020256042,-0.7049942,-0.30212784,-1.2535845,-0.852623,-4.2389565,1.9141597,1.9826889,-5.289997,-0.017280579,1.256752,0.2825966,-1.5628802,0.9292984,1.7169456,1.566592,-0.10959625,0.01159668,0.12462616,-0.073890686,-0.5169754,-0.83647513,1.3524246,4.0180054,1.9112371,-1.9851303,-7.6203537,0.0,0.0,0.0,0.0,0.0,0.0,0.0,0.0,0.0,0.0,0.0,0.0,-0.9595786,0.27059764,-0.9983445,0.9465571,-0.3769529,0.9999056,-0.84720904,-0.99025905,-0.8949336,-0.025059061,-0.90898955,-0.9918684
2025-06-04 17:23:49.792,-1.302178,-0.002791,11.074823,0.3417659,-0.29960024,0.10147257,-2.919976,-2.816561,25.915752,-0.12676239,0.27187347,0.26306534,-0.68801373,-2.2666588,1.4178696,1.8519878,0.62496185,-16.597544,0.0020217896,0.42606354,2.6605644,-1.2728106,0.76099396,2.367588,1.9755763,0.45078278,2.9498749,-0.031318665,-0.38654327,-0.17395401,-1.5367876,-0.383873,4.9567413,1.5576656,-0.6081009,2.7496758,0.11943817,0.42255402,-6.6523247,-0.94969535,-2.5183525,-11.435112,1.8878912,0.14911652,-16.379036,0.0,0.0,0.0,0.0,0.0,0.0,0.0,0.0,0.0,0.0,0.0,0.0,-0.07305216,-0.40243968,-0.99667895,0.9868523,0.7599881,0.9973876,-0.9472378,-0.9908652,-0.36111003,-0.88957715,-0.9488728,-0.99906886
2025-06-04 17:23:49.843,-3.665406,-3.008668,11.686638,-0.75238734,-1.2916732,0.47117695,2.447874,0.33072,8.999244,-0.10204315,0.542717,2.0465393,-0.82389325,-1.731453,-9.55764,1.8395519,-0.82775116,-10.142366,0.037117004,0.48633575,0.5120926,-1.0343882,4.2005577,-1.2079048,2.00556,0.4606247,0.56702423,-0.070991516,-0.5862045,2.6837578,-1.6088854,-1.3158798,10.856487,1.546603,-0.09693146,7.64233,0.08563995,-0.5901718,-4.8285637,-1.0786321,-2.4550285,-5.9479675,1.8795751,-0.3520584,-14.236668,0.0,0.0,0.0,0.0,0.0,0.0,0.0,0.0,0.0,0.0,0.0,0.0,0.5908329,-0.79110426,-0.99950725,0.9789763,0.91136825,0.9960146,-0.93492377,-0.8508078,0.8627577,-0.7758142,-0.96004605,-0.99261504
2025-06-04 17:23:49.894,-5.076293,-5.563256,13.544074,-0.19197384,-0.6015268,0.6200951,3.195319,-0.110978,8.18967,-0.062294006,0.88970184,1.3507271,-0.9262034,-1.6885757,-13.3516445,1.820097,-0.089912415,-12.321356,0.057792664,0.26325226,0.68543625,-0.84266156,3.2293358,-0.5987625,2.0244808,0.6029892,0.20203018,-0.09845734,-0.3699875,1.1480904,-1.6299425,0.060005188,9.462425,1.6497524,2.0626488,7.0099945,0.063438416,-0.44361115,-5.094681,-1.1950567,-2.1698418,-2.498207,1.8527197,-0.5753708,-11.75494,0.0,0.0,0.0,0.0,0.0,0.0,0.0,0.0,0.0,0.0,0.0,0.0,0.7754181,-0.8831147,-0.99970573,0.99103737,0.9695879,0.9683709,-0.97542524,-0.06397083,0.99676406,-0.45473698,-0.9195447,-0.95350283
2025-06-04 17:23:49.946,-5.344498,-6.063669,15.503521,0.47755766,0.38894555,0.835865,1.148531,-1.680664,9.332836,-0.015602112,1.1053085,-0.41687775,-0.9956309,-1.3312149,-14.109713,1.8225384,0.031318665,-13.595789,0.0724411,-0.18825531,2.420082,-0.7213542,2.029766,-0.64271164,2.034399,0.24440765,0.06530762,-0.11432648,0.42049408,0.08972168,-1.5500628,1.2971878,17.065079,1.7175014,0.19771576,14.704205,0.056114197,-0.023994446,-4.0094604,-1.2700536,-1.3158035,-1.8658714,1.8054937,-1.2851334,-5.958954,0.0,0.0,0.0,0.0,0.0,0.0,0.0,0.0,0.0,0.0,0.0,0.0,0.8259034,-0.8148461,-0.9974221,0.9895576,0.97274864,0.3908095,-0.98876953,0.18556541,0.99589604,-0.22645251,-0.93643737,-0.95874757
2025-06-04 17:23:49.997,-3.819302,-5.001526,18.360231,0.38413918,0.08797536,0.78985167,-1.772107,-0.959336,7.971178,0.046043396,1.3929367,-2.711834,-1.0645243,-0.98415375,-9.0717945,1.8281078,-0.11241913,-12.713207,0.0787735,0.4063034,0.04333496,-0.6381938,1.2955856,-1.6546898,1.9916743,-0.7855606,-0.20080948,-0.12874603,0.47351837,0.5084305,-1.3808428,4.488491,1.0162506,1.8162258,1.8009567,3.0377655,0.05382538,0.10967255,-3.5992966,-1.3420751,-0.7958603,-0.21912003,1.7455267,-0.96637726,-4.1168823,0.0,0.0,0.0,0.0,0.0,0.0,0.0,0.0,0.0,0.0,0.0,0.0,0.797673,-0.7154695,-0.832246,0.9762973,0.9644097,-0.92087764,-0.99377453,0.24900594,0.91397995,0.31350744,-0.9791848,-0.84211624
2025-06-04 17:23:50.048,-2.080781,-4.488362,20.292143,0.31174526,-0.17953315,0.45623848,0.788458,1.085642,7.536047,0.075798035,0.66913605,-2.5018692,-1.1417376,-1.5591812,-1.5472641,1.8256664,-0.046043396,-11.012741,0.07884979,0.73589325,-0.8136101,-0.59707135,0.75229645,-0.2825966,1.8404597,-2.9464378,0.31555557,-0.12683868,0.25295258,0.44861603,-1.235808,2.207302,6.426491,1.878329,1.6893387,0.77088547,0.058174133,0.1304245,-1.4312973,-1.4163854,-1.5054703,4.433052,1.7034124,-0.6940079,-2.998703,0.0,0.0,0.0,0.0,0.0,0.0,0.0,0.0,0.0,0.0,0.0,0.0,-0.18369316,-0.8131277,0.9514422,0.95664227,0.94014066,-0.99814177,-0.9837367,-0.39793265,-0.7896519,0.96577,-0.9920243,0.8986296
2025-06-04 17:23:50.099,-0.690779,-3.809618,20.464222,0.69340354,0.7248795,-0.18618289,0.385659,-4.413076,2.349053,0.06603241,-0.004005432,-3.4808884,-1.2490069,-1.6915512,2.4054337,1.9083691,1.5207291,0.3253212,0.08922577,0.12218475,-1.3519478,-0.57288617,0.32733917,-0.5999832,1.720373,-1.3068008,-2.2272072,-0.12767792,0.15209198,1.0675201,-1.1994158,-0.71941376,3.0939178,1.83652,-0.8395767,-7.3090706,0.076942444,0.35572052,0.18616104,-1.4589574,-0.378685,0.54138947,1.8032049,2.372631,0.6952019,0.0,0.0,0.0,0.0,0.0,0.0,0.0,0.0,0.0,0.0,0.0,0.0,-0.99580353,0.08911696,0.99969006,0.16571604,-0.41585323,-0.99967706,0.1478525,-0.98267126,-0.999248,0.9990817,-0.95060956,0.9991553
2025-06-04 17:23:50.150,0.549647,-1.365011,20.438644,0.6388896,-0.53367805,0.19503993,-2.886796,3.150361,20.969494,0.02407074,-1.3549423,-1.1444283,-1.2641894,3.1435814,1.7547874,1.9442272,0.56804657,2.953537,0.09098053,0.39432526,-2.9852753,-0.71784467,-3.0373802,-7.6984825,1.8180293,0.9139633,-16.769665,-0.12882233,-0.47473907,8.522469,-1.2780749,-1.608696,-2.0917053,1.8102748,-0.7366562,-9.413595,0.08556366,0.38028717,-0.34485245,-1.4607122,0.17436981,0.29724503,1.9026922,1.618309,0.31433487,0.0,0.0,0.0,0.0,0.0,0.0,0.0,0.0,0.0,0.0,0.0,0.0,-0.99746907,0.3489318,0.99907374,-0.71738297,-0.75624007,-0.9982283,0.985299,-0.97371477,-0.9988512,0.999535,-0.8200172,0.99941367
2025-06-04 17:23:50.201,2.900594,-4.529246,21.431005,0.44609603,-0.47162408,-0.10392948,0.502201,0.052613,9.915272,-0.0258255,-0.89206696,0.018920898,-1.0873362,2.8141441,-0.44495392,1.9901562,0.6799698,0.35950089,0.08365631,-0.2312088,-5.0556183,-0.8687541,-1.8996048,-13.697109,1.8272609,0.008583069,-13.212482,-0.122795105,0.6217575,8.11841,-1.3620745,-1.1794662,0.3656044,1.7688472,-1.2781906,-4.945755,0.102119446,0.092659,-1.1859322,-1.5207555,-0.3571701,6.845196,1.9285558,0.25325775,5.00679,0.0,0.0,0.0,0.0,0.0,0.0,0.0,0.0,0.0,0.0,0.0,0.0,-0.9951897,0.5396879,0.9983467,-0.57525826,-0.9201001,-0.9970955,0.99600995,-0.893387,-0.99321824,0.99965274,-0.21699668,0.9995891
2025-06-04 17:23:50.252,3.494073,-5.309171,19.755905,-0.38347885,0.20270263,-0.8077676,3.525246,3.230142,10.263517,-0.05191803,-0.248909,-0.25696182,-0.94970196,2.1394005,0.12634659,2.0145702,0.34244537,0.61219025,0.051078796,-1.0946274,-0.75989914,-0.955424,-1.1166763,-16.170292,1.8336695,0.37143707,-14.858013,-0.09990692,0.7581711,6.532692,-1.4189898,-1.0892868,4.24506,1.7001827,-1.3088608,-1.5448227,0.1228714,0.19077301,-2.0453186,-1.465595,2.0127525,9.210957,1.9358801,1.3055038,1.3165474,0.0,0.0,0.0,0.0,0.0,0.0,0.0,0.0,0.0,0.0,0.0,0.0,-0.99663126,0.8026954,0.99391705,-0.46794078,-0.950663,-0.9974108,0.9951552,-0.84521973,-0.9635029,0.99932384,0.61629844,0.99953353
2025-06-04 17:23:50.303,2.676787,-4.689886,17.556257,-0.4095644,0.4392179,-0.8027921,4.326398,0.459277,6.796105,-0.07007599,0.1682663,-0.41321564,-0.8141276,2.0537224,-0.940567,2.0322704,0.3081131,-0.15808487,0.01209259,-0.7581711,0.8648796,-1.0208842,-1.3116837,-14.518654,1.8464869,0.059928894,-14.42588,-0.07434845,0.29384613,5.8466454,-1.453322,-0.38402557,3.5883102,1.6377742,-1.0797501,-0.005493164,0.13614655,-0.28873444,-0.6976433,-1.2598302,6.0459595,-0.40467072,1.9524359,0.95645905,0.9637604,0.0,0.0,0.0,0.0,0.0,0.0,0.0,0.0,0.0,0.0,0.0,0.0,-0.99848205,0.9592423,0.868287,-0.5906565,-0.95929754,-0.99594754,0.97719187,-0.8462339,-0.7797601,0.99747103,0.96864116,0.9939098
2025-06-04 17:23:50.354,1.685395,-4.312239,16.482092,-0.55259866,0.40185228,-0.30395234,-1.950407,3.774637,8.403955,-0.07740021,-0.026283264,-1.2286568,-0.71181744,2.4216118,-1.4337387,2.032423,-0.04764557,-0.016479492,0.0014877319,0.027656555,-2.6935234,-1.105189,-1.5234756,-9.322041,1.8512934,0.03490448,-14.276951,-0.052070618,0.13973236,5.6134872,-1.504439,-1.0919571,8.975357,1.5931423,-0.76602936,3.4552536,0.13072968,-0.15010834,-0.4766922,-1.027744,5.0787773,0.028686523,1.9808172,0.7568741,0.5438309,0.0,0.0,0.0,0.0,0.0,0.0,0.0,0.0,0.0,0.0,0.0,0.0,-0.9988489,0.97112584,-0.73983335,-0.44395489,-0.95595944,-0.86719936,0.8631956,-0.9122119,-0.75248,0.99300665,0.97310805,0.6016317
2025-06-04 17:23:50.405,0.464675,-4.42156,16.777363,-0.29604232,-0.056027092,0.44771555,0.870899,0.889648,6.458324,-0.08090973,-0.03818512,-1.2457466,-0.6371257,0.8774948,0.12145996,1.8851757,-2.9409447,-0.051879883,0.024757385,0.6190109,-6.6401176,-1.2104021,-1.7282486,-3.1305428,1.850912,0.07068634,-12.598457,-0.049705505,-0.06732941,6.2677956,-1.5750109,-1.082344,11.802547,1.5610225,-0.5814743,4.1925697,0.10929108,-0.38394928,2.1026917,-0.81602836,3.2425346,-0.6610222,1.979215,-0.18138885,0.037231445,0.0,0.0,0.0,0.0,0.0,0.0,0.0,0.0,0.0,0.0,0.0,0.0,-0.9991231,0.925148,-0.99728227,-0.12639077,-0.8366282,0.9948564,0.47298604,-0.9928466,-0.9794814,0.94348896,0.055323128,-0.99345964
2025-06-04 17:23:50.456,-0.814557,-3.299389,18.050846,-0.73063314,1.4172889,0.079262085,-5.654981,-3.15403,14.33521,-0.10051727,-0.64037323,1.9085999,-0.61843365,-0.66768646,5.8869324,1.8355083,2.3683586,-23.241932,0.043678284,0.21709442,-3.666439,-1.2998186,-0.96782684,0.8111687,1.9292659,1.576271,0.03479004,-0.0447464,1.1236954,0.53650665,-1.601256,0.5287552,3.0658417,1.5282924,-0.2802658,1.7425804,0.12256622,0.1594925,-3.068283,-0.8118322,-0.41721344,-5.3327217,1.9210027,-0.50762177,-14.85313,0.0,0.0,0.0,0.0,0.0,0.0,0.0,0.0,0.0,0.0,0.0,0.0,-0.8694005,-0.25575644,-0.9981833,0.9855174,0.19362752,0.9997898,-0.92566746,-0.9930736,-0.7131283,-0.5144827,-0.887181,-0.9968733
2025-06-04 17:23:50.507,-2.574211,-1.789391,17.866682,-0.87099,-1.3944746,-0.076427236,2.15069,-1.620092,17.41001,-0.09754181,-0.004234314,0.12145996,-0.75339764,-2.4280968,-6.658428,1.8694592,-0.78891754,-11.70245,0.054893494,0.11241913,1.6730003,-1.1727129,3.2041588,-1.6351585,1.9716853,1.0640335,0.20080948,-0.068092346,-0.9251785,2.2626076,-1.6236101,-1.8442917,14.530861,1.5200527,-0.6799698,7.0600433,0.103263855,-0.52692413,-4.339054,-0.923908,-2.831768,-10.66972,1.9142889,0.010719299,-16.984512,0.0,0.0,0.0,0.0,0.0,0.0,0.0,0.0,0.0,0.0,0.0,0.0,0.08987622,-0.7971798,-0.9995529,0.98942024,0.8811061,0.99798554,-0.93236995,-0.9664076,0.5887121,-0.79903746,-0.9481311,-0.9975766
2025-06-04 17:23:50.558,-5.001445,-5.410983,18.666939,-0.43545088,-1.1042025,0.3804572,3.903005,0.262568,8.936615,-0.07526398,0.08930206,2.0697327,-0.8823344,-2.0646324,-13.601892,1.8330669,-0.83164215,-10.069124,0.07015228,0.04261017,0.6707878,-0.94466656,3.8304558,-0.8917389,2.0030422,0.57704926,0.5450516,-0.10158539,-0.9987259,2.3334084,-1.6838061,-0.5629349,12.892654,1.5842159,1.4091873,10.678265,0.06877899,-0.32169342,-4.708935,-1.0527685,-2.559246,-7.5312424,1.9048284,-0.48862457,-15.464714,0.0,0.0,0.0,0.0,0.0,0.0,0.0,0.0,0.0,0.0,0.0,0.0,0.54122794,-0.9368611,-0.99993193,0.99609756,0.9692856,0.9933007,-0.96394646,-0.41075185,0.9969348,-0.45959476,-0.9100423,-0.9599899
2025-06-04 17:23:50.609,-5.666261,-7.068431,20.625519,0.1271355,0.07565763,0.78388333,3.687376,-0.025242,7.318044,-0.033454895,0.8447647,-0.21912003,-0.97632855,-1.3756943,-14.812849,1.820097,0.0004196167,-12.863356,0.07884979,-0.05268097,1.60952,-0.7768962,2.6494255,-0.49744415,2.023489,0.36136627,0.38269806,-0.124168396,-0.15338898,2.494545,-1.6358935,1.4437485,13.280842,1.6747005,1.6770554,10.113068,0.05908966,-0.093803406,-4.340275,-1.1536291,-1.7954636,-5.274128,1.8690466,-0.7455826,-10.807659,0.0,0.0,0.0,0.0,0.0,0.0,0.0,0.0,0.0,0.0,0.0,0.0,0.7056011,-0.9239678,-0.9997152,0.9956539,0.9778732,0.8844189,-0.9823307,0.13209909,0.999214,-0.058433816,-0.85652256,-0.93044376
2025-06-04 17:23:50.660,-4.994104,-6.217489,23.046099,0.6301147,0.5711538,0.9658719,2.121407,-2.087647,9.14241,0.021324158,1.2257004,-2.379799,-1.0410258,-1.1722946,-12.272526,1.825819,0.13317108,-13.535973,0.0825119,0.02117157,1.9061584,-0.67519635,1.493721,-0.11291504,2.0263119,-0.10593414,0.52796173,-0.13530731,-0.1619339,1.8036156,-1.5063463,2.0685234,15.483025,1.7382534,0.7729721,11.444878,0.061531067,0.14034271,-3.2770271,-1.2297704,-1.546669,-2.0404358,1.8160223,-1.2507248,-6.8500786,0.0,0.0,0.0,0.0,0.0,0.0,0.0,0.0,0.0,0.0,0.0,0.0,0.78664935,-0.90433574,-0.9966265,0.99428785,0.9752517,-0.094299145,-0.9915668,0.3646854,0.9984525,0.43928346,-0.89891785,-0.92301744
2025-06-04 17:23:50.711,-3.343692,-4.81273,25.491983,0.73579633,0.3381959,0.7189956,-0.367334,-1.605964,6.795334,0.07572174,0.78990936,-3.9728394,-1.1084696,-1.4129257,-8.822767,1.8300152,-0.06526947,-13.0403595,0.08342743,0.10509491,0.4351883,-0.6143901,1.0656357,-0.8563347,1.94071,-1.5823746,-0.18249893,-0.13813019,0.058555603,1.797512,-1.3330065,4.8815575,2.6520195,1.8146236,1.9127274,1.903717,0.0674057,0.17353058,-0.61219025,-1.3024023,-1.4406204,-0.21667862,1.7633032,-0.95119476,-5.0714874,0.0,0.0,0.0,0.0,0.0,0.0,0.0,0.0,0.0,0.0,0.0,0.0,0.541728,-0.77582574,0.47217828,0.97973156,0.94944024,-0.98882407,-0.99426943,0.16392978,0.4346639,0.88911635,-0.988927,-0.13982208
2025-06-04 17:23:50.762,-1.752143,-3.797779,26.993074,0.4130752,0.85140055,0.38565806,-3.289603,-0.269569,1.273681,0.09563446,0.24616241,-3.0060272,-1.2007128,-1.9126511,-0.12390137,1.8887615,1.5826797,-4.8371086,0.089149475,0.6983566,-0.64759445,-0.5799815,0.39600372,-0.8587761,1.7955989,-2.4804344,-0.8502312,-0.1353836,0.06832123,1.3189888,-1.2249743,2.106594,5.1898994,1.8336208,0.27317047,2.11734,0.07320404,0.22312164,-0.03845215,-1.3800695,-0.90335846,0.23010635,1.7594885,-0.0061416626,0.22522354,0.0,0.0,0.0,0.0,0.0,0.0,0.0,0.0,0.0,0.0,0.0,0.0,-0.86314213,-0.5678923,0.9994681,0.9011422,0.48512766,-0.9996825,-0.9247559,-0.8755579,-0.99795985,0.99605656,-0.98822236,0.99309367
2025-06-04 17:23:50.813,-0.278391,-0.785128,27.904825,-0.3674019,0.33569065,-0.036846012,-8.435507,-1.579889,25.806576,0.06946564,-0.57720184,-4.1156616,-1.295241,-1.8889236,9.228046,1.9771099,0.7835007,-0.04699707,0.099372864,-0.17848969,0.03479004,-0.6556651,-2.3751488,4.5343704,1.7985743,1.393013,-17.727932,-0.15445709,-1.2077713,6.900131,-1.2794482,-1.7991257,0.822155,1.7889888,-0.019798279,-11.337454,0.078697205,0.3004837,0.3643837,-1.415241,-0.166893,-2.0746155,1.8609594,2.1957817,-0.2081337,0.0,0.0,0.0,0.0,0.0,0.0,0.0,0.0,0.0,0.0,0.0,0.0,-0.9978978,0.24307193,0.9995558,0.1282986,-0.75554466,-0.9996635,0.54339844,-0.977927,-0.998445,0.99909633,-0.8839118,0.9987392
2025-06-04 17:23:50.864,0.968448,-2.259689,28.53656,1.3281825,-1.5032324,0.41384444,1.729006,1.078365,13.627959,0.025749207,-1.5042496,-0.023803711,-1.1873614,3.5992851,-2.235752,1.9934368,0.8928299,0.23743057,0.09075165,0.5862808,-4.9359894,-0.8271739,-2.9005089,-11.78912,1.8311518,-0.011482239,-13.255207,-0.14904022,0.15872955,9.113298,-1.3574969,-1.9630051,3.1818123,1.7670925,-0.61244965,-8.104982,0.09487152,0.9769821,-2.8375664,-1.4518621,-2.823452,12.229801,1.9330572,0.614357,3.314869,0.0,0.0,0.0,0.0,0.0,0.0,0.0,0.0,0.0,0.0,0.0,0.0,-0.9926851,0.31163758,0.99894243,-0.09719841,-0.8751792,-0.99851495,0.9824234,-0.90368915,-0.99578613,0.99947894,-0.5677683,0.99950045
2025-06-04 17:23:50.915,3.059504,-4.449411,28.650936,0.20958614,-0.14262824,-0.3719246,1.955962,1.550328,9.81692,-0.023841858,-0.88344574,-1.1432076,-1.0504862,2.2609367,0.115356445,2.018919,0.33153534,0.7342644,0.09174347,-0.17841339,-3.3344002,-0.92460126,-1.6843796,-15.981079,1.830923,0.025672913,-13.257648,-0.12424469,0.37647247,8.737316,-1.4054095,-0.8588028,2.9181366,1.7149074,-1.0921097,-3.3978806,0.11257172,0.37082672,-2.1710548,-1.4864995,0.0749588,9.401388,1.9364141,0.17375946,5.371784,0.0,0.0,0.0,0.0,0.0,0.0,0.0,0.0,0.0,0.0,0.0,0.0,-0.9954217,0.6912972,0.99641806,-0.5973035,-0.8729739,-0.99616987,0.99728847,-0.88801366,-0.98930794,0.9990418,0.045668613,0.999642
2025-06-04 17:23:50.966,3.091097,-4.582139,27.180874,-0.72097015,0.48475936,-0.7403985,3.198712,3.983762,10.593584,-0.051765442,-0.11425018,-3.786068,-0.90476483,2.2314873,0.029907227,2.031889,-0.13744354,1.1151276,0.059013367,-0.8835983,-2.703289,-0.98525494,-1.529808,-13.538414,1.8398494,0.102882385,-13.760586,-0.10158539,0.14484406,7.91333,-1.4464556,-0.9139633,5.269245,1.6593654,-1.1447525,-0.61341095,0.12638092,0.70827484,-0.3704872,-1.3914373,1.2319565,11.681696,1.9409918,-0.23265839,6.3752213,0.0,0.0,0.0,0.0,0.0,0.0,0.0,0.0,0.0,0.0,0.0,0.0,-0.9981004,0.9037521,0.96824175,-0.7647801,-0.9350326,-0.99323946,0.9961687,-0.8654872,-0.9455802,0.99862987,0.7908111,0.99845785
2025-06-04 17:23:51.017,1.568822,-3.995308,25.475367,-1.2138662,0.75539607,-0.6862007,2.082191,5.378999,9.91981,-0.0687027,-0.1203537,-2.9645233,-0.7704112,2.006649,0.5633621,2.0386791,0.06473541,0.44861603,0.022163391,-0.25218964,-2.190586,-1.0427042,-1.4316177,-13.042801,1.8510646,0.15804291,-14.759136,-0.08014679,0.32238007,5.503624,-1.487044,-0.9647751,6.56443,1.6135128,-0.9114456,0.9442291,0.1330185,-0.13339996,0.10925293,-1.1554601,5.431408,-1.5155258,1.967542,1.192131,0.26550674,0.0,0.0,0.0,0.0,0.0,0.0,0.0,0.0,0.0,0.0,0.0,0.0,-0.99929476,0.9701142,-0.11540105,-0.84436506,-0.93586195,-0.93970007,0.97798747,-0.9232948,-0.87161726,0.99609,0.9560695,0.91180545
2025-06-04 17:23:51.068,0.258502,-4.108451,24.746496,-0.18705025,-0.26011008,-0.012980362,1.888425,0.754152,8.250737,-0.076179504,-0.60878754,-0.31067276,-0.6743571,1.4968491,0.16174698,1.9462109,-1.3290787,-1.3006783,0.028114319,0.78136444,-7.0222015,-1.1420428,-2.098812,-5.147175,1.850912,0.0047683716,-13.235676,-0.06427765,0.041618347,6.781719,-1.5619646,-1.5830612,12.105286,1.576205,-0.63869476,2.7765312,0.1128006,-0.7300949,2.1161194,-0.9071996,3.9161339,-1.2298775,1.9929479,0.55545807,0.37292862,0.0,0.0,0.0,0.0,0.0,0.0,0.0,0.0,0.0,0.0,0.0,0.0,-0.99930376,0.97401243,-0.97781354,-0.30072147,-0.9413664,0.65213645,0.72381973,-0.977209,-0.9428012,0.98506826,0.77457607,-0.87397826
2025-06-04 17:23:51.119,-0.934788,-3.174187,25.106089,-1.1335844,1.865017,-0.2678405,-3.48288,0.850442,3.603466,-0.10738373,-1.7676163,7.918213,-0.61454266,0.20755768,2.089264,1.8398571,2.026638,-22.564432,0.036964417,-0.21137238,-3.186695,-1.2381731,-1.0271072,-4.7028313,1.9267482,1.8812943,-5.7892723,-0.04383087,1.547966,-0.02746582,-1.5892016,0.8729172,3.2477303,1.540118,-0.24662018,1.3458443,0.1215744,0.6857681,-1.9317932,-0.8077886,1.2194443,2.9730682,1.9067358,-1.5398788,-8.205082,0.0,0.0,0.0,0.0,0.0,0.0,0.0,0.0,0.0,0.0,0.0,0.0,-0.8979493,0.049956374,-0.99839014,0.9777649,-0.28081697,0.99992394,-0.9359389,-0.98265666,-0.7202661,-0.2118968,-0.91529953,-0.9936131
2025-06-04 17:23:51.170,-2.438866,-0.13379,24.234837,-0.46514627,-1.0965452,-0.1691553,-0.967103,-2.980462,18.933529,-0.123176575,0.0951767,1.0919342,-0.73058575,-2.3437157,-1.0907135,1.8889141,-0.4125595,-13.813078,0.05634308,0.12577057,1.2750435,-1.2118517,1.2868881,-1.6815453,1.9791621,0.8963394,0.31677628,-0.060310364,-0.58834076,3.6701012,-1.5810381,-1.1315536,10.849163,1.5427883,-0.7275772,5.6452293,0.11936188,-0.31414032,-6.027313,-0.9303167,-2.4912682,-12.442207,1.8896459,-0.027961731,-15.81506,0.0,0.0,0.0,0.0,0.0,0.0,0.0,0.0,0.0,0.0,0.0,0.0,0.15017822,-0.5248456,-0.99814653,0.98749995,0.8101287,0.99784863,-0.9522169,-0.9846645,0.028153688,-0.87718356,-0.95311177,-0.99889505
2025-06-04 17:23:51.221,-4.644309,-3.721238,24.891907,-0.5531561,-1.2972866,0.48704383,2.235443,0.746649,8.566059,-0.09349823,0.33557892,2.473793,-0.8520457,-1.8918228,-10.209507,1.8493938,-1.0936356,-9.519798,0.0712204,0.02117157,0.5841141,-0.9923503,3.9841118,-1.1505318,2.0078487,0.6430435,0.3961258,-0.09540558,-0.8815384,2.3590431,-1.6478716,-1.223793,12.64851,1.555682,0.10509491,10.921188,0.08464813,-0.53066254,-6.294651,-1.0598638,-2.570919,-5.966278,1.883161,-0.19748688,-14.972763,0.0,0.0,0.0,0.0,0.0,0.0,0.0,0.0,0.0,0.0,0.0,0.0,0.707448,-0.83957696,-0.99971575,0.9848732,0.934937,0.9960403,-0.95510656,-0.71719694,0.95971006,-0.6987829,-0.95281434,-0.98737556
2025-06-04 17:23:51.272,-5.414674,-6.04602,26.980251,-0.02368471,-0.43041846,0.78235584,3.333404,-0.327845,8.010772,-0.049324036,1.0590744,1.6339378,-0.94237775,-1.7281723,-13.985199,1.8261242,-0.279274,-12.174868,0.07801056,0.08144379,0.60852814,-0.8184764,2.8339043,-0.42908478,2.0248623,0.3145218,0.61585236,-0.119132996,-0.33809662,2.2870216,-1.6463457,0.5964279,10.912643,1.6553218,2.2901573,8.032959,0.068855286,-0.43605804,-4.8004875,-1.1705663,-2.1548119,-3.2794685,1.8580602,-0.6592941,-11.607231,0.0,0.0,0.0,0.0,0.0,0.0,0.0,0.0,0.0,0.0,0.0,0.0,0.8236196,-0.86829144,-0.999662,0.99058753,0.9714418,0.95746994,-0.9810609,0.008950199,0.9975335,-0.39368704,-0.91452336,-0.95450586
