openverse-orca/OrcaGym/envs/legged_gym/legged_real_env/logs/robot_log_20250604_183236.csv
timestamp,imu_angle_roll,imu_angle_pitch,imu_angle_yaw,imu_angular_velocity_roll,imu_angular_velocity_pitch,imu_angular_velocity_yaw,imu_acc_x,imu_acc_y,imu_acc_z,fl_joint1_pos,fl_joint1_vel,fl_joint1_torque,fl_joint2_pos,fl_joint2_vel,fl_joint2_torque,fl_joint3_pos,fl_joint3_vel,fl_joint3_torque,fr_joint1_pos,fr_joint1_vel,fr_joint1_torque,fr_joint2_pos,fr_joint2_vel,fr_joint2_torque,fr_joint3_pos,fr_joint3_vel,fr_joint3_torque,hl_joint1_pos,hl_joint1_vel,hl_joint1_torque,hl_joint2_pos,hl_joint2_vel,hl_joint2_torque,hl_joint3_pos,hl_joint3_vel,hl_joint3_torque,hr_joint1_pos,hr_joint1_vel,hr_joint1_torque,hr_joint2_pos,hr_joint2_vel,hr_joint2_torque,hr_joint3_pos,hr_joint3_vel,hr_joint3_torque,fl_force_x,fl_force_y,fl_force_z,fr_force_x,fr_force_y,fr_force_z,hl_force_x,hl_force_y,hl_force_z,hr_force_x,hr_force_y,hr_force_z,fl_hip_action,fl_thigh_action,fl_calf_action,fr_hip_action,fr_thigh_action,fr_calf_action,hl_hip_action,hl_thigh_action,hl_calf_action,hr_hip_action,hr_thigh_action,hr_calf_action
2025-06-04 18:32:57.950,-0.818143,-1.192507,-174.48592,0.0011896862,0.001896021,-0.0019494804,0.20239,-0.135554,9.803172,-0.011475667,-0.023231506,0.49378204,-0.9846747,-0.007209778,-0.48401642,1.9056423,0.008811951,-4.843212,0.007355795,0.021629333,-0.3704872,-0.98160976,-0.05466461,-0.5511551,1.9020056,-0.023155212,-4.671093,-0.009803772,0.041160583,0.4742508,-0.9728294,-0.002632141,-1.0138092,1.9340236,0.028038025,-6.1567116,0.016822815,0.00705719,-0.72938156,-0.9793803,-0.0007247925,-0.64027023,1.9350408,-0.023460388,-6.151829,0.0,0.0,0.0,0.0,0.0,0.0,0.0,0.0,0.0,0.0,0.0,0.0,0.98255944,0.5274977,-0.9871695,-0.96868527,-0.10044946,-0.13186586,-0.99845636,-0.86045504,-0.40254804,0.9999857,0.94144183,-0.775166
2025-06-04 18:32:58.002,-0.871575,-1.284667,-174.92043,-0.0380395,-0.011422936,-0.6781303,-1.869921,-2.624964,15.020048,-0.012543783,-0.166893,5.719692,-0.95003724,0.45825958,6.3898697,1.8547542,-1.4577103,-8.036621,-0.019270793,-0.54065704,-1.3458443,-0.9808468,0.25165558,-3.9630737,1.8907903,-0.3408432,-4.3378334,-0.019950867,-0.23723602,-2.9608612,-1.0567527,-2.525982,-5.6696434,1.914645,-1.469307,-4.286564,0.048484802,0.7075882,0.42420197,-0.8962962,1.6376877,8.599375,1.878507,-1.3029099,-6.62669,0.0,0.0,0.0,0.0,0.0,0.0,0.0,0.0,0.0,0.0,0.0,0.0,0.9627689,0.7967868,-0.975388,-0.9993617,-0.26499802,0.7164768,-0.9999522,-0.9687835,-0.9924495,0.99998933,-0.4967123,-0.99135345
2025-06-04 18:32:58.053,1.189791,-1.046202,-177.38223,1.278501,-0.39734668,-0.43214178,0.248943,1.658849,7.686716,0.009199992,0.7855606,1.3580513,-0.89449525,1.0169601,8.783703,1.7609127,-1.8217087,-1.806057,-0.050856486,-0.7954788,0.10925293,-1.0241818,-1.0197067,-1.4068832,1.9234442,0.75344086,0.3680458,-0.05214691,-0.8156204,0.52796173,-1.2184196,-2.5667992,1.4911118,1.7719753,-2.412838,-0.056762695,0.096473694,1.1067581,-3.723812,-0.9214732,-0.08678436,-13.559166,1.8523382,0.0020980835,-14.101166,0.0,0.0,0.0,0.0,0.0,0.0,0.0,0.0,0.0,0.0,0.0,0.0,0.80322033,0.8412695,-0.93474144,-0.99818003,-0.011028495,0.28792658,-0.9998823,-0.94735754,-0.99559814,0.99994206,-0.20263448,-0.9813687
2025-06-04 18:32:58.104,3.251831,-2.591675,-176.88872,0.027121717,-0.37150422,0.5886298,-0.530608,1.515876,7.898526,0.034376994,0.514946,0.7464714,-0.85543275,0.7339096,8.528572,1.7070491,-0.49297333,-4.613716,-0.07916154,-0.41309357,0.12145996,-1.0208249,0.24539948,-0.29724503,1.9106268,-0.2663803,-0.10681152,-0.06755829,-0.084724426,-0.9845123,-1.3097434,-1.2943649,-0.37659454,1.6794307,-1.4426041,-0.15320206,0.11356354,-0.2751541,0.22888565,-0.92986554,-0.1820755,-6.520485,1.8519567,0.012702942,-14.024261,0.0,0.0,0.0,0.0,0.0,0.0,0.0,0.0,0.0,0.0,0.0,0.0,0.8158882,0.7450255,-0.95269907,-0.9981575,-0.18258128,0.41975662,-0.9998816,-0.9478617,-0.9954064,0.999965,-0.3802222,-0.9814429
2025-06-04 18:32:58.155,3.167788,-3.476744,-174.73622,-0.015597623,-0.3173309,0.87301767,0.360362,1.830762,9.337518,0.05848588,0.54195404,-0.698864,-0.8172858,0.9456253,4.773632,1.6882045,-0.26584625,-5.125202,-0.09701432,0.07572174,0.64515305,-1.0406613,-0.5108261,-0.056762695,1.9085668,-0.02407074,0.13733292,-0.07442474,-0.060691833,-1.1273384,-1.3656669,-0.65654755,-0.3216591,1.6233547,-0.8611679,-0.40467072,0.102882385,-0.3319168,1.4666977,-0.9491679,-0.3168106,-9.184101,1.8550085,0.066719055,-14.440529,0.0,0.0,0.0,0.0,0.0,0.0,0.0,0.0,0.0,0.0,0.0,0.0,0.83782864,0.79716206,-0.9569975,-0.99764496,-0.12684777,0.52282274,-0.9998941,-0.94547117,-0.9944907,0.9999525,-0.33513564,-0.9779074
2025-06-04 18:32:58.206,2.388123,-4.567439,-172.23183,-0.17254598,-0.32496512,0.6625495,1.712829,0.329436,10.35012,0.08419694,0.5793381,-2.4921036,-0.7803595,0.44101715,4.8163567,1.6736324,-0.42598724,-4.310978,-0.10533036,-0.13126373,0.5438309,-1.0450101,-0.065574646,-0.57312775,1.9155096,0.0064468384,0.7513542,-0.088386536,-0.33138275,1.0711823,-1.3832908,-0.039405823,-3.4137497,1.6118343,0.35366058,-5.1239777,0.08975983,-0.09738922,0.9417877,-0.9591624,-0.045814514,-8.286869,1.8560766,0.0012588501,-14.113373,0.0,0.0,0.0,0.0,0.0,0.0,0.0,0.0,0.0,0.0,0.0,0.0,0.8689724,0.8195813,-0.96579313,-0.99756736,-0.136099,0.66218394,-0.9999161,-0.9560961,-0.9935817,0.9999538,-0.39008272,-0.9810957
2025-06-04 18:32:58.257,1.902068,-5.639566,-171.18256,-0.1618686,-0.33127087,0.27591527,2.41648,-0.407367,9.177652,0.10700883,-0.009498596,-2.3846817,-0.7631171,0.12508392,6.15427,1.6531856,-0.3483963,-3.388115,-0.11006059,-0.08136749,0.45471954,-1.0489011,-0.05252838,-0.62073517,1.9332861,0.45200348,0.3680458,-0.095329285,-0.10669708,-0.036010742,-1.3910728,-0.17368317,-2.4347305,1.6310604,0.31108856,-5.6244736,0.09075165,0.06946564,0.3314247,-0.9690806,-0.25562286,-8.706799,1.8537115,-0.0850296,-13.540855,0.0,0.0,0.0,0.0,0.0,0.0,0.0,0.0,0.0,0.0,0.0,0.0,0.8786344,0.8368488,-0.965264,-0.9973536,-0.09988347,0.65692806,-0.99991995,-0.9587747,-0.9929776,0.9999443,-0.4018445,-0.9821825
2025-06-04 18:32:58.308,1.360174,-6.50819,-170.24821,-0.08861862,-0.17516673,0.36643523,2.462168,-0.645224,9.401034,0.12554826,0.29201508,-3.8568687,-0.75594544,0.15674591,6.486305,1.6396053,-0.25737762,-3.4723434,-0.112349406,0.069999695,0.45594025,-1.0456204,0.08609772,-0.39002228,1.9445776,0.16262054,0.5987625,-0.101890564,-0.05329132,0.42420197,-1.3988547,-0.05756378,-2.5836563,1.6429622,0.17803192,-5.37545,0.09273529,-0.030937195,0.61829376,-0.9844157,-0.32169342,-8.074463,1.8471502,-0.1770401,-13.072098,0.0,0.0,0.0,0.0,0.0,0.0,0.0,0.0,0.0,0.0,0.0,0.0,0.87845683,0.8296385,-0.964441,-0.9971953,-0.100242235,0.6364631,-0.99991775,-0.95767367,-0.9929359,0.9999431,-0.4144906,-0.9824919
2025-06-04 18:32:58.359,0.948339,-6.93912,-169.3322,-0.073580444,-0.06065129,0.23843473,1.648355,-0.514017,9.335068,0.137679,0.38265228,-3.1573982,-0.7567847,-0.008354187,7.5349045,1.634875,-0.062065125,-3.9630737,-0.113493815,0.07961273,0.4339676,-1.0432553,0.047721863,-0.30578995,1.9481634,0.058631897,0.68421555,-0.1077652,-0.00919342,0.41077423,-1.4020591,-0.09296417,-2.2308693,1.6435726,-0.013465881,-4.761425,0.092811584,0.008201599,0.60974884,-1.0009714,-0.32970428,-7.4396896,1.839826,-0.1645279,-12.7779045,0.0,0.0,0.0,0.0,0.0,0.0,0.0,0.0,0.0,0.0,0.0,0.0,0.8801345,0.8244173,-0.9641967,-0.9970424,-0.111244515,0.6226777,-0.99991584,-0.955397,-0.9925382,0.9999391,-0.42262363,-0.9820391
2025-06-04 18:32:58.410,0.590156,-7.069012,-168.83984,-0.062130492,-0.018845227,0.09191509,0.923752,-0.359426,9.601713,0.14370622,0.095710754,-2.9669647,-0.76388,-0.14217377,7.730221,1.6345699,0.025291443,-4.125431,-0.11418046,-0.012779236,0.49988556,-1.0435605,0.015907288,-0.34485245,1.9490026,0.045661926,0.665905,-0.10929108,0.024375916,0.27283096,-1.4071708,-0.09250641,-1.903717,1.6412838,-0.10196686,-4.486763,0.093421936,0.056419373,0.4010086,-1.0142466,-0.16139984,-7.3994064,1.8343328,-0.093193054,-12.696117,0.0,0.0,0.0,0.0,0.0,0.0,0.0,0.0,0.0,0.0,0.0,0.0,0.88227135,0.82177806,-0.96438175,-0.9969543,-0.11654757,0.6153735,-0.9999156,-0.9542477,-0.9922293,0.9999358,-0.42885625,-0.98154783
2025-06-04 18:32:58.461,0.400257,-7.119488,-168.64116,-0.035302427,-0.033497684,0.050735027,0.896657,-0.381943,9.698697,0.1477498,0.08022308,-2.8046074,-0.7704413,-0.064964294,7.865719,1.6344173,-0.0049209595,-4.080261,-0.114638224,0.0036239624,0.42908478,-1.0441709,-0.034370422,-0.38758087,1.9489263,0.022315979,0.72327805,-0.10921478,-0.01613617,0.27038956,-1.4125113,-0.0014877319,-1.7169456,1.6380794,-0.028266907,-4.392769,0.094566345,0.051231384,0.4388504,-1.0237833,-0.13660431,-7.426262,1.8308233,-0.06656647,-12.834057,0.0,0.0,0.0,0.0,0.0,0.0,0.0,0.0,0.0,0.0,0.0,0.0,0.8822814,0.8186043,-0.9645305,-0.99688256,-0.11848066,0.6107495,-0.99991417,-0.95340466,-0.9921919,0.99993503,-0.43265295,-0.98110586
2025-06-04 18:32:58.512,0.279743,-7.160269,-168.5113,-0.0032325592,-0.010506132,0.032679144,0.800595,-0.278903,9.517115,0.14973344,0.036964417,-2.7301445,-0.77463746,-0.0925827,7.7558556,1.6344173,-0.001411438,-4.065613,-0.114867106,-0.034980774,0.43152618,-1.0450101,-0.008964539,-0.44739532,1.9490026,-0.0049972534,0.64271164,-0.10929108,-0.019111633,0.2459755,-1.4159446,-0.019721985,-1.715725,1.6360958,-0.03025055,-4.363468,0.09502411,0.015525818,0.46082306,-1.0310313,-0.06587982,-7.582512,1.8296789,-0.018424988,-13.008621,0.0,0.0,0.0,0.0,0.0,0.0,0.0,0.0,0.0,0.0,0.0,0.0,0.88249266,0.81727624,-0.96450317,-0.99686515,-0.11856311,0.60734344,-0.9999133,-0.9530661,-0.99212486,0.99993396,-0.4337977,-0.9807612
2025-06-04 18:32:58.563,0.265891,-7.152591,-168.45433,0.005392858,-0.0038314865,0.004057419,0.913301,-0.133313,9.812306,0.15049638,0.00415802,-2.7508965,-0.7763159,-0.010871887,7.6337852,1.634341,-0.06565094,-4.129093,-0.11479081,0.009727478,0.45227814,-1.045239,0.011711121,-0.4779129,1.9490789,0.033454895,0.61219025,-0.10936737,-0.017967224,0.22522354,-1.4172416,-0.03513336,-1.8219261,1.6349514,0.00011444092,-4.383003,0.09586334,-0.041236877,0.38025665,-1.034083,0.015525818,-7.6948204,1.8295263,-0.008583069,-12.961014,0.0,0.0,0.0,0.0,0.0,0.0,0.0,0.0,0.0,0.0,0.0,0.0,0.8820824,0.8154467,-0.96504366,-0.996814,-0.12121675,0.6083727,-0.9999121,-0.95247775,-0.99213386,0.9999343,-0.43267107,-0.98045814
2025-06-04 18:32:58.614,0.272267,-7.140397,-168.4761,0.007453341,0.0050767963,-0.017691895,1.079489,0.004484,9.649463,0.14996232,-0.069236755,-2.6532402,-0.7764685,-0.0010299683,7.479973,1.6344936,-0.014533997,-4.076599,-0.1149434,0.0034713745,0.46448517,-1.0460782,0.0065231323,-0.46936798,1.9490026,0.012702942,0.58045197,-0.10951996,0.019569397,0.23498917,-1.4174705,-0.04108429,-1.7291527,1.634341,-0.029716492,-4.4562454,0.09578705,-0.0258255,0.42542267,-1.0340067,0.027809143,-7.7814903,1.8296789,0.0025558472,-13.002518,0.0,0.0,0.0,0.0,0.0,0.0,0.0,0.0,0.0,0.0,0.0,0.0,0.88306093,0.8159059,-0.96512514,-0.9968231,-0.121075384,0.60909224,-0.9999136,-0.9526667,-0.9921006,0.99993426,-0.43382654,-0.98058647
2025-06-04 18:32:58.665,0.29773,-7.131575,-168.52728,0.003615013,0.003061709,-0.01469,1.244094,0.131666,9.75867,0.14912309,0.027198792,-2.392006,-0.77623963,0.069999695,7.4811935,1.634341,-0.0146102905,-4.121765,-0.11479081,0.008583069,0.4400711,-1.0462308,-3.8146973e-05,-0.46204376,1.9490789,-0.013694763,0.5914383,-0.10936737,0.007896423,0.23743057,-1.417623,-0.062065125,-1.8414574,1.6344173,-0.032920837,-4.462349,0.095939636,0.048484802,0.45716095,-1.0337778,-0.047950745,-7.9536133,1.8296789,0.012550354,-12.993973,0.0,0.0,0.0,0.0,0.0,0.0,0.0,0.0,0.0,0.0,0.0,0.0,0.8824546,0.81533134,-0.9647954,-0.9968292,-0.1203823,0.6072599,-0.99991363,-0.95263046,-0.9921804,0.9999346,-0.4334065,-0.980649
2025-06-04 18:32:58.716,0.306315,-7.136392,-168.5476,0.0009586744,0.0021176953,1.9704767e-05,1.24706,0.136775,9.677347,0.14881791,0.048561096,-2.5580215,-0.7765448,0.019264221,7.4531174,1.6344936,0.0017929077,-4.118103,-0.114867106,0.0049209595,0.45105743,-1.0466886,-0.004081726,-0.5133133,1.9491552,-0.022315979,0.5877762,-0.10936737,0.01964569,0.24109268,-1.4175467,-0.040245056,-1.7840843,1.6344173,-0.0038528442,-4.4123,0.095939636,-0.080070496,0.4351883,-1.0338541,0.009498596,-7.7509727,1.8296789,-0.036735535,-12.992752,0.0,0.0,0.0,0.0,0.0,0.0,0.0,0.0,0.0,0.0,0.0,0.0,0.8821472,0.81613195,-0.96501106,-0.9968277,-0.11841625,0.6078326,-0.9999132,-0.95272845,-0.9921775,0.9999348,-0.43211383,-0.98054886
2025-06-04 18:32:58.767,0.304375,-7.132432,-168.53769,-0.00085374527,0.0017066352,0.009025202,1.148344,0.072742,9.732131,0.14912309,-0.037651062,-2.6483574,-0.77616334,0.028038025,7.499504,1.6346462,-0.002632141,-4.1693764,-0.114867106,-0.004005432,0.45960236,-1.0466886,-0.0047683716,-0.45594025,1.94885,-0.0422287,0.61219025,-0.10936737,0.00919342,0.22522354,-1.417623,-0.027503967,-1.8524437,1.6341884,-0.03490448,-4.4269485,0.09601593,-0.099372864,0.3961258,-1.0339304,-0.016822815,-7.742428,1.8296789,-0.004310608,-13.015945,0.0,0.0,0.0,0.0,0.0,0.0,0.0,0.0,0.0,0.0,0.0,0.0,0.882864,0.8159974,-0.96504736,-0.9968247,-0.12026547,0.6090429,-0.99991345,-0.9526853,-0.9921157,0.9999345,-0.4337259,-0.9806602
2025-06-04 18:32:58.818,0.291525,-7.12997,-168.5217,0.0004979599,6.5764005e-05,0.003995617,1.158875,-0.032939,9.706068,0.14919938,-0.03879547,-2.5714493,-0.7763159,-0.011711121,7.520256,1.634341,-0.015220642,-4.163273,-0.114867106,-0.0045394897,0.45105743,-1.0468411,-0.06877899,-0.45349884,1.9489263,0.04360199,0.58167267,-0.109443665,-0.029029846,0.22156143,-1.4176993,0.002784729,-1.8097191,1.6341121,-0.0007247925,-4.401314,0.095939636,-0.013771057,0.34485245,-1.0340067,0.013465881,-7.819332,1.8296026,0.016822815,-12.990311,0.0,0.0,0.0,0.0,0.0,0.0,0.0,0.0,0.0,0.0,0.0,0.0,0.88288563,0.81616724,-0.9650377,-0.9968287,-0.12070777,0.60970294,-0.9999129,-0.95269746,-0.9920848,0.99993414,-0.43344364,-0.98051906
2025-06-04 18:32:58.869,0.285342,-7.126406,-168.52132,0.002018578,0.0025671872,-0.0034200423,1.200843,-0.012053,9.697255,0.14919938,-0.08075714,-2.5873184,-0.77616334,-0.022697449,7.515373,1.634341,-0.0037765503,-4.0717163,-0.114867106,0.011405945,0.46326447,-1.0466123,-0.014915466,-0.53406525,1.9489263,-0.073890686,0.6036453,-0.10936737,0.04802704,0.2532997,-1.4176993,0.0062179565,-1.8780823,1.6342647,-0.028953552,-4.425728,0.096321106,-0.057487488,0.39124298,-1.0341593,-0.059776306,-7.8254356,1.8296789,-0.0033187866,-12.992752,0.0,0.0,0.0,0.0,0.0,0.0,0.0,0.0,0.0,0.0,0.0,0.0,0.88388383,0.81613034,-0.9649498,-0.9968328,-0.12036603,0.60828894,-0.99991447,-0.95282686,-0.9920882,0.9999342,-0.43688244,-0.9808287
2025-06-04 18:32:58.920,0.293076,-7.120561,-168.53386,0.0019171219,0.0060577933,-0.0033046587,1.199829,0.086398,9.724774,0.14919938,-0.0022506714,-2.5506973,-0.77608705,0.04901886,7.5141525,1.6344173,-0.016212463,-4.07782,-0.115019694,-0.02155304,0.481575,-1.04707,-0.0035476685,-0.4351883,1.9490789,-0.018806458,0.57801056,-0.10936737,0.03177643,0.23498917,-1.4176993,0.00064849854,-1.7950706,1.6342647,-0.010108948,-4.4318314,0.096321106,0.11287689,0.3985672,-1.0340067,0.011787415,-7.840084,1.8296789,0.013999939,-13.009842,0.0,0.0,0.0,0.0,0.0,0.0,0.0,0.0,0.0,0.0,0.0,0.0,0.8834088,0.81487703,-0.9649457,-0.99684024,-0.12170476,0.60949254,-0.9999143,-0.9527787,-0.9921504,0.999935,-0.43537155,-0.98073584
2025-06-04 18:32:58.971,0.297514,-7.11557,-168.5437,0.00073450437,-0.001293987,-0.0035344837,1.14766,0.085174,9.746498,0.14881791,-0.011177063,-2.5177383,-0.7763922,-0.03261566,7.466545,1.6342647,0.0021743774,-4.076599,-0.11479081,-0.00011444092,0.4425125,-1.0467649,0.013389587,-0.4766922,1.9492315,0.030097961,0.60730743,-0.10951996,0.009346008,0.21301651,-1.4177756,-0.020256042,-1.8194847,1.6342647,0.0074386597,-4.400093,0.096092224,-0.03803253,0.46082306,-1.034083,-0.048561096,-7.796139,1.8296789,0.0033950806,-12.957352,0.0,0.0,0.0,0.0,0.0,0.0,0.0,0.0,0.0,0.0,0.0,0.0,0.8834886,0.81602407,-0.9649818,-0.9968493,-0.12049291,0.6083791,-0.9999133,-0.95273405,-0.9920826,0.9999343,-0.4334592,-0.98054695
2025-06-04 18:32:59.022,0.296382,-7.115628,-168.54402,-0.0015157312,-0.000120375356,0.001611096,1.19236,0.045556,9.683239,0.1488942,-0.011329651,-2.6849785,-0.77616334,0.01865387,7.6130295,1.6342647,0.0065231323,-4.068054,-0.1149434,0.022239685,0.44373322,-1.0468411,0.035591125,-0.49500275,1.9490026,0.019798279,0.5951004,-0.10921478,-0.01865387,0.23254776,-1.4177756,-0.005683899,-1.912262,1.6342647,0.012168884,-4.417183,0.09624481,0.037574768,0.38513947,-1.034083,-0.046653748,-7.7851524,1.8297552,0.0017166138,-12.979324,0.0,0.0,0.0,0.0,0.0,0.0,0.0,0.0,0.0,0.0,0.0,0.0,0.8835225,0.81516767,-0.96493006,-0.99685955,-0.12084857,0.60855985,-0.99991393,-0.9528784,-0.992138,0.99993485,-0.4345503,-0.9806295
2025-06-04 18:32:59.074,0.292434,-7.116981,-168.53586,-6.2063904e-05,-0.00010180505,0.0005804616,1.184865,0.031972,9.762516,0.14874162,-0.0046157837,-2.5995255,-0.77623963,0.057792664,7.454338,1.6344173,0.016365051,-4.17548,-0.114867106,0.005531311,0.4779129,-1.0469174,-0.04688263,-0.4425125,1.9490789,0.016059875,0.5951004,-0.10936737,-0.011634827,0.24475479,-1.4180045,0.009346008,-1.8268089,1.6342647,0.010871887,-4.458687,0.09662628,0.018196106,0.39246368,-1.0341593,0.0118637085,-7.812008,1.8297552,0.01285553,-12.981766,0.0,0.0,0.0,0.0,0.0,0.0,0.0,0.0,0.0,0.0,0.0,0.0,0.88299215,0.8155842,-0.96493566,-0.9968392,-0.119538225,0.6078025,-0.9999135,-0.9528031,-0.9921444,0.9999347,-0.4337431,-0.98058057
2025-06-04 18:32:59.125,0.290317,-7.111506,-168.53653,0.0019945274,-0.00068573985,-0.0051621604,1.156305,0.027346,9.700096,0.14919938,-0.039253235,-2.5018692,-0.7763159,-0.0002670288,7.537346,1.6342647,-0.013694763,-4.1205444,-0.1149434,0.01750946,0.45838165,-1.0466886,-0.026664734,-0.42542267,1.9490026,-0.014533997,0.60974884,-0.10929108,0.027961731,0.23376846,-1.4177756,0.047416687,-1.752346,1.634341,0.037651062,-4.384224,0.09654999,0.018959045,0.35217667,-1.0341593,-0.0073623657,-7.766842,1.8296789,0.0033950806,-12.952469,0.0,0.0,0.0,0.0,0.0,0.0,0.0,0.0,0.0,0.0,0.0,0.0,0.883955,0.81503856,-0.96511567,-0.9968488,-0.12245274,0.60972,-0.999914,-0.95285237,-0.9921027,0.99993485,-0.43692142,-0.9807068
2025-06-04 18:32:59.176,0.293018,-7.110541,-168.5435,-0.004871039,-0.0018455286,0.0019603886,1.179893,0.058941,9.699306,0.14874162,-0.028190613,-2.5824356,-0.77608705,-0.015220642,7.4982834,1.6341121,-0.002632141,-4.052185,-0.1149434,0.025138855,0.4779129,-1.0469174,-0.046806335,-0.4388504,1.9490026,-0.05268097,0.60730743,-0.10921478,0.0014877319,0.22156143,-1.4179282,-0.04535675,-1.8243675,1.6341121,0.00415802,-4.3952103,0.09677887,0.11417389,0.41931915,-1.0341593,-0.028114319,-7.888916,1.8296789,-0.009269714,-12.970779,0.0,0.0,0.0,0.0,0.0,0.0,0.0,0.0,0.0,0.0,0.0,0.0,0.8828802,0.81578547,-0.9645792,-0.9968535,-0.1182933,0.60772836,-0.99991405,-0.9529841,-0.99217516,0.9999342,-0.43527868,-0.9806695
2025-06-04 18:32:59.227,0.291488,-7.104329,-168.54541,0.0024611584,0.0013771346,-0.0022319618,1.191711,0.075321,9.751193,0.14866532,-0.044898987,-2.5458145,-0.77616334,-0.0047683716,7.4934006,1.6344936,0.008964539,-4.0924683,-0.1149434,0.01651764,0.481575,-1.0467649,0.0008773804,-0.44495392,1.9490026,0.02696991,0.64027023,-0.10936737,0.012016296,0.23987198,-1.4178519,0.065956116,-1.752346,1.6341121,-0.01285553,-4.42939,0.09677887,-0.03818512,0.42664337,-1.034083,0.038719177,-7.836422,1.8296026,0.011482239,-12.976883,0.0,0.0,0.0,0.0,0.0,0.0,0.0,0.0,0.0,0.0,0.0,0.0,0.8835678,0.8153726,-0.9649984,-0.99684983,-0.12009699,0.6066879,-0.9999135,-0.952825,-0.9921103,0.9999346,-0.43502238,-0.98060167
2025-06-04 18:32:59.278,0.289976,-7.105683,-168.5407,0.00011922344,-0.0008146673,0.0018233804,1.152312,0.038415,9.730264,0.1490468,0.031089783,-2.4957657,-0.77616334,-0.047416687,7.54467,1.6346462,0.04940033,-4.125431,-0.1149434,0.013542175,0.44373322,-1.0468411,-0.0052261353,-0.46204376,1.9491552,-0.023155212,0.57678986,-0.10921478,-0.028495789,0.23254776,-1.4178519,0.0045394897,-1.8561058,1.6341884,-0.0016403198,-4.4269485,0.096473694,-0.019569397,0.41931915,-1.034083,0.026130676,-7.8132286,1.8297552,0.03025055,-13.011063,0.0,0.0,0.0,0.0,0.0,0.0,0.0,0.0,0.0,0.0,0.0,0.0,0.88316697,0.8160709,-0.964569,-0.99687546,-0.116689615,0.60568666,-0.9999135,-0.9531101,-0.992138,0.9999344,-0.43382317,-0.9805924
2025-06-04 18:32:59.329,0.287745,-7.104274,-168.53534,-6.586873e-05,-0.00025354399,-0.00089924596,1.180188,0.041971,9.705185,0.14912309,0.02002716,-2.506752,-0.77608705,0.026435852,7.4518967,1.634341,0.022468567,-4.1608315,-0.11509599,0.01941681,0.4803543,-1.0463834,0.021858215,-0.41077423,1.9489263,-0.022468567,0.56702423,-0.10921478,-0.002784729,0.25696182,-1.4177756,0.06275177,-1.7792015,1.6341884,0.031471252,-4.415962,0.09662628,-0.0033187866,0.3997879,-1.0342356,-0.010948181,-7.8059044,1.8296789,0.011711121,-12.9951935,0.0,0.0,0.0,0.0,0.0,0.0,0.0,0.0,0.0,0.0,0.0,0.0,0.8838456,0.81438285,-0.96488714,-0.9968675,-0.1213769,0.60717434,-0.99991375,-0.95292443,-0.99213475,0.9999351,-0.43669897,-0.9807017
2025-06-04 18:32:59.380,0.290763,-7.10221,-168.53812,-0.0016665101,0.0013589482,-0.0026143636,1.190752,0.038839,9.698304,0.1488942,-0.057411194,-2.5714493,-0.77585816,0.03429413,7.558098,1.6344936,-0.024147034,-4.1168823,-0.1149434,-0.008201599,0.46326447,-1.0467649,-0.051002502,-0.40833282,1.9491552,0.021781921,0.604866,-0.109062195,-0.029640198,0.2484169,-1.4181571,-0.008430481,-1.7901878,1.6341121,-0.031013489,-4.4123,0.09685516,0.07549286,0.41809845,-1.0342356,0.015220642,-7.7900352,1.8296026,-0.0090408325,-12.952469,0.0,0.0,0.0,0.0,0.0,0.0,0.0,0.0,0.0,0.0,0.0,0.0,0.8827138,0.8155571,-0.9649221,-0.9968353,-0.120574325,0.60869795,-0.99991333,-0.95257324,-0.99213797,0.9999344,-0.43273643,-0.98052204
2025-06-04 18:32:59.431,0.290044,-7.099004,-168.53789,-3.3213615e-05,0.0032991434,0.00045156904,1.18666,0.048481,9.713223,0.1489705,0.011634827,-2.543373,-0.77608705,-0.005836487,7.553215,1.634341,-0.033607483,-4.1413,-0.1149434,-0.0017929077,0.44495392,-1.0469937,-0.02773285,-0.41565704,1.9489263,-0.011100769,0.5889969,-0.10929108,-0.010948181,0.22034073,-1.4179282,0.01613617,-1.7804222,1.6341121,0.020866394,-4.4061966,0.09677887,-0.0182724,0.38758087,-1.0343882,-0.026359558,-7.7900352,1.8296789,-0.0004196167,-13.015945,0.0,0.0,0.0,0.0,0.0,0.0,0.0,0.0,0.0,0.0,0.0,0.0,0.88306534,0.81623596,-0.96503836,-0.99684626,-0.119919814,0.6098578,-0.9999136,-0.952854,-0.9921297,0.99993473,-0.4338329,-0.9806171
2025-06-04 18:32:59.482,0.288543,-7.097411,-168.54102,-0.0005214346,-0.0038467231,0.0005898689,1.158297,0.015325,9.736704,0.1488942,0.09540558,-2.6288261,-0.77608705,-0.031700134,7.528801,1.6344936,0.0045394897,-4.0839233,-0.114867106,0.02002716,0.4425125,-1.0468411,0.02155304,-0.4351883,1.9490026,-0.013847351,0.5560379,-0.10921478,0.008125305,0.23865128,-1.4181571,-0.012702942,-1.7779808,1.6341121,-0.0030899048,-4.4232864,0.096702576,-0.01789093,0.40345,-1.0343119,-0.031089783,-7.7717247,1.8296789,0.021705627,-12.9951935,0.0,0.0,0.0,0.0,0.0,0.0,0.0,0.0,0.0,0.0,0.0,0.0,0.8826949,0.8163066,-0.96462524,-0.9968667,-0.11671648,0.60585237,-0.99991345,-0.9531127,-0.9921833,0.9999346,-0.4338054,-0.98061645
2025-06-04 18:32:59.533,0.284613,-7.100303,-168.54185,0.0020654227,0.0012556596,0.0024975662,1.212911,0.042276,9.77209,0.14874162,-0.028038025,-2.5506973,-0.77608705,-0.004005432,7.5056076,1.6342647,-0.0749588,-3.9545288,-0.1149434,0.00919342,0.4766922,-1.0466123,-0.064201355,-0.40711212,1.9490789,0.0146102905,0.526741,-0.10921478,0.00995636,0.22766495,-1.4178519,0.016593933,-1.8316917,1.6341121,0.005836487,-4.4061966,0.09677887,0.0012588501,0.42542267,-1.0342356,0.027122498,-7.7058067,1.8296789,-0.004005432,-13.001297,0.0,0.0,0.0,0.0,0.0,0.0,0.0,0.0,0.0,0.0,0.0,0.0,0.8825438,0.8149558,-0.96517944,-0.9968242,-0.123085655,0.6102258,-0.9999126,-0.9525225,-0.9921312,0.9999347,-0.43465263,-0.9805249
2025-06-04 18:32:59.584,0.285539,-7.099615,-168.53976,-0.0019196352,0.0013013,0.002029015,1.186978,0.062108,9.691822,0.14874162,-0.010261536,-2.5555801,-0.77601075,0.028572083,7.5190353,1.634341,-0.010643005,-4.0924683,-0.1149434,-0.034217834,0.49622345,-1.0472226,-0.0065231323,-0.44373322,1.9490789,0.0104904175,0.5548172,-0.109443665,-0.014762878,0.2471962,-1.4180045,-0.008811951,-1.8243675,1.6341121,0.028648376,-4.415962,0.09677887,-0.06900787,0.3704872,-1.0343882,-0.029563904,-7.8046837,1.8296026,0.018959045,-13.014725,0.0,0.0,0.0,0.0,0.0,0.0,0.0,0.0,0.0,0.0,0.0,0.0,0.8831363,0.8168089,-0.96508485,-0.99683565,-0.11885688,0.60990226,-0.9999133,-0.95275,-0.99209315,0.99993455,-0.4315848,-0.9805379
2025-06-04 18:32:59.635,0.286602,-7.092469,-168.53975,0.0012345586,0.00011859512,-0.00018114773,1.15744,0.067211,9.744225,0.1489705,-0.038490295,-2.6019669,-0.77593446,0.0030136108,7.512932,1.6344936,-0.0049972534,-4.0424194,-0.1149434,0.018043518,0.47058868,-1.0467649,-0.0157547,-0.3973465,1.9491552,0.061302185,0.5987625,-0.10929108,-0.0157547,0.23376846,-1.4180045,0.052757263,-1.8072777,1.6342647,0.0033187866,-4.4354935,0.09685516,0.033073425,0.37781525,-1.0342356,0.018806458,-7.6826134,1.8296789,-0.0308609,-13.022049,0.0,0.0,0.0,0.0,0.0,0.0,0.0,0.0,0.0,0.0,0.0,0.0,0.8834491,0.8160323,-0.96514976,-0.9968565,-0.12010257,0.6091093,-0.9999141,-0.9530722,-0.9921398,0.9999348,-0.4350785,-0.9806392
2025-06-04 18:32:59.686,0.285566,-7.092425,-168.53864,-0.002881591,0.0010289239,0.0007630405,1.178388,0.055569,9.687469,0.14866532,-0.048866272,-2.543373,-0.77601075,-0.04283905,7.5605392,1.6342647,0.0009536743,-4.1559486,-0.1149434,0.052986145,0.46936798,-1.0469174,0.032844543,-0.481575,1.9491552,-0.007820129,0.61219025,-0.10951996,-0.08617401,0.24475479,-1.4180045,0.051460266,-1.7962914,1.6341884,0.0025558472,-4.425728,0.09677887,-0.0636673,0.4339676,-1.0343882,-0.021095276,-7.864498,1.8296789,0.027122498,-12.969559,0.0,0.0,0.0,0.0,0.0,0.0,0.0,0.0,0.0,0.0,0.0,0.0,0.88352776,0.8162257,-0.96468055,-0.99687064,-0.11656697,0.6061135,-0.9999136,-0.95300925,-0.99212,0.99993426,-0.4336176,-0.9805782
2025-06-04 18:32:59.738,0.28043,-7.090866,-168.53383,0.0037908203,-0.0005162509,0.0011300832,1.197284,0.053055,9.703407,0.14881791,-0.03551483,-2.4835587,-0.77585816,0.021858215,7.5397873,1.6344173,0.016746521,-4.0338745,-0.115019694,-0.004081726,0.45105743,-1.0464597,0.045661926,-0.38636017,1.9490026,0.0065231323,0.57678986,-0.10929108,0.016975403,0.206913,-1.4180045,-0.055351257,-1.8548851,1.6341121,-0.028572083,-4.436714,0.09685516,-0.007286072,0.39002228,-1.0345408,-0.0051498413,-7.7900352,1.8296026,-0.0030136108,-12.963455,0.0,0.0,0.0,0.0,0.0,0.0,0.0,0.0,0.0,0.0,0.0,0.0,0.8831491,0.81477183,-0.9649344,-0.9968521,-0.12155208,0.60777915,-0.99991333,-0.95277005,-0.99213123,0.9999346,-0.43444845,-0.98058635
2025-06-04 18:32:59.789,0.283695,-7.090107,-168.5347,-0.00026883307,-0.0008162381,0.00050604076,1.170467,0.055415,9.717208,0.1489705,0.06649017,-2.5116348,-0.77593446,0.03955841,7.4433517,1.6344936,-0.013465881,-4.1278725,-0.115019694,-0.00049591064,0.4351883,-1.0469174,0.05443573,-0.4400711,1.9490026,0.03917694,0.60730743,-0.109062195,0.019264221,0.22278214,-1.4181571,-0.031089783,-1.8243675,1.6341121,-0.013160706,-4.4110794,0.09685516,-0.03879547,0.3949051,-1.0344645,0.016975403,-7.8217735,1.8296789,-0.008201599,-12.968338,0.0,0.0,0.0,0.0,0.0,0.0,0.0,0.0,0.0,0.0,0.0,0.0,0.8823802,0.8159578,-0.96505547,-0.99683917,-0.11842177,0.6077491,-0.9999132,-0.9527283,-0.9921875,0.99993503,-0.43091777,-0.98047423
2025-06-04 18:32:59.840,0.28345,-7.089125,-168.53584,-0.00035217253,-0.0022243522,0.001067583,1.184493,0.039703,9.705953,0.1489705,-0.04497528,-2.6727715,-0.77585816,-0.007209778,7.528801,1.634341,-0.058250427,-4.0839233,-0.1149434,0.019111633,0.44373322,-1.046536,0.0036239624,-0.41565704,1.9490026,-0.053367615,0.58045197,-0.109062195,0.008735657,0.2459755,-1.4180045,-0.016593933,-1.8036156,1.6340358,-0.014915466,-4.42939,0.09700775,0.012245178,0.3936844,-1.0344645,-0.027580261,-7.7192345,1.8296789,0.0035476685,-12.984207,0.0,0.0,0.0,0.0,0.0,0.0,0.0,0.0,0.0,0.0,0.0,0.0,0.88300943,0.8156265,-0.9649618,-0.9968511,-0.12083641,0.60956967,-0.99991393,-0.9528871,-0.992158,0.9999347,-0.43534055,-0.9806978
2025-06-04 18:32:59.891,0.285688,-7.09215,-168.53854,-0.0037336256,-0.0014836171,0.0008705004,1.197176,0.086138,9.700921,0.14866532,0.05290985,-2.6276054,-0.77585816,0.013618469,7.4775314,1.6342647,-0.030326843,-4.1278725,-0.1149434,-0.021629333,0.4327469,-1.0469174,0.057640076,-0.4327469,1.9490026,0.010261536,0.5535965,-0.10921478,0.009498596,0.23865128,-1.4180808,-0.053749084,-1.8316917,1.6341121,0.0007247925,-4.3903275,0.09716034,0.005302429,0.3985672,-1.0346171,-0.016822815,-7.8022423,1.8296789,-0.0024032593,-12.990311,0.0,0.0,0.0,0.0,0.0,0.0,0.0,0.0,0.0,0.0,0.0,0.0,0.8823954,0.81616974,-0.96486884,-0.99685144,-0.118152544,0.6082163,-0.9999133,-0.95287055,-0.9921835,0.99993473,-0.43165627,-0.98052245
2025-06-04 18:32:59.942,0.285068,-7.0936,-168.53789,0.0016516923,0.002517969,1.3142329e-05,1.16128,0.039674,9.725346,0.14858903,-0.054893494,-2.539711,-0.77601075,-0.017356873,7.4897385,1.6344173,-0.005302429,-4.162052,-0.115019694,-0.024147034,0.4754715,-1.0466123,-0.04573822,-0.45227814,1.9490789,0.019111633,0.5999832,-0.109062195,-0.004386902,0.24231339,-1.4181571,-0.01209259,-1.8438988,1.6341884,-0.005683899,-4.4061966,0.09700775,0.008659363,0.38391876,-1.0344645,-0.008354187,-7.709469,1.8296789,-0.0047683716,-12.958572,0.0,0.0,0.0,0.0,0.0,0.0,0.0,0.0,0.0,0.0,0.0,0.0,0.8829298,0.8160443,-0.96492535,-0.9968549,-0.12062613,0.60852474,-0.9999133,-0.95293,-0.9921133,0.9999342,-0.43471393,-0.9805788
2025-06-04 18:32:59.993,0.287619,-7.092968,-168.53604,-0.0017863619,-0.00040859904,0.0034907633,1.200996,0.041948,9.719772,0.1489705,-0.05092621,-2.6410332,-0.77593446,0.013465881,7.487297,1.6344173,-0.013771057,-4.0753784,-0.1149434,0.019264221,0.45838165,-1.0466886,-0.03566742,-0.46570587,1.9491552,0.031547546,0.60852814,-0.10929108,-0.01651764,0.2508583,-1.4180808,0.0059890747,-1.7096214,1.6340358,0.024147034,-4.445259,0.09700775,-0.023155212,0.38025665,-1.0346934,-0.03742218,-7.775387,1.8296789,0.0118637085,-12.970779,0.0,0.0,0.0,0.0,0.0,0.0,0.0,0.0,0.0,0.0,0.0,0.0,0.8833207,0.8155065,-0.96506065,-0.996831,-0.12121329,0.6086683,-0.99991304,-0.9526339,-0.99208945,0.9999343,-0.4342981,-0.98053074
2025-06-04 18:33:00.044,0.284081,-7.092952,-168.53255,0.002053816,0.005304771,0.0005634621,1.199343,0.0349,9.680065,0.1489705,0.06328583,-2.5885391,-0.77593446,-0.08052826,7.5178146,1.6344173,0.060920715,-4.1779213,-0.1149434,-0.009880066,0.43152618,-1.0469937,-0.021095276,-0.45960236,1.9489263,0.0061416626,0.61707306,-0.10921478,-0.012702942,0.2093544,-1.4180045,0.04421234,-1.7889671,1.6341121,0.020332336,-4.359806,0.09700775,-0.028572083,0.3985672,-1.034846,-0.0060653687,-7.737545,1.8296789,-0.032234192,-13.015945,0.0,0.0,0.0,0.0,0.0,0.0,0.0,0.0,0.0,0.0,0.0,0.0,0.883459,0.81713617,-0.9647379,-0.99687916,-0.1161478,0.6065403,-0.999914,-0.95327955,-0.9921227,0.9999344,-0.43446252,-0.9806321
2025-06-04 18:33:00.095,0.285256,-7.089956,-168.53548,-0.0030070278,-0.0024483479,-3.413864e-05,1.169514,0.036868,9.696071,0.14858903,-0.018119812,-2.6324883,-0.7757056,-0.05794525,7.470207,1.6342647,-0.012168884,-4.0497437,-0.115019694,0.004234314,0.44495392,-1.0463834,-0.0065994263,-0.37537384,1.9490026,-0.0008010864,0.604866,-0.10890961,0.009727478,0.21545792,-1.4180808,-0.012550354,-1.8292503,1.6341121,-0.025901794,-4.453804,0.09693146,-0.016059875,0.41321564,-1.0346171,0.014381409,-7.7106895,1.8296789,-0.0008773804,-13.001297,0.0,0.0,0.0,0.0,0.0,0.0,0.0,0.0,0.0,0.0,0.0,0.0,0.88272864,0.8154813,-0.9647398,-0.99685526,-0.11962648,0.6066864,-0.9999129,-0.95289224,-0.9921404,0.9999342,-0.4351355,-0.9805756
2025-06-04 18:33:00.146,0.283475,-7.088919,-168.5287,-0.0025966659,0.0014748381,0.0024432864,1.182151,0.045966,9.724517,0.14881791,-0.029258728,-2.5238419,-0.77578187,0.0661087,7.471428,1.6342647,-0.07061005,-4.1034546,-0.1149434,-0.017051697,0.44617462,-1.0467649,0.022850037,-0.46692657,1.9490789,-0.029335022,0.5951004,-0.1089859,0.017433167,0.21912003,-1.4180045,0.024681091,-1.7645531,1.6341884,-0.015602112,-4.4647903,0.097084045,-0.015068054,0.37414932,-1.0345408,0.04787445,-7.827877,1.8296789,0.00957489,-12.980545,0.0,0.0,0.0,0.0,0.0,0.0,0.0,0.0,0.0,0.0,0.0,0.0,0.88277787,0.8153562,-0.96514964,-0.99682575,-0.12038624,0.60939693,-0.99991363,-0.95259595,-0.99216986,0.99993515,-0.43291545,-0.98062164
2025-06-04 18:33:00.197,0.280012,-7.086436,-168.52602,0.003421491,0.0023633153,0.0013573077,1.164621,0.071932,9.710449,0.1490468,0.0308609,-2.6776543,-0.77585816,0.0104904175,7.4653244,1.6342647,0.0021743774,-4.1083374,-0.115019694,0.005760193,0.45105743,-1.0467649,0.031852722,-0.4803543,1.9491552,0.016365051,0.5987625,-0.10890961,0.021324158,0.21789932,-1.4181571,0.0002670288,-1.8365746,1.6341121,-0.022010803,-4.413521,0.09716034,0.014305115,0.4010086,-1.034846,0.024299622,-7.7436485,1.8296789,0.014228821,-12.992752,0.0,0.0,0.0,0.0,0.0,0.0,0.0,0.0,0.0,0.0,0.0,0.0,0.88282603,0.8160982,-0.9648058,-0.9968611,-0.117548496,0.6059928,-0.9999139,-0.9530612,-0.992186,0.99993473,-0.4335279,-0.98060805
2025-06-04 18:33:00.248,0.280947,-7.083502,-168.52516,-0.0013501692,0.0014158459,0.0024347517,1.158701,0.022957,9.736974,0.1488942,-0.066337585,-2.4151993,-0.77593446,-0.051231384,7.500725,1.6345699,0.03665924,-4.11322,-0.1149434,0.026435852,0.49378204,-1.0462308,0.048179626,-0.4022293,1.9490789,-0.022468567,0.61096954,-0.109062195,0.02735138,0.22400284,-1.4183097,0.032463074,-1.7474632,1.6339595,-0.005836487,-4.448921,0.09700775,0.0023269653,0.40833282,-1.034846,0.058174133,-7.8059044,1.8296026,-0.040779114,-13.017166,0.0,0.0,0.0,0.0,0.0,0.0,0.0,0.0,0.0,0.0,0.0,0.0,0.8838207,0.8153967,-0.9649214,-0.99687576,-0.118803814,0.60686314,-0.99991447,-0.953247,-0.99214774,0.9999347,-0.4371077,-0.9806898
2025-06-04 18:33:00.299,0.277718,-7.083843,-168.52127,-0.0010649301,0.004251692,0.0012805306,1.199122,0.066114,9.700161,0.1489705,0.0573349,-2.5250626,-0.77578187,-0.03124237,7.4567795,1.6344936,-0.04421234,-4.085144,-0.115019694,0.0059890747,0.45227814,-1.0463834,0.07724762,-0.44861603,1.9490789,0.0030136108,0.58167267,-0.10921478,-0.030097961,0.21423721,-1.418386,0.02292633,-1.7584496,1.6340358,-0.007896423,-4.384224,0.097084045,-0.02002716,0.41931915,-1.0349222,0.056419373,-7.6862755,1.8296789,0.0146102905,-12.976883,0.0,0.0,0.0,0.0,0.0,0.0,0.0,0.0,0.0,0.0,0.0,0.0,0.8825894,0.8158787,-0.9647518,-0.99686944,-0.116663866,0.606609,-0.99991304,-0.95293653,-0.9921896,0.9999348,-0.4318397,-0.9804825
2025-06-04 18:33:00.350,0.275837,-7.077616,-168.51501,-0.0028119348,0.0015935205,-0.0014354634,1.16302,0.036365,9.714853,0.1488942,-0.012245178,-2.5568008,-0.77601075,0.0077438354,7.5141525,1.6344936,0.035972595,-4.1205444,-0.115019694,-0.004463196,0.44861603,-1.0464597,0.001411438,-0.41443634,1.9489263,-0.00049591064,0.5987625,-0.10929108,0.004005432,0.21301651,-1.418386,-0.021781921,-1.7962914,1.6340358,0.004081726,-4.417183,0.09693146,-0.0008010864,0.38880157,-1.0351511,0.020866394,-7.647213,1.8296026,0.012321472,-12.972,0.0,0.0,0.0,0.0,0.0,0.0,0.0,0.0,0.0,0.0,0.0,0.0,0.88326967,0.8151999,-0.9648797,-0.9968651,-0.120344125,0.60741997,-0.99991345,-0.9530397,-0.9921283,0.99993455,-0.43549868,-0.98059
2025-06-04 18:33:00.401,0.276634,-7.076195,-168.51712,-0.0005093569,0.0024336695,0.0011168187,1.190269,0.036806,9.731527,0.1488942,0.015678406,-2.5799942,-0.77593446,0.00019073486,7.4518967,1.6342647,0.055274963,-4.0387573,-0.1149434,0.004310608,0.42908478,-1.0469174,0.013771057,-0.42908478,1.9490789,-0.036506653,0.61585236,-0.10921478,0.018348694,0.23743057,-1.4181571,-0.015068054,-1.8646507,1.6339595,0.024757385,-4.4147415,0.09685516,-0.019798279,0.3949051,-1.0352274,0.007209778,-7.8791504,1.8296026,-0.018424988,-13.004959,0.0,0.0,0.0,0.0,0.0,0.0,0.0,0.0,0.0,0.0,0.0,0.0,0.8835274,0.8156792,-0.96485615,-0.99685687,-0.118166946,0.6073043,-0.999914,-0.95306116,-0.992138,0.9999346,-0.4352406,-0.9806424
2025-06-04 18:33:00.452,0.272476,-7.079135,-168.51413,-0.001326328,0.00043769367,-0.00031166343,1.218363,0.009427,9.727953,0.14858903,0.041389465,-2.4725723,-0.77593446,-0.028266907,7.445793,1.6344936,0.022163391,-4.1364174,-0.1149434,0.007972717,0.49622345,-1.0466886,-0.018882751,-0.38391876,1.9490789,-0.001411438,0.60608673,-0.109062195,0.02986908,0.206913,-1.4185386,-0.00919342,-1.7950706,1.6341121,-0.0045394897,-4.44648,0.097084045,0.008964539,0.4010086,-1.0350748,-0.00064849854,-7.718014,1.8296789,0.0020980835,-12.959793,0.0,0.0,0.0,0.0,0.0,0.0,0.0,0.0,0.0,0.0,0.0,0.0,0.88291276,0.8154729,-0.96470755,-0.9968598,-0.11896029,0.60588646,-0.9999132,-0.952968,-0.9921523,0.9999343,-0.43531796,-0.9805757
2025-06-04 18:33:00.503,0.274952,-7.072721,-168.51675,-0.0025462958,-0.0009358281,-0.00070596824,1.151117,0.07718,9.730492,0.1490468,-0.039863586,-2.531166,-0.77578187,0.026435852,7.4982834,1.6345699,0.0045394897,-4.126652,-0.11509599,-0.0045394897,0.45105743,-1.0466123,0.011024475,-0.38636017,1.9492315,-0.03993988,0.6024246,-0.10929108,-0.030708313,0.2484169,-1.4185386,-0.061683655,-1.8487816,1.6340358,-0.0048446655,-4.434273,0.09700775,0.02620697,0.38147736,-1.0353037,0.09677887,-7.725338,1.8296789,-0.0009536743,-13.001297,0.0,0.0,0.0,0.0,0.0,0.0,0.0,0.0,0.0,0.0,0.0,0.0,0.88250023,0.8155802,-0.96484673,-0.9968496,-0.117430635,0.60818005,-0.99991345,-0.95298433,-0.9921816,0.9999346,-0.43272355,-0.9805129
2025-06-04 18:33:00.554,0.269586,-7.072118,-168.51465,0.0019132647,-0.0018868754,-0.0010515259,1.175398,0.042011,9.715528,0.14874162,0.070381165,-2.5421524,-0.77593446,0.06351471,7.5214767,1.6344173,-0.010414124,-4.133976,-0.1149434,-0.03993988,0.45227814,-1.046536,-0.002937317,-0.4351883,1.94885,-0.038719177,0.60974884,-0.10936737,0.007972717,0.252079,-1.4184623,0.0049972534,-1.79385,1.6341884,0.014839172,-4.415962,0.09700775,-0.009727478,0.38880157,-1.03538,0.110206604,-7.6533165,1.8295263,0.021247864,-12.996414,0.0,0.0,0.0,0.0,0.0,0.0,0.0,0.0,0.0,0.0,0.0,0.0,0.88238114,0.8161497,-0.9649227,-0.9968547,-0.11685182,0.6080495,-0.9999136,-0.9531658,-0.9922096,0.9999351,-0.43309218,-0.9806079
2025-06-04 18:33:00.605,0.270528,-7.072521,-168.5145,0.0028076414,-0.0019814898,-0.0026776667,1.180073,0.054037,9.712927,0.1490468,0.013542175,-2.4969864,-0.77585816,-0.04840851,7.512932,1.6345699,0.015068054,-4.0582886,-0.11509599,0.0051498413,0.44861603,-1.0462308,-0.020256042,-0.4022293,1.9490789,-0.02002716,0.6036453,-0.109062195,-0.005607605,0.2471962,-1.4186149,-0.1203537,-1.7901878,1.6339595,-0.013160706,-4.3854446,0.097084045,0.029029846,0.38391876,-1.0354563,0.029792786,-7.713131,1.8296789,0.004234314,-12.943924,0.0,0.0,0.0,0.0,0.0,0.0,0.0,0.0,0.0,0.0,0.0,0.0,0.88191617,0.8159736,-0.964526,-0.99686426,-0.117291965,0.60622656,-0.9999126,-0.9531495,-0.9921809,0.99993384,-0.43402642,-0.9804688
2025-06-04 18:33:00.659,0.270809,-7.068468,-168.51173,0.0022493454,0.0034169008,-0.00045387287,1.163126,0.055862,9.715934,0.14881791,0.059394836,-2.5262833,-0.77585816,-0.03238678,7.4738693,1.634341,-0.08693695,-4.076599,-0.1149434,0.019874573,0.46692657,-1.0463071,-0.00705719,-0.41687775,1.9490026,-0.05443573,0.5877762,-0.10921478,-0.008735657,0.21301651,-1.4186149,0.004005432,-1.7413597,1.6341884,0.00919342,-4.391548,0.09700775,-0.0031661987,0.4010086,-1.0351511,0.01209259,-7.7119102,1.8296789,0.014076233,-13.003738,0.0,0.0,0.0,0.0,0.0,0.0,0.0,0.0,0.0,0.0,0.0,0.0,0.8821701,0.8155093,-0.96481836,-0.996851,-0.11906624,0.6079755,-0.9999128,-0.9528235,-0.9921952,0.99993473,-0.43400404,-0.980541
2025-06-04 18:33:00.712,0.27228,-7.06261,-168.51396,0.0027090127,0.0019106119,0.0004906644,1.191774,0.053882,9.709641,0.1489705,0.0020217896,-2.6019669,-0.77601075,0.042762756,7.500725,1.6344173,-0.004463196,-4.1767006,-0.1149434,0.015449524,0.44739532,-1.0463071,-0.033454895,-0.4022293,1.9490026,0.038871765,0.5938797,-0.10913849,0.011634827,0.19836807,-1.4185386,-0.021400452,-1.7474632,1.6341884,-0.0047683716,-4.4098587,0.097084045,-0.012245178,0.37903595,-1.03538,0.010261536,-7.6935997,1.8296026,0.0004196167,-12.996414,0.0,0.0,0.0,0.0,0.0,0.0,0.0,0.0,0.0,0.0,0.0,0.0,0.8824795,0.8153337,-0.9649773,-0.9968287,-0.120250605,0.60647374,-0.99991274,-0.95265347,-0.9921488,0.9999344,-0.4336782,-0.9804729
2025-06-04 18:33:00.766,0.274928,-7.056203,-168.51257,-0.0018921463,0.0009877167,0.0011818323,1.189925,0.0202,9.684229,0.14874162,0.011711121,-2.597084,-0.77585816,-0.09876251,7.4494553,1.6345699,0.012245178,-4.1168823,-0.1149434,0.004310608,0.46814728,-1.046536,-0.038490295,-0.4718094,1.9491552,-0.010795593,0.61096954,-0.10921478,0.021400452,0.24109268,-1.4187675,-0.1455307,-1.5936508,1.6340358,-0.026741028,-4.4098587,0.09716034,0.017585754,0.38147736,-1.0355326,-0.03917694,-7.655758,1.8296789,-0.016365051,-13.013504,0.0,0.0,0.0,0.0,0.0,0.0,0.0,0.0,0.0,0.0,0.0,0.0,0.88207585,0.8162734,-0.9646206,-0.99685365,-0.11870802,0.60677266,-0.9999127,-0.95288,-0.99213785,0.9999336,-0.4334966,-0.9804346
2025-06-04 18:33:00.818,0.273168,-7.050628,-168.51244,0.001143976,0.0014071193,0.00093741633,1.176032,0.019226,9.718305,0.14881791,0.020103455,-2.465248,-0.7757056,-0.04009247,7.548332,1.6346462,0.005760193,-4.0827026,-0.11509599,-0.0059890747,0.4730301,-1.0466123,0.0014877319,-0.436409,1.9490789,0.023918152,0.57190704,-0.10913849,-0.008354187,0.23132706,-1.4185386,-0.057182312,-1.6937523,1.6340358,0.0076675415,-4.3952103,0.097084045,0.03917694,0.38269806,-1.0352274,0.012702942,-7.8913574,1.8296789,0.0049209595,-12.987869,0.0,0.0,0.0,0.0,0.0,0.0,0.0,0.0,0.0,0.0,0.0,0.0,0.8826473,0.8156818,-0.9648026,-0.9968648,-0.119296044,0.6076457,-0.999913,-0.9530135,-0.99214697,0.9999344,-0.4337929,-0.9804705
2025-06-04 18:33:00.871,0.27499,-7.050271,-168.51045,0.0017564296,-5.0963612e-05,0.00044745006,1.15349,0.047733,9.727828,0.1490468,0.087013245,-2.424965,-0.7757056,0.0060653687,7.5068283,1.6344173,-0.019721985,-4.110779,-0.115019694,-0.07129669,0.4779129,-1.046536,-0.024223328,-0.45838165,1.9490789,0.00019073486,0.61707306,-0.109062195,0.0015640259,0.21789932,-1.4183097,0.0046157837,-1.8609886,1.6340358,-0.012016296,-4.4196243,0.09716034,0.016365051,0.3997879,-1.0352274,0.043296814,-7.7228966,1.8296789,0.0146102905,-13.031815,0.0,0.0,0.0,0.0,0.0,0.0,0.0,0.0,0.0,0.0,0.0,0.0,0.88245744,0.8165734,-0.96482515,-0.9968571,-0.11798862,0.6076252,-0.9999134,-0.9529822,-0.99216557,0.9999347,-0.43265155,-0.980585
2025-06-04 18:33:00.923,0.27497,-7.046356,-168.51059,-0.0015832754,-0.0026937062,-0.0012483118,1.181216,0.045667,9.723755,0.14866532,0.0036239624,-2.6300468,-0.77585816,-0.036201477,7.4848557,1.6342647,0.033836365,-4.133976,-0.11509599,0.018348694,0.42908478,-1.046536,0.036125183,-0.43030548,1.94885,-0.002937317,0.5841141,-0.109062195,0.014457703,0.20203018,-1.4186149,-0.012168884,-1.8609886,1.6341121,0.005302429,-4.4123,0.097084045,-0.010032654,0.4022293,-1.0355326,-0.046043396,-7.8290977,1.8296789,0.0051498413,-12.978104,0.0,0.0,0.0,0.0,0.0,0.0,0.0,0.0,0.0,0.0,0.0,0.0,0.88352054,0.8153123,-0.9647246,-0.99687296,-0.11953482,0.605708,-0.99991363,-0.95309645,-0.9921323,0.9999344,-0.43652114,-0.9806318
2025-06-04 18:33:00.976,0.275106,-7.046336,-168.51073,-0.0023062257,0.0010078055,-0.0014995694,1.208078,0.055806,9.70936,0.14874162,0.033226013,-2.617836,-0.77593446,-0.013465881,7.490959,1.6344173,0.049095154,-4.109558,-0.11517228,-0.0004196167,0.44861603,-1.046536,0.04573822,-0.436409,1.9490026,-0.0032424927,0.5218582,-0.109062195,3.8146973e-05,0.22522354,-1.4187675,-0.0548172,-1.903717,1.6341121,-0.025901794,-4.436714,0.09716034,-0.013313293,0.3936844,-1.0357615,0.03025055,-7.699703,1.8297552,0.0146102905,-12.980545,0.0,0.0,0.0,0.0,0.0,0.0,0.0,0.0,0.0,0.0,0.0,0.0,0.88267934,0.81542915,-0.96453696,-0.99686575,-0.11671513,0.6036588,-0.9999131,-0.95295525,-0.9921714,0.9999343,-0.43316782,-0.9804867
2025-06-04 18:33:01.030,0.274421,-7.041076,-168.50804,0.0030740134,0.002086,0.002570067,1.184692,0.050097,9.726246,0.14874162,0.052070618,-2.5336075,-0.77585816,0.0074386597,7.5275803,1.634341,-0.0059890747,-4.118103,-0.11509599,0.048103333,0.44495392,-1.0461545,0.052223206,-0.38025665,1.94885,-0.019874573,0.5584793,-0.10921478,0.039253235,0.2484169,-1.4186149,0.01033783,-1.6913109,1.6340358,0.013694763,-4.404976,0.09716034,-0.006904602,0.38269806,-1.0356089,0.045661926,-7.6984825,1.8297552,-0.0016403198,-12.956131,0.0,0.0,0.0,0.0,0.0,0.0,0.0,0.0,0.0,0.0,0.0,0.0,0.8830504,0.81423366,-0.96495956,-0.99686104,-0.12027211,0.606297,-0.9999135,-0.95291287,-0.99219906,0.99993527,-0.43574083,-0.9805769
2025-06-04 18:33:01.083,0.272727,-7.04098,-168.50702,-0.0022276684,-4.3982298e-05,0.0028501225,1.14234,0.053379,9.725484,0.14874162,0.0035476685,-2.494545,-0.77601075,-0.026893616,7.392082,1.6341121,0.0008773804,-4.149845,-0.115019694,-0.0283432,0.44861603,-1.0468411,-0.05596161,-0.48645782,1.9490789,0.034446716,0.60608673,-0.109062195,-0.0011825562,0.21667862,-1.4186149,0.057182312,-1.8487816,1.6341121,0.015830994,-4.4123,0.09716034,0.026741028,0.3961258,-1.0357615,0.09685516,-7.765621,1.8296789,-0.023612976,-12.992752,0.0,0.0,0.0,0.0,0.0,0.0,0.0,0.0,0.0,0.0,0.0,0.0,0.8830704,0.81612784,-0.9650182,-0.9968564,-0.11876932,0.6079814,-0.99991345,-0.95295566,-0.9921328,0.99993455,-0.4339975,-0.98050696
2025-06-04 18:33:01.136,0.270287,-7.036055,-168.50876,0.003924024,0.00015664329,0.00141342,1.193332,0.056303,9.742889,0.14874162,-0.053596497,-2.4957657,-0.77578187,0.0049209595,7.454338,1.634341,-0.043144226,-4.1205444,-0.115019694,-0.026130676,0.44983673,-1.046536,0.03025055,-0.40955353,1.9490789,0.017967224,0.58167267,-0.10936737,0.0024795532,0.2508583,-1.4184623,-0.047187805,-1.682766,1.6341121,-0.002937317,-4.4110794,0.09716034,-0.010108948,0.39246368,-1.0358378,-0.055351257,-7.7241173,1.8297552,-0.00011444092,-12.9951935,0.0,0.0,0.0,0.0,0.0,0.0,0.0,0.0,0.0,0.0,0.0,0.0,0.8834212,0.8153881,-0.9651132,-0.99684256,-0.12264584,0.60990703,-0.9999132,-0.95262843,-0.99208677,0.99993443,-0.43415335,-0.9805571
2025-06-04 18:33:01.189,0.264894,-7.038627,-168.51059,0.000279881,0.0028784145,-0.00068286003,1.175584,0.027257,9.689606,0.1488942,0.07419586,-2.5079727,-0.77601075,-0.013008118,7.4409103,1.6344173,-0.004081726,-4.162052,-0.11532487,0.022163391,0.4791336,-1.0472989,-0.060691833,-0.4376297,1.9490789,0.013542175,0.5609207,-0.109062195,-0.011253357,0.23254776,-1.4189963,-0.012321472,-1.7669945,1.6340358,0.030021667,-4.4550247,0.09716034,0.031089783,0.40467072,-1.0357615,0.027503967,-7.730221,1.8296789,0.017204285,-12.997635,0.0,0.0,0.0,0.0,0.0,0.0,0.0,0.0,0.0,0.0,0.0,0.0,0.8823722,0.81659275,-0.96474606,-0.99685144,-0.115815565,0.6067239,-0.9999133,-0.95312816,-0.9921952,0.99993443,-0.4332726,-0.98049843
2025-06-04 18:33:01.242,0.268839,-7.031536,-168.50958,0.0037907853,-0.0023127706,0.0021129828,1.21961,0.045643,9.74157,0.14874162,-0.034828186,-2.4933243,-0.77593446,0.079841614,7.5666428,1.634341,-0.042915344,-4.0631714,-0.114867106,0.039100647,0.45716095,-1.0464597,0.076560974,-0.38147736,1.9491552,0.019493103,0.6024246,-0.10921478,-0.03238678,0.25452042,-1.41892,-0.11379242,-1.6559105,1.6340358,0.0065231323,-4.4525833,0.09716034,0.0036239624,0.3973465,-1.0357615,-0.065193176,-7.582512,1.8296026,0.00415802,-12.961014,0.0,0.0,0.0,0.0,0.0,0.0,0.0,0.0,0.0,0.0,0.0,0.0,0.8825375,0.81380737,-0.9650328,-0.9968372,-0.12307016,0.6089504,-0.9999124,-0.95251137,-0.9921603,0.99993473,-0.4333136,-0.9804132
2025-06-04 18:33:01.295,0.270434,-7.034693,-168.50826,-0.0018310947,0.00013086479,-0.0013640621,1.154798,0.059003,9.726288,0.14881791,0.007133484,-2.4347305,-0.7757056,0.010871887,7.4653244,1.6344936,-0.00011444092,-4.137638,-0.115019694,0.031013489,0.46204376,-1.0472226,-0.021400452,-0.4742508,1.9491552,0.056037903,0.57923126,-0.1089859,0.032310486,0.206913,-1.4186912,0.010108948,-1.7621117,1.6341121,-0.031318665,-4.425728,0.09723663,-0.004081726,0.3973465,-1.0358378,-0.05947113,-7.638668,1.8296026,-0.009727478,-13.02449,0.0,0.0,0.0,0.0,0.0,0.0,0.0,0.0,0.0,0.0,0.0,0.0,0.8833628,0.81589425,-0.96510077,-0.99683636,-0.120764986,0.6067649,-0.99991375,-0.9526266,-0.9921181,0.9999345,-0.43397865,-0.980542
2025-06-04 18:33:01.347,0.270785,-7.030356,-168.50989,-0.002108672,0.00017322393,0.00086517713,1.161631,0.047258,9.734941,0.14866532,-0.03566742,-2.6007462,-0.77578187,-0.0017929077,7.459221,1.6342647,0.014076233,-4.215763,-0.11517228,-0.010795593,0.45594025,-1.0468411,-0.035820007,-0.49011993,1.9490026,0.042304993,0.592659,-0.10921478,0.023231506,0.23010635,-1.4188437,0.071372986,-1.6034164,1.6340358,0.005683899,-4.4440384,0.09716034,0.007972717,0.38636017,-1.0359904,0.06084442,-7.6081467,1.8296789,0.03162384,-12.942703,0.0,0.0,0.0,0.0,0.0,0.0,0.0,0.0,0.0,0.0,0.0,0.0,0.8839122,0.81561923,-0.9650815,-0.99684834,-0.12011214,0.6072734,-0.999914,-0.9529273,-0.99209857,0.9999347,-0.4357944,-0.9806202
2025-06-04 18:33:01.400,0.271216,-7.028418,-168.50604,-0.0018783407,0.0018882194,-0.00013749703,1.18837,0.05363,9.702776,0.14866532,-0.03513336,-2.5079727,-0.77578187,-0.028877258,7.4738693,1.6342647,-0.018348694,-4.0839233,-0.11547746,-0.040550232,0.4791336,-1.0469937,-0.124549866,-0.5242996,1.9490789,0.020637512,0.60852814,-0.10913849,0.08541107,0.21423721,-1.4187675,0.03704071,-1.7315941,1.6341884,0.00919342,-4.3988724,0.097084045,-0.022392273,0.3997879,-1.0359904,0.0011825562,-7.766842,1.8296789,0.025672913,-13.008621,0.0,0.0,0.0,0.0,0.0,0.0,0.0,0.0,0.0,0.0,0.0,0.0,0.8837205,0.81556714,-0.9651449,-0.99681896,-0.12317025,0.6087701,-0.99991304,-0.9525706,-0.99204093,0.9999341,-0.43695548,-0.9806251
2025-06-04 18:33:01.453,0.272795,-7.026338,-168.50497,0.0034990883,0.0021317103,0.0011678347,1.158923,0.039261,9.709945,0.14881791,0.08068085,-2.593422,-0.77578187,0.0017166138,7.454338,1.6341884,-0.03139496,-4.0875854,-0.11517228,0.02407074,0.4803543,-1.04707,-0.03391266,-0.49988556,1.9489263,0.0075149536,0.6243973,-0.109062195,0.020484924,0.2081337,-1.4190726,-0.069618225,-1.8158226,1.6341121,0.0371933,-4.3976517,0.09716034,0.050468445,0.38269806,-1.036143,-0.0009536743,-7.7936974,1.8296789,0.012321472,-12.969559,0.0,0.0,0.0,0.0,0.0,0.0,0.0,0.0,0.0,0.0,0.0,0.0,0.88218445,0.81573457,-0.964815,-0.99683106,-0.117934495,0.6077552,-0.99991286,-0.95280516,-0.9921936,0.99993455,-0.4329667,-0.98045206
2025-06-04 18:33:01.505,0.268699,-7.022881,-168.50832,-0.00013266248,-0.0016541881,-0.0035437513,1.199455,0.05891,9.744457,0.14874162,0.03261566,-2.5580215,-0.77578187,0.053367615,7.466545,1.6344936,-0.045433044,-4.0131226,-0.11517228,-0.0021743774,0.4718094,-1.0469937,0.005302429,-0.46814728,1.9490026,0.017814636,0.57190704,-0.10921478,-0.06443024,0.23254776,-1.41892,-0.11707306,-1.773098,1.6340358,-0.04398346,-4.4269485,0.097084045,0.013008118,0.38758087,-1.0359141,-0.013771057,-7.6777306,1.8295263,0.0021743774,-13.025711,0.0,0.0,0.0,0.0,0.0,0.0,0.0,0.0,0.0,0.0,0.0,0.0,0.8813426,0.8157091,-0.96480507,-0.99683607,-0.11883243,0.6078348,-0.99991226,-0.95262885,-0.99220043,0.9999344,-0.43019792,-0.98036057
2025-06-04 18:33:01.558,0.271675,-7.019634,-168.50986,-0.0019924503,0.003789581,-0.0035251635,1.151614,0.021665,9.715858,0.14881791,-0.07587433,-2.6556816,-0.77585816,-0.011253357,7.454338,1.6344173,-0.002632141,-4.142521,-0.11517228,0.013389587,0.45960236,-1.0466886,0.02292633,-0.436409,1.9489263,0.0030899048,0.57190704,-0.10936737,-0.007820129,0.2459755,-1.4186912,0.111961365,-1.727932,1.6339595,-0.0008773804,-4.3988724,0.09723663,0.053367615,0.39002228,-1.0360667,0.02155304,-7.6081467,1.8296789,-0.035057068,-12.982986,0.0,0.0,0.0,0.0,0.0,0.0,0.0,0.0,0.0,0.0,0.0,0.0,0.88452303,0.81568104,-0.96519554,-0.9968792,-0.120671004,0.6084871,-0.9999154,-0.9532454,-0.9921275,0.99993503,-0.43787536,-0.98077697
2025-06-04 18:33:01.611,0.270248,-7.022567,-168.51247,-0.00418235,-0.0021493032,0.002413581,1.181509,0.043016,9.675295,0.14866532,0.04825592,-2.5738907,-0.77601075,0.0024032593,7.4531174,1.6344173,0.024757385,-4.090027,-0.11509599,0.06900787,0.42420197,-1.04707,0.087623596,-0.42542267,1.9490026,0.0014877319,0.6292839,-0.10921478,0.01537323,0.2496376,-1.4188437,-0.008125305,-1.7499046,1.6340358,-0.00995636,-4.4281693,0.09716034,-0.0018692017,0.40711212,-1.0362192,0.010643005,-7.794918,1.8296789,0.016593933,-12.987869,0.0,0.0,0.0,0.0,0.0,0.0,0.0,0.0,0.0,0.0,0.0,0.0,0.883304,0.8149889,-0.96466196,-0.9968617,-0.11649659,0.6037706,-0.9999138,-0.9530092,-0.99220043,0.99993473,-0.43465388,-0.98056686
2025-06-04 18:33:01.663,0.273733,-7.017419,-168.50647,-0.0013820913,0.0022487345,0.0009944362,1.177686,0.060139,9.774598,0.14881791,-0.08785248,-2.5775528,-0.77593446,-0.038337708,7.4531174,1.6345699,-0.040550232,-3.9667358,-0.11509599,0.008125305,0.4388504,-1.0463834,0.019340515,-0.37903595,1.9490789,0.008888245,0.52918243,-0.10929108,-0.0005722046,0.21912003,-1.4191489,-0.05290985,-1.7450218,1.6341121,0.066719055,-4.3817825,0.09716034,-0.042762756,0.38147736,-1.0363718,0.010795593,-7.721676,1.8296789,-0.024375916,-13.017166,0.0,0.0,0.0,0.0,0.0,0.0,0.0,0.0,0.0,0.0,0.0,0.0,0.88367754,0.8143893,-0.9653596,-0.99685013,-0.12434936,0.61232156,-0.9999124,-0.95264447,-0.9920595,0.9999346,-0.43505728,-0.9803978
2025-06-04 18:33:01.716,0.269085,-7.01398,-168.50641,-0.0035768254,0.003101642,0.0023257735,1.147189,0.001835,9.723156,0.14858903,-0.042762756,-2.6385918,-0.77585816,-0.010032654,7.4641037,1.6344173,-0.009117126,-4.0912476,-0.11532487,0.02254486,0.5133133,-1.0471463,-0.004386902,-0.4742508,1.9490789,-0.0032424927,0.65125656,-0.10929108,-0.002861023,0.23743057,-1.4188437,0.047721863,-1.8231468,1.6342647,0.0008773804,-4.4318314,0.09716034,0.007133484,0.3949051,-1.0362955,0.055503845,-7.737545,1.8295263,-0.026664734,-12.98909,0.0,0.0,0.0,0.0,0.0,0.0,0.0,0.0,0.0,0.0,0.0,0.0,0.8834864,0.8173096,-0.9649612,-0.99685735,-0.114788234,0.6070521,-0.99991477,-0.95325154,-0.99217236,0.9999345,-0.43388307,-0.9806379
2025-06-04 18:33:01.769,0.264062,-7.013382,-168.50497,0.0015528718,-3.621558e-05,-0.0023189492,1.212303,0.028191,9.712729,0.1488942,3.8146973e-05,-2.536049,-0.77585816,-0.0075149536,7.5434494,1.6344173,0.061302185,-4.06073,-0.11517228,-0.05252838,0.4779129,-1.0466886,0.03993988,-0.38269806,1.9492315,-0.016059875,0.5902176,-0.10929108,0.060386658,0.21545792,-1.4187675,0.12462616,-1.7474632,1.6340358,0.0024032593,-4.450142,0.097084045,0.046043396,0.3985672,-1.0362955,0.008354187,-7.687496,1.8296789,0.0077438354,-12.996414,0.0,0.0,0.0,0.0,0.0,0.0,0.0,0.0,0.0,0.0,0.0,0.0,0.8854476,0.8146567,-0.96495557,-0.9968941,-0.12219758,0.60669065,-0.9999154,-0.9533322,-0.9920788,0.9999351,-0.44079572,-0.980936
2025-06-04 18:33:01.822,0.270923,-7.016926,-168.50787,-0.005419387,-0.001677593,-0.0002551846,1.169428,0.057887,9.716093,0.1488942,-0.0007247925,-2.5568008,-0.7757056,-0.010795593,7.4152756,1.6342647,0.002784729,-4.1315346,-0.11517228,-0.029716492,0.42176056,-1.04707,-0.01750946,-0.46936798,1.9492315,0.019950867,0.6024246,-0.10913849,0.018348694,0.22034073,-1.4190726,0.0061416626,-1.8048363,1.6341121,-0.0005722046,-4.462349,0.097084045,0.008430481,0.40711212,-1.0365244,-0.013389587,-7.8095665,1.8297552,-0.005455017,-13.003738,0.0,0.0,0.0,0.0,0.0,0.0,0.0,0.0,0.0,0.0,0.0,0.0,0.88378143,0.8153669,-0.9649628,-0.9968362,-0.12060716,0.60765713,-0.99991333,-0.95255744,-0.9920804,0.9999343,-0.4343657,-0.9805448
2025-06-04 18:33:01.874,0.27211,-7.016848,-168.50237,0.0054682037,0.0016731075,0.001491698,1.174151,0.036126,9.754812,0.14881791,-0.039405823,-2.5445938,-0.77608705,-0.016899109,7.455559,1.6344936,0.006904602,-4.093689,-0.11509599,0.030174255,0.46936798,-1.0473752,-0.061531067,-0.42786407,1.9490789,0.0024032593,0.5889969,-0.10921478,-0.021781921,0.206913,-1.4189963,-0.04512787,-1.8463402,1.6341121,-0.0045394897,-4.373234,0.09716034,-0.0037765503,0.38269806,-1.0365244,0.0358963,-7.6581993,1.8297552,0.0031661987,-13.029373,0.0,0.0,0.0,0.0,0.0,0.0,0.0,0.0,0.0,0.0,0.0,0.0,0.8828958,0.8159008,-0.96490717,-0.99683905,-0.11832903,0.60762584,-0.9999133,-0.9528848,-0.9921319,0.99993414,-0.43395433,-0.9804878
2025-06-04 18:33:01.928,0.267571,-7.018269,-168.50731,-0.0024915447,0.0013635908,0.0015315787,1.176261,0.02538,9.741453,0.14881791,-0.040016174,-2.4444962,-0.77585816,-0.0065231323,7.5349045,1.6342647,0.0258255,-4.101013,-0.11509599,0.01903534,0.48645782,-1.0469937,-0.01941681,-0.436409,1.9489263,-0.02773285,0.57434845,-0.10921478,-0.00919342,0.22278214,-1.4190726,0.017662048,-1.8158226,1.6341121,-0.0049209595,-4.4220657,0.09716034,-0.031700134,0.41199493,-1.0364481,0.07030487,-7.709469,1.8296026,0.012702942,-12.987869,0.0,0.0,0.0,0.0,0.0,0.0,0.0,0.0,0.0,0.0,0.0,0.0,0.88340306,0.81581163,-0.96486205,-0.9968553,-0.117384315,0.6064136,-0.9999138,-0.95312035,-0.99213874,0.9999344,-0.4355,-0.9806119
2025-06-04 18:33:01.980,0.264823,-7.020767,-168.50467,0.0030819548,0.0032804336,-0.0009504016,1.211326,0.057619,9.713646,0.1488942,-0.10784149,-2.5885391,-0.77593446,0.006752014,7.5019455,1.6344936,0.052757263,-4.1119995,-0.115248576,0.023384094,0.42542267,-1.0468411,-0.02986908,-0.42908478,1.9491552,0.01903534,0.6378288,-0.109443665,-0.04688263,0.23498917,-1.4190726,-0.07190704,-1.6156235,1.6339595,-0.025672913,-4.4074173,0.09731293,0.014915466,0.3936844,-1.0364481,0.026054382,-7.6911583,1.8296789,-0.005455017,-12.968338,0.0,0.0,0.0,0.0,0.0,0.0,0.0,0.0,0.0,0.0,0.0,0.0,0.88312757,0.814949,-0.9647807,-0.9968475,-0.119736455,0.6062161,-0.99991304,-0.9528217,-0.9921038,0.9999338,-0.43478963,-0.9804548
2025-06-04 18:33:02.032,0.270364,-7.015922,-168.50488,-0.00073624967,0.0008963662,-0.002526783,1.174767,0.04122,9.731998,0.14881791,0.013618469,-2.5348282,-0.77578187,0.0048446655,7.4653244,1.6342647,-0.0065994263,-4.1205444,-0.11509599,0.09120941,0.45471954,-1.0466886,0.05542755,-0.4388504,1.9490026,0.0075912476,0.60974884,-0.10921478,-0.04825592,0.2484169,-1.4190726,0.0283432,-1.7242699,1.6339595,-0.02483368,-4.4318314,0.097084045,0.021781921,0.37903595,-1.0365244,0.007820129,-7.74609,1.8296789,0.013313293,-13.009842,0.0,0.0,0.0,0.0,0.0,0.0,0.0,0.0,0.0,0.0,0.0,0.0,0.8832162,0.81475115,-0.9647516,-0.9968647,-0.11795171,0.6042861,-0.9999138,-0.95286685,-0.99219394,0.9999348,-0.4343452,-0.9805211
2025-06-04 18:33:02.084,0.272433,-7.015549,-168.5094,0.00057286944,0.0016112006,0.00011730358,1.146637,0.047911,9.762888,0.1488942,-0.08960724,-2.5384903,-0.77593446,-0.029258728,7.4201584,1.6345699,0.061073303,-4.1083374,-0.11517228,-0.079689026,0.44617462,-1.0466886,0.014533997,-0.41565704,1.9490026,0.05466461,0.52796173,-0.10929108,0.037879944,0.21301651,-1.4190726,0.021018982,-1.7755394,1.6339595,-0.018959045,-4.3768997,0.09716034,-0.032920837,0.38758087,-1.0365244,-0.004310608,-7.6203537,1.8296789,-0.0011062622,-12.998856,0.0,0.0,0.0,0.0,0.0,0.0,0.0,0.0,0.0,0.0,0.0,0.0,0.8848927,0.81509304,-0.96521264,-0.9968667,-0.124327004,0.60854506,-0.9999138,-0.9527457,-0.9919843,0.9999343,-0.43638396,-0.98059636
2025-06-04 18:33:02.135,0.273248,-7.018375,-168.51047,-0.0019462864,0.0031055165,0.0005267927,1.193426,0.061552,9.702563,0.14874162,-0.06649017,-2.5958633,-0.77585816,0.028266907,7.4409103,1.6344173,-0.022315979,-4.1608315,-0.11509599,-0.03879547,0.50110626,-1.0471463,0.0062942505,-0.44373322,1.9491552,-0.010261536,0.61096954,-0.10929108,0.010643005,0.22400284,-1.41892,0.02735138,-1.662014,1.6340358,0.020256042,-4.4428177,0.09723663,0.02117157,0.37292862,-1.0363718,-0.007896423,-7.7607384,1.8296789,0.002632141,-12.965897,0.0,0.0,0.0,0.0,0.0,0.0,0.0,0.0,0.0,0.0,0.0,0.0,0.88436866,0.81603575,-0.9652064,-0.99684197,-0.120261766,0.6103873,-0.9999147,-0.9528259,-0.9920889,0.9999348,-0.43472955,-0.98069227
2025-06-04 18:33:02.186,0.275626,-7.011267,-168.5088,-0.001908727,0.003105499,-0.001283585,1.179776,0.051095,9.731011,0.1488942,0.0020217896,-2.6068497,-0.7756293,0.061073303,7.570305,1.6344173,0.044517517,-4.1351967,-0.115248576,-0.007286072,0.5059891,-1.0469174,0.05367279,-0.5047684,1.9490026,0.014076233,0.5999832,-0.10929108,-0.017280579,0.23620987,-1.4189963,-0.027046204,-1.7987328,1.6340358,0.018959045,-4.4074173,0.09723663,0.0011062622,0.38758087,-1.0365244,0.0017166138,-7.6935997,1.8296026,-0.03490448,-12.984207,0.0,0.0,0.0,0.0,0.0,0.0,0.0,0.0,0.0,0.0,0.0,0.0,0.88357246,0.81597644,-0.9649787,-0.99685866,-0.11741265,0.60785156,-0.9999143,-0.9531619,-0.9921604,0.99993485,-0.43399835,-0.98062086
2025-06-04 18:33:02.237,0.275482,-7.008245,-168.51183,0.0008602553,6.236061e-05,-0.0038766032,1.182629,0.032044,9.722498,0.14881791,0.0037765503,-2.6385918,-0.7757056,0.07221222,7.4824142,1.6344936,0.023078918,-4.0875854,-0.11517228,-0.007133484,0.4766922,-1.0469174,-0.10196686,-0.41931915,1.9491552,0.0724411,0.5609207,-0.10921478,-0.008277893,0.252079,-1.41892,-0.02155304,-1.6180649,1.6340358,-0.013389587,-4.424507,0.09731293,-0.02872467,0.38025665,-1.036677,-0.0059890747,-7.700924,1.8296789,-0.009346008,-13.004959,0.0,0.0,0.0,0.0,0.0,0.0,0.0,0.0,0.0,0.0,0.0,0.0,0.8827655,0.81523705,-0.96511316,-0.9968141,-0.12182185,0.6072343,-0.9999125,-0.95251405,-0.99210066,0.9999342,-0.4341486,-0.98046124
2025-06-04 18:33:02.288,0.275327,-7.00994,-168.51555,0.0016892517,0.0031686453,-0.0001415113,1.161388,0.039319,9.737203,0.14874162,-0.004463196,-2.5299454,-0.77585816,-0.00995636,7.4518967,1.6344173,-0.032539368,-4.024109,-0.11509599,-0.01941681,0.49134064,-1.0469174,0.014533997,-0.5072098,1.9491552,0.0047683716,0.5609207,-0.10921478,-0.03353119,0.20447159,-1.4189963,0.0008010864,-1.8023949,1.6340358,-0.008964539,-4.401314,0.09738922,0.0059127808,0.37659454,-1.0364481,0.0011062622,-7.64233,1.8296789,0.007286072,-12.981766,0.0,0.0,0.0,0.0,0.0,0.0,0.0,0.0,0.0,0.0,0.0,0.0,0.883089,0.8162952,-0.9649364,-0.9968568,-0.11838328,0.6078221,-0.99991375,-0.9528604,-0.99213856,0.9999346,-0.4326342,-0.980533
2025-06-04 18:33:02.339,0.276978,-7.006949,-168.51437,-0.0036380165,-0.0015212639,0.0006425779,1.197034,0.070591,9.686066,0.1488942,-0.014762878,-2.5665665,-0.77593446,-0.022468567,7.533684,1.6344173,0.0038528442,-4.0717163,-0.11555375,-0.002937317,0.44983673,-1.0468411,-0.006904602,-0.37292862,1.9490789,0.026283264,0.57068634,-0.10929108,-0.025062561,0.21912003,-1.4189963,0.05870819,-1.7132835,1.6340358,0.010414124,-4.3573647,0.097084045,-0.0146865845,0.3692665,-1.0366007,-0.0283432,-7.7228966,1.8296789,-0.016288757,-12.98909,0.0,0.0,0.0,0.0,0.0,0.0,0.0,0.0,0.0,0.0,0.0,0.0,0.88389176,0.81571066,-0.9650066,-0.996866,-0.12028097,0.6073557,-0.9999139,-0.95299625,-0.9921026,0.99993455,-0.43607932,-0.980624
2025-06-04 18:33:02.390,0.277154,-7.011163,-168.51068,-0.0009785712,0.00051677454,-0.002417979,1.176048,0.021963,9.730211,0.14851274,-0.13736725,-2.6532402,-0.77578187,-0.0076675415,7.4616623,1.634341,-0.0258255,-4.0009155,-0.11509599,0.051231384,0.49866486,-1.0469174,-0.020179749,-0.45716095,1.9490789,-0.007820129,0.58167267,-0.10929108,-0.012321472,0.2117958,-1.4191489,-0.02002716,-1.8780823,1.6339595,-0.023918152,-4.4354935,0.09731293,0.028266907,0.37537384,-1.0366007,0.021400452,-7.7363243,1.8296026,0.013313293,-12.991531,0.0,0.0,0.0,0.0,0.0,0.0,0.0,0.0,0.0,0.0,0.0,0.0,0.883551,0.8150023,-0.9649604,-0.9968347,-0.120326914,0.60759795,-0.9999137,-0.9527215,-0.99211425,0.9999341,-0.43572935,-0.9805553
2025-06-04 18:33:02.441,0.274726,-7.012346,-168.50923,-0.000662527,0.0014480647,0.00019978784,1.199133,0.035833,9.716552,0.1488942,0.030021667,-2.6117325,-0.77593446,0.040855408,7.434807,1.634341,-0.022850037,-4.154728,-0.11517228,-0.018959045,0.436409,-1.0469937,0.013465881,-0.46448517,1.9490026,-0.026359558,0.57678986,-0.10929108,-0.0004196167,0.2471962,-1.4189963,0.13156891,-1.7108421,1.6339595,0.011329651,-4.425728,0.09731293,0.0005722046,0.37659454,-1.0366007,0.014839172,-7.729,1.8296026,-0.005531311,-13.004959,0.0,0.0,0.0,0.0,0.0,0.0,0.0,0.0,0.0,0.0,0.0,0.0,0.8841737,0.8156408,-0.9650918,-0.9968583,-0.119291514,0.60771084,-0.99991477,-0.9529307,-0.9921405,0.9999353,-0.43569008,-0.9807493
2025-06-04 18:33:02.492,0.275065,-7.010898,-168.50943,0.002514077,0.00062770763,-0.0012643689,1.187287,0.043465,9.699075,0.14912309,0.019798279,-2.5690079,-0.77585816,0.008354187,7.490959,1.6344936,-0.008735657,-4.085144,-0.11540116,-0.03513336,0.4742508,-1.0469937,0.039634705,-0.38513947,1.94885,-0.0011825562,0.5841141,-0.109062195,0.043754578,0.2459755,-1.4193778,0.08136749,-1.7535667,1.6339595,0.0034713745,-4.400093,0.09723663,-0.02292633,0.3949051,-1.0365244,0.052757263,-7.6984825,1.8296026,-0.033607483,-13.018387,0.0,0.0,0.0,0.0,0.0,0.0,0.0,0.0,0.0,0.0,0.0,0.0,0.8839621,0.8158707,-0.96519196,-0.9968567,-0.1191022,0.6086347,-0.99991447,-0.953061,-0.9921426,0.9999352,-0.43568316,-0.98070437
2025-06-04 18:33:02.543,0.277303,-7.007667,-168.5098,0.0038900597,0.0010452602,-0.0012256749,1.178315,0.023865,9.72744,0.1489705,-0.0061416626,-2.5958633,-0.77585816,0.05329132,7.483635,1.634341,0.011405945,-4.0387573,-0.11517228,0.019340515,0.44373322,-1.0466123,0.025520325,-0.3961258,1.9490026,0.002708435,0.57434845,-0.10913849,-0.05947113,0.2459755,-1.4193778,-0.058937073,-1.6510277,1.6339595,0.025596619,-4.413521,0.09723663,-0.06649017,0.37414932,-1.0367533,0.0024032593,-7.729,1.8297552,-0.004234314,-12.976883,0.0,0.0,0.0,0.0,0.0,0.0,0.0,0.0,0.0,0.0,0.0,0.0,0.88272387,0.8156507,-0.96485394,-0.9968427,-0.117143765,0.60705227,-0.99991274,-0.9528687,-0.9921564,0.99993443,-0.4324697,-0.98044086
2025-06-04 18:33:02.594,0.281774,-7.005092,-168.51135,0.0006532942,-0.000493614,-0.00047982592,1.175514,0.07054,9.705665,0.1488942,-0.01712799,-2.621498,-0.77578187,0.0283432,7.503166,1.6344936,0.049934387,-4.036316,-0.11517228,0.008277893,0.46326447,-1.0467649,-0.018730164,-0.4412918,1.9490026,0.041160583,0.57190704,-0.10936737,-0.08106232,0.21789932,-1.4192252,0.062828064,-1.7096214,1.6338832,-0.05886078,-4.425728,0.09723663,0.028266907,0.37170792,-1.0366007,-0.010566711,-7.622795,1.8296026,-0.0035476685,-13.046463,0.0,0.0,0.0,0.0,0.0,0.0,0.0,0.0,0.0,0.0,0.0,0.0,0.8835653,0.8155067,-0.9647378,-0.99687356,-0.11898374,0.60428655,-0.99991405,-0.9529698,-0.99212694,0.9999344,-0.43506745,-0.98060226
2025-06-04 18:33:02.645,0.284335,-7.00126,-168.51308,-0.0013225407,0.0046024155,0.0044984813,1.200818,0.031209,9.734707,0.1488942,0.031471252,-2.576332,-0.77593446,-0.04459381,7.5214767,1.6342647,-0.037117004,-4.1449623,-0.115248576,-0.048332214,0.4376297,-1.0471463,-0.040168762,-0.3692665,1.9491552,0.03528595,0.52796173,-0.10936737,-0.0522995,0.23620987,-1.4193778,-0.021858215,-1.6864281,1.6339595,0.00019073486,-4.4721146,0.09723663,0.001335144,0.3949051,-1.036677,-0.07305145,-7.7228966,1.8296026,-0.00705719,-12.948807,0.0,0.0,0.0,0.0,0.0,0.0,0.0,0.0,0.0,0.0,0.0,0.0,0.56217545,0.45994827,-0.96628875,-0.9658303,-0.38312656,0.864077,-0.9998868,-0.9124744,-0.99770755,0.999975,-0.65387756,-0.9795524
2025-06-04 18:33:02.696,0.155369,-7.364986,-168.50084,-0.1930631,-0.19884136,-0.013518918,3.035703,-0.329498,9.624359,0.14301957,-0.3232193,-2.822918,-0.79867005,-0.69408417,2.2369728,1.6346462,0.036506653,-4.11322,-0.11517228,0.030632019,0.12390137,-1.0924649,-0.8855057,-0.16418839,1.9717382,0.41362762,0.64881516,-0.11455536,-0.17559052,0.8697624,-1.4243369,-0.11493683,0.23132706,1.6342647,-0.0046157837,-4.392769,0.095710754,0.06351471,1.0418854,-1.0568949,-0.460701,-9.826199,1.8344854,-0.017280579,-13.54818,0.0,0.0,0.0,0.0,0.0,0.0,0.0,0.0,0.0,0.0,0.0,0.0,0.5067585,0.5830162,-0.9613549,-0.953613,-0.21389975,0.83599573,-0.9998234,-0.8882876,-0.9966799,0.9999405,-0.5362023,-0.9647314
2025-06-04 18:33:02.747,-0.14403,-7.543529,-168.59024,-0.030679625,0.08525684,-0.03812846,1.161497,-0.258713,9.716415,0.13752641,0.018196106,-3.6578941,-0.8128607,-0.22815704,5.355915,1.635104,-0.011024475,-4.1449623,-0.114256755,-0.03856659,0.6243973,-1.0980344,0.18772125,-0.50232697,1.9872259,0.19939423,0.45227814,-0.114479065,0.023841858,0.27893448,-1.4318137,-0.005531311,0.44373322,1.6209896,-0.43766022,-2.3212013,0.09273529,-0.02986908,0.5438309,-1.0685679,-0.34923553,-7.078354,1.832044,-0.0661087,-12.639965,0.0,0.0,0.0,0.0,0.0,0.0,0.0,0.0,0.0,0.0,0.0,0.0,0.4723046,0.562155,-0.964855,-0.9575261,-0.2427159,0.82620966,-0.99985033,-0.9017275,-0.9972992,0.999954,-0.5597817,-0.96785766
2025-06-04 18:33:02.798,-0.157742,-7.479875,-168.64175,-0.01562471,-0.020849911,-0.017189695,0.976353,-0.340544,9.793559,0.13432206,-0.4516983,-3.8544273,-0.8323157,-0.36632538,6.167698,1.6360958,-0.008049011,-4.2267494,-0.11395158,0.02445221,0.5523758,-1.1015439,-0.039253235,-0.3277626,1.9949316,0.1479721,0.68421555,-0.11432648,-0.025749207,0.4742508,-1.4374595,-0.065574646,0.5560379,1.6048152,-0.27057648,-1.8475609,0.092430115,-0.047340393,0.68543625,-1.0873362,-0.45497894,-6.5839615,1.8310522,0.011634827,-12.882889,0.0,0.0,0.0,0.0,0.0,0.0,0.0,0.0,0.0,0.0,0.0,0.0,0.4673307,0.5450444,-0.96334577,-0.9546479,-0.24694063,0.8125178,-0.99983895,-0.89625907,-0.9971356,0.99994624,-0.5782306,-0.9646662
2025-06-04 18:33:02.849,-0.113971,-7.42815,-168.73521,0.03471116,0.015896494,-0.051618546,0.720872,-0.238648,9.655825,0.13172807,-0.027656555,-3.478447,-0.84650636,-0.1643753,5.990692,1.6364009,-0.041999817,-4.1937904,-0.114256755,-0.09021759,0.5987625,-1.1047482,0.016441345,-0.50354767,1.9971441,0.0074386597,0.7830925,-0.11363983,0.008277893,0.34729385,-1.4405112,-0.09403229,0.5902176,1.5888698,-0.2651596,-1.4044418,0.09181976,0.009651184,0.65369797,-1.1020609,-0.14446259,-7.0148773,1.8305944,-0.051841736,-12.847485,0.0,0.0,0.0,0.0,0.0,0.0,0.0,0.0,0.0,0.0,0.0,0.0,0.45270476,0.5373985,-0.96256125,-0.95288754,-0.23523845,0.8076828,-0.99983686,-0.89384013,-0.99720144,0.9999457,-0.57719195,-0.9630639
2025-06-04 18:33:02.900,-0.002023,-7.308379,-168.92029,0.025512105,0.022444148,-0.061948854,0.76386,0.008517,9.688774,0.1276082,-0.106925964,-3.2709236,-0.8573401,-0.23143768,5.93454,1.637469,0.048103333,-4.318302,-0.11448564,-0.04169464,0.53406525,-1.1045957,-0.034828186,-0.31555557,1.9977545,-0.01712799,0.76478195,-0.112724304,0.067863464,0.35339737,-1.4418082,0.010566711,0.6036453,1.5775783,-0.10234833,-1.1126862,0.091362,-0.020713806,0.74403,-1.1112162,-0.13912201,-6.9245453,1.8308233,0.004463196,-12.815746,0.0,0.0,0.0,0.0,0.0,0.0,0.0,0.0,0.0,0.0,0.0,0.0,0.46045366,0.52225846,-0.9615934,-0.95394266,-0.24191514,0.80015576,-0.9998336,-0.89396036,-0.99714756,0.9999437,-0.5908207,-0.962129
2025-06-04 18:33:02.951,0.070316,-7.22481,-169.12329,0.005772851,0.016210862,-0.06662323,0.97041,0.25163,9.829453,0.12303056,-0.081596375,-3.236744,-0.8648932,-0.104255676,5.573204,1.6380794,0.05039215,-4.2670326,-0.11418046,0.08060455,0.5584793,-1.1054349,0.033302307,-0.42053986,1.9979833,0.004463196,0.6622429,-0.11219025,0.031547546,0.2887001,-1.443563,-0.043067932,0.72083664,1.5684993,-0.23578644,-0.6939812,0.090904236,-0.018577576,0.7818718,-1.1167856,-0.060081482,-7.207752,1.8306707,-0.01537323,-12.863354,0.0,0.0,0.0,0.0,0.0,0.0,0.0,0.0,0.0,0.0,0.0,0.0,0.45488286,0.51568866,-0.9606845,-0.9535056,-0.23683047,0.79452014,-0.999831,-0.8916597,-0.9971836,0.9999426,-0.5897824,-0.96081173
2025-06-04 18:33:03.002,0.127814,-7.168395,-169.2803,0.005162003,0.0107122725,-0.04188235,1.105551,0.201133,9.746264,0.119673625,-0.061302185,-3.068283,-0.8700812,-0.06725311,5.7184715,1.6380031,0.007972717,-4.122986,-0.11440934,-0.0497818,0.6341667,-1.1053586,-0.0333786,-0.3656044,1.9980596,0.008277893,0.5975418,-0.111579895,0.01247406,0.2923622,-1.4437919,-0.015068054,0.6964226,1.561938,-0.1468277,-0.68421555,0.09059906,0.007972717,0.68787766,-1.1201426,-0.07595062,-7.056381,1.8308996,0.048484802,-12.859692,0.0,0.0,0.0,0.0,0.0,0.0,0.0,0.0,0.0,0.0,0.0,0.0,0.45303515,0.510524,-0.9603421,-0.9541094,-0.2426854,0.7936574,-0.9998273,-0.8909404,-0.9971614,0.99994224,-0.5910189,-0.95997775
2025-06-04 18:33:03.053,0.16176,-7.135681,-169.3678,0.0010834306,0.004636345,-0.020323224,1.090435,0.164124,9.759467,0.117766276,-0.036582947,-3.0743866,-0.87442994,-0.01941681,5.6440086,1.638232,0.058555603,-4.216984,-0.11418046,0.013694763,0.61341095,-1.1056638,-0.06694794,-0.3936844,1.997907,-0.0030136108,0.604866,-0.11127472,-0.036201477,0.28137589,-1.4443259,0.007133484,0.7806511,1.5579708,-0.035438538,-0.7940788,0.0901413,-0.009269714,0.68665695,-1.123118,-0.113105774,-6.9391937,1.8306707,0.017738342,-12.780346,0.0,0.0,0.0,0.0,0.0,0.0,0.0,0.0,0.0,0.0,0.0,0.0,0.45208192,0.50848913,-0.960011,-0.95395774,-0.2399084,0.7915435,-0.9998263,-0.8907187,-0.997167,0.9999417,-0.5925528,-0.95944583
2025-06-04 18:33:03.104,0.16829,-7.11621,-169.40114,-0.0030120194,0.0034041426,-0.0024909861,1.079097,0.130275,9.768004,0.11723222,-0.04764557,-3.1317635,-0.8773291,-0.0875473,5.611046,1.6385372,0.038108826,-4.216984,-0.11440934,0.05344391,0.6317253,-1.1058164,-0.02193451,-0.363163,1.9979833,0.05420685,0.5987625,-0.111198425,-0.06412506,0.31677628,-1.4454703,0.038108826,0.84534836,1.5553768,-0.08563995,-0.76844406,0.090065,-0.08823395,0.80140305,-1.1260935,-0.08869171,-6.9025726,1.8306707,-0.055274963,-12.814526,0.0,0.0,0.0,0.0,0.0,0.0,0.0,0.0,0.0,0.0,0.0,0.0,0.44914263,0.5077325,-0.95988727,-0.95396817,-0.2388541,0.78915405,-0.99982417,-0.8902944,-0.9971702,0.999941,-0.59229004,-0.9587517
2025-06-04 18:33:03.155,0.162912,-7.110358,-169.40086,-0.0026529005,-0.002724965,-0.00030627038,1.133413,0.040502,9.724094,0.1162404,-0.42812347,-2.887619,-0.8797705,-0.13271332,5.630581,1.6388423,-0.033454895,-4.208439,-0.11410417,0.08640289,0.5218582,-1.1057401,-0.015525818,-0.33874893,1.9978307,-0.025749207,0.5609207,-0.11135101,-0.0022506714,0.363163,-1.4460044,-0.0024795532,0.84412766,1.5538509,0.001411438,-0.776989,0.08983612,-0.023918152,0.73060226,-1.1280009,-0.07045746,-6.732891,1.830747,0.015525818,-12.744946,0.0,0.0,0.0,0.0,0.0,0.0,0.0,0.0,0.0,0.0,0.0,0.0,0.45686254,0.5012712,-0.9602972,-0.95411193,-0.24913193,0.7913954,-0.99982595,-0.88991714,-0.9971273,0.9999406,-0.59834635,-0.95868397
2025-06-04 18:33:03.206,0.143911,-7.117903,-169.40572,-0.013743665,-0.0050742654,-4.9218283e-06,1.206793,0.022583,9.698041,0.11730851,0.97766876,-3.2062263,-0.8811438,0.15522003,6.1738014,1.6389186,0.04863739,-4.278019,-0.11410417,0.00049591064,0.7476921,-1.1068082,-0.11806488,-0.38147736,1.9979833,0.022697449,0.57190704,-0.11142731,0.11760712,0.33752823,-1.4463096,-0.0004196167,0.8270378,1.5530117,-0.0032424927,-0.7733269,0.08945465,-0.009269714,0.61219025,-1.1294504,-0.012245178,-7.188221,1.8308996,0.036354065,-12.741283,0.0,0.0,0.0,0.0,0.0,0.0,0.0,0.0,0.0,0.0,0.0,0.0,0.4279622,0.5133207,-0.9589138,-0.95280105,-0.22495052,0.78569984,-0.99981946,-0.8899723,-0.9972968,0.9999428,-0.586992,-0.9585596
2025-06-04 18:33:03.257,0.120495,-7.102135,-169.40897,0.0019254471,0.009083566,-0.003198281,1.121361,-0.032317,9.703936,0.11654557,0.20282745,-4.9396515,-0.881449,0.2186203,4.9481964,1.6393001,-0.012168884,-4.3292885,-0.11440934,0.018424988,0.6549187,-1.1045194,0.034828186,-0.23743057,1.9977545,-0.05329132,0.5450516,-0.11135101,-0.0059890747,0.27893448,-1.4469962,-0.012321472,0.7464714,1.552325,-0.015220642,-0.7342644,0.08899689,-0.1253128,0.8648796,-1.1299845,-0.20740509,-6.5021744,1.8305181,-0.010871887,-12.773022,0.0,0.0,0.0,0.0,0.0,0.0,0.0,0.0,0.0,0.0,0.0,0.0,0.42753547,0.50504214,-0.9597208,-0.95325017,-0.24676237,0.7845702,-0.99981844,-0.8889406,-0.99724466,0.99994177,-0.59360874,-0.95782804
2025-06-04 18:33:03.308,0.114939,-7.089429,-169.42697,-0.0020422097,0.0044685663,-0.00797516,1.157853,-0.029031,9.742963,0.11540116,-0.117836,-3.150074,-0.8822882,0.049324036,5.540245,1.639529,0.009880066,-4.356144,-0.11440934,-0.04009247,0.6268425,-1.1061215,-0.048713684,-0.41199493,1.9978307,-0.0075149536,0.45716095,-0.11135101,-0.0050735474,0.32043839,-1.4468436,0.095939636,0.8563347,1.5521724,-0.02658844,-0.7086296,0.08945465,-0.11089325,0.77088547,-1.1299845,-0.0021743774,-6.9611664,1.8305181,-0.007820129,-12.742504,0.0,0.0,0.0,0.0,0.0,0.0,0.0,0.0,0.0,0.0,0.0,0.0,0.43660322,0.5085966,-0.96019727,-0.9528185,-0.24144746,0.78560114,-0.9998222,-0.88847977,-0.9971728,0.9999404,-0.59112847,-0.95751625
2025-06-04 18:33:03.359,0.114896,-7.078901,-169.4537,0.00077459455,0.0027873258,-0.009398197,1.19118,0.081096,9.688996,0.11509599,-0.013542175,-3.1317635,-0.8822882,0.044441223,5.6000595,1.639529,0.009422302,-4.2059975,-0.11410417,0.016670227,0.5597,-1.1062741,-0.018348694,-0.37292862,1.9976782,-0.015068054,0.48767853,-0.11127472,-0.011711121,0.330204,-1.4468436,0.04261017,0.7489128,1.5519435,-0.0018692017,-0.75989914,0.08930206,0.03025055,0.7367058,-1.129603,0.01209259,-6.8390923,1.8306707,-0.020561218,-12.747387,0.0,0.0,0.0,0.0,0.0,0.0,0.0,0.0,0.0,0.0,0.0,0.0,0.43882295,0.5061002,-0.96012115,-0.95323855,-0.23992483,0.7877086,-0.99982476,-0.8898811,-0.99721766,0.9999414,-0.5936129,-0.9581651
2025-06-04 18:33:03.410,0.128435,-7.07073,-169.4646,0.001144936,0.001687105,0.0014103831,1.223537,0.091725,9.720005,0.11509599,0.31993866,-2.637371,-0.8822882,-0.0016403198,5.73312,1.6394527,-0.012245178,-4.391548,-0.11418046,0.009498596,0.5987625,-1.1061978,-0.058631897,-0.37659454,1.9978307,0.048332214,0.5560379,-0.11135101,-0.044288635,0.3216591,-1.4469962,0.032081604,0.8844147,1.5519435,0.017051697,-0.76844406,0.08907318,0.09944916,0.75745773,-1.1295267,0.06916046,-6.9904633,1.8306707,0.008811951,-12.826733,0.0,0.0,0.0,0.0,0.0,0.0,0.0,0.0,0.0,0.0,0.0,0.0,0.43065736,0.50852555,-0.9594654,-0.953315,-0.23349626,0.7867849,-0.99981946,-0.8903861,-0.99725,0.99994105,-0.59101915,-0.9577391
2025-06-04 18:33:03.461,0.119012,-7.072275,-169.46709,-0.0062570227,0.004785658,-0.00062498497,1.190351,-0.020741,9.724751,0.11433305,-0.44513702,-4.441597,-0.8825171,0.025901794,5.412071,1.6394527,-0.020484924,-4.351261,-0.11433305,0.046043396,0.4718094,-1.1050534,-0.0146865845,-0.30090714,1.9977545,-0.042686462,0.57801056,-0.11142731,-0.007286072,0.29968643,-1.4470725,-0.10593414,0.84168625,1.5518672,0.01537323,-0.79896164,0.0888443,-0.079078674,0.95643616,-1.1299082,-0.14957428,-6.557106,1.830747,0.001411438,-12.766918,0.0,0.0,0.0,0.0,0.0,0.0,0.0,0.0,0.0,0.0,0.0,0.0,0.8300769,0.84067744,-0.9562294,-0.9968777,-0.012877226,0.38010085,-0.999869,-0.9430778,-0.9916545,0.9998688,-0.3145021,-0.95512205
2025-06-04 18:33:03.512,0.264452,-6.655691,-169.48512,0.21847029,0.29314795,-0.054781746,-0.601075,-0.430897,10.627243,0.12097062,-0.24211884,-2.1734962,-0.86046815,0.29094696,9.705349,1.6399105,-0.019874573,-4.137638,-0.114867106,-0.14141083,0.8856354,-1.0677457,0.51395416,-0.2911415,1.9665502,-0.8011246,-0.08483887,-0.10585785,0.11974335,-0.45594025,-1.4440207,0.09731293,-0.87586975,1.5514095,0.032157898,-0.7098503,0.09235382,0.12149811,0.12512589,-1.1029001,0.5527115,-4.4184036,1.8223547,-0.20572662,-11.837948,0.0,0.0,0.0,0.0,0.0,0.0,0.0,0.0,0.0,0.0,0.0,0.0,0.8801903,0.74056965,-0.9694213,-0.9969253,-0.2071738,0.5894258,-0.9999228,-0.9499472,-0.9929918,0.9999473,-0.51991993,-0.97792125
2025-06-04 18:33:03.563,0.67898,-6.315905,-169.34941,0.013658231,-0.13433681,0.1558711,0.302949,0.757046,9.428454,0.12768449,-0.008125305,-1.7755394,-0.8445227,0.20954132,7.7936974,1.639529,-0.082359314,-4.4684525,-0.11662187,0.029182434,0.5560379,-1.0711789,-0.012321472,-0.29846573,1.9607519,-0.03993988,-0.14221573,-0.10372162,-0.087776184,-0.11291504,-1.4457755,0.010948181,-0.5523758,1.5482814,0.039405823,-0.5853348,0.09288788,-0.11882782,1.0125885,-1.0946604,0.23326874,-7.615471,1.822965,0.1366806,-13.031815,0.0,0.0,0.0,0.0,0.0,0.0,0.0,0.0,0.0,0.0,0.0,0.0,0.8784008,0.80604106,-0.96277326,-0.9966362,-0.0767736,0.55442137,-0.9999125,-0.94935364,-0.9926731,0.9999242,-0.4341874,-0.97518754
2025-06-04 18:33:03.614,0.468364,-6.521933,-168.86191,0.05422305,0.06702199,0.07937152,1.238019,0.129081,10.018674,0.13340653,0.14881134,-2.5629044,-0.8211005,0.71445465,7.020981,1.6373165,-0.1253891,-3.9008179,-0.11555375,0.015525818,0.711071,-1.0575986,0.3281784,-0.5206375,1.9580053,0.034370422,-0.23620987,-0.10746002,-0.050086975,0.1690712,-1.4380698,0.10883331,-1.3556099,1.5599544,0.29224396,-2.527504,0.090065,0.03025055,0.547493,-1.0781046,0.33481598,-7.624016,1.8257879,-0.010032654,-12.741283,0.0,0.0,0.0,0.0,0.0,0.0,0.0,0.0,0.0,0.0,0.0,0.0,0.8844714,0.78422236,-0.96759725,-0.99671566,-0.1480057,0.61363167,-0.9999147,-0.95150304,-0.99253935,0.99993765,-0.47364476,-0.97830784
2025-06-04 18:33:03.665,0.394868,-6.685794,-168.67903,-0.0667834,-0.038616,0.07712653,1.827131,0.014624,9.5918,0.13943376,0.10456085,-3.1805916,-0.8057654,0.2814865,7.0759125,1.6354091,-0.10921478,-4.138859,-0.11570634,-0.032157898,0.5194168,-1.0578275,0.019340515,-0.38147736,1.9599127,-0.0022506714,-0.020141602,-0.10860443,0.027961731,0.2862587,-1.4361625,0.063819885,-1.0772858,1.5768917,0.32413483,-3.1879158,0.09098053,-0.06832123,0.6256218,-1.0664316,0.14858246,-8.068359,1.8258642,-0.0038528442,-12.781567,0.0,0.0,0.0,0.0,0.0,0.0,0.0,0.0,0.0,0.0,0.0,0.0,0.88560605,0.8107241,-0.9663882,-0.99666953,-0.10604168,0.6146625,-0.9999162,-0.95250857,-0.99223244,0.9999317,-0.44650573,-0.9785716
2025-06-04 18:33:03.716,0.237995,-6.830286,-168.38173,-0.020954631,-0.0164813,0.109955534,1.831972,-0.189047,9.606625,0.14576615,0.16933441,-3.0487518,-0.79348207,0.24456024,7.306629,1.635104,-0.025901794,-4.1278725,-0.116011515,-0.13401031,0.5108719,-1.0523343,0.08213043,-0.3265419,1.9610571,-0.008506775,0.03845215,-0.11051178,-0.049171448,0.48401642,-1.435247,0.031013489,-1.0577545,1.591006,0.20519257,-3.1659431,0.09189606,0.15972137,0.4766922,-1.0595652,0.08998871,-7.384758,1.8257116,0.0049972534,-12.853588,0.0,0.0,0.0,0.0,0.0,0.0,0.0,0.0,0.0,0.0,0.0,0.0,0.5711791,0.44982034,-0.9670725,-0.9632912,-0.36918694,0.86847556,-0.99989283,-0.9143437,-0.9977403,0.99997413,-0.6713622,-0.9792219
2025-06-04 18:33:03.767,0.057612,-7.228587,-168.09578,-0.17901653,-0.2271652,0.06838778,3.565165,-0.535496,9.445361,0.1452321,-0.09372711,-3.4113083,-0.8095038,-0.32398224,2.2626076,1.6353328,-0.005531311,-4.142521,-0.116011515,0.096092224,0.15320206,-1.0917783,-0.7789993,-0.072631836,1.979215,0.31612396,0.68421555,-0.11669159,-0.1002121,1.1297798,-1.4377646,-0.22327423,0.8245964,1.5990169,0.056495667,-3.0939178,0.09120941,-0.020713806,1.1078033,-1.0745951,-0.3772354,-9.699245,1.8298315,0.067100525,-13.257648,0.0,0.0,0.0,0.0,0.0,0.0,0.0,0.0,0.0,0.0,0.0,0.0,0.51052976,0.57351506,-0.9615457,-0.9487842,-0.20590834,0.84303415,-0.99982333,-0.8870921,-0.99667925,0.9999377,-0.55311114,-0.9642626
2025-06-04 18:33:03.818,-0.305318,-7.489708,-168.07462,-0.037547898,0.0837321,-0.022638422,1.149024,-0.416487,9.441464,0.14324845,0.046043396,-4.010681,-0.8191931,-0.25928497,5.098343,1.636172,0.02696991,-4.278019,-0.11440934,-0.04611969,0.80994797,-1.095593,0.09990692,-0.54138947,1.993482,0.13019562,0.8160515,-0.116996765,0.008354187,0.45471954,-1.4436393,-0.08106232,1.1981392,1.5920742,-0.21282196,-1.3934555,0.08945465,0.13454437,0.6695671,-1.0835215,-0.34534454,-7.0844574,1.8279241,-0.028495789,-12.570381,0.0,0.0,0.0,0.0,0.0,0.0,0.0,0.0,0.0,0.0,0.0,0.0,0.4943347,0.55019784,-0.964995,-0.95412755,-0.238436,0.83648694,-0.99985194,-0.90176314,-0.9971537,0.9999503,-0.5816377,-0.967835
2025-06-04 18:33:03.869,-0.388912,-7.441109,-168.04733,-0.025917843,-0.021895766,0.0022485252,0.84338,-0.593319,9.830625,0.14156999,-0.041618347,-4.098572,-0.83513856,-0.30117035,5.458458,1.6386135,0.01033783,-4.4721146,-0.11448564,0.061912537,0.61585236,-1.0988736,-0.2701187,-0.37292862,1.9988226,0.08274078,0.8502312,-0.11669159,0.049552917,0.44495392,-1.4499717,-0.13881683,1.2848091,1.5823848,-0.21297455,-1.3531685,0.08937836,-0.007972717,0.6939812,-1.0993906,-0.34519196,-6.769512,1.8269323,0.012779236,-12.714428,0.0,0.0,0.0,0.0,0.0,0.0,0.0,0.0,0.0,0.0,0.0,0.0,0.47867942,0.54220456,-0.9631942,-0.9505812,-0.23287739,0.8226973,-0.9998374,-0.89602685,-0.997065,0.9999428,-0.59082615,-0.96488225
2025-06-04 18:33:03.920,-0.381503,-7.404358,-168.1489,0.002342092,0.0015489273,-0.05384119,0.761196,-0.181688,9.693061,0.13867082,-0.07015228,-3.556572,-0.8461249,-0.17238617,5.4316025,1.6393001,0.013160706,-4.2999916,-0.114256755,-0.0333786,0.64149094,-1.1002469,0.0358963,-0.41687775,1.9998907,0.013160706,0.80384445,-0.11631012,-0.064964294,0.5206375,-1.4530997,-0.053215027,1.1956978,1.5717037,-0.19535065,-0.9430084,0.08937836,0.009727478,0.72816086,-1.1104532,-0.1732254,-7.0588226,1.8269323,0.018806458,-12.714428,0.0,0.0,0.0,0.0,0.0,0.0,0.0,0.0,0.0,0.0,0.0,0.0,0.47676465,0.53155077,-0.96270704,-0.95052594,-0.22970472,0.8177231,-0.99983793,-0.89463085,-0.9970696,0.9999425,-0.59217834,-0.9635877
2025-06-04 18:33:03.971,-0.326186,-7.352251,-168.30519,0.022674007,0.009791506,-0.05426726,0.923876,-0.053909,9.731097,0.13546647,0.04825592,-3.654232,-0.85299134,-0.10486603,5.281452,1.6393764,-0.014076233,-4.3048744,-0.11440934,0.06160736,0.65247726,-1.1009336,-0.038490295,-0.34363174,2.0002723,-0.04207611,0.8197136,-0.115470886,0.07663727,0.49988556,-1.4541678,0.06504059,0.9674225,1.5628536,-0.1279831,-0.53162384,0.08892059,0.025596619,0.6964226,-1.1160227,-0.053749084,-7.287098,1.826856,0.0030899048,-12.639965,0.0,0.0,0.0,0.0,0.0,0.0,0.0,0.0,0.0,0.0,0.0,0.0,0.47508982,0.52524996,-0.96254164,-0.9506191,-0.23196574,0.8148699,-0.9998381,-0.894319,-0.9971121,0.9999427,-0.598269,-0.9631469
2025-06-04 18:33:04.022,-0.244945,-7.29144,-168.45468,0.010321825,0.014346484,-0.044499245,1.03976,0.126841,9.682525,0.13218583,-0.047721863,-3.5175095,-0.8573401,-0.09685516,5.142292,1.6392238,-0.051841736,-4.2963295,-0.11418046,0.034980774,0.64393234,-1.1014676,0.011634827,-0.35339737,1.999967,-0.07320404,0.75745773,-0.114860535,0.018348694,0.46570587,-1.454473,0.041542053,1.1676216,1.5569026,-0.1606369,-0.4718094,0.088386536,0.015907288,0.7794304,-1.119227,-0.036125183,-7.283436,1.826856,-0.013084412,-12.686352,0.0,0.0,0.0,0.0,0.0,0.0,0.0,0.0,0.0,0.0,0.0,0.0,0.47391832,0.52205294,-0.96213585,-0.95040643,-0.22984064,0.81375,-0.9998371,-0.89333814,-0.9971059,0.99994165,-0.59860593,-0.96257937
2025-06-04 18:33:04.073,-0.200029,-7.242191,-168.57877,0.0043446654,0.009540616,-0.03529522,1.066395,0.1651,9.776185,0.12989701,-0.037117004,-3.5162888,-0.8610785,-0.13462067,5.241169,1.639529,0.016441345,-4.274357,-0.11410417,-0.065727234,0.665905,-1.1019254,-0.007972717,-0.3680458,2.0003486,0.017662048,0.7330437,-0.11440277,0.04764557,0.41321564,-1.4547782,-0.013084412,1.1554146,1.5522487,-0.081977844,-0.48523712,0.088157654,-0.05191803,0.8233757,-1.1213633,-0.04688263,-7.2565804,1.8269323,0.017738342,-12.633862,0.0,0.0,0.0,0.0,0.0,0.0,0.0,0.0,0.0,0.0,0.0,0.0,0.475267,0.51969665,-0.96200836,-0.9509236,-0.23306803,0.81311405,-0.999834,-0.8934283,-0.9970642,0.999941,-0.59899956,-0.96186626
2025-06-04 18:33:04.124,-0.176456,-7.21772,-168.65942,0.0028438743,0.0024123243,-0.012238789,1.128569,0.134818,9.735108,0.12814225,0.07839203,-3.560234,-0.86413026,-0.11959076,5.3656807,1.6394527,-0.0008010864,-4.323185,-0.114256755,0.06046295,0.6243973,-1.1023831,0.045967102,-0.3265419,2.0000434,-0.03856659,0.7525749,-0.114097595,-0.027198792,0.4351883,-1.4555411,-0.025749207,1.1932564,1.5495021,-0.0712204,-0.48401642,0.088157654,0.101509094,0.8111687,-1.1232706,0.019187927,-7.3224983,1.8269323,0.02483368,-12.646069,0.0,0.0,0.0,0.0,0.0,0.0,0.0,0.0,0.0,0.0,0.0,0.0,0.47020817,0.517786,-0.96126366,-0.9508352,-0.22269526,0.8106639,-0.99983436,-0.89422274,-0.997143,0.9999407,-0.6003294,-0.9617887
2025-06-04 18:33:04.175,-0.180946,-7.214592,-168.67769,-0.008068552,-0.007438087,-0.0021428105,1.144358,0.075648,9.727163,0.12798966,-0.016975403,-3.5956345,-0.8661139,0.032081604,5.2875557,1.6396816,0.038337708,-4.318302,-0.11410417,-0.031852722,0.61951447,-1.1015439,0.03551483,-0.26672745,2.0000434,0.022621155,0.7379265,-0.11425018,0.0025558472,0.4351883,-1.4564567,0.07511139,1.2848091,1.5482814,0.019340515,-0.53650665,0.0875473,-0.004005432,0.8209343,-1.1248728,-0.019721985,-7.196766,1.8269323,-0.007209778,-12.652172,0.0,0.0,0.0,0.0,0.0,0.0,0.0,0.0,0.0,0.0,0.0,0.0,0.47250003,0.5137779,-0.96173877,-0.9513471,-0.23559447,0.8104809,-0.99983233,-0.8933774,-0.99709994,0.99994123,-0.6025177,-0.96128106
2025-06-04 18:33:04.226,-0.197459,-7.234518,-168.66808,-0.009605524,-0.0052910703,0.0026363372,1.180522,-0.031306,9.71278,0.12791337,0.00011444092,-3.6469078,-0.8674109,-0.011253357,5.248493,1.6396816,-0.023460388,-4.1644936,-0.114256755,-0.096092224,0.6219559,-1.1027646,-0.028266907,-0.3289833,2.000196,0.020484924,0.7013054,-0.11425018,-0.04940033,0.48645782,-1.4572196,-0.033073425,1.3372993,1.5479763,-0.014305115,-0.6036453,0.087623596,0.08106232,0.76478195,-1.1267039,-0.0371933,-7.22118,1.826856,-0.0005722046,-12.679028,0.0,0.0,0.0,0.0,0.0,0.0,0.0,0.0,0.0,0.0,0.0,0.0,0.46784058,0.5171588,-0.96168303,-0.9504731,-0.23131172,0.81193477,-0.99983144,-0.8924326,-0.9970937,0.99994034,-0.5984733,-0.96088964
2025-06-04 18:33:04.277,-0.225044,-7.248677,-168.66458,-0.003799983,-0.004462929,0.003657477,1.170329,-0.093681,9.72167,0.12791337,-0.0548172,-3.5553513,-0.86825013,-0.015296936,5.3217354,1.6396816,0.059013367,-4.2767982,-0.11410417,0.023612976,0.7135124,-1.1024594,-0.104637146,-0.29358292,2.0000434,0.007972717,0.7147331,-0.11432648,0.024375916,0.49744415,-1.4579825,0.031929016,1.3702583,1.5479,-0.027122498,-0.5914383,0.08769989,0.007286072,0.8538933,-1.1275431,-0.064582825,-7.003891,1.8267797,0.0045394897,-12.632641,0.0,0.0,0.0,0.0,0.0,0.0,0.0,0.0,0.0,0.0,0.0,0.0,0.8388261,0.84761006,-0.957824,-0.9967769,-0.0016073529,0.42439613,-0.999876,-0.9457263,-0.9914075,0.99986875,-0.32333097,-0.95804304
2025-06-04 18:33:04.328,-0.119492,-6.872696,-168.66853,0.18676496,0.28693894,-0.03230456,-0.797094,-0.448686,10.568951,0.1338643,-0.038642883,-2.6117325,-0.847193,0.48274994,9.422142,1.6402919,-0.024757385,-4.224308,-0.115019694,-0.09220123,0.8990631,-1.0630918,0.64640045,-0.2825966,1.9723486,-0.57193756,-0.17761612,-0.10852814,0.06694794,-0.29968643,-1.4540915,0.2186966,-1.0455475,1.5479,-0.017967224,-0.5853348,0.090293884,0.060005188,0.30334854,-1.1012217,0.4922104,-4.4550247,1.8187689,-0.04901886,-11.6707115,0.0,0.0,0.0,0.0,0.0,0.0,0.0,0.0,0.0,0.0,0.0,0.0,0.8839441,0.7500669,-0.970141,-0.9968268,-0.19797441,0.6039573,-0.9999225,-0.95155716,-0.99275756,0.99994516,-0.5200612,-0.97834396
2025-06-04 18:33:04.379,0.190075,-6.66904,-168.61478,-0.10040563,-0.15471262,0.061887316,0.768903,0.451266,9.221715,0.13836564,0.045051575,-2.298008,-0.8343756,0.23647308,7.7729454,1.6388423,-0.088157654,-4.2096596,-0.11547746,0.13950348,0.10070801,-1.0673642,0.070991516,-0.45960236,1.965711,0.06290436,-0.021362305,-0.10883331,0.0045394897,0.42786407,-1.4483695,0.060920715,-0.6707878,1.5539272,0.21266937,-1.8683128,0.09181976,-0.08037567,0.8575554,-1.0951182,0.21068573,-7.6813927,1.8218206,0.1292038,-13.036697,0.0,0.0,0.0,0.0,0.0,0.0,0.0,0.0,0.0,0.0,0.0,0.0,0.88408816,0.8060633,-0.96527535,-0.99649787,-0.088712275,0.5778299,-0.9999141,-0.94957024,-0.99230224,0.9999249,-0.44344983,-0.975815
2025-06-04 18:33:04.430,0.212145,-6.715231,-168.43669,0.012498285,0.040392607,0.03629112,1.48104,0.207718,9.713842,0.14240922,0.16246796,-2.7631035,-0.81499696,0.08052826,8.312504,1.636935,0.01941681,-4.035095,-0.1161641,-0.08144379,0.6317253,-1.0559964,0.23021698,-0.45960236,1.9628118,-0.04535675,-0.2471962,-0.10967255,0.008583069,0.25818253,-1.4418082,0.03139496,-1.0113678,1.565829,0.1354599,-2.129551,0.09143829,0.0004196167,0.61951447,-1.0777231,0.18573761,-6.9196625,1.822431,0.021400452,-12.592354,0.0,0.0,0.0,0.0,0.0,0.0,0.0,0.0,0.0,0.0,0.0,0.0,0.8866253,0.79688704,-0.9661028,-0.9967929,-0.12820458,0.6068584,-0.9999155,-0.9532919,-0.99220645,0.9999319,-0.4731706,-0.9786919
2025-06-04 18:33:04.481,0.198946,-6.776594,-168.32326,-0.0073770704,-0.010862039,0.044683553,1.632777,0.061388,9.833972,0.14584245,0.055656433,-2.736248,-0.8018744,0.14194489,7.4653244,1.6364772,0.014533997,-4.1327553,-0.11631669,0.034599304,0.49378204,-1.0539365,0.0052261353,-0.35461807,1.9625067,0.0011062622,-0.022583008,-0.11051178,-0.040779114,0.3289833,-1.4385276,0.037574768,-1.1114655,1.5787227,0.21587372,-3.0926971,0.09227753,0.018043518,0.6598015,-1.0673472,0.17223358,-7.8620567,1.8222784,-0.031929016,-12.6997795,0.0,0.0,0.0,0.0,0.0,0.0,0.0,0.0,0.0,0.0,0.0,0.0,0.5716183,0.44126716,-0.9664361,-0.9614133,-0.36290056,0.8646323,-0.9998891,-0.9110856,-0.99767685,0.9999723,-0.6739564,-0.9781055
2025-06-04 18:33:04.533,0.008264,-7.176801,-168.15797,-0.19503763,-0.23365772,0.03951174,3.255438,-0.192987,9.209488,0.1440114,-0.08228302,-3.5345993,-0.81621766,-0.18032074,2.256504,1.6364772,0.018348694,-4.196232,-0.115019694,0.17917633,0.06652832,-1.0939908,-0.6612015,-0.037231445,1.9817327,0.55561066,0.49500275,-0.116996765,-0.044441223,1.281147,-1.4413505,-0.11096954,1.0858307,1.5895565,0.0838089,-2.8131523,0.09113312,-0.119132996,1.1212311,-1.0799357,-0.25035858,-9.855495,1.8278478,0.18108368,-13.534752,0.0,0.0,0.0,0.0,0.0,0.0,0.0,0.0,0.0,0.0,0.0,0.0,0.51114714,0.56933635,-0.96234727,-0.9485636,-0.21408364,0.8428323,-0.9998218,-0.8858293,-0.9966552,0.9999386,-0.5525557,-0.96289027
2025-06-04 18:33:04.584,-0.354021,-7.411032,-168.15308,-0.029998632,0.052568253,-0.0013088747,1.033927,-0.503309,9.716124,0.14156999,0.5082321,-3.8043785,-0.82461,-0.32779694,6.0712585,1.6378505,0.05214691,-4.29755,-0.11410417,0.023460388,0.6683464,-1.0983396,0.14469147,-0.5987625,1.9945501,0.07305145,0.76966476,-0.116615295,0.024681091,0.45471954,-1.4479117,-0.067863464,1.2738228,1.5854366,-0.09777069,-1.6717796,0.090065,0.12638092,0.64881516,-1.0872599,-0.1317215,-7.1650276,1.8263983,-0.06473541,-12.589912,0.0,0.0,0.0,0.0,0.0,0.0,0.0,0.0,0.0,0.0,0.0,0.0,0.483769,0.55722034,-0.964859,-0.9534167,-0.21506833,0.8363863,-0.99985164,-0.90414536,-0.9972672,0.9999504,-0.5785112,-0.96747476
2025-06-04 18:33:04.635,-0.45466,-7.388529,-168.09828,-0.014708658,-0.018400604,0.00031726595,0.846276,-0.519769,10.010157,0.14027299,-0.036964417,-4.129093,-0.8368933,-0.1769638,5.4316025,1.640063,0.004234314,-4.474556,-0.114256755,-0.026130676,0.5462723,-1.0978055,0.032539368,-0.21545792,1.9992803,0.035820007,0.7550163,-0.11707306,0.016212463,0.6573601,-1.4534812,0.0020980835,1.235981,1.5776546,-0.17040253,-1.1004791,0.089912415,-0.034446716,0.67811203,-1.1008402,-0.27210236,-6.963608,1.8256353,-0.004310608,-12.661938,0.0,0.0,0.0,0.0,0.0,0.0,0.0,0.0,0.0,0.0,0.0,0.0,0.47924313,0.540369,-0.96348655,-0.9514563,-0.23158701,0.8232011,-0.999839,-0.89832866,-0.9971231,0.99994385,-0.59534574,-0.9651424
2025-06-04 18:33:04.686,-0.442693,-7.387377,-168.16077,-0.0045480314,-0.011846771,-0.04148035,0.883445,-0.216721,9.631551,0.13836564,-0.1303482,-3.4357224,-0.845896,-0.16109467,5.326618,1.6401393,-0.026359558,-4.335392,-0.11440934,-0.0024795532,0.61951447,-1.0995603,-0.013465881,-0.363163,1.999967,0.0052261353,0.83436203,-0.116996765,-0.015068054,0.5633621,-1.4566092,-0.0472641,1.3275337,1.5695674,-0.113105774,-0.8502312,0.08945465,0.015068054,0.8294792,-1.1099192,-0.101127625,-7.2968636,1.8254827,0.027198792,-12.626537,0.0,0.0,0.0,0.0,0.0,0.0,0.0,0.0,0.0,0.0,0.0,0.0,0.4738617,0.5333067,-0.9629885,-0.9500288,-0.22984852,0.82044876,-0.9998354,-0.8948634,-0.997076,0.99994206,-0.593019,-0.9632184
2025-06-04 18:33:04.737,-0.400281,-7.355011,-168.28632,0.019487614,0.0106671555,-0.04792456,1.013595,-0.052324,9.788153,0.13569535,-0.017051697,-3.7592125,-0.8513129,-0.13202667,5.1081085,1.6402919,0.023231506,-4.3659096,-0.11402787,-0.025901794,0.6585808,-1.1003995,0.11760712,-0.3289833,2.0002723,-0.01285553,0.7879753,-0.116233826,0.0033187866,0.46448517,-1.4572196,-0.018882751,1.2274361,1.5617855,-0.16490936,-0.5096512,0.08922577,0.020637512,0.72083664,-1.1150309,-0.1669693,-7.3090706,1.825559,0.006752014,-12.593575,0.0,0.0,0.0,0.0,0.0,0.0,0.0,0.0,0.0,0.0,0.0,0.0,0.4777371,0.52816767,-0.9626788,-0.9505372,-0.22813757,0.8175709,-0.9998383,-0.89483553,-0.99708277,0.99994206,-0.59612834,-0.96309954
2025-06-04 18:33:04.788,-0.332005,-7.30874,-168.40762,0.010773411,0.010378443,-0.03477666,1.118448,0.107257,9.658203,0.13317765,-0.035209656,-3.4625778,-0.85566163,-0.068473816,5.282673,1.6402156,0.035972595,-4.3170815,-0.11410417,0.054130554,0.7379265,-1.1007047,-0.055656433,-0.3241005,2.0004249,-0.015602112,0.776989,-0.11577606,0.034065247,0.48401642,-1.4572196,-0.0062179565,1.2335396,1.5565975,-0.070762634,-0.65125656,0.088768005,0.018043518,0.7916374,-1.11793,-0.02735138,-7.2919807,1.8256353,-0.019111633,-12.594795,0.0,0.0,0.0,0.0,0.0,0.0,0.0,0.0,0.0,0.0,0.0,0.0,0.4737984,0.5243625,-0.9625087,-0.95023847,-0.22953327,0.8164227,-0.99983585,-0.89452493,-0.9971033,0.99994165,-0.5987542,-0.9624908
2025-06-04 18:33:04.839,-0.285392,-7.266586,-168.51602,-0.008100195,0.0075975577,-0.027195616,1.118161,0.106903,9.703392,0.13096513,-0.119895935,-3.645687,-0.85924745,0.0021743774,5.122757,1.6402919,-0.01903534,-4.208439,-0.11395158,-0.017433167,0.7135124,-1.1011624,-0.0004196167,-0.3668251,2.0005012,-0.043067932,0.74403,-0.11539459,-0.008125305,0.46204376,-1.4576011,-0.012626648,1.2457466,1.5522487,-0.06061554,-0.481575,0.08823395,0.018501282,0.80872726,-1.1198374,0.01499176,-7.2968636,1.825559,-0.014533997,-12.598457,0.0,0.0,0.0,0.0,0.0,0.0,0.0,0.0,0.0,0.0,0.0,0.0,0.47073323,0.5242187,-0.9625503,-0.9499295,-0.22841896,0.81684214,-0.9998357,-0.8940361,-0.99711263,0.9999414,-0.5976474,-0.9620862
2025-06-04 18:33:04.890,-0.270164,-7.245647,-168.57677,-0.0076886467,0.00029909707,-0.011193005,1.159841,0.029632,9.769484,0.12982072,0.0046920776,-3.7018394,-0.8613837,-0.063819885,5.2253,1.6402156,0.005302429,-4.326847,-0.11410417,-0.17398834,0.64759445,-1.1009336,0.006828308,-0.30578995,2.0005774,-0.01789093,0.7745476,-0.115242004,0.0015640259,0.48523712,-1.4585166,-0.056266785,1.4557114,1.5496547,-0.016899109,-0.53406525,0.088157654,-0.028572083,0.8209343,-1.121821,-0.057411194,-7.2651253,1.8256353,0.033454895,-12.627758,0.0,0.0,0.0,0.0,0.0,0.0,0.0,0.0,0.0,0.0,0.0,0.0,0.47116998,0.5240484,-0.9621423,-0.9503302,-0.22710979,0.8159786,-0.999833,-0.89436257,-0.99708176,0.9999406,-0.5977839,-0.96183234
2025-06-04 18:33:04.941,-0.268734,-7.235836,-168.59406,0.00032323497,-0.0032169037,-0.0011973308,1.105545,0.004483,9.749853,0.12913407,-0.07358551,-3.5162888,-0.86275697,-0.034217834,5.257038,1.6402919,0.037879944,-4.264591,-0.11379899,-0.023612976,0.61096954,-1.1010861,0.015525818,-0.33996964,2.0004249,0.023765564,0.73060226,-0.11539459,0.032234192,0.5609207,-1.4589744,-0.019187927,1.2799263,1.5485103,0.01712799,-0.5853348,0.088157654,-0.027275085,0.8514519,-1.1231943,-0.016441345,-7.2199593,1.8256353,0.0052261353,-12.6143265,0.0,0.0,0.0,0.0,0.0,0.0,0.0,0.0,0.0,0.0,0.0,0.0,0.47146884,0.5212705,-0.9623196,-0.95026994,-0.22970565,0.8145004,-0.9998337,-0.8943901,-0.9970998,0.99994075,-0.6006366,-0.9615891
2025-06-04 18:33:04.992,-0.281108,-7.243562,-168.58832,-0.00834805,-0.0022545988,0.002281058,1.197828,-0.044922,9.715657,0.12936296,0.5274582,-2.9840546,-0.86413026,-0.07839203,5.569542,1.6402919,0.017433167,-4.2841225,-0.11402787,-0.030479431,0.7037468,-1.1015439,-0.058250427,-0.25818253,2.0003486,0.010261536,0.72083664,-0.1153183,0.068244934,0.5218582,-1.4593558,0.022697449,1.3067818,1.5481288,0.020484924,-0.60974884,0.08831024,0.04299164,0.7855339,-1.124415,-0.02368927,-7.3957443,1.825559,0.0075149536,-12.554512,0.0,0.0,0.0,0.0,0.0,0.0,0.0,0.0,0.0,0.0,0.0,0.0,0.46053815,0.52302915,-0.9612974,-0.9500429,-0.21965899,0.8111298,-0.99982935,-0.89436674,-0.99716043,0.99994075,-0.5991299,-0.9614238
2025-06-04 18:33:05.043,-0.315109,-7.260136,-168.59106,-0.0073463875,-0.004235216,-0.00037166785,1.29393,-0.02815,9.709779,0.12806596,-0.58467865,-2.621498,-0.8647406,-0.13484955,5.2216377,1.6403682,-0.0017929077,-4.356144,-0.11395158,-0.12462616,0.6671257,-1.1003232,0.0888443,-0.26428604,2.0005012,-0.037117004,0.6976433,-0.11554718,-0.12943268,0.57312775,-1.4603477,0.062217712,1.6803246,1.5482051,-0.001335144,-0.6305046,0.087394714,0.08419037,0.80384445,-1.1248728,0.041160583,-7.150379,1.825559,-0.0030899048,-12.594795,0.0,0.0,0.0,0.0,0.0,0.0,0.0,0.0,0.0,0.0,0.0,0.0,0.48070115,0.5135598,-0.9622734,-0.95116097,-0.23594111,0.8146105,-0.99983466,-0.89424956,-0.99702394,0.99993914,-0.60526717,-0.96129894
2025-06-04 18:33:05.094,-0.325857,-7.277848,-168.59554,-0.003217846,-0.0067283316,0.003541046,1.299159,-0.029056,9.658219,0.12913407,0.5022812,-3.1085663,-0.86565614,0.039711,5.6330223,1.6404445,0.008049011,-4.319523,-0.11448564,-0.14408112,0.6243973,-1.1014676,-0.0074386597,-0.33386612,2.0005012,0.012779236,0.7855339,-0.11554718,0.050315857,0.5645828,-1.4608054,-0.022468567,1.2433052,1.5481288,-0.00919342,-0.57801056,0.08747101,0.0062942505,0.7049675,-1.1259409,-0.011177063,-7.553215,1.8254827,-0.0033187866,-12.572823,0.0,0.0,0.0,0.0,0.0,0.0,0.0,0.0,0.0,0.0,0.0,0.0,0.4620957,0.5249691,-0.9614454,-0.95006156,-0.21845123,0.81252813,-0.9998299,-0.8936124,-0.99715245,0.9999411,-0.5946964,-0.9612446
