openverse-orca/OrcaGym/envs/legged_gym/legged_real_env/logs/robot_log_20250604_111541.csv
timestamp,imu_angle_roll,imu_angle_pitch,imu_angle_yaw,imu_angular_velocity_roll,imu_angular_velocity_pitch,imu_angular_velocity_yaw,imu_acc_x,imu_acc_y,imu_acc_z,fl_joint1_pos,fl_joint1_vel,fl_joint1_torque,fl_joint1_temp,fl_joint2_pos,fl_joint2_vel,fl_joint2_torque,fl_joint2_temp,fl_joint3_pos,fl_joint3_vel,fl_joint3_torque,fl_joint3_temp,fr_joint1_pos,fr_joint1_vel,fr_joint1_torque,fr_joint1_temp,fr_joint2_pos,fr_joint2_vel,fr_joint2_torque,fr_joint2_temp,fr_joint3_pos,fr_joint3_vel,fr_joint3_torque,fr_joint3_temp,hl_joint1_pos,hl_joint1_vel,hl_joint1_torque,hl_joint1_temp,hl_joint2_pos,hl_joint2_vel,hl_joint2_torque,hl_joint2_temp,hl_joint3_pos,hl_joint3_vel,hl_joint3_torque,hl_joint3_temp,hr_joint1_pos,hr_joint1_vel,hr_joint1_torque,hr_joint1_temp,hr_joint2_pos,hr_joint2_vel,hr_joint2_torque,hr_joint2_temp,hr_joint3_pos,hr_joint3_vel,hr_joint3_torque,hr_joint3_temp,fl_force_x,fl_force_y,fl_force_z,fr_force_x,fr_force_y,fr_force_z,hl_force_x,hl_force_y,hl_force_z,hr_force_x,hr_force_y,hr_force_z,fl_hip_action,fl_thigh_action,fl_calf_action,fr_hip_action,fr_thigh_action,fr_calf_action,hl_hip_action,hl_thigh_action,hl_calf_action,hr_hip_action,hr_thigh_action,hr_calf_action
2025-06-04 11:16:08.057,-0.385015,-0.938128,17.633135,-0.0022579674,-0.0003475823,-0.0011252486,0.157543,-0.062841,9.786492,-0.011475667,-0.016288757,0.481575,-0.98756725,0.105781555,-0.34485245,1.9032574,0.03200531,-4.7882805,0.0104904175,0.029563904,-0.48767853,-0.98375255,0.061836243,-0.45349884,1.9049281,-0.0077438354,-4.7626457,-0.014381409,0.016288757,0.68299484,-0.9757483,0.022468567,-0.8868561,1.9307995,0.018424988,-6.0187683,0.016892537,-0.030479431,-0.71961594,-0.9792578,-0.042381287,-0.65003586,1.934497,-0.012702942,-6.093231,0.0,0.0,0.0,0.0,0.0,0.0,0.0,0.0,0.0,0.0,0.0,0.0,-1.0,1.0,-1.0,-1.0,-1.0,1.0,1.0,-1.0,-1.0,1.0,1.0,-1.0
2025-06-04 11:16:08.109,0.14229,-0.544823,17.19935,0.44323504,0.6794228,-0.88871586,-3.74529,-6.357071,14.859962,-0.04107772,-0.4139328,-0.9430084,-0.91554576,1.289177,12.406807,1.8423748,-1.2903976,-8.516365,-0.0358963,-0.8736801,0.1727333,-1.1400026,-3.253292,-1.0125885,1.9675654,1.0222244,0.12756729,0.027809143,0.9079361,-1.235981,-1.0565436,-2.80682,-7.884033,1.884718,-2.4339714,-5.4023056,0.05931197,0.84407806,-0.80750656,-0.87198853,2.7695122,3.8324547,1.8652221,-1.8866348,-6.8427544,0.0,0.0,0.0,0.0,0.0,0.0,0.0,0.0,0.0,0.0,0.0,0.0,-1.0,1.0,-1.0,-1.0,1.0,1.0,-1.0,-1.0,-1.0,1.0,-1.0,-1.0
2025-06-04 11:16:08.161,1.423146,1.902013,13.570199,0.774951,-0.07706557,-0.93350637,0.280269,0.338321,8.598692,-0.059235677,0.17971039,-0.99305725,-0.85161144,1.3419724,9.586937,1.7639446,-1.9763565,-2.0135803,-0.06435394,-0.932045,1.6534691,-0.9569734,4.4839897,-1.0760651,1.9994563,0.7368088,-0.10803223,-0.011482239,-0.8470535,-0.34973526,-1.2259924,-2.8989067,0.3216591,1.747694,-2.1329918,-0.14709854,0.08731185,0.8312607,-2.2760353,-0.98665833,-2.4264946,-10.6294365,1.806552,-0.32787323,-10.53788,0.0,0.0,0.0,0.0,0.0,0.0,0.0,0.0,0.0,0.0,0.0,0.0,1.0,-1.0,-1.0,1.0,1.0,1.0,-1.0,-1.0,-1.0,1.0,-1.0,-1.0
2025-06-04 11:16:08.213,4.164146,0.382027,11.920367,0.4349277,-1.1299632,-0.022664253,3.873211,3.054113,7.336372,-0.012848958,0.42575836,3.064621,-1.0288423,-3.7974968,-3.6810875,1.7119122,-0.8488846,-4.6002884,-0.017433167,0.8803177,1.2823677,-0.7713502,2.6743736,-0.7086296,2.019064,0.42804718,0.6280632,-0.056114197,-0.3132248,0.12023926,-1.3415778,-1.6480637,0.27527237,1.6583538,-1.0723495,-0.34119034,0.11630355,0.31871796,-1.3397408,-1.0891974,-1.7448044,-9.683376,1.8440887,1.376152,-20.097351,0.0,0.0,0.0,0.0,0.0,0.0,0.0,0.0,0.0,0.0,0.0,0.0,1.0,-1.0,-1.0,1.0,1.0,1.0,-1.0,-1.0,1.0,1.0,-1.0,-1.0
2025-06-04 11:16:08.264,3.742076,-3.001556,11.407873,-0.4852246,-0.85918015,-0.18138933,4.929309,2.922899,8.849151,-0.008805379,-0.097846985,5.651333,-1.1597627,-1.8951797,-5.851528,1.6988659,-0.13896942,-6.836651,0.026817322,0.45780182,0.12390137,-0.6665223,1.8933487,-0.07019043,2.0321865,0.24341583,0.8722038,-0.06580353,-0.057868958,-0.8612175,-1.3952887,-0.18802643,-2.2418556,1.7867565,2.9517784,-0.06530762,0.110047445,-0.06587982,0.051879883,-1.1894476,-1.6367722,-5.2106514,1.8998595,0.7431412,-20.11322,0.0,0.0,0.0,0.0,0.0,0.0,0.0,0.0,0.0,0.0,0.0,0.0,1.0,-1.0,-1.0,1.0,-1.0,1.0,-1.0,-1.0,1.0,1.0,-1.0,-1.0
2025-06-04 11:16:08.316,2.72396,-5.381622,10.030089,-0.63353944,-0.049156167,-0.7148243,0.960952,2.362483,6.285525,-0.015061483,-0.23952484,6.6242447,-1.2626833,-2.2876396,-1.2591743,1.6945171,0.17650604,-7.8425255,0.04924774,0.22029877,0.9295807,-0.940265,-5.3629723,-0.08483887,2.0438595,0.12767792,0.56824493,-0.06977081,-0.72597504,-0.49866486,-1.4230597,-0.357399,-1.1920357,1.8970013,1.7606735,0.38147736,0.12553512,0.6662369,-2.1246643,-1.2788641,-1.3473892,-3.8593102,1.9141265,-0.27965546,-16.136112,0.0,0.0,0.0,0.0,0.0,0.0,0.0,0.0,0.0,0.0,0.0,0.0,1.0,-1.0,-1.0,1.0,1.0,1.0,-1.0,-0.8977184,1.0,-1.0,-1.0,-1.0
2025-06-04 11:16:08.367,0.337947,-5.588577,8.195887,-1.0686439,-0.27078357,-0.4264399,4.913972,2.728132,12.344954,-0.025895223,-0.10128021,6.3447,-1.3726991,-2.4399986,5.380333,1.6997051,-0.15369415,-6.7267876,0.065574646,0.14667511,1.3336372,-0.8306306,2.9017296,0.80140305,2.0480556,0.23860931,0.015258789,-0.07991791,-0.17986298,-0.10559082,-1.4284766,-0.012931824,-0.22522354,1.9597912,0.91114044,0.49011993,0.11653243,0.010261536,-10.14603,-1.3335669,-1.4375687,-0.9234772,1.8733855,-1.1637497,-10.207066,0.0,0.0,0.0,0.0,0.0,0.0,0.0,0.0,0.0,0.0,0.0,0.0,1.0,-1.0,-1.0,1.0,1.0,-1.0,-1.0,-1.0,1.0,1.0,-1.0,-1.0
2025-06-04 11:16:08.419,-2.17709,-6.063223,8.16141,-0.15102945,0.30073538,0.4771728,1.344435,0.535675,7.088405,-0.01773177,0.7955551,2.4432755,-1.4663881,-1.348381,4.867626,1.6936016,-0.10883331,-6.815899,0.08113861,0.2376175,0.14099503,-0.70024425,1.8838882,0.05432129,1.8732661,-3.2712975,-0.056762695,-0.083351135,0.019874573,-0.92103577,-1.4721167,-0.007209778,0.5194168,1.984663,0.6345749,0.9430084,0.14674483,0.3633499,-3.2989998,-1.3875067,-0.8373642,-0.53406525,1.8004485,-1.2990189,-6.470436,0.0,0.0,0.0,0.0,0.0,0.0,0.0,0.0,0.0,0.0,0.0,0.0,1.0,-1.0,-1.0,1.0,1.0,-1.0,-1.0,-1.0,1.0,1.0,-1.0,-1.0
2025-06-04 11:16:08.471,-1.998646,-4.574562,9.770105,0.12502208,0.5982502,0.55196136,1.489325,-1.924615,7.986426,0.016981974,0.15621185,2.9230194,-1.5422243,-1.713829,9.456322,1.6893291,-0.019264221,-6.778057,0.09311676,1.0929489,-4.0790405,-0.6454652,-1.4007187,12.028381,1.7608088,0.33283234,-11.498589,-0.08640289,-0.2955246,0.08483887,-1.4701331,-0.07022858,-0.3936844,2.0128918,0.4732132,0.26062393,0.16047774,-0.61374664,-0.8636589,-1.4352667,-0.6152725,2.1881447,1.7301055,-1.6875839,-1.7010765,0.0,0.0,0.0,0.0,0.0,0.0,0.0,0.0,0.0,0.0,0.0,0.0,1.0,-1.0,-1.0,1.0,1.0,-1.0,-1.0,-1.0,1.0,1.0,-1.0,-1.0
2025-06-04 11:16:08.523,-4.398717,-3.166251,10.140334,-0.6895768,-0.14863504,-0.15593743,-5.890402,1.199685,11.906032,0.02133073,0.20397186,2.6288261,-1.5979189,-0.36022186,7.611809,1.6559887,-0.97332,-1.1590767,0.09738922,-0.030021667,0.48279572,-0.7094758,-0.68050385,11.374075,1.7462367,-0.6787491,-6.334934,-0.08350372,0.04436493,-1.2054634,-1.4749396,-0.6509018,1.5448227,2.0270061,0.058631897,1.4349594,0.13934432,-0.43094635,-0.26550674,-1.4512885,-0.11211395,-0.34363174,1.6553375,-1.2421799,-0.45594025,0.0,0.0,0.0,0.0,0.0,0.0,0.0,0.0,0.0,0.0,0.0,0.0,-1.0,-1.0,-1.0,1.0,1.0,-1.0,-1.0,-1.0,-1.0,1.0,-1.0,-1.0
2025-06-04 11:16:08.574,-5.990803,-2.849819,9.565464,-0.4532627,0.5956121,-0.18141243,0.843323,-3.959435,11.759416,0.0061482335,-0.051078796,-4.8407707,-1.6024965,0.030479431,4.5099564,1.6239452,-0.3356552,-2.9108124,0.097465515,-0.2576065,0.9710846,-0.71130687,0.5951309,6.7438774,1.712591,-0.6219101,-5.2716866,-0.07923126,0.24234772,-2.355381,-1.4737189,0.5881119,-3.0939178,1.9501019,-0.88977814,-14.617533,0.11424361,-0.5340195,2.105133,-1.4511359,-0.024375916,-1.0992584,1.6114684,-0.5527878,-0.64271164,0.0,0.0,0.0,0.0,0.0,0.0,0.0,0.0,0.0,0.0,0.0,0.0,-1.0,-1.0,1.0,-1.0,1.0,-1.0,1.0,-1.0,-1.0,1.0,-1.0,-1.0
2025-06-04 11:16:08.624,-9.055686,-0.367275,8.912168,-1.1373922,1.1937411,-0.2701444,0.199362,-2.257309,7.365539,-0.01963912,-0.6509781,-0.6976433,-1.5919679,0.47664642,2.929123,1.7518902,2.5086632,2.802166,0.041160583,-1.053505,-2.3504982,-0.6757539,0.7175064,3.674984,1.690771,-0.047187805,-6.6132584,-0.03780365,0.4439926,3.9020386,-1.4371741,0.5424881,-5.413292,1.8992901,-0.98308563,-12.033264,0.10371505,-0.23715973,0.03845215,-1.4562476,-0.04901886,-0.07873535,1.5832397,-0.53043365,-0.25452042,0.0,0.0,0.0,0.0,0.0,0.0,0.0,0.0,0.0,0.0,0.0,0.0,-1.0,-1.0,1.0,-1.0,1.0,-1.0,1.0,-1.0,-1.0,1.0,-1.0,-1.0
2025-06-04 11:16:08.676,-12.010842,2.103583,6.407861,-0.89636767,0.90756464,-1.0364611,-0.488732,-0.894347,8.178646,-0.045807943,-0.25814056,-0.84656906,-1.5802187,-0.06122589,4.8700676,1.8474865,1.3051224,4.122986,-0.0018692017,-0.9937668,-1.0406647,-0.63463145,0.6934738,1.9525452,1.6889399,0.015144348,-7.003891,-0.0017929077,0.7455826,0.63904953,-1.4206946,0.05870819,-2.9010468,1.8581676,-0.65402985,-11.759823,0.100205526,0.06893158,0.8245964,-1.4621222,0.0060653687,-0.6939812,1.5684386,-0.18650055,-0.5487137,0.0,0.0,0.0,0.0,0.0,0.0,0.0,0.0,0.0,0.0,0.0,0.0,-1.0,-1.0,1.0,-1.0,1.0,-1.0,1.0,-1.0,-1.0,1.0,-1.0,-1.0
2025-06-04 11:16:08.728,-15.096114,4.276428,2.826513,-1.1571299,0.94601375,-0.7495947,-1.075925,-0.518291,9.338255,-0.058396444,-0.17536163,-1.3641548,-1.605472,-0.847435,8.401619,1.8876171,0.5717087,5.573204,-0.04070282,-0.7339859,-0.044555664,-0.594806,0.7564926,0.2508583,1.6897792,-0.07472992,-6.7438774,0.0447464,0.881691,-0.2874794,-1.4144385,0.112724304,-4.224308,1.833601,-0.538826,-11.530327,0.09448348,-0.14514923,0.76111984,-1.4635718,-0.13240814,-0.5609207,1.5589019,-0.23700714,-0.4400711,0.0,0.0,0.0,0.0,0.0,0.0,0.0,0.0,0.0,0.0,0.0,0.0,-1.0,-1.0,1.0,-1.0,1.0,-1.0,1.0,-1.0,-1.0,1.0,-1.0,-1.0
2025-06-04 11:16:08.780,-18.5843,6.243362,0.672369,-1.1487625,0.78220314,-0.34703103,-0.596789,-2.335689,9.049659,-0.059006795,0.20488739,-2.440834,-1.6437715,-0.733757,10.88945,1.918211,0.45749664,4.1644936,-0.06603241,-0.39043427,-0.31067276,-0.56436473,0.3522873,0.19470596,1.6832179,-0.30635834,-5.641567,0.07396698,0.3939438,-0.29968643,-1.3997138,0.23822784,-4.7357903,1.8107128,-0.42064667,-10.630655,0.09364425,0.0018692017,0.6549187,-1.466471,-0.07091522,-0.31921768,1.5527984,-0.062675476,-0.3228798,0.0,0.0,0.0,0.0,0.0,0.0,0.0,0.0,0.0,0.0,0.0,0.0,-1.0,-1.0,1.0,-1.0,1.0,-1.0,1.0,-1.0,-1.0,1.0,-1.0,-1.0
2025-06-04 11:16:08.832,-22.419008,7.872403,-0.810384,-1.1226381,0.59309274,-0.18439181,-0.658552,-4.084578,9.030211,-0.051987752,0.28125763,-3.0988007,-1.6871828,-0.70934296,12.663158,1.9416332,0.29247284,4.253605,-0.079078674,-0.17108917,-0.3704872,-0.54918224,0.24242401,0.49134064,1.666128,-0.451622,-4.0180054,0.09189606,0.20931244,-0.80994797,-1.3920081,0.0258255,-4.4428177,1.7883587,-0.36937714,-9.4489975,0.092270955,0.015678406,0.7428093,-1.4672339,-0.0033950806,-0.5047684,1.5492889,-0.10570526,-0.30823135,0.0,0.0,0.0,0.0,0.0,0.0,0.0,0.0,0.0,0.0,0.0,0.0,-1.0,-1.0,1.0,-1.0,1.0,-1.0,1.0,-1.0,-1.0,1.0,-1.0,-1.0
2025-06-04 11:16:08.884,-25.90872,9.071912,-1.812238,-1.2026328,0.48861957,-0.09534543,-1.538318,-4.185969,7.511546,-0.04321395,0.07900238,-3.1561775,-1.7286867,-0.8646774,14.504005,1.9546795,0.36426544,3.8129234,-0.08937836,-0.045433044,-0.14465714,-0.5442994,0.044288635,0.8526726,1.6436213,-0.4127884,-2.962082,0.102119446,0.06481171,-0.5084305,-1.3967383,-0.011482239,-2.8204765,1.7455578,-1.1962509,-4.1351967,0.09158431,0.033226013,0.75745773,-1.4674628,0.046424866,-0.5438309,1.5473815,-0.0061416626,-0.45716095,0.0,0.0,0.0,0.0,0.0,0.0,0.0,0.0,0.0,0.0,0.0,0.0,-1.0,-1.0,1.0,-1.0,1.0,-1.0,1.0,-1.0,-1.0,1.0,-1.0,-1.0
2025-06-04 11:16:08.936,-29.859522,10.469649,-2.541158,-1.147427,0.43062446,0.064868264,-2.855777,-4.832647,7.797885,-0.037568197,0.09555817,-3.707943,-1.7730135,-0.84194183,16.827038,1.9721508,0.4289627,2.428627,-0.09716034,-0.11722565,0.037231445,-0.54246837,0.008735657,0.8282585,1.623022,-0.3887558,-2.3773575,0.106163025,0.04207611,-0.26550674,-1.4227545,-0.44063568,-0.4754715,1.6680431,-1.221199,-0.38269806,0.09181319,0.057792664,0.6317253,-1.4681494,0.08617401,-0.5084305,1.5462371,0.00919342,-0.436409,0.0,0.0,0.0,0.0,0.0,0.0,0.0,0.0,0.0,0.0,0.0,0.0,-1.0,-1.0,1.0,-1.0,1.0,-1.0,1.0,-1.0,-1.0,1.0,-1.0,-1.0
2025-06-04 11:16:08.988,-32.981766,11.671541,-2.900197,-0.9944609,0.35693976,0.09587511,-2.363623,-6.355603,8.084832,-0.02581893,0.32489777,-4.5453568,-1.8106264,-0.8576584,17.056534,1.9904613,0.34488678,1.9403381,-0.09868622,-0.041389465,-0.08483887,-0.5385774,0.038337708,0.58045197,1.6024989,-0.5837631,-1.0235748,0.10814667,0.031471252,-0.206913,-1.4432776,-0.29392242,-0.4010086,1.6163921,-0.7425308,-0.30456924,0.091126546,0.040473938,0.7733269,-1.4682257,-0.060081482,-0.44861603,1.545703,-0.06969452,-0.42420197,0.0,0.0,0.0,0.0,0.0,0.0,0.0,0.0,0.0,0.0,0.0,0.0,-1.0,-1.0,1.0,-1.0,1.0,-1.0,1.0,-1.0,-1.0,1.0,-1.0,-1.0
2025-06-04 11:16:09.038,-35.828133,12.620777,-3.314912,-0.82617104,0.36145616,0.061696585,-2.16283,-6.756951,7.59396,-0.014908895,0.2640915,-4.962845,-1.8343538,-0.43323517,18.164951,2.0004559,0.10555267,2.3981094,-0.10166168,-0.083351135,0.06530762,-0.53369457,-0.04940033,0.2862587,1.5833491,-0.3962326,-0.6598015,0.10974884,0.010032654,-0.23254776,-1.4526618,-0.28751373,-0.68909836,1.5864086,-0.3332901,-0.53528595,0.09143172,-0.0008010864,0.63904953,-1.4685309,-0.054740906,-0.5609207,1.5450164,-0.03376007,-0.42053986,0.0,0.0,0.0,0.0,0.0,0.0,0.0,0.0,0.0,0.0,0.0,0.0,-1.0,-1.0,1.0,-1.0,1.0,-1.0,1.0,-1.0,-1.0,1.0,-1.0,-1.0
2025-06-04 11:16:09.090,-38.113205,13.617772,-3.905377,-0.64957553,0.45413697,0.06733262,-2.090552,-6.826652,7.383904,-0.0032359215,0.2048111,-5.667202,-1.8493074,-0.23471832,17.712063,2.002287,-0.07778168,2.748455,-0.10387421,-0.13683319,0.16662979,-0.5279725,0.20931244,-0.14465714,1.5681666,-0.31147003,-0.38636017,0.11035919,-0.06214142,-0.20447159,-1.4580023,-0.13080597,-0.8160515,1.5710735,-0.16521454,-0.5499344,0.09074508,0.024986267,0.7367058,-1.468302,-0.032539368,-0.6622429,1.5446349,-0.0073623657,-0.3656044,0.0,0.0,0.0,0.0,0.0,0.0,0.0,0.0,0.0,0.0,0.0,0.0,-1.0,-1.0,1.0,-1.0,1.0,-1.0,1.0,-1.0,-1.0,1.0,-1.0,-1.0
2025-06-04 11:16:09.141,-40.29936,15.034945,-4.741672,-0.58659977,0.61562234,0.15133835,-2.197397,-6.22607,6.703772,0.0065297033,0.3119278,-6.930649,-1.8588442,-1.4902878,18.927902,2.0016003,-0.16887665,2.822918,-0.10684967,-0.07846832,0.22888565,-0.5233186,0.03299713,-0.05432129,1.5612239,-0.03261566,-0.83436203,0.11051178,-0.0233078,-0.20569229,-1.4612067,-0.040626526,-0.65369797,1.5595531,-0.1884079,-0.38636017,0.09005843,-0.02544403,0.76966476,-1.4678442,0.061683655,-0.547493,1.5444824,-0.01789093,-0.37659454,0.0,0.0,0.0,0.0,0.0,0.0,0.0,0.0,0.0,0.0,0.0,0.0,-1.0,-1.0,1.0,-1.0,1.0,-1.0,1.0,-1.0,-1.0,1.0,-1.0,-1.0
2025-06-04 11:16:09.194,-42.28175,16.728594,-5.602909,-0.61209166,0.70619875,0.24678774,-2.157572,-6.189,6.90534,0.009123698,0.010261536,-5.4633408,-1.8583864,0.0812912,17.126118,2.0019054,-0.030555725,2.9584198,-0.10883331,-0.04436493,0.18494034,-0.5196565,0.020561218,-0.21545792,1.5599269,0.011253357,-1.0955963,0.110435486,-0.02872467,-0.083618164,-1.4641058,-0.05344391,-0.5535965,1.5529919,-0.18787384,-0.35339737,0.08990584,-0.010871887,0.75867844,-1.4680731,-0.010414124,-0.53650665,1.543872,-0.0333786,-0.35339737,0.0,0.0,0.0,0.0,0.0,0.0,0.0,0.0,0.0,0.0,0.0,0.0,-1.0,-1.0,1.0,-1.0,1.0,-1.0,1.0,-1.0,-1.0,1.0,-1.0,-1.0
2025-06-04 11:16:09.246,-44.62332,18.998966,-6.527858,-0.74325067,0.81104547,0.40324172,-2.57242,-5.815009,6.606925,0.010802165,-0.052375793,-5.1813545,-1.8589205,-0.025367737,16.94423,2.0006084,0.005836487,3.0389862,-0.109062195,-0.0073623657,0.16540909,-0.51858836,0.007972717,-0.04333496,1.5599269,0.010795593,-1.0601959,0.110206604,-0.07488251,-0.20447159,-1.4657843,0.015602112,-0.62073517,1.5493298,-0.05962372,-0.42786407,0.08960067,0.042381287,0.84412766,-1.4678442,0.038108826,-0.45471954,1.5437194,-0.048332214,-0.38025665,0.0,0.0,0.0,0.0,0.0,0.0,0.0,0.0,0.0,0.0,0.0,0.0,-1.0,-1.0,1.0,-1.0,1.0,-1.0,1.0,-1.0,-1.0,1.0,-1.0,-1.0
2025-06-04 11:16:09.299,-47.238873,21.569029,-7.423039,-0.9032169,0.9563949,0.5593754,-2.766674,-5.849321,6.177896,0.0082844645,-0.08853912,-4.278019,-1.857242,0.19939423,16.21912,1.997633,-0.34297943,4.342716,-0.108680725,0.014076233,-0.023803711,-0.51881725,0.004081726,-0.017700195,1.5597743,-0.021781921,-0.9784088,0.110816956,0.20801544,-0.6756706,-1.4673865,-0.20786285,-0.27405167,1.5471172,-0.056800842,-0.3973465,0.08998214,0.1820755,0.22644424,-1.4678442,-0.0061416626,-0.514534,1.543872,0.027885437,-0.42420197,0.0,0.0,0.0,0.0,0.0,0.0,0.0,0.0,0.0,0.0,0.0,0.0,-1.0,-1.0,1.0,-1.0,1.0,-1.0,1.0,-1.0,-1.0,1.0,-1.0,-1.0
2025-06-04 11:16:09.350,-49.534447,24.691372,-8.428717,-0.46076235,0.7486771,0.36223558,-4.358795,-3.486495,2.934306,-0.002472982,-0.4491043,-2.7106133,-1.8124574,0.63755035,11.4412155,1.985426,-0.020637512,3.5284958,-0.11096954,0.08937836,-0.07507324,-0.5156129,0.13530731,0.03479004,1.5545863,-0.07167816,-0.43152618,0.11066437,0.0699234,-0.5938797,-1.4691412,-0.0017166138,-0.08850098,1.544981,-0.06702423,-0.26428604,0.090897664,-0.03124237,0.7537956,-1.4689124,-0.065727234,-0.5450516,1.543338,0.025749207,-0.37659454,0.0,0.0,0.0,0.0,0.0,0.0,0.0,0.0,0.0,0.0,0.0,0.0,-1.0,-1.0,1.0,-1.0,1.0,-1.0,1.0,-1.0,-1.0,1.0,-1.0,-1.0
2025-06-04 11:16:09.403,-51.429264,27.01598,-9.945101,-0.09686198,0.8837407,0.15473242,-4.80498,-6.968045,4.204097,-0.02063094,-0.21747589,-2.7740898,-1.7720217,0.8199692,9.878693,1.985426,0.0018692017,3.5504684,-0.112953186,0.05290985,0.15320206,-0.51370555,0.0497818,-0.24231339,1.551916,-0.027885437,-0.6256218,0.11035919,-0.027503967,-0.060424805,-1.4689887,-0.022773743,-0.436409,1.5441418,-0.028419495,-0.41321564,0.0942546,0.066719055,0.4412918,-1.4712775,-0.022850037,-0.23132706,1.5432616,-0.0010299683,-0.34363174,0.0,0.0,0.0,0.0,0.0,0.0,0.0,0.0,0.0,0.0,0.0,0.0,-1.0,-1.0,1.0,-1.0,1.0,-1.0,1.0,-1.0,-1.0,1.0,-1.0,-1.0
2025-06-04 11:16:09.455,-51.8241,29.304495,-11.821699,0.38093254,0.74772584,0.1446942,-4.923206,-6.717152,4.664965,-0.023758993,0.10005951,-4.0753784,-1.7347139,0.6782913,8.734875,1.9855022,-0.0075912476,3.5187302,-0.114860535,-0.021858215,0.6231766,-0.51385814,0.06656647,-0.2093544,1.5494746,-0.06214142,-0.41321564,0.109825134,-0.024147034,-0.0970459,-1.4712775,-0.012550354,-0.17395401,1.5439892,-0.02948761,-0.41199493,0.09600936,0.023536682,0.3277626,-1.4727271,-0.0036239624,-0.15198135,1.5432616,0.0033950806,-0.3656044,0.0,0.0,0.0,0.0,0.0,0.0,0.0,0.0,0.0,0.0,0.0,0.0,-1.0,-1.0,1.0,-1.0,1.0,-1.0,1.0,-1.0,-1.0,1.0,-1.0,-1.0
2025-06-04 11:16:09.508,-51.313564,30.642323,-13.272881,0.3789659,0.41909027,0.102620594,-5.367962,-6.431483,5.141329,-0.016968831,0.094947815,-4.6320305,-1.7132753,0.3193283,9.26955,1.9857311,-0.0017166138,3.5211716,-0.11646271,-0.0010299683,0.49744415,-0.5134004,0.06122589,-0.44495392,1.5477961,-0.022239685,-0.5511551,0.10799408,-0.02872467,0.045776367,-1.4741766,-0.05504608,-0.08728027,1.5436077,0.027503967,-0.40467072,0.095933065,0.032234192,0.4412918,-1.4728034,0.03780365,-0.30334854,1.5431854,0.016746521,-0.3704872,0.0,0.0,0.0,0.0,0.0,0.0,0.0,0.0,0.0,0.0,0.0,0.0,-1.0,-1.0,1.0,-1.0,1.0,-1.0,1.0,-1.0,-1.0,1.0,-1.0,-1.0
2025-06-04 11:16:09.560,-50.848934,31.454084,-13.468322,-0.08331165,-0.021480186,0.16486272,-4.923136,-5.923608,5.519497,-0.015900716,-0.017051697,-4.052185,-1.7072481,-0.036354065,10.1704445,1.9861889,0.023536682,3.5345993,-0.11264801,0.04749298,0.22644424,-0.51393443,-0.16735077,-0.022583008,1.5483302,-0.035591125,-0.48279572,0.10662079,0.06427765,-0.072631836,-1.4769232,0.07320404,-0.11657715,1.5433025,0.017280579,-0.37170792,0.094788656,-0.031166077,0.46570587,-1.4725745,0.003929138,-0.40833282,1.543109,-0.0014877319,-0.35950089,0.0,0.0,0.0,0.0,0.0,0.0,0.0,0.0,0.0,0.0,0.0,0.0,-1.0,-1.0,1.0,-1.0,1.0,-1.0,1.0,-1.0,-1.0,1.0,-1.0,-1.0
2025-06-04 11:16:09.613,-50.89033,31.720327,-12.960047,-0.06472751,-0.09369278,0.13376054,-5.403086,-6.732826,4.642649,-0.020478353,-0.1391983,-3.433281,-1.7104524,-0.12371063,10.612343,1.9857311,-0.029258728,3.5748825,-0.11219025,0.072517395,0.2093544,-0.51866466,-0.12744904,0.5255203,1.5468806,-0.023078918,-0.44861603,0.1077652,-0.016593933,-0.12023926,-1.4758551,-0.022010803,-0.2459755,1.5432262,0.008277893,-0.41565704,0.09486495,-0.01789093,0.50354767,-1.4721167,-0.104026794,-0.27893448,1.543109,-0.0062179565,-0.35461807,0.0,0.0,0.0,0.0,0.0,0.0,0.0,0.0,0.0,0.0,0.0,0.0,-1.0,-1.0,1.0,-1.0,1.0,-1.0,1.0,-1.0,-1.0,1.0,-1.0,-1.0
2025-06-04 11:16:09.666,-50.59924,31.769075,-12.54017,0.06832877,-0.112348184,0.04439163,-5.427316,-6.095753,5.531615,-0.024216756,-0.04169464,-3.6249313,-1.7156404,-0.22945404,11.110397,1.9856548,-3.8146973e-05,3.556572,-0.10959625,0.0472641,-0.072631836,-0.52507335,-0.06061554,0.7818718,1.5474147,0.0050735474,-0.5462723,0.10799408,-0.05771637,-0.05432129,-1.4762366,-0.049552917,-0.2862587,1.54315,-0.0050735474,-0.41321564,0.094559774,0.018882751,0.5120926,-1.4718878,-0.039863586,-0.41443634,1.5432616,-0.026512146,-0.363163,0.0,0.0,0.0,0.0,0.0,0.0,0.0,0.0,0.0,0.0,0.0,0.0,-1.0,-1.0,1.0,-1.0,1.0,-1.0,1.0,-1.0,-1.0,1.0,-1.0,-1.0
2025-06-04 11:16:09.718,-50.261467,31.653746,-12.032048,-0.027402261,-0.15997541,-0.022398926,-5.095731,-6.169906,5.351858,-0.025590047,-0.07434845,-3.7262535,-1.7226595,-0.12950897,11.420464,1.9857311,0.022315979,3.5089645,-0.10852814,0.008659363,0.13489151,-0.5320161,-0.073661804,1.0052643,1.5472621,-0.007820129,-0.47058868,0.10852814,-0.0157547,-0.18005753,-1.4756262,-0.014152527,-0.34485245,1.54315,-0.013923645,-0.41199493,0.094178304,-0.0032424927,0.5157547,-1.4712775,0.030632019,-0.41687775,1.543338,0.035438538,-0.35095596,0.0,0.0,0.0,0.0,0.0,0.0,0.0,0.0,0.0,0.0,0.0,0.0,-1.0,-1.0,1.0,-1.0,1.0,-1.0,1.0,-1.0,-1.0,1.0,-1.0,-1.0
2025-06-04 11:16:09.771,-50.09852,31.273212,-11.824278,0.028830621,-0.0966455,-0.08945423,-5.12207,-6.291102,5.591229,-0.024903402,0.011253357,-3.7921715,-1.728,-0.071525574,11.486382,1.9858837,0.049095154,3.5492477,-0.10852814,-0.002937317,0.12756729,-0.5347627,-0.08090973,0.7879753,1.5474147,0.024375916,-0.48401642,0.10860443,-0.010795593,-0.10192871,-1.475321,0.06389618,-0.25818253,1.5429974,-0.0036239624,-0.39002228,0.09387313,-0.0075912476,0.52918243,-1.4709723,0.07297516,-0.40711212,1.5432616,0.013694763,-0.3607216,0.0,0.0,0.0,0.0,0.0,0.0,0.0,0.0,0.0,0.0,0.0,0.0,-1.0,-1.0,1.0,-1.0,1.0,-1.0,1.0,-1.0,-1.0,1.0,-1.0,-1.0
2025-06-04 11:16:09.824,-50.020706,30.867119,-11.781716,0.012452924,-0.09598536,-0.10516591,-4.883922,-6.464848,5.455817,-0.022385702,0.011405945,-4.022888,-1.7324251,-0.03414154,11.761044,1.9856548,-0.010108948,3.5382614,-0.1089859,0.02986908,0.1727333,-0.5346101,-0.05924225,0.6952019,1.5464228,-0.039100647,-0.34729385,0.108680725,-0.0062179565,-0.111694336,-1.4754736,0.041923523,-0.24231339,1.5432262,-0.023231506,-0.39124298,0.09372054,-0.00957489,0.53894806,-1.4708197,0.06565094,-0.38391876,1.5432616,0.02696991,-0.34851456,0.0,0.0,0.0,0.0,0.0,0.0,0.0,0.0,0.0,0.0,0.0,0.0,-1.0,-1.0,1.0,-1.0,1.0,-1.0,1.0,-1.0,-1.0,1.0,-1.0,-1.0
2025-06-04 11:16:09.878,-49.99131,30.272938,-11.785806,0.010296099,-0.088830255,-0.09072335,-4.77371,-6.573895,5.594437,-0.019028768,0.046958923,-4.1693764,-1.7368501,-0.038414,11.7366295,1.9855785,0.024223328,3.5065231,-0.10936737,-0.029792786,0.22034073,-0.53377086,-0.002708435,0.56946564,1.5440577,-0.068244934,-0.19348526,0.10852814,-0.04245758,-0.076293945,-1.4753973,0.091667175,-0.27771378,1.54315,0.028419495,-0.38636017,0.09326278,-0.06175995,0.61463165,-1.4709723,0.016746521,-0.37292862,1.5431854,0.00049591064,-0.34973526,0.0,0.0,0.0,0.0,0.0,0.0,0.0,0.0,0.0,0.0,0.0,0.0,-1.0,-1.0,1.0,-1.0,1.0,-1.0,1.0,-1.0,-1.0,1.0,-1.0,-1.0
2025-06-04 11:16:09.933,-49.978886,29.772934,-11.784213,0.013929176,-0.06047831,-0.06642622,-4.623016,-6.515453,5.547214,-0.016129598,0.11936188,-4.2023354,-1.740436,-0.0038528442,12.033264,1.9858074,-0.017662048,3.5553513,-0.109825134,0.015220642,0.19592667,-0.53285533,0.04146576,0.5242996,1.5421504,-0.0358963,-0.14587784,0.10845184,0.022621155,-0.13855362,-1.4754736,-0.04802704,-0.2508583,1.5430737,-0.025978088,-0.3936844,0.09311019,-0.037727356,0.5902176,-1.4709723,0.056037903,-0.40833282,1.5431854,0.05039215,-0.37414932,0.0,0.0,0.0,0.0,0.0,0.0,0.0,0.0,0.0,0.0,0.0,0.0,-1.0,-1.0,1.0,-1.0,1.0,-1.0,1.0,-1.0,-1.0,1.0,-1.0,-1.0
2025-06-04 11:16:09.986,-49.983948,29.427555,-11.774716,0.0004915894,-0.050603606,-0.039328724,-4.687812,-6.646438,5.548894,-0.014145955,0.056648254,-4.138859,-1.7428011,-0.02658844,11.868465,1.9857311,0.029945374,3.5541306,-0.11013031,0.04901886,0.21301651,-0.5318635,0.015983582,0.53162384,1.541006,0.0033187866,-0.16052628,0.10837555,0.060768127,-0.13489151,-1.4755499,-0.032844543,-0.27405167,1.5429974,0.013771057,-0.37414932,0.0929576,-0.021400452,0.6256218,-1.470896,0.057258606,-0.41565704,1.543338,0.016288757,-0.37170792,0.0,0.0,0.0,0.0,0.0,0.0,0.0,0.0,0.0,0.0,0.0,0.0,-1.0,-1.0,1.0,-1.0,1.0,-1.0,1.0,-1.0,-1.0,1.0,-1.0,-1.0
2025-06-04 11:16:10.039,-50.00353,29.161411,-11.738645,-0.0046232725,-0.034921736,-0.015984459,-4.664877,-6.63046,5.529946,-0.013230428,0.022087097,-4.2023354,-1.7445558,-0.06549835,11.994202,1.9858074,-0.009117126,3.5126266,-0.11035919,0.05115509,0.2105751,-0.5319398,-0.0472641,0.6268425,1.5405482,-0.022239685,-0.20569229,0.10852814,0.071754456,-0.1336708,-1.475321,0.06641388,-0.25818253,1.5429211,-0.018959045,-0.39002228,0.0929576,0.04711151,0.5255203,-1.470896,0.09990692,-0.3936844,1.5432616,0.032310486,-0.3656044,0.0,0.0,0.0,0.0,0.0,0.0,0.0,0.0,0.0,0.0,0.0,0.0,-1.0,-1.0,1.0,-1.0,1.0,-1.0,1.0,-1.0,-1.0,1.0,-1.0,-1.0
2025-06-04 11:16:10.090,-50.007385,29.025,-11.71243,-0.00151526,-0.007800121,-0.0026995356,-4.633237,-6.562368,5.530581,-0.012772664,-0.025749207,-4.2011147,-1.7451662,-0.009727478,11.880676,1.9855022,-0.0030136108,3.515068,-0.11013031,0.019187927,0.2093544,-0.5320161,-0.019569397,0.6622429,1.5403193,-0.020332336,-0.18860245,0.108680725,0.07457733,-0.15808487,-1.4753973,0.04650116,-0.27405167,1.5429974,0.02407074,-0.38880157,0.0929576,0.042915344,0.60974884,-1.4710486,-0.014915466,-0.42664337,1.543338,-0.0032424927,-0.34485245,0.0,0.0,0.0,0.0,0.0,0.0,0.0,0.0,0.0,0.0,0.0,0.0,-1.0,-1.0,1.0,-1.0,1.0,-1.0,1.0,-1.0,-1.0,1.0,-1.0,-1.0
2025-06-04 11:16:10.141,-50.00345,28.975471,-11.696799,0.0008723505,-0.0010641621,0.009368823,-4.66987,-6.552496,5.580429,-0.012620077,-0.0799942,-4.2267494,-1.7450899,0.041923523,11.848934,1.9855785,-0.05329132,3.44915,-0.110054016,-0.005836487,0.16540909,-0.5321687,0.12294769,0.5853348,1.540243,-0.04863739,-0.13611221,0.108680725,-0.05153656,-0.11779785,-1.475321,0.020103455,-0.2532997,1.5429974,-0.005531311,-0.39246368,0.0929576,-0.05832672,0.5914383,-1.4710486,-0.0075149536,-0.39246368,1.5434142,0.042915344,-0.3656044,0.0,0.0,0.0,0.0,0.0,0.0,0.0,0.0,0.0,0.0,0.0,0.0,-1.0,-1.0,1.0,-1.0,1.0,-1.0,1.0,-1.0,-1.0,1.0,-1.0,-1.0
2025-06-04 11:16:10.192,-50.005848,28.977297,-11.683639,-0.0039428556,0.008088205,0.012307503,-4.723263,-6.568016,5.549137,-0.012848958,0.065956116,-4.17548,-1.7449373,0.015220642,11.835506,1.9858074,0.05962372,3.5455856,-0.1102829,-0.07686615,0.17517471,-0.5329316,-0.027656555,0.68787766,1.5403193,-0.024528503,-0.19836807,0.108299255,-0.076408386,-0.09460449,-1.4753973,0.037956238,-0.23743057,1.5430737,0.011329651,-0.39002228,0.09288131,-0.020637512,0.6292839,-1.4710486,-0.04261017,-0.38880157,1.5431854,-0.009727478,-0.3643837,0.0,0.0,0.0,0.0,0.0,0.0,0.0,0.0,0.0,0.0,0.0,0.0,-1.0,-1.0,1.0,-1.0,1.0,-1.0,1.0,-1.0,-1.0,1.0,-1.0,-1.0
2025-06-04 11:16:10.244,-50.005726,29.00357,-11.669865,-0.0035463693,-0.0014460228,0.008107577,-4.706783,-6.517147,5.543553,-0.013001546,0.025520325,-4.1937904,-1.7450136,-0.023231506,11.847713,1.9857311,-0.048942566,3.5162888,-0.109825134,0.12607574,0.16540909,-0.5329316,-0.05443573,0.6268425,1.540243,-0.025291443,-0.19592667,0.10883331,0.030174255,-0.10070801,-1.4757788,0.038414,-0.27283096,1.5428448,-0.03604889,-0.38636017,0.09280501,0.0132369995,0.5658035,-1.4711249,0.010108948,-0.3680458,1.543109,0.025901794,-0.37170792,0.0,0.0,0.0,0.0,0.0,0.0,0.0,0.0,0.0,0.0,0.0,0.0,-1.0,-1.0,1.0,-1.0,1.0,-1.0,1.0,-1.0,-1.0,1.0,-1.0,-1.0
2025-06-04 11:16:10.295,-49.986225,29.026012,-11.645996,0.00044315655,-0.0022606377,0.003076038,-4.737361,-6.483131,5.558447,-0.012925252,0.07709503,-4.215763,-1.7450136,0.008201599,11.883118,1.9857311,0.038261414,3.5541306,-0.109825134,-0.07785797,0.18860245,-0.5329316,-0.049705505,0.6768913,1.5401667,-0.023384094,-0.17639542,0.10883331,0.02155304,-0.13855362,-1.4753973,-0.021705627,-0.27038956,1.5429211,-0.0104904175,-0.37781525,0.09311019,-0.027427673,0.56824493,-1.4709723,0.088386536,-0.41077423,1.543109,-0.011100769,-0.35339737,0.0,0.0,0.0,0.0,0.0,0.0,0.0,0.0,0.0,0.0,0.0,0.0,-1.0,-1.0,1.0,-1.0,1.0,-1.0,1.0,-1.0,-1.0,1.0,-1.0,-1.0
2025-06-04 11:16:10.347,-49.97016,29.017685,-11.641521,0.0032843954,9.218829e-05,-0.008055742,-4.743069,-6.540568,5.597428,-0.012848958,-0.018959045,-4.151066,-1.7450899,-0.017356873,11.911194,1.9856548,-0.036735535,3.5284958,-0.10959625,0.09075165,0.15442276,-0.5331605,0.0075912476,0.6231766,1.540243,0.015449524,-0.2105751,0.108680725,0.021018982,-0.10559082,-1.4754736,-0.06526947,-0.27161026,1.5428448,-0.013084412,-0.38880157,0.093033895,0.05657196,0.547493,-1.4709723,0.02254486,-0.37170792,1.5431854,-0.008201599,-0.35705948,0.0,0.0,0.0,0.0,0.0,0.0,0.0,0.0,0.0,0.0,0.0,0.0,-1.0,-1.0,1.0,-1.0,1.0,-1.0,1.0,-1.0,-1.0,1.0,-1.0,-1.0
2025-06-04 11:16:10.398,-49.972225,28.982891,-11.662638,0.003687078,0.005418741,-0.011147662,-4.690966,-6.551482,5.56212,-0.012772664,-0.00705719,-4.126652,-1.7450136,0.01537323,11.855038,1.9855785,-0.019493103,3.527275,-0.109825134,0.013999939,0.1727333,-0.5329316,0.0712204,0.6231766,1.540243,0.005760193,-0.15564346,0.10852814,-0.036888123,-0.10925293,-1.4756262,-0.010795593,-0.2838173,1.5429211,0.036201477,-0.38269806,0.09326278,0.0048446655,0.57556915,-1.4712012,0.023155212,-0.38025665,1.5430328,-0.006828308,-0.35705948,0.0,0.0,0.0,0.0,0.0,0.0,0.0,0.0,0.0,0.0,0.0,0.0,-1.0,-1.0,1.0,-1.0,1.0,-1.0,1.0,-1.0,-1.0,1.0,-1.0,-1.0
2025-06-04 11:16:10.449,-49.979794,28.94964,-11.683415,-0.0012437565,-0.001969674,-0.006287496,-4.727212,-6.533051,5.567929,-0.012543783,0.016441345,-4.1608315,-1.7450136,-0.009346008,11.82452,1.9855785,-0.0049972534,3.5053024,-0.10974884,0.0434494,0.20325089,-0.53255016,-0.009498596,0.6268425,1.5403193,0.0030899048,-0.19592667,0.10845184,0.008659363,-0.11291504,-1.4752448,0.005455017,-0.29602432,1.5429211,0.007972717,-0.3997879,0.09311019,0.05130768,0.57068634,-1.470896,-0.013084412,-0.40345,1.5432616,-0.011940002,-0.35828018,0.0,0.0,0.0,0.0,0.0,0.0,0.0,0.0,0.0,0.0,0.0,0.0,-1.0,-1.0,1.0,-1.0,1.0,-1.0,1.0,-1.0,-1.0,1.0,-1.0,-1.0
2025-06-04 11:16:10.500,-49.981815,28.921946,-11.68783,0.0020302716,-0.0017406169,-0.0017775829,-4.7028,-6.558882,5.545387,-0.0126963705,0.028419495,-4.1608315,-1.7450899,0.006752014,11.797665,1.9856548,0.0059890747,3.5126266,-0.10990143,0.010719299,0.1678505,-0.532245,0.0017929077,0.56702423,1.5401667,-0.02658844,-0.18005753,0.10860443,0.09250641,-0.16418839,-1.475321,-0.030632019,-0.27527237,1.5427685,-0.0022506714,-0.37414932,0.0929576,-0.03551483,0.5999832,-1.470896,-0.013847351,-0.41321564,1.543338,0.029640198,-0.35828018,0.0,0.0,0.0,0.0,0.0,0.0,0.0,0.0,0.0,0.0,0.0,0.0,-1.0,-1.0,1.0,-1.0,1.0,-1.0,1.0,-1.0,-1.0,1.0,-1.0,-1.0
2025-06-04 11:16:10.552,-49.98021,28.905415,-11.684243,0.0005016425,0.0012197756,0.0021311343,-4.709903,-6.558791,5.551103,-0.012543783,-0.017356873,-4.1351967,-1.7451662,0.0074386597,11.866024,1.9856548,0.03376007,3.5126266,-0.10974884,0.10509491,0.19836807,-0.53262645,0.02292633,0.5963211,1.5401667,-0.0009536743,-0.18616104,0.10860443,0.005531311,-0.13977432,-1.4755499,-0.034065247,-0.2862587,1.5427685,-0.008201599,-0.3985672,0.09326278,0.05191803,0.5194168,-1.4710486,0.09677887,-0.4022293,1.5431854,0.004005432,-0.35828018,0.0,0.0,0.0,0.0,0.0,0.0,0.0,0.0,0.0,0.0,0.0,0.0,-1.0,-1.0,1.0,-1.0,1.0,-1.0,1.0,-1.0,-1.0,1.0,-1.0,-1.0
2025-06-04 11:16:10.602,-49.981213,28.90613,-11.677896,-0.0059707714,-0.0017615783,0.0046737124,-4.729205,-6.5559,5.546061,-0.0126963705,-0.0021743774,-4.219425,-1.7450136,0.014839172,11.798885,1.9857311,0.026817322,3.572441,-0.10990143,0.037498474,0.1336708,-0.53247386,0.051460266,0.68055344,1.540243,-0.024528503,-0.17883682,0.10837555,-0.041160583,-0.12512589,-1.4756262,-0.016975403,-0.2471962,1.5428448,-0.02620697,-0.40345,0.09288131,-0.01789093,0.57190704,-1.4710486,0.010719299,-0.37170792,1.543338,0.01865387,-0.38147736,0.0,0.0,0.0,0.0,0.0,0.0,0.0,0.0,0.0,0.0,0.0,0.0,-1.0,-1.0,1.0,-1.0,1.0,-1.0,1.0,-1.0,-1.0,1.0,-1.0,-1.0
2025-06-04 11:16:10.654,-49.97741,28.912868,-11.672194,-0.003702367,0.0033183945,0.000387306,-4.725868,-6.542838,5.549179,-0.012848958,0.073280334,-4.248722,-1.7449373,0.020256042,11.877014,1.9855785,0.010719299,3.5199509,-0.10990143,-0.047416687,0.21545792,-0.53262645,-0.0031661987,0.6598015,1.5401667,-0.021400452,-0.1715126,0.10875702,0.047187805,-0.12145996,-1.4755499,0.016212463,-0.27527237,1.5429974,0.02544403,-0.37903595,0.09288131,-0.019264221,0.5658035,-1.4709723,-0.0104904175,-0.38269806,1.5431854,0.02368927,-0.34973526,0.0,0.0,0.0,0.0,0.0,0.0,0.0,0.0,0.0,0.0,0.0,0.0,-1.0,-1.0,1.0,-1.0,1.0,-1.0,1.0,-1.0,-1.0,1.0,-1.0,-1.0
2025-06-04 11:16:10.705,-49.97668,28.907137,-11.66996,-0.0024728698,-0.00025303784,-0.0009855351,-4.7289,-6.566515,5.542257,-0.013001546,-0.039024353,-4.2059975,-1.7449373,0.0052261353,11.885559,1.9856548,0.021705627,3.5614548,-0.10951996,0.0787735,0.1727333,-0.532245,0.0157547,0.5865555,1.5400904,-0.02040863,-0.17761612,0.10845184,-0.09059906,-0.10192871,-1.4753973,0.023384094,-0.22400284,1.5428448,-0.012931824,-0.38391876,0.093033895,0.06443024,0.5951004,-1.4710486,-0.013923645,-0.37537384,1.5432616,-0.022163391,-0.363163,0.0,0.0,0.0,0.0,0.0,0.0,0.0,0.0,0.0,0.0,0.0,0.0,-1.0,-1.0,1.0,-1.0,1.0,-1.0,1.0,-1.0,-1.0,1.0,-1.0,-1.0
2025-06-04 11:16:10.756,-49.96932,28.900137,-11.668078,-0.0026187617,0.0018746232,-0.005790653,-4.719164,-6.545346,5.55938,-0.0126963705,-0.010261536,-4.184025,-1.7450136,0.010414124,11.833065,1.9856548,0.019340515,3.560234,-0.10997772,-0.107688904,0.18982315,-0.53285533,0.010108948,0.60730743,1.5401667,0.015830994,-0.18738174,0.10852814,0.024757385,-0.11047363,-1.4756262,0.01247406,-0.26794815,1.5427685,0.008354187,-0.3961258,0.09288131,0.0010299683,0.57556915,-1.4710486,0.057868958,-0.37781525,1.5431854,0.0074386597,-0.35217667,0.0,0.0,0.0,0.0,0.0,0.0,0.0,0.0,0.0,0.0,0.0,0.0,-1.0,-1.0,1.0,-1.0,1.0,-1.0,1.0,-1.0,-1.0,1.0,-1.0,-1.0
2025-06-04 11:16:10.808,-49.965286,28.886438,-11.671112,-0.001095002,0.0015851778,-0.0047334027,-4.722746,-6.559879,5.557435,-0.012620077,0.06435394,-4.208439,-1.7450136,0.020637512,11.851376,1.9858074,-0.009498596,3.5040817,-0.109825134,0.008049011,0.14953995,-0.5323213,-0.02483368,0.53162384,1.540243,-0.01750946,-0.17639542,0.10845184,0.06252289,-0.10559082,-1.475321,-0.008583069,-0.30456924,1.5427685,0.014839172,-0.38513947,0.09288131,-0.04070282,0.5255203,-1.4709723,-0.026817322,-0.40467072,1.5431854,-0.028648376,-0.3619423,0.0,0.0,0.0,0.0,0.0,0.0,0.0,0.0,0.0,0.0,0.0,0.0,-1.0,-1.0,1.0,-1.0,1.0,-1.0,1.0,-1.0,-1.0,1.0,-1.0,-1.0
2025-06-04 11:16:10.860,-49.963577,28.872612,-11.676242,0.0008264832,0.0028052328,-0.0050335643,-4.700536,-6.544497,5.562512,-0.0126963705,-0.060920715,-4.1803627,-1.7450899,-0.051078796,11.864803,1.9856548,-0.008277893,3.5089645,-0.10990143,0.014381409,0.15320206,-0.53239757,0.043525696,0.64515305,1.5401667,-0.0182724,-0.18371964,0.10860443,0.10059357,-0.09338379,-1.4755499,0.0064468384,-0.285038,1.5428448,-0.010185242,-0.38147736,0.09288131,0.07190704,0.6280632,-1.4710486,0.0062179565,-0.3961258,1.5432616,-0.010948181,-0.35339737,0.0,0.0,0.0,0.0,0.0,0.0,0.0,0.0,0.0,0.0,0.0,0.0,-1.0,-1.0,1.0,-1.0,1.0,-1.0,1.0,-1.0,-1.0,1.0,-1.0,-1.0
2025-06-04 11:16:10.910,-49.96049,28.86211,-11.675426,0.0010870957,0.00047349036,-0.0019228641,-4.714442,-6.566416,5.569006,-0.012772664,0.042381287,-4.1815834,-1.7450136,-0.023078918,11.894104,1.9856548,0.019187927,3.532158,-0.10990143,-0.007896423,0.2105751,-0.5323213,-0.005455017,0.63904953,1.5400904,0.021476746,-0.1690712,0.10852814,-0.068244934,-0.12390137,-1.4753973,-0.0283432,-0.26550674,1.5428448,0.0075912476,-0.37781525,0.09288131,-0.016441345,0.61585236,-1.4711249,0.027656555,-0.40711212,1.5432616,0.03452301,-0.3668251,0.0,0.0,0.0,0.0,0.0,0.0,0.0,0.0,0.0,0.0,0.0,0.0,-1.0,-1.0,1.0,-1.0,1.0,-1.0,1.0,-1.0,-1.0,1.0,-1.0,-1.0
2025-06-04 11:16:10.961,-49.961758,28.856833,-11.671242,-0.0003053279,0.0026810002,0.0037888654,-4.672629,-6.56583,5.547847,-0.0126963705,0.030708313,-4.1327553,-1.7450136,-0.0018692017,11.873348,1.9857311,-0.067481995,3.5248337,-0.10997772,0.0063705444,0.14953995,-0.53239757,0.037574768,0.6280632,1.5400904,-0.019950867,-0.18249893,0.10883331,0.05214691,-0.122680664,-1.475321,0.01033783,-0.2887001,1.5426922,0.0077438354,-0.38147736,0.092652425,-0.06099701,0.62073517,-1.4712012,-0.013389587,-0.38269806,1.5431854,-0.027961731,-0.34851456,0.0,0.0,0.0,0.0,0.0,0.0,0.0,0.0,0.0,0.0,0.0,0.0,-1.0,-1.0,1.0,-1.0,1.0,-1.0,1.0,-1.0,-1.0,1.0,-1.0,-1.0
2025-06-04 11:16:11.013,-49.95815,28.86513,-11.666004,-0.0011685328,0.001136122,0.0015206705,-4.728908,-6.557666,5.53221,-0.01307784,-0.06122589,-4.2548256,-1.7450136,-0.019187927,11.872128,1.9858074,0.040168762,3.5223923,-0.10967255,-0.022163391,0.14465714,-0.53247386,0.017356873,0.5584793,1.5401667,0.031852722,-0.1715126,0.10860443,-0.015220642,-0.11413574,-1.4754736,-0.017051697,-0.30334854,1.5427685,0.009498596,-0.3985672,0.09288131,-0.059394836,0.57556915,-1.4711249,0.0409317,-0.3680458,1.5432616,0.021781921,-0.35950089,0.0,0.0,0.0,0.0,0.0,0.0,0.0,0.0,0.0,0.0,0.0,0.0,-1.0,-1.0,1.0,-1.0,1.0,-1.0,1.0,-1.0,-1.0,1.0,-1.0,-1.0
2025-06-04 11:16:11.065,-49.95198,28.870275,-11.662885,-0.0014581877,0.0019444014,-0.0032841512,-4.73452,-6.552883,5.549782,-0.012772664,-0.027503967,-4.195011,-1.7449373,0.043144226,11.866024,1.9855785,-0.008430481,3.5297165,-0.109825134,0.048484802,0.1715126,-0.53247386,-0.097846985,0.6243973,1.5401667,-0.009346008,-0.20447159,0.10860443,-0.06649017,-0.11779785,-1.4755499,-0.013160706,-0.21423721,1.5427685,0.011940002,-0.38758087,0.093033895,0.051078796,0.5828934,-1.4709723,0.061302185,-0.41321564,1.5432616,0.035591125,-0.3619423,0.0,0.0,0.0,0.0,0.0,0.0,0.0,0.0,0.0,0.0,0.0,0.0,-1.0,-1.0,1.0,-1.0,1.0,-1.0,1.0,-1.0,-1.0,1.0,-1.0,-1.0
2025-06-04 11:16:11.117,-49.95066,28.861427,-11.666347,-0.0030303278,-0.0004984835,-0.0022121174,-4.703992,-6.539033,5.559901,-0.012543783,0.07564545,-4.241398,-1.7450136,0.025215149,11.925842,1.9855022,0.018424988,3.5638962,-0.10974884,0.012397766,0.15808487,-0.532245,-0.00064849854,0.7415886,1.5400904,0.007820129,-0.18249893,0.10852814,-0.056114197,-0.12145996,-1.475321,-0.014762878,-0.30456924,1.5426922,-0.012931824,-0.363163,0.092652425,-0.05092621,0.6243973,-1.4712012,-0.058631897,-0.38758087,1.5432616,0.014533997,-0.3680458,0.0,0.0,0.0,0.0,0.0,0.0,0.0,0.0,0.0,0.0,0.0,0.0,-1.0,-1.0,1.0,-1.0,1.0,-1.0,1.0,-1.0,-1.0,1.0,-1.0,-1.0
2025-06-04 11:16:11.168,-49.947033,28.853258,-11.668162,0.00136764,-0.0014406994,0.0006606246,-4.702487,-6.553776,5.552457,-0.012848958,0.019721985,-4.171818,-1.7450899,0.0012588501,11.856258,1.9857311,0.024909973,3.4686813,-0.109825134,-0.013542175,0.17883682,-0.53255016,-0.08647919,0.61951447,1.5400904,-0.02773285,-0.18371964,0.10875702,-0.019874573,-0.10559082,-1.4755499,-0.066719055,-0.27893448,1.5426922,-0.020179749,-0.37414932,0.092652425,0.019950867,0.65247726,-1.4711249,-0.046577454,-0.3997879,1.5431854,0.016593933,-0.35461807,0.0,0.0,0.0,0.0,0.0,0.0,0.0,0.0,0.0,0.0,0.0,0.0,-1.0,-1.0,1.0,-1.0,1.0,-1.0,1.0,-1.0,-1.0,1.0,-1.0,-1.0
2025-06-04 11:16:11.220,-49.943005,28.840397,-11.664418,0.00017228145,-0.0015420682,-0.002342354,-4.703397,-6.545374,5.536645,-0.012848958,0.01285553,-4.2389565,-1.7449373,0.029792786,11.906311,1.9858074,0.002708435,3.5504684,-0.110054016,-0.06046295,0.2105751,-0.5321687,-0.028114319,0.54138947,1.5401667,0.05001068,-0.18371964,0.10875702,-0.013999939,-0.1324501,-1.4756262,0.0010299683,-0.252079,1.5427685,-0.0010299683,-0.38391876,0.09272872,-0.07350922,0.5963211,-1.4710486,-0.027503967,-0.35339737,1.5432616,-0.002861023,-0.35095596,0.0,0.0,0.0,0.0,0.0,0.0,0.0,0.0,0.0,0.0,0.0,0.0,-1.0,-1.0,1.0,-1.0,1.0,-1.0,1.0,-1.0,-1.0,1.0,-1.0,-1.0
