openverse-orca/OrcaGym/envs/legged_gym/legged_real_env/logs/robot_log_20250604_171856.csv
timestamp,imu_angle_roll,imu_angle_pitch,imu_angle_yaw,imu_angular_velocity_roll,imu_angular_velocity_pitch,imu_angular_velocity_yaw,imu_acc_x,imu_acc_y,imu_acc_z,fl_joint1_pos,fl_joint1_vel,fl_joint1_torque,fl_joint2_pos,fl_joint2_vel,fl_joint2_torque,fl_joint3_pos,fl_joint3_vel,fl_joint3_torque,fr_joint1_pos,fr_joint1_vel,fr_joint1_torque,fr_joint2_pos,fr_joint2_vel,fr_joint2_torque,fr_joint3_pos,fr_joint3_vel,fr_joint3_torque,hl_joint1_pos,hl_joint1_vel,hl_joint1_torque,hl_joint2_pos,hl_joint2_vel,hl_joint2_torque,hl_joint3_pos,hl_joint3_vel,hl_joint3_torque,hr_joint1_pos,hr_joint1_vel,hr_joint1_torque,hr_joint2_pos,hr_joint2_vel,hr_joint2_torque,hr_joint3_pos,hr_joint3_vel,hr_joint3_torque,fl_force_x,fl_force_y,fl_force_z,fr_force_x,fr_force_y,fr_force_z,hl_force_x,hl_force_y,hl_force_z,hr_force_x,hr_force_y,hr_force_z,fl_hip_action,fl_thigh_action,fl_calf_action,fr_hip_action,fr_thigh_action,fr_calf_action,hl_hip_action,hl_thigh_action,hl_calf_action,hr_hip_action,hr_thigh_action,hr_calf_action
2025-06-04 17:19:16.873,-0.497286,-0.903548,176.53882,0.00043120104,0.00046596798,-0.002727967,0.15184,-0.097952,9.801521,-0.010643005,0.017356873,0.45227814,-0.98914593,0.00034332275,-0.27893448,1.9031048,-0.015678406,-4.7760735,0.0065231323,0.009422302,-0.3265419,-0.98250836,-0.029411316,-0.5072098,1.9046992,0.016365051,-4.798046,-0.010643005,0.015678406,0.5096512,-0.9732005,-0.01499176,-0.99305725,1.9305904,0.006904602,-5.9980164,0.016212463,-0.072135925,-0.7025261,-0.9802129,0.00415802,-0.5987625,1.9303869,0.0063705444,-5.941864,0.0,0.0,0.0,0.0,0.0,0.0,0.0,0.0,0.0,0.0,0.0,0.0,-0.46102852,0.7183634,0.06935296,0.73662376,0.4144759,-0.73105705,-0.89406693,-0.45003903,-0.61862135,-0.07127557,0.33304054,-0.90039134
2025-06-04 17:19:16.926,-0.982221,-0.625931,176.51192,-0.7260973,0.2939949,-0.10915587,-1.961502,2.170376,15.873505,-0.030021667,-0.024223328,-0.029907227,-0.939326,0.70438385,9.392845,1.8940258,-0.6908798,-0.8502312,0.013008118,-0.042152405,3.391777,-0.93726605,0.9843826,1.7254906,1.8593806,-1.0633469,-6.3996353,-0.030174255,-0.31230927,-1.7901878,-0.98899335,-0.38455963,-8.937515,1.9084651,-0.9132767,-8.358892,0.010719299,-0.15361786,0.07385254,-0.9323003,0.8508682,-0.022583008,1.8757604,-1.2414169,-8.426033,0.0,0.0,0.0,0.0,0.0,0.0,0.0,0.0,0.0,0.0,0.0,0.0,-0.78954494,0.71818376,-0.7986804,0.6022762,0.05740043,-0.44529608,-0.96611786,-0.8792612,0.4549525,-0.8363066,-0.38674664,-0.6793765
2025-06-04 17:19:16.979,-1.621866,-0.999331,176.80872,-0.12181778,-0.8075583,0.4865853,-1.327786,-0.961868,8.068103,-0.03566742,0.2109909,-2.363926,-0.9002635,0.74100494,8.697033,1.8173504,-0.9684372,-5.9552917,0.016593933,0.42064667,1.3946762,-0.93627423,-0.30506134,-0.54138947,1.8021601,-1.185646,-0.21912003,-0.05695343,-0.40966034,0.10559082,-1.1429583,-3.0480614,1.0016022,1.9062526,0.1568985,0.42664337,-0.008049011,-0.24898529,-2.2272072,-0.961292,-0.55179596,-6.826885,1.85539,-0.048179626,-10.470741,0.0,0.0,0.0,0.0,0.0,0.0,0.0,0.0,0.0,0.0,0.0,0.0,-0.8873556,0.8158979,-0.9759227,0.7112068,0.46252978,-0.42904657,-0.95299,-0.9649708,-0.48260304,-0.951491,-0.52462405,-0.91123044
2025-06-04 17:19:17.033,-3.211576,-3.286126,178.72623,-0.34228593,-1.0727661,0.6220162,2.123272,-2.927838,13.450597,-0.03391266,0.046577454,-2.9913788,-0.86783856,0.43384552,9.207294,1.7534161,-1.7266464,-2.4786758,0.031471252,0.16132355,1.9317932,-0.8822581,1.3009262,-1.1712837,1.7568415,-0.6631851,-0.49378204,-0.088768005,-0.64006805,1.9513245,-1.2199389,-0.29109955,-9.148699,1.8871791,0.08823395,-10.303501,-0.03742218,-0.46855927,-1.0553131,-1.0080602,-0.780983,-7.3139534,1.8555425,0.08029938,-13.509117,0.0,0.0,0.0,0.0,0.0,0.0,0.0,0.0,0.0,0.0,0.0,0.0,-0.91352224,0.83961296,-0.9570606,0.68502116,0.21449743,-0.5672013,-0.88629556,-0.9779029,-0.52136904,-0.9614717,-0.6368727,-0.8624276
2025-06-04 17:19:17.087,-4.214003,-6.605886,179.67201,-0.14812095,-0.82963574,0.010087602,1.769198,-1.348591,7.784208,-0.036354065,-0.06855011,-2.4066544,-0.84639996,0.2817917,10.131382,1.6657543,-1.403389,0.46204376,0.03955841,0.19367218,1.1285591,-0.87668866,-0.11425018,0.061645508,1.7179316,-0.77754974,-0.076293945,-0.10807037,-0.22502899,1.6803246,-1.2541949,-0.7336807,-6.991684,1.8839748,-0.094566345,-9.597925,-0.058631897,-0.13568878,-1.0040436,-1.0552099,-0.7493973,-7.786373,1.8554662,0.039100647,-12.657055,0.0,0.0,0.0,0.0,0.0,0.0,0.0,0.0,0.0,0.0,0.0,0.0,-0.8857592,0.8550697,-0.93482006,0.60116667,0.29379424,-0.7607483,-0.8477293,-0.9761889,-0.66689306,-0.95962083,-0.6918931,-0.8512665
2025-06-04 17:19:17.140,-4.527713,-8.561075,179.93695,0.026393654,-0.3900285,0.081005864,3.185245,-0.58526,6.433905,-0.0409317,0.1607132,-2.1319923,-0.8283183,0.63259125,8.667736,1.6064739,-0.9207535,1.1383247,0.043525696,0.10669708,0.7489128,-0.87058514,0.121421814,-0.022583008,1.6773432,-0.6244278,-0.6219559,-0.11676788,-0.23090363,1.7865257,-1.280974,-0.46352386,-6.6095963,1.8747432,-0.25707245,-10.539101,-0.06702423,-0.24875641,-0.67811203,-1.093128,-0.53417206,-7.733883,1.8549322,-0.03955841,-12.547188,0.0,0.0,0.0,0.0,0.0,0.0,0.0,0.0,0.0,0.0,0.0,0.0,-0.8726669,0.82732093,-0.9019073,0.46219364,0.21303011,-0.82415015,-0.72876614,-0.971292,-0.6710768,-0.93912345,-0.7356521,-0.7930441
2025-06-04 17:19:17.193,-4.32381,-9.104676,-179.69043,0.1862169,0.045941602,0.0990954,2.385846,-1.284761,8.652081,-0.041389465,0.03879547,-2.6190567,-0.8349559,-0.40447235,11.640194,1.5847301,-0.2891159,-0.09338379,0.039253235,-0.11791229,1.314106,-0.87699383,-0.044822693,0.051879883,1.6429347,-0.4603958,-0.61951447,-0.11684418,0.004081726,1.6656761,-1.2940203,-0.09975433,-7.340809,1.8597896,-0.48160553,-8.813002,-0.068626404,0.028572083,-0.46082306,-1.1257055,-0.5174637,-7.9450684,1.8551611,0.0076675415,-11.794003,0.0,0.0,0.0,0.0,0.0,0.0,0.0,0.0,0.0,0.0,0.0,0.0,-0.5834671,0.31863537,-0.89955467,0.339239,0.6249864,-0.5910766,-0.20498389,-0.9499646,-0.8094907,-0.92713034,-0.8665729,-0.9291704
2025-06-04 17:19:17.246,-3.869618,-9.015882,-179.63013,0.24190438,-0.015703756,-0.10434884,4.723931,-0.995167,9.444807,-0.03376007,0.16269684,-1.7572289,-0.8799693,-0.70957184,5.0299835,1.583662,0.028572083,-1.0443268,0.030937195,-0.2915573,0.91249084,-0.8171794,1.4320755,-0.95399475,1.6379756,0.01903534,0.079956055,-0.107536316,0.26371002,2.84367,-1.3109576,-0.4932022,-3.937439,1.8346126,-0.5811691,-8.828871,-0.06404877,-0.06702423,-1.4105453,-1.1635473,-0.7538223,-7.8498497,1.85539,-0.008277893,-13.492027,0.0,0.0,0.0,0.0,0.0,0.0,0.0,0.0,0.0,0.0,0.0,0.0,-0.7107841,0.16885205,-0.90087247,0.5977061,0.72476304,-0.49889427,-0.009293229,-0.8987834,-0.51164913,-0.9352032,-0.81834424,-0.8783616
2025-06-04 17:19:17.296,-3.032411,-8.618193,179.89977,0.16929337,0.29131523,-0.16882414,2.543282,-0.920173,8.174327,-0.035438538,-0.14530182,-1.4764633,-0.9342906,-1.0877609,5.5268173,1.5941906,0.31002045,-2.9681854,0.034217834,0.047569275,0.9820709,-0.7513377,1.3075638,-0.64149094,1.6449946,0.15621185,0.18982315,-0.08968353,0.13195038,3.2111092,-1.3394915,-0.9016037,-1.1859322,1.8082912,-0.59329987,-3.872738,-0.057029724,0.1808548,-2.3749123,-1.2027624,-0.9302139,-5.0763702,1.8534063,-0.069618225,-12.625317,0.0,0.0,0.0,0.0,0.0,0.0,0.0,0.0,0.0,0.0,0.0,0.0,-0.9052811,0.79030627,-0.8815549,0.517919,0.6671035,-0.82398295,-0.04941315,-0.8743796,-0.321054,-0.9687649,-0.703311,-0.5377213
2025-06-04 17:19:17.347,-2.249391,-7.450228,179.45871,0.48598504,0.6885233,-0.06968717,-1.679994,-1.891636,10.427229,-0.04283905,-0.14461517,-2.539711,-0.9503886,-0.3697586,16.286259,1.6070843,0.41210175,-3.3710213,0.03429413,-0.19008636,1.030899,-0.71914166,0.41347504,0.14099503,1.6281337,-0.45604706,-0.14099503,-0.06061554,0.7998276,-0.48767853,-1.3609301,-0.4745865,-0.84412766,1.7818935,-0.6621933,-0.4779129,-0.052986145,-0.056648254,-1.8890686,-1.224735,-0.26866913,-4.1437416,1.8508123,-0.09815216,-8.115967,0.0,0.0,0.0,0.0,0.0,0.0,0.0,0.0,0.0,0.0,0.0,0.0,-0.94149786,0.75965375,-0.8952871,0.48938,0.68200266,-0.8858668,0.049228318,-0.91506135,-0.69032645,-0.96991956,-0.77779514,-0.59136224
2025-06-04 17:19:17.398,-0.809906,-5.245958,-179.79498,0.5953543,0.5093145,0.47366738,-1.168494,-1.65877,9.867686,-0.040245056,-0.12012482,-2.8522148,-0.95366925,0.25989532,13.240559,1.6218853,0.218544,-3.9203491,0.032691956,-0.010261536,0.72205734,-0.6987712,0.28499603,-0.06530762,1.6082972,-0.010032654,-1.2591743,-0.028038025,0.59711456,-0.8111687,-1.385573,-0.5610275,-0.98695374,1.7229946,-1.0686111,-0.41809845,-0.06938934,-0.4239273,0.7452507,-1.2436559,-0.1594925,-4.5062943,1.8469976,0.026664734,-9.220722,0.0,0.0,0.0,0.0,0.0,0.0,0.0,0.0,0.0,0.0,0.0,0.0,-0.8710998,-0.16850066,-0.9348389,0.6873127,0.788634,-0.7397877,0.24050766,-0.8898364,-0.50617164,-0.9407781,-0.7769031,-0.8346499
2025-06-04 17:19:17.449,-0.054984,-4.057898,-178.43034,0.056893963,0.1217342,0.26707888,0.272704,1.712574,9.766741,-0.047798157,-0.21892548,-0.46448517,-0.98968,-0.8208084,-2.82658,1.628828,-0.08060455,-3.174488,0.029411316,-0.3534317,3.1390877,-0.7125804,-0.37334442,6.2555885,1.6284388,0.2412796,-2.2308693,-0.0037765503,0.22312164,-0.37537384,-1.4035021,-0.18726349,-0.29358292,1.6983516,-0.33435822,-0.09338379,-0.10883331,-0.75984955,3.5638962,-1.257694,-0.28888702,-4.0167847,1.8418859,0.008735657,-11.767147,0.0,0.0,0.0,0.0,0.0,0.0,0.0,0.0,0.0,0.0,0.0,0.0,-0.91247,-0.31211227,-0.9671386,0.93684757,0.88697195,-0.6649482,-0.03530002,-0.6630267,0.6236384,-0.9620968,-0.69806165,-0.66710335
2025-06-04 17:19:17.500,0.224471,-3.709895,-178.2781,0.086426035,0.26878446,-0.12286544,-0.354875,3.007895,9.14336,-0.06298065,-0.10555267,-0.42542267,-1.0169169,-0.3863144,-3.5504684,1.6273022,0.021400452,-3.8568687,0.019187927,0.016365051,3.7665367,-0.7237956,-0.22327423,7.4982834,1.6517848,0.33748627,-2.793621,0.005836487,0.270195,-0.32043839,-1.371535,0.6152725,-0.9308014,1.7849452,1.8088913,-0.206913,-0.12706757,-0.0008010864,1.2713814,-1.2638738,-0.07350922,-2.6312675,1.8436407,-0.023078918,-9.872585,0.0,0.0,0.0,0.0,0.0,0.0,0.0,0.0,0.0,0.0,0.0,0.0,-0.9300115,-0.2899092,-0.9893524,0.9862153,0.96690893,-0.80704653,-0.4449026,-0.26256755,0.9318949,-0.9888157,-0.71099937,-0.46219224
2025-06-04 17:19:17.551,0.163477,-3.435109,-179.24149,-0.20617929,-0.16598476,-0.3420823,-0.64504,2.090905,11.260854,-0.072135925,-0.007209778,-0.80506516,-1.0408732,-0.48664093,-1.7376976,1.6298962,0.050315857,-4.241398,0.01209259,-0.2286911,4.6698723,-0.72410077,-0.10997772,8.637217,1.6535395,-0.17856598,-2.1564064,-0.008354187,-0.11707306,-0.15198135,-1.2813555,1.9121933,-1.1212311,1.8817623,1.7114639,-0.049438477,-0.11714935,0.44063568,-1.2921333,-1.2708166,-0.2942276,-2.4432755,1.8480657,0.08106232,-8.206303,0.0,0.0,0.0,0.0,0.0,0.0,0.0,0.0,0.0,0.0,0.0,0.0,-0.89312613,-0.09773453,-0.96722054,0.97259265,0.97512966,-0.96391416,-0.6333482,-0.43438074,0.6535449,-0.98842824,-0.8257879,-0.5025274
2025-06-04 17:19:17.603,-0.76963,-4.322473,179.42361,-0.4797075,-0.49020767,-0.42326403,0.06649,1.362216,10.644938,-0.07839203,-0.002937317,-0.41931915,-1.0646769,-0.68042755,3.2782478,1.6385174,0.25806427,-5.1532784,0.0049972534,-0.12950897,4.5990677,-0.71670026,0.21800995,7.5349045,1.6267604,-0.7341385,-0.7904167,-0.020942688,-0.1758194,-0.9710846,-1.2364184,0.3900528,-0.5584793,1.9250209,0.62870026,0.31799698,-0.09075165,0.6605911,-2.777752,-1.2895086,-0.39577484,-3.6554527,1.8554662,0.12676239,-9.168232,0.0,0.0,0.0,0.0,0.0,0.0,0.0,0.0,0.0,0.0,0.0,0.0,-0.9385957,0.75431174,-0.8747247,0.77768576,0.9445669,-0.9849317,-0.81607664,-0.8807772,-0.80689734,-0.9895114,-0.8372367,-0.5872785
2025-06-04 17:19:17.653,-1.881769,-5.306475,178.76257,-0.05245388,-0.16125815,0.051429003,0.645749,-3.140428,14.17191,-0.073661804,0.5186081,-2.7801933,-1.0426279,0.29468536,16.211796,1.6393566,-0.20114899,-2.2577248,0.0073623657,-0.02445221,2.8741875,-0.6961009,0.7339859,4.5990677,1.5909785,-0.8044052,0.9271393,-0.028953552,-0.03276825,-2.6239395,-1.2522112,0.20526886,-8.435797,1.8725307,-0.11089325,-12.567942,-0.07015228,0.20915985,-1.5301743,-1.2927892,0.11241913,-5.728237,1.8537878,-0.3823471,-7.9853516,0.0,0.0,0.0,0.0,0.0,0.0,0.0,0.0,0.0,0.0,0.0,0.0,-0.8726622,0.6180831,-0.7774217,0.22809245,0.6444162,-0.95861584,-0.4299377,-0.9319406,-0.7330313,-0.9061005,-0.8297229,-0.60318804
2025-06-04 17:19:17.705,-2.7533,-6.284754,179.71532,-0.054871336,-0.5055754,0.48131272,2.321519,-3.145751,9.099414,-0.060691833,0.27126312,-2.3785782,-1.0206553,0.34877777,12.434883,1.6182995,-0.70575714,0.41443634,0.02292633,-0.009498596,0.08850098,-0.6553599,-0.35053253,-0.61951447,1.573202,-0.34519196,-0.40711212,-0.037727356,-0.09540558,0.54138947,-1.2495409,-0.028572083,-8.377203,1.8712337,-0.05420685,-11.794003,-0.076408386,-0.40973663,-0.051879883,-1.2987401,-0.2891922,-2.7521172,1.8392919,-0.09082794,-8.458992,0.0,0.0,0.0,0.0,0.0,0.0,0.0,0.0,0.0,0.0,0.0,0.0,-0.88916826,0.5262157,-0.50248504,-0.118935585,0.50037545,-0.95035493,0.26295653,-0.8751753,-0.7321904,-0.71590364,-0.8687385,-0.34214327
2025-06-04 17:19:17.755,-2.804021,-7.361668,-179.12012,0.17935191,-0.050394323,0.14579764,2.098173,-1.611589,6.478258,-0.053749084,0.08724213,-1.8988342,-1.0008951,0.30231476,11.458305,1.5934277,-0.20214081,1.0699615,0.01964569,0.0009536743,0.4412918,-0.6672618,0.026283264,-0.5841141,1.5654963,-0.079307556,-0.33630753,-0.045585632,-0.024299622,0.22278214,-1.2495409,-0.061073303,-8.926527,1.854449,-0.4278183,-9.525902,-0.08708954,0.12813568,0.026245117,-1.312702,-0.087013245,-3.4479294,1.837766,0.05580902,-9.033951,0.0,0.0,0.0,0.0,0.0,0.0,0.0,0.0,0.0,0.0,0.0,0.0,-0.8871672,-0.13659543,-0.09175028,-0.31789294,0.6087676,-0.9485574,0.62873375,-0.79792684,-0.896649,-0.44090068,-0.88605714,-0.4327893
2025-06-04 17:19:17.807,-1.859703,-7.20187,-179.28523,0.72379917,0.32990673,-0.33455926,4.683595,-0.86117,5.093439,-0.058250427,-0.5350876,0.029907227,-1.0304209,-0.40477753,-0.5157547,1.6472149,1.1419296,0.42176056,0.0020980835,-0.22342682,-0.1702919,-0.6848094,-0.14362335,-0.2899208,1.5625209,-0.01613617,-0.4803543,-0.0233078,0.802269,0.99549866,-1.2451159,-0.035057068,-6.105438,1.8362148,-0.2374649,-11.137255,-0.07045746,0.460701,-1.0455475,-1.3230779,-0.21526337,-3.0341034,1.8526434,0.40950775,-9.208515,0.0,0.0,0.0,0.0,0.0,0.0,0.0,0.0,0.0,0.0,0.0,0.0,-0.93957335,0.014369462,0.50577515,-0.509175,0.5692377,-0.9620959,0.74716294,-0.7435069,-0.88994426,0.0027904848,-0.8971947,0.15216234
2025-06-04 17:19:17.857,-0.741711,-5.964723,179.4715,-0.07191095,0.26194787,-0.45876002,0.720695,0.51956,14.88993,-0.06816864,-0.013008118,-2.4896622,-1.0181376,0.54943085,-1.7499046,1.7494488,1.995964,0.3289833,-0.009117126,-0.3699875,-0.8209343,-0.7183024,-0.9685898,3.207447,1.6208094,1.1108017,-8.8386345,-0.005455017,0.23189545,2.9803925,-1.2666308,-0.7947159,-0.54261017,1.8320949,0.001335144,-12.063784,-0.04825592,0.37014008,1.0943756,-1.3416173,-0.3963089,-1.6607933,1.8759893,0.16864777,-2.0453186,0.0,0.0,0.0,0.0,0.0,0.0,0.0,0.0,0.0,0.0,0.0,0.0,-0.96984226,0.20126282,0.9092958,-0.0054332614,0.17617254,-0.96165836,0.9752133,-0.4836926,-0.85246897,0.80361414,-0.75740755,0.96382457
2025-06-04 17:19:17.909,0.036213,-5.219235,178.43372,0.5377373,0.2942526,-0.09471495,0.119819,2.169004,11.290937,-0.07297516,-0.2540207,-0.4425125,-0.97121686,0.6537247,-0.8587761,1.857481,1.6708755,0.53650665,-0.0022506714,0.172081,-1.1126862,-0.7813212,-1.0638046,-1.4410629,1.6755885,0.920372,-9.950714,0.019874573,0.4379654,1.89151,-1.2762438,-0.11425018,2.7716484,1.8133266,-0.4921341,-8.686045,-0.005683899,0.7506943,0.5120926,-1.3484075,-0.08174896,-0.41077423,1.9343542,1.1415482,0.72205734,0.0,0.0,0.0,0.0,0.0,0.0,0.0,0.0,0.0,0.0,0.0,0.0,-0.97375154,0.28591046,0.9647201,0.70915705,0.46934596,-0.9878514,0.97775054,-0.5102266,-0.94582236,0.9526969,-0.24002059,0.9952968
2025-06-04 17:19:17.959,1.240109,-4.356304,178.80623,0.22193055,0.3852665,0.2626383,-0.828598,1.865241,11.762472,-0.077171326,-0.067100525,-0.72816086,-0.926356,0.7941818,-0.26306534,1.9305706,1.1596298,0.54261017,0.032310486,0.5637741,-0.3949051,-0.8033702,-0.6605911,3.8715172,1.6982478,0.20114899,-8.332035,0.03200531,0.10234833,2.7667656,-1.2732683,0.10936737,0.63904953,1.7827327,-0.40531158,-8.45533,0.030097961,0.58971405,0.41687775,-1.2618902,1.7461777,-0.698864,1.9816564,0.77739716,0.34851456,0.0,0.0,0.0,0.0,0.0,0.0,0.0,0.0,0.0,0.0,0.0,0.0,-0.9845452,0.49063736,0.91545177,0.7753773,0.5711266,-0.98711145,0.96500224,-0.5448593,-0.8100782,0.8265358,0.39025483,0.99126947
2025-06-04 17:19:18.011,1.767808,-3.662579,179.67102,-0.17137186,0.3663204,0.22664772,-1.568074,1.805163,9.311738,-0.08243561,0.28591156,-1.8048363,-0.8721873,1.3777542,-0.25940323,1.9717693,0.60466766,0.69031906,0.05695343,0.22045135,-0.45105743,-0.81870526,-0.12371063,4.6356926,1.7012995,0.03238678,-7.2565804,0.03681183,0.04825592,2.5653458,-1.2673174,0.36052704,-0.72938156,1.765414,-0.22144318,-7.1454964,0.048103333,0.012016296,1.2616158,-1.1128118,3.4776726,-1.5057602,2.0102668,0.46726227,-0.18127823,0.0,0.0,0.0,0.0,0.0,0.0,0.0,0.0,0.0,0.0,0.0,0.0,-0.9936658,0.63874024,0.5754764,0.6652741,0.57634866,-0.979245,0.94781893,-0.5094259,-0.21590762,0.35116965,0.79585636,0.9380087
2025-06-04 17:19:18.061,1.147902,-2.834725,-179.86421,-0.32436505,0.18491752,0.04336204,-0.957623,1.412104,8.129405,-0.08457184,0.24181366,-1.3287544,-0.8006236,1.2607193,-0.7074089,1.9692516,-0.11257172,-0.30578995,0.068244934,0.22502899,-1.1676216,-0.8206889,0.023384094,4.330509,1.7012233,-0.012168884,-7.27367,0.04032135,0.013160706,2.6300468,-1.2697588,-0.43460846,2.4237442,1.7877681,0.6798935,-4.8908234,0.040168762,-0.17398834,0.67933273,-0.916126,3.3034935,-1.2957954,2.0217109,0.050315857,0.4425125,0.0,0.0,0.0,0.0,0.0,0.0,0.0,0.0,0.0,0.0,0.0,0.0,-0.9948178,0.50965697,-0.6260961,-0.710997,0.2276201,-0.67294186,0.88119715,-0.59908104,-0.66414833,-0.43973696,0.65992135,-0.023547037
2025-06-04 17:19:18.113,-0.057543,-2.329838,-179.5071,-0.4801873,0.2522727,0.1843183,2.762665,-1.407216,8.602389,-0.08655548,0.10433197,-1.2677193,-0.7719371,0.12638092,0.41931915,1.8700695,-2.5014915,0.014038086,0.05886078,0.026741028,-6.1115417,-0.8331248,0.06175995,-2.4054337,1.7209071,0.3724289,-6.2030983,0.039024353,-0.049476624,2.6007462,-1.2797533,-0.21961212,-0.06774902,1.8140132,0.4680252,-10.713665,0.0046157837,-1.0258102,1.7621117,-0.8092382,1.4500809,-0.37414932,1.9581579,-1.779213,-0.111694336,0.0,0.0,0.0,0.0,0.0,0.0,0.0,0.0,0.0,0.0,0.0,0.0,-0.9895756,0.4130252,-0.96070343,-0.41461074,-0.38548195,0.914505,0.76905644,-0.92995816,-0.88396746,-0.4053276,-0.2609217,-0.7549356
2025-06-04 17:19:18.164,-1.143459,-1.426946,-179.0828,0.4032411,0.6399556,0.10761546,2.144461,-4.223965,4.619872,-0.08724213,0.04108429,0.10070801,-0.7790324,-0.2867508,-0.119018555,1.7792797,0.4214859,-12.349432,0.03856659,-0.054893494,-2.727703,-0.93749493,-2.1706047,-2.0196838,1.8437403,2.1450462,-0.5902176,0.04688263,0.27629852,-0.6573601,-1.3040911,-0.3407669,-4.6564445,1.8329341,0.08708954,-12.513008,-0.00415802,1.0371017,-4.0790405,-0.88049674,-0.6534195,-7.6179123,1.8665289,0.13011932,-12.493477,0.0,0.0,0.0,0.0,0.0,0.0,0.0,0.0,0.0,0.0,0.0,0.0,-0.92141455,0.34488624,-0.9735622,0.92415494,0.3507361,0.9089638,-0.22352831,-0.93922865,-0.43987682,-0.8971783,-0.1313456,-0.8835819
2025-06-04 17:19:18.215,-1.087899,-0.91294,-179.33282,-0.34114888,-0.15902829,-0.13561477,1.136958,-3.008412,14.613507,-0.0963974,-0.56850433,1.3788071,-0.81992596,-1.0321426,3.0658417,1.7796612,-0.45864105,-9.06325,0.04009247,0.56201935,0.76844406,-0.91437787,0.93601227,-0.5450516,1.9185847,0.96652985,0.9344635,0.03879547,-0.41042328,-1.0870514,-1.3425432,-0.74367523,-1.3421822,1.8239315,-0.5498123,-4.0460815,-0.008811951,-0.41339874,-1.9671936,-0.9160497,-0.6357956,-3.035324,1.8611883,-0.26813507,-11.80743,0.0,0.0,0.0,0.0,0.0,0.0,0.0,0.0,0.0,0.0,0.0,0.0,-0.88739455,-0.17657001,-0.9980374,0.9912268,0.78713024,0.8719598,-0.66303,-0.8705619,0.8471376,-0.9640522,-0.45081976,-0.84115857
2025-06-04 17:19:18.266,-2.187755,-2.193134,-179.83954,-0.23079066,-0.69163346,-0.20547499,2.597798,1.34772,8.349379,-0.1190567,-0.639534,3.403984,-0.8938548,-1.1331558,-3.4357224,1.743269,-0.8363724,-5.87228,0.058250427,0.14163971,1.1627388,-0.8046672,2.0317497,-0.7391472,1.9589442,0.81531525,0.2923622,0.0018692017,-0.2852249,-0.33630753,-1.3745104,-0.4453659,-0.19104385,1.8870265,1.341362,0.30212784,-0.03162384,-0.27553558,-2.1368752,-0.9878423,-1.5896225,-3.4735641,1.8610357,0.06214142,-13.362629,0.0,0.0,0.0,0.0,0.0,0.0,0.0,0.0,0.0,0.0,0.0,0.0,-0.91767466,-0.30331162,-0.99932873,0.99535596,0.95978636,0.44970998,-0.7859352,-0.4464007,0.98922044,-0.96869093,-0.37946296,-0.7076466
2025-06-04 17:19:18.317,-3.0719,-3.528025,179.40529,-0.37526968,-0.2287025,-0.4089189,1.185815,0.52605,8.742284,-0.14774323,-0.38547516,3.9142456,-0.9654948,-1.5761948,-1.7108421,1.7245007,-0.24959564,-7.4860764,0.07007599,-0.07686615,1.256733,-0.70189923,1.7851639,-0.2496376,1.9500178,-0.17383575,-0.18005753,-0.021781921,-0.27431488,-1.117569,-1.3173662,1.2675095,-1.3397408,1.9489772,1.1546707,0.30456924,-0.041999817,0.06542206,-2.6129532,-1.049259,-1.3022232,-0.9442291,1.865537,-0.018806458,-11.393608,0.0,0.0,0.0,0.0,0.0,0.0,0.0,0.0,0.0,0.0,0.0,0.0,-0.94609004,0.62981355,-0.99566716,0.95515513,0.93398315,-0.8543026,-0.96836543,-0.57438314,0.81053483,-0.9825003,-0.18217522,-0.9216248
2025-06-04 17:19:18.367,-3.725889,-3.787196,178.12442,0.0125778895,0.32242918,-0.29219738,-2.650733,-0.151125,10.716847,-0.17047882,0.11035919,2.990158,-0.981898,-0.08945465,14.008392,1.7123699,-0.22174835,-7.082016,0.07785797,-0.08152008,0.56702423,-0.6376597,0.9226608,0.10559082,1.8303889,-2.6421013,-0.6280632,-0.03604889,0.018501282,-2.2491798,-1.2852465,0.27477264,-0.72449875,1.9745357,0.3082657,0.30334854,-0.03261566,0.23036957,-4.3573647,-1.0702398,-0.25608063,-0.111694336,1.8469213,-0.9772873,-9.379417,0.0,0.0,0.0,0.0,0.0,0.0,0.0,0.0,0.0,0.0,0.0,0.0,-0.9687782,0.5832614,-0.9941057,0.8295019,0.90071744,-0.901325,-0.96246856,-0.8821209,0.36930645,-0.9859629,-0.4609764,-0.8213167
2025-06-04 17:19:18.418,-2.610648,-1.753544,178.11737,0.5266681,0.21829873,0.34709638,-0.773965,-1.921468,9.802709,-0.14896393,0.4732132,0.3314247,-0.9719798,0.51784515,9.434349,1.6987133,-0.45482635,-5.373005,0.073890686,-0.14156342,1.1065826,-0.60554,0.18619537,0.48645782,1.7186946,-1.6120529,-0.2825966,-0.059165955,-0.43186188,-0.45716095,-1.3164507,-0.99536896,0.0030517578,1.9606502,-0.62519073,0.06286621,-0.026054382,-0.06946564,-3.2574959,-1.0745122,-0.40309906,-4.3463783,1.8130468,-0.25562286,-9.447777,0.0,0.0,0.0,0.0,0.0,0.0,0.0,0.0,0.0,0.0,0.0,0.0,-0.9630405,0.5419265,-0.9820541,0.5922297,0.83025163,-0.921479,-0.8841791,-0.91627073,0.005757512,-0.9660344,-0.54661524,-0.7704951
2025-06-04 17:19:18.469,-1.354638,-1.270462,179.87762,0.3921418,0.064667694,0.80165493,-0.129358,-0.587157,8.269629,-0.13118744,0.33222198,0.26672745,-0.9540507,0.5059433,7.9084473,1.6839886,-0.13637543,-6.0065613,0.06511688,0.08769989,-0.20569229,-0.6000468,-0.15644073,0.08728027,1.6593379,-0.49480438,-2.7252617,-0.065727234,0.00049591064,-1.1383247,-1.3615404,-0.7804489,-0.6683464,1.9032009,-1.0023117,0.0018310547,-0.04535675,-0.64373016,0.08239746,-1.1101415,-0.6621933,-4.003357,1.8154119,0.21595001,-10.592812,0.0,0.0,0.0,0.0,0.0,0.0,0.0,0.0,0.0,0.0,0.0,0.0,-0.9592701,0.57876223,-0.95785034,0.2667923,0.73523676,-0.9174135,-0.7293633,-0.9377726,-0.3395975,-0.9439552,-0.64626753,-0.778006
2025-06-04 17:19:18.521,-0.804767,-0.905395,-177.72298,0.1258738,-0.15286176,0.6820228,-1.224486,0.527229,10.083388,-0.12989044,0.14957428,1.1432076,-0.92986554,0.3596878,6.991684,1.6668224,-0.5514908,-2.9852753,0.06603241,0.042381287,-1.9220276,-0.6265971,-0.65509796,0.84656906,1.6510218,-0.31902313,-2.9193573,-0.06328583,0.08289337,-1.0077057,-1.3930498,-0.31116486,-0.7757683,1.8307979,-1.09478,-0.5902176,-0.08640289,-0.67790985,3.2794685,-1.1455419,-0.60489655,-4.7956047,1.8194555,0.08281708,-10.495155,0.0,0.0,0.0,0.0,0.0,0.0,0.0,0.0,0.0,0.0,0.0,0.0,-0.89773226,-0.12677036,-0.9578983,0.49741477,0.79191554,-0.8069562,-0.26702794,-0.920549,-0.22085036,-0.88883317,-0.63700914,-0.8411322
2025-06-04 17:19:18.572,-0.618238,-1.331323,-176.2492,-0.09487147,-0.1311138,0.21446645,1.471003,1.269792,7.569528,-0.12889862,-0.2387619,2.1124573,-0.9533641,-0.15270233,-4.0631714,1.6532421,-0.040779114,-4.450142,0.066719055,-0.16910553,-0.33752823,-0.64261883,-0.3130722,2.744793,1.6465968,0.029335022,-2.6593437,-0.046043396,0.6016922,-1.0589752,-1.412047,-0.29346466,-0.20203018,1.7944057,-0.5478287,0.06286621,-0.11798859,-0.5387497,2.810711,-1.1716344,-0.81676483,-3.5663376,1.822965,0.13004303,-11.562065,0.0,0.0,0.0,0.0,0.0,0.0,0.0,0.0,0.0,0.0,0.0,0.0,-0.92592525,-0.25160393,-0.9689199,0.88140017,0.877017,-0.77015805,-0.3093391,-0.71698457,0.6643953,-0.93626535,-0.6051753,-0.6683489
2025-06-04 17:19:18.623,-0.70115,-1.69866,-176.50352,-0.06688693,-0.07530856,-0.33184868,0.398432,2.144121,10.062147,-0.13751984,0.041542053,2.581215,-0.98388165,-0.8991623,-3.1268806,1.6530895,0.0308609,-5.0556183,0.06565094,-0.040550232,1.7438011,-0.6547496,-0.28636932,4.929886,1.65003,0.023612976,-2.6691093,-0.035057068,-0.018730164,-0.35828018,-1.3887774,0.93898773,-0.64637375,1.8497188,1.268959,0.20203018,-0.121421814,0.47672272,-0.07873535,-1.1949804,-0.43621063,-1.8854065,1.8363928,0.18749237,-10.305943,0.0,0.0,0.0,0.0,0.0,0.0,0.0,0.0,0.0,0.0,0.0,0.0,-0.9340272,-0.26568505,-0.98933184,0.97796315,0.96280706,-0.8520031,-0.52672166,-0.3487511,0.9312313,-0.98267,-0.6318855,-0.45089692
2025-06-04 17:19:18.674,-0.934289,-2.179113,-177.94928,-0.17410223,-0.20235488,-0.5457469,-0.587665,0.958376,10.131835,-0.14125824,0.64373016,1.9720764,-1.0287424,-1.174736,-0.22522354,1.6546917,0.072517395,-5.683071,0.06061554,-0.15224457,2.440834,-0.6594798,-0.19161224,5.778286,1.6458338,-0.2576065,-2.2345314,-0.036735535,-0.011177063,-0.3289833,-1.3047777,1.4784622,-0.84412766,1.9225032,1.3573074,-0.07019043,-0.09838104,0.729332,-3.3160896,-1.2185552,-0.14286041,-2.1930275,1.8469976,0.067863464,-7.979248,0.0,0.0,0.0,0.0,0.0,0.0,0.0,0.0,0.0,0.0,0.0,0.0,-0.9102417,-0.13759062,-0.97606045,0.97035587,0.9736984,-0.9615949,-0.6474676,-0.39812103,0.7805873,-0.98513854,-0.74452174,-0.43367225
2025-06-04 17:19:18.724,-1.884167,-3.333895,-179.64392,-0.42221412,-0.5598229,-0.49071452,-0.484979,0.584315,10.470549,-0.14652252,-0.31528473,2.4591446,-1.0695597,-0.99933624,3.9838257,1.6601849,0.079460144,-5.8698387,0.051994324,-0.13843536,2.6605644,-0.6597087,0.037117004,5.6891747,1.6169947,-0.6687546,-0.57556915,-0.040626526,0.08098602,-1.1468697,-1.2529742,0.9202194,-0.64027023,1.9536312,0.4076004,0.6256218,-0.064201355,0.5541611,-4.0338745,-1.2480047,-0.40538788,-3.0499725,1.8577551,0.22968292,-8.596931,0.0,0.0,0.0,0.0,0.0,0.0,0.0,0.0,0.0,0.0,0.0,0.0,-0.89588785,-0.15089774,-0.9523315,0.95668554,0.9703947,-0.9786928,-0.6778647,-0.5385902,0.56917036,-0.9731427,-0.77106595,-0.34984717
2025-06-04 17:19:18.776,-3.168904,-4.846956,179.397,-0.47792464,-0.5573218,-0.22238669,-0.266325,-0.662363,9.609213,-0.14400482,-0.0017929077,2.0672913,-1.1048075,-0.36052704,3.0426483,1.6704845,0.36182404,-7.000229,0.04962921,0.031929016,1.45327,-0.64986676,0.88603973,2.5104141,1.5855616,-0.35312653,0.18494034,-0.04436493,-0.143013,-1.0406647,-1.2542711,-0.46146393,1.2201118,1.9610317,0.29972076,-2.1515236,-0.041542053,0.5025101,-4.1596107,-1.272495,-0.4252243,-2.4908829,1.8682836,0.13027191,-7.8181114,0.0,0.0,0.0,0.0,0.0,0.0,0.0,0.0,0.0,0.0,0.0,0.0,-0.95957357,0.65514153,-0.8606236,0.70545226,0.9479473,-0.98323333,-0.7468145,-0.85065603,-0.7780373,-0.9811443,-0.80145967,-0.50565916
2025-06-04 17:19:18.826,-3.548838,-5.41963,-179.99326,0.34934914,-0.09612301,0.6007576,2.949288,-4.161543,11.941356,-0.12577057,0.5373764,-1.8585472,-1.0651346,0.8712387,13.615318,1.6676617,-0.51403046,-1.9671936,0.053977966,-0.10196686,1.3165474,-0.60706586,0.4364395,0.6036453,1.5681666,-0.31101227,0.037231445,-0.043296814,-0.03993988,-0.8868561,-1.2599169,0.4844284,-8.949722,1.9276912,-0.5489731,-12.299381,-0.036201477,-0.1353836,-2.3053322,-1.2807348,-0.23609161,-3.0267792,1.8621038,-0.1657486,-8.147709,0.0,0.0,0.0,0.0,0.0,0.0,0.0,0.0,0.0,0.0,0.0,0.0,-0.8251827,-0.14744993,-0.7646144,0.25060844,0.80586874,-0.96129656,-0.1133771,-0.8802656,-0.6415278,-0.81849986,-0.80989337,-0.70238805
2025-06-04 17:19:18.877,-3.061103,-6.269215,-178.08885,0.308877,-0.2358272,0.32544303,4.540038,-1.136714,5.479427,-0.10082245,0.20572662,-0.27283096,-1.0760447,-0.053901672,0.789196,1.6484356,-0.21747589,-0.8978424,0.040473938,-0.18749237,0.2093544,-0.60332745,0.115242004,-0.25818253,1.5620631,-0.062446594,-0.4400711,-0.051460266,-0.04863739,2.367588,-1.2542711,-0.054740906,-7.2773323,1.9013698,-0.5422592,-10.124056,-0.047187805,-0.22251129,-1.0101471,-1.3104131,-0.6068802,-1.1139069,1.8537878,-0.00415802,-10.790569,0.0,0.0,0.0,0.0,0.0,0.0,0.0,0.0,0.0,0.0,0.0,0.0,-0.9030144,-0.3164216,-0.632725,0.43238556,0.8162013,-0.9595199,-0.010983428,-0.73783946,-0.2265995,-0.6597841,-0.7938546,-0.34079045
2025-06-04 17:19:18.929,-2.293838,-5.967053,-178.2508,0.17336753,0.500201,-0.29362994,2.834451,-0.909946,5.337847,-0.10005951,-0.2801895,0.88319397,-1.1125132,-1.0926437,2.2308693,1.6592693,0.6810379,-4.0961304,0.037345886,0.4304123,-0.23865128,-0.6061503,-0.275383,1.3226509,1.5678614,0.98178864,-4.7516594,-0.042915344,0.19329071,1.0431061,-1.2641894,-0.434227,-1.8683128,1.8890865,-0.10356903,-6.1567116,-0.042381287,0.20267487,-1.7633324,-1.3288763,-0.44620514,-0.8172722,1.8551611,0.0146865845,-6.482643,0.0,0.0,0.0,0.0,0.0,0.0,0.0,0.0,0.0,0.0,0.0,0.0,-0.9359438,-0.41282406,-0.35464418,0.63133043,0.8815567,-0.9782674,0.044765472,-0.6871612,-0.31365803,-0.58966696,-0.8326514,0.2737558
2025-06-04 17:19:18.981,-2.046831,-4.778533,-179.20474,0.1001543,0.21945345,-0.23573959,-2.301726,1.73271,11.034579,-0.104789734,0.060768127,0.2923622,-1.1602007,-0.72948456,1.0443268,1.6855145,0.28377533,-0.2862587,0.038337708,0.017585754,1.2310982,-0.63842267,-0.6713486,5.4108505,1.6172236,0.7439041,-7.122299,-0.035209656,0.17482758,1.3043404,-1.2885271,-0.35648346,-0.2459755,1.8781002,-0.08304596,-6.8097954,-0.040855408,0.0073623657,-0.92225647,-1.3518407,-0.19550323,-0.53162384,1.8686651,0.12760162,-0.23254776,0.0,0.0,0.0,0.0,0.0,0.0,0.0,0.0,0.0,0.0,0.0,0.0,-0.9605153,-0.32392257,0.62280595,0.24002385,0.831884,-0.9878075,0.5476119,-0.7991031,-0.9117693,-0.08597317,-0.9054291,0.80928224
2025-06-04 17:19:19.031,-1.500663,-3.992901,-179.36742,0.22031385,0.13796146,-0.05011863,-0.606675,-0.28058,11.096026,-0.09738922,0.1632309,-0.6634636,-1.1630999,0.27668,-1.8292503,1.7760754,2.0518913,0.14099503,0.042381287,-0.07167816,-1.0333405,-0.661616,-0.1341629,3.3856735,1.6481227,0.33893585,-6.5998306,-0.019798279,0.347023,2.0990295,-1.3011156,-0.1883316,-3.388115,1.8640621,-0.028495789,-13.638514,-0.03513336,0.16719818,0.65247726,-1.3783147,-0.31734467,-0.5523758,1.9152807,0.9656906,0.33264542,0.0,0.0,0.0,0.0,0.0,0.0,0.0,0.0,0.0,0.0,0.0,0.0,-0.97196674,-0.035631675,0.9721012,-0.7219746,0.42290848,-0.98021924,0.95094895,-0.84073,-0.99032915,0.8491625,-0.8743925,0.97958386
2025-06-04 17:19:19.082,-1.203799,-3.750259,-179.97597,0.1663741,0.082232796,-0.23919061,0.576122,-0.958403,10.369661,-0.09349823,0.16490936,-0.29358292,-1.1389872,1.4249802,0.58045197,1.8590069,1.7303085,1.1541939,0.03452301,-0.7905197,-2.7887383,-0.6834361,-0.5025101,-1.981842,1.6636866,0.545311,-7.6948204,0.0049209595,0.47283173,1.9476624,-1.3141619,-0.32726288,-2.5958633,1.8624599,0.0076675415,-14.656595,-0.015907288,0.7934952,0.31799698,-1.3928869,-0.1833725,-0.7330437,1.9571661,0.8699417,0.62073517,0.0,0.0,0.0,0.0,0.0,0.0,0.0,0.0,0.0,0.0,0.0,0.0,-0.9824211,0.2258848,0.9864131,-0.93838006,0.17658164,-0.9617549,0.9845314,-0.83512855,-0.99642944,0.98712903,-0.7613103,0.9836284
2025-06-04 17:19:19.134,-1.027765,-4.009209,179.26013,0.08450849,-0.010337602,-0.27934304,2.005243,-1.241788,9.207717,-0.09120941,-0.3923416,-0.31067276,-1.0710856,1.5681076,0.53040314,1.9365978,1.04702,1.0101471,0.02445221,0.039711,-5.658657,-0.712733,-0.7288742,-5.5011826,1.680395,0.36266327,-7.6496544,0.023612976,0.22502899,2.7704277,-1.3414751,-0.34664154,-0.45227814,1.8580348,-0.2349472,-13.555504,0.023612976,0.8423233,0.49988556,-1.3936498,0.18360138,0.15930557,1.9955419,0.6482315,0.52796173,0.0,0.0,0.0,0.0,0.0,0.0,0.0,0.0,0.0,0.0,0.0,0.0,-0.990571,0.42103538,0.94468147,-0.15806657,0.4827233,-0.97102547,0.9860255,-0.58032,-0.96566653,0.9834641,-0.5654237,0.9790707
2025-06-04 17:19:19.185,-0.649455,-3.851086,178.7044,0.19006333,0.29469308,-0.08008076,0.583242,0.085294,10.928573,-0.08869171,0.008659363,-1.0553131,-0.96496075,1.7432785,-0.17639542,1.9760418,0.7104111,0.5938797,0.029716492,-0.43445587,-2.614174,-0.73066205,-0.4102707,0.29968643,1.6999263,0.5047226,-9.329365,0.031471252,0.121269226,2.793621,-1.3375841,0.050621033,2.1686134,1.8315609,-0.77869415,-9.478294,0.045585632,0.39936066,1.3336372,-1.3455846,0.92983246,-0.46082306,2.016828,0.2892685,0.7086296,0.0,0.0,0.0,0.0,0.0,0.0,0.0,0.0,0.0,0.0,0.0,0.0,-0.98588485,0.43517292,0.9098038,0.55291724,0.562876,-0.9779818,0.9704492,-0.51370203,-0.90061504,0.93076515,-0.11853021,0.98469114
2025-06-04 17:19:19.235,-0.188275,-3.000545,178.65942,-0.02729482,0.4289766,0.04242328,-0.855682,1.764374,10.414735,-0.08731842,0.17299652,-1.3482857,-0.8897349,1.1029434,-0.34607315,1.9975567,0.19565582,0.84168625,0.04108429,0.18489838,0.10559082,-0.7463786,-0.07701874,1.9208069,1.713888,0.13065338,-8.307621,0.033836365,0.046806335,2.9181366,-1.3194262,0.3143692,1.0528717,1.7903621,-0.80760956,-6.76585,0.061683655,0.2363205,0.99061584,-1.2489202,2.094616,-0.76844406,2.0296454,0.1996994,0.33264542,0.0,0.0,0.0,0.0,0.0,0.0,0.0,0.0,0.0,0.0,0.0,0.0,-0.9966657,0.78294563,0.97906536,0.046819087,-0.7084491,-0.99391234,0.9946215,-0.87426126,-0.8616192,0.97758996,0.793883,0.9993984
2025-06-04 17:19:19.286,0.14752,-2.902872,179.23192,0.28498736,-0.7823956,0.39079344,4.713412,0.417508,9.803863,-0.084877014,-0.1632309,-0.50354767,-0.7931468,1.9810867,-0.84168625,2.0140362,0.27568817,0.68787766,0.043067932,0.42972565,-2.8033867,-0.8599803,-2.1698418,-10.655071,1.7254084,-0.037117004,-8.390633,0.031700134,-0.13774872,4.650341,-1.3538347,-1.2360001,2.822918,1.7802913,0.24898529,-10.275425,0.08174896,0.0699234,-0.5108719,-1.0234716,4.6215477,-1.2164497,2.0378852,0.3293991,0.5499344,0.0,0.0,0.0,0.0,0.0,0.0,0.0,0.0,0.0,0.0,0.0,0.0,-0.9991515,0.9255945,0.46655387,-0.52540815,-0.8159923,-0.9663364,0.9915797,-0.913689,-0.61579096,0.98995906,0.9555854,0.952057
2025-06-04 17:19:19.338,1.775453,-5.546509,-178.81987,0.6054851,-0.6267002,0.8563796,3.190509,-1.048845,8.565815,-0.08853912,-0.012626648,-0.6646843,-0.6987712,1.4987564,-0.8160515,1.9858074,-0.7191086,0.1690712,0.07808685,0.6619644,-8.469978,-0.9892222,-2.7626457,-6.8635063,1.7367762,0.3876114,-9.918976,0.019721985,-0.52555084,5.6488914,-1.4330279,-1.4223862,5.873501,1.7857845,-0.03490448,-6.712139,0.07900238,0.17391205,0.94667053,-0.82731986,2.9874077,-1.1187897,2.0408607,0.015220642,0.5084305,0.0,0.0,0.0,0.0,0.0,0.0,0.0,0.0,0.0,0.0,0.0,0.0,-0.9983432,0.9451026,-0.9675262,-0.9170926,-0.73149395,0.47823045,0.5995679,-0.9386145,-0.9866807,0.97143734,0.81214285,-0.79616755
2025-06-04 17:19:19.388,3.066908,-6.593135,-176.6575,0.7471259,0.47739747,0.47307503,2.142363,-4.077301,1.456175,-0.099220276,-1.1415482,4.1119995,-0.6352183,1.0548782,0.15198135,1.8342113,-2.1154442,-2.694744,0.079307556,-0.3547287,-5.974823,-1.1189982,-1.9533157,-1.5057602,1.8303889,2.1255913,-5.0251007,-0.012779236,-0.20397186,5.1313057,-1.4752184,-0.07518768,0.5853348,1.7475612,-0.9258652,-5.322956,0.08579254,0.025367737,0.895401,-0.7408025,0.31345367,4.928665,1.9306158,-0.51418304,-13.616539,0.0,0.0,0.0,0.0,0.0,0.0,0.0,0.0,0.0,0.0,0.0,0.0,-0.9723327,-0.016699651,-0.99898756,0.68890154,0.20236509,0.99970645,-0.7592583,-0.9888164,-0.9438776,0.35957992,-0.8054943,-0.98855084
2025-06-04 17:19:19.439,0.901021,-2.238173,-177.7479,-1.4615278,1.2335209,-0.7543965,-2.518423,4.505063,12.494095,-0.120658875,-1.174202,6.5339127,-0.7401988,-2.5292625,-2.027008,1.7766857,0.49106598,-13.775234,0.06084442,-0.116233826,0.76844406,-1.1299845,-1.121254,15.817503,1.9317073,1.4599228,-0.1336708,-0.032844543,0.27210236,-2.822918,-1.4755999,-0.15331268,0.58167267,1.6752346,-1.3637161,0.07141113,0.05558014,0.2048111,-1.6974144,-0.8315923,-1.644249,-17.249409,1.9214605,0.4166031,-19.259937,0.0,0.0,0.0,0.0,0.0,0.0,0.0,0.0,0.0,0.0,0.0,0.0,-0.576108,-0.6214858,-0.99530274,0.9422634,0.8788822,0.9876467,-0.86787784,-0.9648373,-0.3022573,-0.6685078,-0.9288943,-0.99640656
2025-06-04 17:19:19.491,0.300576,-2.33482,-179.20609,-0.8404832,-1.0203876,-0.41790256,5.098669,2.288531,15.746465,-0.12989044,-0.080451965,5.0470734,-0.88431805,-2.5771751,-6.4448013,1.7727947,-0.62892914,-7.647213,0.06290436,0.12706757,1.2835884,-0.98746747,4.643139,-2.035553,1.9631404,0.90976715,0.13977432,-0.048103333,-0.25569916,0.2117958,-1.5240465,-1.8984604,11.233692,1.657687,-0.77739716,6.0541687,0.04108429,-0.024681091,-4.549019,-0.94481254,-2.6843681,-9.583275,1.9331335,0.07633209,-18.174717,0.0,0.0,0.0,0.0,0.0,0.0,0.0,0.0,0.0,0.0,0.0,0.0,-0.10429136,-0.93143654,-0.99960464,0.99075896,0.9539984,0.9785825,-0.9067221,-0.67840266,0.9474659,-0.48971722,-0.9063048,-0.97891426
2025-06-04 17:19:19.542,-1.703749,-5.006818,-179.02188,-0.377024,-0.2969129,0.405706,3.833857,0.763809,9.349709,-0.12134552,0.4706955,3.5541306,-1.0129496,-2.1466484,-10.817427,1.7614269,-0.05405426,-10.055695,0.07381439,-0.11249542,0.95887756,-0.80642194,2.5549736,-0.0592041,1.996786,0.5263138,0.99794006,-0.06832123,-0.2073288,0.43030548,-1.536101,0.3811264,8.52491,1.7387874,2.4461784,3.5004196,0.030555725,-0.053138733,-2.8241386,-1.0766485,-2.3312035,-5.2753487,1.9195532,-0.3696823,-15.424431,0.0,0.0,0.0,0.0,0.0,0.0,0.0,0.0,0.0,0.0,0.0,0.0,0.15875272,-0.971853,-0.99978274,0.99813044,0.9816222,0.88630354,-0.9581039,0.27039215,0.9993468,-0.046212774,-0.8112204,-0.87820613
2025-06-04 17:19:19.593,-2.582376,-5.323412,-177.64694,0.0048694513,0.4002517,0.48086065,0.587029,0.324996,5.555805,-0.08731842,0.9837723,0.16296768,-1.1144205,-1.5899277,-9.131609,1.7677593,0.12348175,-11.176317,0.08609772,0.37296295,-0.18860245,-0.69053143,1.4281082,-1.051651,2.011816,0.24600983,-0.1690712,-0.09044647,0.112953186,1.1664009,-1.4086138,5.296215,0.73060226,1.822787,1.5986252,3.3771286,0.03551483,0.4179001,-3.0499725,-1.1794927,-1.3255692,-4.3085365,1.8753027,-1.3746262,-8.019531,0.0,0.0,0.0,0.0,0.0,0.0,0.0,0.0,0.0,0.0,0.0,0.0,0.34643993,-0.94248414,-0.9961907,0.99727255,0.9809269,-0.37138748,-0.98113155,0.4717824,0.99821615,0.08110334,-0.8132355,-0.86785764
2025-06-04 17:19:19.643,-1.639253,-3.880581,-176.14253,-0.13023491,-0.013105904,0.4132154,1.413604,1.858812,6.038615,-0.041160583,0.74596405,-0.07873535,-1.213225,-2.1713676,-1.5863266,1.770277,0.008583069,-10.562294,0.08342743,0.23319244,-1.1224518,-0.6250712,0.8168411,-0.09094238,1.9047755,-1.8863297,-0.32043839,-0.101737976,-0.16223907,1.3043404,-1.2076555,4.2264977,3.4979782,1.8926723,1.5316391,1.0479889,0.054359436,0.48389435,-3.6444664,-1.2610509,-1.3033676,0.6305046,1.8128179,-0.9076309,-6.273899,0.0,0.0,0.0,0.0,0.0,0.0,0.0,0.0,0.0,0.0,0.0,0.0,0.07107922,-0.9419634,-0.37894484,0.9922945,0.9715716,-0.9904316,-0.989917,0.5647614,0.9232936,0.8569034,-0.9389865,0.67428696
2025-06-04 17:19:19.694,-1.38058,-3.192589,-175.31761,-0.06980732,0.15502672,0.021641837,1.383648,-3.402483,6.527029,-0.02544403,-0.1442337,1.9476624,-1.3176714,-2.299389,3.7933922,1.7631054,0.82393646,-5.913788,0.08014679,-0.058403015,0.74403,-0.58433026,0.76969147,-0.95155334,1.8229884,-2.3999443,-3.3588142,-0.09403229,0.18520355,-2.0306702,-1.0269114,3.2874718,0.22644424,1.9560726,0.7187271,0.57190704,0.06641388,0.27988434,-1.4349594,-1.3410833,-2.1812096,3.8605309,1.7603277,1.6402817,4.3207436,0.0,0.0,0.0,0.0,0.0,0.0,0.0,0.0,0.0,0.0,0.0,0.0,-0.9393103,-0.788857,0.9981058,0.9025328,0.9036182,-0.99966025,-0.89671296,-0.84468734,-0.998103,0.9979315,-0.98723227,0.99617636
2025-06-04 17:19:19.745,-1.253875,-2.397222,-175.76744,0.7608647,0.6607415,-0.13733189,-1.785832,-2.422556,2.644063,-0.045814514,-0.22457123,-0.03967285,-1.4064013,-0.88214874,4.3378334,1.8397808,1.438942,3.6432457,0.10677338,1.1487961,-3.5297165,-0.6074473,-2.066845,10.633097,1.7710322,2.0649376,-19.48455,-0.10128021,-0.61595917,1.8744164,-1.0967203,-2.2153893,-3.5968552,1.9161708,0.036582947,-17.478905,0.07396698,-0.13378143,2.3504982,-1.3961675,-0.5761337,-0.7867546,1.871488,1.6922379,1.2005806,0.0,0.0,0.0,0.0,0.0,0.0,0.0,0.0,0.0,0.0,0.0,0.0,-0.9987681,0.13450213,0.9991302,-0.5110046,-0.09423234,-0.9994327,0.23725794,-0.9882177,-0.99952,0.9989059,-0.96626526,0.9983802
2025-06-04 17:19:19.797,-1.378748,-0.216245,-175.95468,-0.06835479,-0.10364215,0.3374155,-1.703285,2.137119,18.272322,-0.07335663,-0.5990982,0.26306534,-1.355208,2.8921928,7.0624847,1.8661785,0.9115219,4.962845,0.08113861,-0.10837555,-4.6247025,-0.7529399,-2.5661125,-3.7018394,1.8246669,-0.37311554,-11.643856,-0.0875473,-0.014839172,5.20821,-1.1865984,-1.4014816,-6.8989105,1.8997676,-0.7491684,-13.318686,0.079841614,0.12149811,0.19714737,-1.420963,-0.59581757,0.19958878,1.9455694,1.0943222,0.76478195,0.0,0.0,0.0,0.0,0.0,0.0,0.0,0.0,0.0,0.0,0.0,0.0,-0.99802685,0.37538955,0.99868625,-0.93998134,-0.65157926,-0.9964118,0.957343,-0.98089695,-0.9995296,0.9994023,-0.8975214,0.997647
2025-06-04 17:19:19.848,-1.365508,-2.551109,-175.00256,0.40458518,-1.1221793,0.13991036,3.662346,-2.459775,7.892738,-0.076408386,0.17276764,-1.2555122,-1.1437212,3.5781517,-0.69153976,1.9369793,1.150856,0.72571945,0.07312775,0.16582489,-8.659189,-0.9074351,-2.6916924,-6.09079,1.7872828,-0.86673737,-7.699703,-0.07892609,0.16887665,6.986801,-1.2899767,-2.3490562,2.3443947,1.8646724,-0.8046341,-11.426565,0.088157654,-0.0046920776,1.2457466,-1.4259984,0.14904022,-1.0235748,1.989591,0.7594681,0.592659,0.0,0.0,0.0,0.0,0.0,0.0,0.0,0.0,0.0,0.0,0.0,0.0,-0.9975184,0.69904196,0.99615365,-0.96974313,-0.8156023,-0.99034506,0.99372816,-0.9499511,-0.99886125,0.99934554,-0.56485105,0.9976658
2025-06-04 17:19:19.898,0.029802,-4.90336,-174.96718,0.36680484,-0.38102484,-0.08168994,2.204403,-1.996946,7.428731,-0.08533478,0.0032424927,-0.9332428,-0.9532115,3.05859,-0.8978424,1.9842815,0.6958389,0.18860245,0.08228302,0.079307556,-8.163576,-1.0450693,-2.8783073,-4.15839,1.7692775,-0.16605377,-9.612572,-0.06252289,0.06443024,7.118637,-1.3969408,-2.1783867,5.293659,1.8064601,-1.4358902,-5.78561,0.0863266,0.06679535,0.8502312,-1.3657262,0.9672928,-0.46570587,2.0162177,0.38776398,0.48401642,0.0,0.0,0.0,0.0,0.0,0.0,0.0,0.0,0.0,0.0,0.0,0.0,-0.99746996,0.8792014,0.97923964,-0.9555891,-0.8955159,-0.9896628,0.9921237,-0.8763884,-0.9943403,0.9989124,0.41346282,0.9960797
2025-06-04 17:19:19.950,0.376011,-5.067678,-175.40317,-0.17077103,0.26727024,-0.24999236,1.533797,1.200145,10.120988,-0.087013245,0.2362442,-1.7108421,-0.80474347,2.326931,-0.46692657,2.0092297,0.4606247,0.4425125,0.07083893,-0.27614594,-5.880829,-1.1663805,-2.4786797,-1.0821686,1.7696589,0.010643005,-10.409706,-0.062217712,-0.092430115,7.876709,-1.4614855,-1.358757,7.512932,1.7214687,-1.8165207,-0.92836,0.08792877,-0.03276825,0.7721062,-1.156452,3.7742271,-0.72938156,2.0294166,0.11142731,0.5841141,0.0,0.0,0.0,0.0,0.0,0.0,0.0,0.0,0.0,0.0,0.0,0.0,-0.9984569,0.9795573,0.36872193,-0.9298171,-0.92927754,-0.9786026,0.9296597,-0.8394731,-0.970195,0.9954777,0.94931954,0.9321743
2025-06-04 17:19:20.000,0.257688,-4.512689,-176.09291,-0.27038366,0.35783494,-0.26110274,0.732136,2.672528,10.402549,-0.08785248,0.23975372,-1.063858,-0.6936595,1.73069,-0.27038956,1.9740582,-0.7489395,-0.12512589,0.054588318,-0.25821686,-5.5182724,-1.2761675,-2.206997,1.1163483,1.7704982,-0.027198792,-10.189976,-0.061149597,0.03314972,6.89769,-1.5072619,-0.8221054,8.802013,1.6367061,-1.7737961,3.3649178,0.08594513,-0.1266861,1.0980377,-0.91925406,4.1548576,-0.7049675,2.032926,0.06984711,0.4351883,0.0,0.0,0.0,0.0,0.0,0.0,0.0,0.0,0.0,0.0,0.0,0.0,-0.9983274,0.9799467,-0.9733978,-0.73099965,-0.91660196,0.26737106,0.21435434,-0.94661725,-0.9783721,0.9775312,0.91653764,-0.8208255
2025-06-04 17:19:20.052,-0.760959,-2.919907,-176.89192,-0.5867223,1.0855575,-0.295383,-2.304119,-0.774024,0.03164,-0.10135651,-1.3251114,3.5699997,-0.62232465,0.97652435,0.033569336,1.8295574,-0.6940079,-7.3835373,0.035820007,-0.611763,-1.8268089,-1.381148,-1.7786789,4.9982452,1.8190974,1.343193,-3.1512947,-0.059165955,0.57575226,2.6398125,-1.5404497,-0.018196106,3.9606323,1.565295,-0.8603287,3.0707245,0.090293884,-0.16368866,0.1336708,-0.77933097,0.8952713,5.982147,1.9071172,-1.2665176,-9.154804,0.0,0.0,0.0,0.0,0.0,0.0,0.0,0.0,0.0,0.0,0.0,0.0,-0.93887675,0.27908897,-0.9996193,0.8664573,0.022584707,0.99990946,-0.9406102,-0.98834264,-0.954701,0.12401657,-0.8155744,-0.99572134
2025-06-04 17:19:20.103,-1.965458,1.293101,-178.6268,0.19925703,-0.25220025,-0.43826404,-5.99771,-3.589923,19.682314,-0.14247894,-0.20587921,2.105133,-0.7240245,-2.0244255,2.1161194,1.8886089,-0.43956757,-13.805752,0.056648254,0.011787415,0.61707306,-1.3574969,3.0385246,3.137867,1.8789881,1.2029648,3.4564743,-0.064201355,-0.26424408,0.17395401,-1.5190111,-0.12523651,1.6510277,1.5537746,-0.039482117,0.048217773,0.0963974,0.13584137,-4.8456535,-0.8846929,-1.6505051,-15.016708,1.8852209,-0.22777557,-14.7249565,0.0,0.0,0.0,0.0,0.0,0.0,0.0,0.0,0.0,0.0,0.0,0.0,-0.34007084,-0.4562278,-0.9986198,0.97214127,0.8622432,0.99839,-0.9144136,-0.9876506,-0.6667248,-0.89648557,-0.93268245,-0.99872375
2025-06-04 17:19:20.154,-2.920008,-1.915937,-179.33557,-0.6712169,-1.5222051,-0.061325755,2.134738,0.339098,9.052854,-0.1305008,0.21259308,3.8702965,-0.86814374,-1.9389725,-6.8622856,1.8316174,-1.3197708,-7.9438477,0.06473541,0.11325836,0.83802414,-1.0717722,5.387081,-1.0284576,1.9446772,0.99040985,0.75745773,-0.091667175,-0.14072418,1.5143051,-1.5688311,-1.270256,9.997101,1.5377529,-0.7437515,6.5558853,0.081596375,-0.2890396,-5.7465477,-1.0140111,-2.8265038,-7.0673676,1.883695,0.005455017,-15.592888,0.0,0.0,0.0,0.0,0.0,0.0,0.0,0.0,0.0,0.0,0.0,0.0,0.21909857,-0.8861264,-0.9996409,0.9816909,0.93614614,0.99180156,-0.9021937,-0.81194955,0.7647069,-0.7173147,-0.913403,-0.9890711
2025-06-04 17:19:20.205,-4.104002,-5.012818,-178.1557,-0.17724898,-0.5014587,0.5886491,3.727522,0.218508,7.5657,-0.10204315,0.959816,2.0404358,-0.98655194,-1.7535019,-12.683908,1.8015575,-0.12332916,-11.396048,0.07472992,0.047035217,0.21301651,-0.8519694,3.3083,-0.29358292,1.989004,0.8054733,0.30701065,-0.11096954,-0.08312225,1.3226509,-1.5895067,0.61260223,7.2394905,1.6402919,3.0343285,3.12566,0.06549835,-0.44864655,-5.2314034,-1.1412694,-2.3533287,-3.6469078,1.8649267,-0.5086899,-12.2859535,0.0,0.0,0.0,0.0,0.0,0.0,0.0,0.0,0.0,0.0,0.0,0.0,0.51944005,-0.9683467,-0.9998187,0.9970747,0.975452,0.95054615,-0.9563017,0.18468133,0.99858916,-0.1320379,-0.81161505,-0.8836148
2025-06-04 17:19:20.256,-4.154949,-5.193016,-176.24623,0.7599883,0.76788276,0.84651715,2.218703,-2.225016,10.541272,-0.05405426,1.2117386,-1.4740219,-1.0642954,-0.9484482,-13.582361,1.8094158,0.41835785,-14.98497,0.08365631,-0.2741623,0.6024246,-0.71929425,2.5370445,-0.5938797,2.011053,0.45894623,0.48523712,-0.12195587,-0.7844925,1.7340355,-1.468886,4.527706,5.032425,1.7351253,3.026165,0.91615295,0.06664276,-0.15956879,-2.4322891,-1.2216833,-0.99948883,-2.850994,1.8200659,-1.0550308,-6.5632095,0.0,0.0,0.0,0.0,0.0,0.0,0.0,0.0,0.0,0.0,0.0,0.0,0.6105577,-0.9511909,-0.9975724,0.9966866,0.9775093,0.11010352,-0.9824448,0.46765366,0.9983921,0.20820022,-0.763742,-0.8672552
2025-06-04 17:19:20.307,-2.127576,-3.48565,-173.66905,0.9599278,0.5805846,0.85492927,5.443515,-2.844534,8.258122,0.004081726,1.1448288,-1.86343,-1.1385294,-1.6334152,-7.5056076,1.8163586,0.01903534,-12.714428,0.08350372,-1.0078049,1.576561,-0.6407878,0.048713684,2.395668,1.9516963,-1.2269211,-0.24353409,-0.12653351,0.65914154,-0.30823135,-1.2571703,5.067562,-2.059967,1.8306453,2.2951164,0.604866,0.08075714,-0.19428253,-2.6044083,-1.2865331,-1.6466904,3.2587166,1.7656683,-0.9680557,-4.236515,0.0,0.0,0.0,0.0,0.0,0.0,0.0,0.0,0.0,0.0,0.0,0.0,0.47940385,-0.93382066,-0.68294525,0.99278814,0.96890104,-0.9690355,-0.99293894,0.6551353,0.9635121,0.79628634,-0.932491,0.051781196
2025-06-04 17:19:20.358,-0.670779,-2.94713,-172.69139,0.4287654,-0.07067875,-0.087995574,0.278364,-3.035695,5.723743,0.022392273,0.12340546,0.61585236,-1.244887,-2.11903,0.16662979,1.815443,-0.37425995,-7.6325645,0.082359314,-0.05039215,1.1651802,-0.5949351,0.56934357,0.1727333,1.8037623,-2.7356377,-0.08117676,-0.11493683,0.3633499,-0.7928581,-1.0400339,3.6810722,-1.3226509,1.9115169,1.386528,0.40467072,0.09403229,0.7768631,-2.551918,-1.3880041,-2.182125,6.549782,1.7669653,0.06908417,1.8451195,0.0,0.0,0.0,0.0,0.0,0.0,0.0,0.0,0.0,0.0,0.0,0.0,-0.8048252,-0.8231995,0.9957814,0.9529518,0.9323908,-0.99958205,-0.95991576,-0.54992604,-0.9880423,0.99427104,-0.9891426,0.98769796
2025-06-04 17:19:20.409,0.148263,-2.247203,-173.71147,0.1432496,0.84550214,-0.5677806,-9.205967,-1.238875,17.797005,-0.008583069,-0.50388336,-1.281147,-1.3512408,-1.4024734,4.5380325,1.8876171,1.0885239,3.2916756,0.091285706,-0.24066925,1.465477,-0.61698407,-1.1843491,7.4946213,1.8004054,2.013897,-20.563667,-0.12348175,-0.29888153,2.1600685,-1.0756632,-1.253624,-3.1342049,1.888705,-0.23937225,-14.988632,0.10082245,-0.2401352,0.83680344,-1.4581945,-0.028266907,0.19470596,1.8480657,2.182888,-0.30334854,0.0,0.0,0.0,0.0,0.0,0.0,0.0,0.0,0.0,0.0,0.0,0.0,-0.99770933,0.13489608,0.9994356,-0.27442136,-0.20115829,-0.99962115,0.08404935,-0.98277146,-0.999505,0.9989037,-0.95211565,0.9988364
2025-06-04 17:19:20.460,0.315545,-1.218576,-174.48615,0.010508069,-1.1614912,0.0738339,1.878628,1.826407,14.472002,-0.0333786,0.055732727,-2.7289238,-1.217116,3.2352867,-1.8597679,1.9443798,1.2087631,0.5218582,0.04924774,-0.43071747,-1.9476624,-0.74843854,-2.3068657,-5.482872,1.8306178,-0.6663132,-10.059357,-0.11287689,0.14324188,4.8944855,-1.1752306,-2.3750725,-2.576332,1.8768795,-0.13988495,-14.912947,0.104637146,0.26882172,-0.3949051,-1.4614751,0.14286041,-0.19104385,1.9306921,1.3983536,0.6561394,0.0,0.0,0.0,0.0,0.0,0.0,0.0,0.0,0.0,0.0,0.0,0.0,-0.99753666,0.4630266,0.9985111,-0.89523953,-0.6867697,-0.9973011,0.93222666,-0.9729424,-0.9993269,0.9992321,-0.8554299,0.9974354
2025-06-04 17:19:20.511,2.287838,-5.441053,-174.04787,1.2235378,-1.4845749,0.19070214,0.266809,-3.87502,5.722785,-0.061149597,-0.6611252,1.5790024,-1.0386606,2.9611626,-1.4166489,1.9893932,0.66524506,0.14709854,0.05504608,0.18787384,-7.462883,-0.90575665,-2.0433464,-9.033951,1.7993373,-0.50457,-9.441673,-0.08228302,0.3181839,6.6437798,-1.3021075,-1.4681625,0.38636017,1.8613155,-0.9156418,-10.952927,0.10570526,-0.3470993,0.49866486,-1.4773443,-0.98934174,6.553444,1.9656347,-0.053215027,4.7602043,0.0,0.0,0.0,0.0,0.0,0.0,0.0,0.0,0.0,0.0,0.0,0.0,-0.996762,0.7107501,0.99480754,-0.9553796,-0.825315,-0.9909541,0.9918751,-0.92918444,-0.998206,0.99912906,-0.43606383,0.9973536
2025-06-04 17:19:20.562,3.166238,-6.743191,-174.57231,-0.07810533,0.08726746,-0.5594473,4.800742,0.549696,6.677735,-0.07526398,-0.48732758,-0.3973465,-0.8886668,2.1734276,-0.10681152,2.0164776,0.45970917,0.051879883,0.037879944,-0.16262054,-4.8297844,-1.0055491,-1.7794418,-9.37331,1.7971247,0.010795593,-11.802547,-0.07022858,0.107307434,7.08934,-1.3684069,-1.0935593,1.8805237,1.7969997,-1.5269852,-4.905472,0.11379242,-0.14530182,-0.040893555,-1.4231756,1.3290787,2.6715508,1.9810461,0.2717209,2.5140762,0.0,0.0,0.0,0.0,0.0,0.0,0.0,0.0,0.0,0.0,0.0,0.0,-0.99730915,0.88245577,0.9764328,-0.95399415,-0.886307,-0.99028015,0.9901624,-0.86418986,-0.9935559,0.9985776,0.4443855,0.9958277
2025-06-04 17:19:20.613,3.1773,-6.191383,-176.30077,-0.6796579,0.74828124,-1.0488462,5.291275,4.230111,10.338574,-0.0825119,0.6758499,-2.1258888,-0.7664439,1.3434219,0.6939812,2.0304394,0.14133453,0.26062393,0.0007247925,-0.99040985,-0.099487305,-1.0832926,-1.3180923,-9.571068,1.8103999,0.16330719,-13.13924,-0.057411194,0.38791656,6.353245,-1.4135729,-1.0685349,3.756771,1.7216213,-1.6438675,-1.4825668,0.12439728,-0.15529633,0.103149414,-1.2551,5.5807915,-2.3614845,1.9860052,0.8067703,0.45716095,0.0,0.0,0.0,0.0,0.0,0.0,0.0,0.0,0.0,0.0,0.0,0.0,-0.9985471,0.97514296,0.5797081,-0.95989174,-0.9034397,-0.9821,0.9510838,-0.84316856,-0.97896385,0.99553,0.92262197,0.95854425
2025-06-04 17:19:20.664,2.933452,-6.09541,-177.91103,0.15440734,-0.16476706,-0.32151756,2.419,1.61331,8.974074,-0.08319855,-0.3709793,-0.0579834,-0.67252606,1.4826584,-0.23498917,2.0070934,-0.40363312,-0.57190704,-0.015296936,0.016746521,-3.613945,-1.1809527,-1.9209671,-2.7460136,1.8118495,-0.01865387,-12.080872,-0.04207611,0.40737152,4.7589836,-1.4744555,-1.3211441,8.664074,1.6534145,-1.2440872,0.092163086,0.113716125,-0.23235321,-0.016479492,-0.9982183,4.398922,1.0772858,2.0075965,0.21434784,0.8258171,0.0,0.0,0.0,0.0,0.0,0.0,0.0,0.0,0.0,0.0,0.0,0.0,-0.9985877,0.97655845,-0.9504689,-0.88602364,-0.8785636,-0.11103436,0.54480404,-0.93619734,-0.9829292,0.98072535,0.9051371,-0.60018575
2025-06-04 17:19:20.716,3.049055,-5.793276,-178.31909,-0.79507655,0.96237713,-0.32303876,-0.933131,0.531948,2.185148,-0.09906769,-0.2714157,1.8023949,-0.6113383,0.95653534,0.10070801,1.8538189,-3.247036,-0.3692665,-0.025215149,-0.8218765,-0.2081337,-1.2678515,-0.64891815,-4.203556,1.8454951,1.3264847,-8.770275,-0.02948761,1.0053635,0.789196,-1.5103136,0.28812408,1.5411606,1.5978725,-0.5667496,0.5450516,0.11188507,-0.34816742,0.23254776,-0.86500907,1.2308884,8.562754,1.9260381,-1.8594742,-4.368351,0.0,0.0,0.0,0.0,0.0,0.0,0.0,0.0,0.0,0.0,0.0,0.0,-0.9811939,0.47800338,-0.9989697,0.5267133,-0.11901597,0.9995521,-0.7583889,-0.987997,-0.97530776,0.418256,-0.76410556,-0.98947525
2025-06-04 17:19:20.767,-1.000187,-0.496631,179.97234,-0.97335726,1.007731,-0.42958525,-5.309288,2.058683,19.975822,-0.11219025,-0.11440277,2.0074768,-0.6632182,-1.8774033,3.5846481,1.8107128,0.81668854,-16.204472,-0.032691956,0.28598785,2.0123596,-1.2724291,-1.2988663,15.212025,1.9273585,0.49251556,3.9118042,-0.03429413,-0.49388885,0.1312294,-1.4929949,0.5337906,-1.3568306,1.5757473,-0.3684616,0.14587784,0.09578705,0.7148361,-4.9726105,-0.9541967,-1.7782211,-10.717327,1.8631719,0.024147034,-14.518654,0.0,0.0,0.0,0.0,0.0,0.0,0.0,0.0,0.0,0.0,0.0,0.0,-0.7638842,-0.17834105,-0.9914645,0.9837878,0.14976509,0.99645823,-0.950914,-0.9950469,-0.48431465,-0.44473135,-0.9326138,-0.99805284
2025-06-04 17:19:20.818,-1.938382,-1.321335,179.26285,-1.2753838,-1.6139421,-0.110452406,2.672856,-1.142039,14.811949,-0.106163025,-0.10684967,1.2628365,-0.8016154,-2.2607841,-2.9156952,1.8172741,-0.46398163,-10.469521,0.0032424927,1.058464,0.15930557,-1.1727129,2.6584282,-0.44495392,1.9617671,0.7590866,0.47058868,-0.06023407,-0.23731232,0.61829376,-1.5373217,-1.9018173,11.546196,1.5830715,-0.29605865,5.244831,0.09716034,-0.42316437,-4.0741577,-1.0584905,-2.3685875,-6.032196,1.8610357,-0.019340515,-14.501564,0.0,0.0,0.0,0.0,0.0,0.0,0.0,0.0,0.0,0.0,0.0,0.0,-0.046763744,-0.6546272,-0.9986401,0.987791,0.77457094,0.99520403,-0.9524172,-0.9654014,0.65076363,-0.6821516,-0.9478835,-0.9968026
2025-06-04 17:19:20.869,-4.500288,-4.405718,-179.60918,-0.48659152,-0.6506986,0.4752522,1.947645,-0.793389,9.26493,-0.08945465,0.5955124,1.45327,-0.90812176,-1.5356827,-11.308155,1.8003368,-0.32886505,-11.009079,0.041618347,0.23212433,1.3556099,-0.9918925,4.385952,-1.7010765,1.9985408,0.6810379,0.5853348,-0.09021759,-0.2956009,0.7452507,-1.5953814,-0.63488007,8.640881,1.6388423,1.9072342,6.5107193,0.06465912,-0.5831528,-3.7457848,-1.1707952,-1.9021988,-3.5834274,1.8395971,-0.2475357,-12.130924,0.0,0.0,0.0,0.0,0.0,0.0,0.0,0.0,0.0,0.0,0.0,0.0,0.33747828,-0.95251733,-0.9998036,0.99557334,0.97204775,0.97708344,-0.948405,-0.30575094,0.9915727,-0.39244452,-0.8807975,-0.9563936
2025-06-04 17:19:20.920,-5.274943,-5.617265,-178.03334,0.20040224,0.1319447,0.53457475,1.831579,-0.777129,7.597576,-0.055351257,0.403862,0.3314247,-0.99654645,-1.5207291,-14.751812,1.8052197,0.2664566,-13.288166,0.061912537,-0.2827072,1.9305725,-0.80863446,3.2774773,-1.4789047,2.0191402,0.49282074,-0.045776367,-0.1064682,0.41202545,-0.19592667,-1.5513598,0.6482315,13.272297,1.7242153,0.1769638,12.514229,0.056266785,0.09471893,-4.024109,-1.2507513,-1.1831284,-2.4567032,1.8082403,-0.98026276,-8.224613,0.0,0.0,0.0,0.0,0.0,0.0,0.0,0.0,0.0,0.0,0.0,0.0,0.43397337,-0.95834875,-0.99935,0.9973523,0.9792433,0.7273352,-0.97385174,0.3483846,0.99879014,0.017984698,-0.81585854,-0.89653677
2025-06-04 17:19:20.971,-4.348727,-4.827804,-176.30338,0.8950137,0.60980374,0.58429426,-0.703333,-3.037592,9.210194,-0.0059890747,0.8815384,-2.355381,-1.0658213,-1.2254715,-12.965897,1.8221569,0.26851654,-14.3807125,0.073890686,-0.07144928,1.4361801,-0.6909129,1.8072891,-2.2150002,2.0141048,-0.06389618,-0.30823135,-0.1240921,-1.2051773,5.7465477,-1.394652,5.9407463,2.6434746,1.8059261,1.7013168,3.0060272,0.06412506,0.5295944,-4.2804604,-1.3058355,-0.79875946,-0.21301651,1.7597173,-1.1674881,-4.2767982,0.0,0.0,0.0,0.0,0.0,0.0,0.0,0.0,0.0,0.0,0.0,0.0,0.55405307,-0.92999214,-0.98433685,0.99540776,0.9756587,-0.67542696,-0.98846585,0.5002002,0.9941374,0.26427203,-0.8657231,-0.8231373
2025-06-04 17:19:21.022,-2.290791,-3.824725,-175.03632,0.26076457,-0.17615634,0.21297902,0.919323,0.396637,9.427417,0.028953552,0.5665207,-2.1405373,-1.1510454,-1.7160416,-5.6733055,1.8237591,0.020866394,-12.88899,0.07862091,0.9959793,-2.9340057,-0.6252238,1.2694931,-0.58167267,1.878683,-2.4654808,-0.65247726,-0.12729645,0.82424164,0.8624382,-1.2123095,3.4327354,6.4142838,1.8768795,1.8529892,0.7000847,0.07846832,0.13004303,-3.3551521,-1.369312,-1.1570358,3.412529,1.7205786,-0.60710907,-4.187687,0.0,0.0,0.0,0.0,0.0,0.0,0.0,0.0,0.0,0.0,0.0,0.0,-0.13233928,-0.89993787,0.66548866,0.9858078,0.9663112,-0.9968417,-0.98899585,0.34582353,0.30108556,0.9233735,-0.9716166,0.83794093
2025-06-04 17:19:21.073,-1.230874,-3.24167,-175.12337,0.059974488,0.3010365,-0.054368645,-2.411624,-0.178081,-1.929026,0.022773743,-0.056037903,-0.72205734,-1.2585436,-2.033657,1.8622093,1.8918896,1.394844,-2.3614845,0.091362,1.058464,-3.224537,-0.5852458,1.0365677,-2.1649513,1.7505091,-1.7872238,-1.8268089,-0.12943268,0.04184723,1.8109398,-1.0983988,-0.1934433,13.103836,1.8896205,-0.09304047,-0.060424805,0.09189606,0.43193817,-0.6976433,-1.4253881,-0.92891693,2.965744,1.8083166,1.8868637,2.285801,0.0,0.0,0.0,0.0,0.0,0.0,0.0,0.0,0.0,0.0,0.0,0.0,-0.97984207,-0.34957707,0.9990371,0.66303635,0.70139384,-0.9996644,-0.72082305,-0.9420738,-0.99937457,0.99780273,-0.97352725,0.99845266
2025-06-04 17:19:21.124,-0.707067,0.046932,-174.94566,-0.094093,-0.13211781,-0.027567632,-5.812799,2.934735,23.384924,-0.012779236,-0.2740097,-2.7911797,-1.3062273,0.095710754,6.540016,1.960249,0.03139496,4.479439,0.107688904,-0.5476761,-0.40345,-0.64345807,-1.1355972,4.8456535,1.8287104,0.3319931,-15.38903,-0.14949799,-0.33367157,4.3549232,-1.1886584,-1.1915207,-6.859844,1.8534572,-0.41561127,-12.602121,0.090522766,0.2148056,0.19958878,-1.4390447,-0.20687103,0.2496376,1.9065832,1.491127,0.67811203,0.0,0.0,0.0,0.0,0.0,0.0,0.0,0.0,0.0,0.0,0.0,0.0,-0.99778706,0.20730469,0.9986326,-0.5465348,-0.29468912,-0.99889374,0.37999803,-0.9792973,-0.99921906,0.9982783,-0.9438556,0.996669
2025-06-04 17:19:21.175,0.664794,-2.394471,-175.04599,0.89601195,-1.6863867,-0.10918935,3.415647,-1.09654,10.346193,-0.037879944,-0.44605255,-1.6058578,-1.1534106,2.5523796,0.032348633,1.9932842,0.5018234,1.0760651,0.08068085,0.2563095,-7.1650276,-0.77453107,-2.149929,-6.8940277,1.814596,-0.85315704,-9.263447,-0.13103485,0.3671646,5.623253,-1.279143,-2.2515526,1.1029205,1.8457515,-0.040550232,-13.795986,0.09555817,-0.21961212,1.5875473,-1.4499547,-0.9479141,0.5853348,1.9660925,0.7869339,0.6622429,0.0,0.0,0.0,0.0,0.0,0.0,0.0,0.0,0.0,0.0,0.0,0.0,-0.9971714,0.5715371,0.99712676,-0.92422414,-0.7290201,-0.9946828,0.96502334,-0.95902985,-0.9989079,0.99894583,-0.7645896,0.9963781
2025-06-04 17:19:21.226,2.494093,-5.513899,-175.5429,0.12721649,-0.24343993,-0.44523823,5.29511,-0.065527,8.784591,-0.062828064,-0.920372,-0.25940323,-0.9860179,2.7888908,-0.2496376,2.017088,0.29125214,0.77088547,0.06465912,-0.26561737,-5.5048447,-0.88416547,-1.7448807,-12.639965,1.8046016,-0.1027298,-11.663387,-0.10303497,0.27980804,8.2233925,-1.3600909,-1.3230515,1.4557114,1.8121822,-0.8727646,-8.501717,0.11379242,0.27812958,-2.4847794,-1.4823797,-0.77724457,7.9682617,1.97479,0.03681183,4.1449623,0.0,0.0,0.0,0.0,0.0,0.0,0.0,0.0,0.0,0.0,0.0,0.0,-0.9964285,0.7351922,0.9919031,-0.9525494,-0.8271133,-0.9896286,0.9913375,-0.9072592,-0.997437,0.998818,-0.3082219,0.99665725
2025-06-04 17:19:21.277,3.178044,-6.398773,-177.07597,-0.2372485,0.13634403,-0.68502706,0.980358,2.351366,9.935668,-0.07587433,0.15918732,-1.6229477,-0.8536479,2.2710075,-0.8929596,2.0305157,0.25325775,0.5987625,0.03238678,-0.9041977,-2.1026917,-0.9568736,-1.3409805,-14.214695,1.8152827,0.4102707,-14.113373,-0.086631775,0.518837,7.2516975,-1.411513,-1.1304092,2.769207,1.75191,-1.3386917,-4.2511635,0.12607574,-0.035362244,-1.1493111,-1.4425542,1.823616,5.5219345,1.9728826,0.2476883,2.645916,0.0,0.0,0.0,0.0,0.0,0.0,0.0,0.0,0.0,0.0,0.0,0.0,-0.98249197,0.6125852,0.8570312,-0.83557385,-0.1124127,-0.93645287,0.97735745,-0.48397592,-0.96773744,0.98926157,-0.20407745,0.95755774
2025-06-04 17:19:21.328,3.133357,-5.578181,-179.43228,-0.21158887,0.6068628,-0.7702172,0.100953,3.551025,10.233089,-0.07961273,0.49686432,-1.5667953,-0.78498334,0.75839996,-0.0970459,2.0296764,-0.13248444,0.11657715,0.00064849854,-0.63106537,-1.1102448,-0.98540753,-0.49991608,-0.5597,1.8313807,0.1077652,-12.918289,-0.064582825,0.8407974,5.778286,-1.4123522,0.3596115,6.331272,1.6737087,-1.4652634,-0.018920898,0.1203537,-0.4049301,2.0135803,-1.3352087,2.8683128,-1.4178696,1.9856237,0.6567764,0.7733269,0.0,0.0,0.0,0.0,0.0,0.0,0.0,0.0,0.0,0.0,0.0,0.0,-0.9844552,0.71589637,0.679105,-0.75990355,-0.14597431,-0.92136306,0.94919807,-0.5082373,-0.9050028,0.957308,0.347685,0.90470314
2025-06-04 17:19:21.379,2.61911,-4.186494,179.18335,-0.25164658,0.2639512,-0.37369972,-0.636833,2.451061,8.039307,-0.079841614,-0.0104904175,-0.92103577,-0.73310345,0.6090164,-0.13733292,2.0123577,-0.23151398,-0.34241104,-0.02002716,-0.20267487,-1.9171448,-1.0150858,-0.6862259,-0.16296768,1.8289393,-0.09151459,-11.90387,-0.041618347,0.19550323,4.433052,-1.4119707,-0.13187408,8.146488,1.6114528,-0.9256363,1.9769592,0.107154846,-0.09098053,0.25452042,-1.139591,3.5280266,-1.1200104,2.0040107,0.33031464,0.23987198,0.0,0.0,0.0,0.0,0.0,0.0,0.0,0.0,0.0,0.0,0.0,0.0,-0.99625677,0.83270943,-0.23382796,0.3197759,0.16676521,-0.92956233,0.90725356,-0.49689904,-0.091439925,0.8375645,0.74819565,0.46707922
2025-06-04 17:19:21.430,2.13842,-3.214324,178.83783,-0.454098,0.37733522,-0.00138724,-2.873436,4.028237,9.099373,-0.08426666,0.10555267,-1.1871529,-0.679774,1.08181,-0.27161026,1.9172192,-1.7943192,-0.09094238,0.004234314,0.4428482,-0.2496376,-1.0200449,-0.19626617,4.9677277,1.8200129,-0.23029327,-11.254444,-0.020866394,0.1304245,4.531929,-1.4180743,-0.20023346,8.864269,1.6222866,0.2261734,5.4230576,0.09227753,-0.03566742,0.63904953,-0.94198966,3.2411613,-0.90882874,1.9801306,-0.3321457,-0.8648796,0.0,0.0,0.0,0.0,0.0,0.0,0.0,0.0,0.0,0.0,0.0,0.0,-0.9979798,0.7352927,-0.86091685,0.49168742,0.4345746,-0.17620525,0.6834289,-0.72878087,-0.15071943,-0.43569624,0.21901333,-0.7593554
2025-06-04 17:19:21.481,0.54251,-1.814652,179.40547,-0.7353303,0.69728744,0.25158226,-2.988148,2.21161,5.045717,-0.08907318,-0.10097504,-0.32043839,-0.6617686,0.13698578,0.092163086,1.7911053,-2.2437706,-0.2093544,0.02407074,0.25119781,0.18494034,-1.0034128,0.6346512,6.1200867,1.8380183,0.3447342,-5.5182724,-0.018424988,0.05504608,4.3341713,-1.4330279,-0.13889313,3.7933922,1.6546352,0.9799576,0.7879753,0.052223206,0.028877258,-3.5138474,-0.8901861,0.974617,-4.6515617,1.8717932,-1.4216995,-6.4228287,0.0,0.0,0.0,0.0,0.0,0.0,0.0,0.0,0.0,0.0,0.0,0.0,-0.99517274,0.7392392,-0.98872095,0.9541308,0.09542161,0.8825275,-0.30076715,-0.94563127,-0.07988616,-0.9881969,-0.4785564,-0.8128167
2025-06-04 17:19:21.532,-2.247562,-0.158285,179.90161,-0.30256116,-0.6050978,0.3282938,-0.415043,-4.497506,15.645089,-0.08792877,0.5057907,-2.965744,-0.65398663,-0.15079498,0.7928581,1.79492,-0.0258255,-11.757381,0.03414154,0.3863144,3.0878143,-0.9867808,0.702858,-1.5362778,1.8902034,1.2636948,1.0052643,-0.031166077,-0.8489609,2.1698341,-1.4700304,-1.5831375,7.147938,1.7077358,1.2743759,-2.0184631,0.049552917,0.015830994,-6.8256645,-0.9036138,-1.121254,-10.155796,1.8414282,-0.018730164,-11.508354,0.0,0.0,0.0,0.0,0.0,0.0,0.0,0.0,0.0,0.0,0.0,0.0,-0.93576497,0.7560051,-0.997472,0.9921655,0.3569501,0.735836,-0.9291192,-0.9848071,-0.12229535,-0.98880553,-0.100958794,-0.97371024
2025-06-04 17:19:21.583,-5.403216,-2.386364,-178.10576,-0.9435304,-0.42362317,0.6038248,0.505411,-3.649788,9.815784,-0.06679535,0.41492462,-2.367588,-0.6481883,0.007820129,-0.6695671,1.7807293,-0.4528427,-9.090105,0.052833557,0.24791718,1.0931549,-0.9268901,1.3482285,-1.0150299,1.9317073,0.70438385,0.17639542,-0.07801056,-1.0162735,2.9254608,-1.5144335,-0.3723526,3.5907516,1.7489345,0.33260345,-1.0662994,0.024909973,-0.4417038,-3.1000214,-0.91696525,-0.13202667,-5.5707626,1.8091558,-0.64258575,-8.942398,0.0,0.0,0.0,0.0,0.0,0.0,0.0,0.0,0.0,0.0,0.0,0.0,-0.84056836,-0.17736726,-0.99943715,0.9862853,0.74984235,0.943156,-0.82864153,-0.9800151,0.4358794,-0.9671298,-0.6733043,-0.96587837
2025-06-04 17:19:21.634,-7.620611,-4.381893,-176.95766,-0.4874339,-1.2400488,0.07804069,4.691436,-1.652476,8.343888,-0.058937073,0.32978058,-1.9208069,-0.71570843,-1.2755203,-10.890669,1.7560863,-0.6521225,-7.787594,0.06679535,0.20748138,0.5902176,-0.8234355,2.3518028,-1.7962914,1.969015,0.8914566,0.42542267,-0.11676788,-0.6128311,3.6823082,-1.5628802,-1.6779709,11.989319,1.791354,0.4657364,3.5590134,0.007133484,-0.25241852,-4.126652,-0.9792211,-1.7232895,-8.61158,1.8054937,0.3534317,-13.177082,0.0,0.0,0.0,0.0,0.0,0.0,0.0,0.0,0.0,0.0,0.0,0.0,-0.22669092,-0.92143553,-0.99987954,0.9922716,0.9619662,0.98155314,-0.9218226,-0.7401067,0.8708085,-0.79275584,-0.9428706,-0.98832
2025-06-04 17:19:21.685,-8.635684,-7.108458,-176.19751,-0.04267618,-0.80296,0.30575022,4.683976,-0.906667,9.734797,-0.04550934,0.108299255,-0.3289833,-0.85021466,-2.3506584,-16.947891,1.752348,0.032844543,-9.813993,0.07556915,0.09220123,0.98573303,-0.7123515,1.9966507,-0.53650665,1.9996852,0.58208466,0.5975418,-0.13721466,-0.4805374,3.577324,-1.6165911,-0.5939102,15.515984,1.8057735,0.0497818,10.058136,0.004386902,-0.088157654,-3.6041794,-1.0701635,-1.8431473,-8.719006,1.8199133,0.29705048,-14.018158,0.0,0.0,0.0,0.0,0.0,0.0,0.0,0.0,0.0,0.0,0.0,0.0,0.08766907,-0.95916337,-0.9997997,0.9970599,0.9816472,0.89329994,-0.9501466,-0.08143051,0.9967225,-0.47448084,-0.8840463,-0.95021254
2025-06-04 17:19:21.736,-8.480536,-8.152289,-174.3794,0.4976752,0.16722001,0.81667626,3.257827,-1.504107,9.56842,-0.004310608,0.9630966,-3.7518883,-0.94100446,-1.6822433,-16.696423,1.7664623,0.42362213,-12.267643,0.08167267,-0.17238617,1.719387,-0.63758343,1.0908127,0.1300087,2.0106716,0.19039154,0.5597,-0.15254974,0.097465515,2.0636292,-1.5682207,0.8260727,17.946442,1.8134792,-0.15277863,11.19463,0.0063705444,-0.1342392,-1.5594711,-1.1463048,-1.239891,-7.1076508,1.8157171,-0.25104523,-10.589149,0.0,0.0,0.0,0.0,0.0,0.0,0.0,0.0,0.0,0.0,0.0,0.0,0.31351176,-0.9517516,-0.9990763,0.9968527,0.9819563,0.37378052,-0.97390944,0.23349623,0.997467,-0.25360394,-0.8544642,-0.93388695
2025-06-04 17:19:21.787,-7.578294,-7.494323,-171.92444,0.49769172,0.3366569,0.7906835,1.549986,-2.993377,8.517945,0.04497528,0.72696686,-4.342716,-1.0025736,-1.1198044,-16.209354,1.7877483,0.2212143,-12.713207,0.083732605,-0.29827118,1.8780823,-0.5916545,0.678215,-0.37414932,1.9829005,-0.29880524,-0.99549866,-0.1619339,0.67165375,0.79896164,-1.4416491,3.5090294,8.291752,1.8542964,0.48755646,6.040741,0.0074386597,0.10448456,-0.9747467,-1.2132146,-1.0360336,-4.248722,1.7948126,-0.63388824,-8.092773,0.0,0.0,0.0,0.0,0.0,0.0,0.0,0.0,0.0,0.0,0.0,0.0,0.4673056,-0.9167474,-0.9812668,0.9936879,0.9780306,-0.7854459,-0.98894036,0.4762928,0.9879163,-0.044541184,-0.9089767,-0.82242435
2025-06-04 17:19:21.837,-6.076364,-6.466546,-169.78215,1.146471,0.6135567,0.5903615,4.209477,-7.687978,8.84104,0.08594513,0.8575058,-4.6210403,-1.0702463,-1.6672134,-9.792019,1.799345,0.16307831,-12.27985,0.08144379,-0.64907074,3.4650192,-0.5671641,0.277977,1.030899,1.8448085,-2.9203453,0.53162384,-0.15979767,-0.18421173,0.5828934,-1.2741076,1.7491531,12.360416,1.8950374,0.2337265,6.421608,0.012702942,-0.12943268,-0.84778976,-1.287296,-1.737175,0.10559082,1.7717718,-0.4214096,-6.6742973,0.0,0.0,0.0,0.0,0.0,0.0,0.0,0.0,0.0,0.0,0.0,0.0,-0.04287248,-0.8775108,0.5173885,0.9805557,0.97287965,-0.9960913,-0.9880039,0.2498817,0.13813849,0.8177671,-0.9752989,0.732072
2025-06-04 17:19:21.889,-4.956356,-6.292364,-169.2208,0.15130696,-0.04775308,-0.21614662,0.3335,-1.596124,-5.033347,0.090675354,-0.18138885,-2.5250626,-1.1671435,-2.4951591,-1.5082016,1.8532848,1.2853622,-1.7389183,0.087623596,0.46367645,-3.09758,-0.5500743,0.4983139,-1.5790024,1.73464,-0.9302902,-4.114441,-0.15865326,0.014839172,2.5665665,-1.175841,-0.2827835,14.423439,1.8958766,-0.638237,-0.08117676,0.030326843,-0.5842209,2.5543594,-1.3580968,-0.18360138,-3.794613,1.8212103,1.7386246,0.30456924,0.0,0.0,0.0,0.0,0.0,0.0,0.0,0.0,0.0,0.0,0.0,0.0,-0.9740788,-0.238767,0.99869156,0.6229992,0.6913527,-0.9996655,-0.70527434,-0.92125297,-0.9990462,0.99628055,-0.9704545,0.9978325
2025-06-04 17:19:21.940,-2.502729,-2.664639,-169.03462,1.1487302,1.4673166,-0.047644418,-0.975381,-2.673727,10.513084,0.06763458,-1.0357285,-4.540474,-1.2131487,-1.891365,12.182194,1.9551373,1.7702866,-2.7679863,0.08846283,0.23868561,-2.0550842,-0.5987498,-1.7524338,4.3707924,1.7206782,2.0827904,-18.056305,-0.14896393,-0.21839142,4.5172806,-1.2368761,-1.0277939,-4.7357903,1.8355281,-0.28377533,-12.289616,0.05001068,0.09525299,2.0379944,-1.3998296,-0.38318634,-0.40955353,1.9131445,1.5271378,0.80018234,0.0,0.0,0.0,0.0,0.0,0.0,0.0,0.0,0.0,0.0,0.0,0.0,-0.99694943,0.36127955,0.99772274,-0.51324683,-0.23090236,-0.99885976,0.38934487,-0.96825284,-0.99882066,0.9970027,-0.9168115,0.99582165
2025-06-04 17:19:21.991,-1.455067,-1.87045,-169.73335,0.8083726,-0.7850686,-0.05346619,-1.032181,3.033556,14.042675,0.025596619,-1.1932755,-2.298008,-1.1561571,4.2848625,-3.0572968,1.982832,1.0245132,0.09460449,0.054130554,0.1366806,-4.347599,-0.72303265,-2.237133,-7.548332,1.7814082,0.13477325,-11.945374,-0.14362335,0.11013031,7.716793,-1.3034045,-1.5882492,-1.0565338,1.813174,-0.5050278,-10.216831,0.07419586,0.7279587,-1.2420845,-1.4190557,-0.73963165,1.3800278,1.970899,0.8576584,0.49744415,0.0,0.0,0.0,0.0,0.0,0.0,0.0,0.0,0.0,0.0,0.0,0.0,-0.9611047,-0.014170203,0.9881157,-0.79530597,0.045071542,-0.9731684,0.9329904,-0.7566994,-0.99668515,0.9947548,-0.76965874,0.97553474
2025-06-04 17:19:22.042,2.022948,-5.720805,-170.07835,0.94267094,-0.5126631,-0.4168294,0.060153,-1.062113,7.79411,-0.024299622,-0.31291962,0.048217773,-1.079249,0.46260834,0.24475479,2.0121288,0.48992157,0.08972168,0.054893494,-0.33779144,-4.7504387,-0.8045146,-0.7147598,-4.019226,1.7778987,0.04573822,-10.6623955,-0.112953186,0.7390976,5.990692,-1.3659655,-0.4178238,2.5555801,1.7741878,-1.2638474,-5.3913193,0.09334564,0.4907608,-0.57801056,-1.4348485,-0.047798157,3.7335777,1.9928716,0.08945465,2.8180351,0.0,0.0,0.0,0.0,0.0,0.0,0.0,0.0,0.0,0.0,0.0,0.0,-0.9700979,0.28048596,0.977942,-0.8791379,0.08828827,-0.94495237,0.97097075,-0.6676083,-0.99268174,0.9892849,-0.60917306,0.96768636
2025-06-04 17:19:22.093,3.369317,-5.99586,-171.65097,0.5805989,-0.38411558,-0.66866827,0.102499,0.760654,8.865687,-0.04787445,-0.44902802,0.2459755,-0.9982249,1.6376877,-0.526741,2.026701,0.18062592,0.19958878,0.026741028,-0.5436325,-3.3673592,-0.8371684,-0.57849884,-2.6324883,1.7790431,0.008201599,-10.38163,-0.087623596,0.92121124,5.8490868,-1.3819109,-0.586586,4.330509,1.712466,-1.0783005,-3.2477303,0.1014328,0.19771576,-0.46448517,-1.3976171,0.2009201,3.7055016,2.008741,-0.0021743774,2.006256,0.0,0.0,0.0,0.0,0.0,0.0,0.0,0.0,0.0,0.0,0.0,0.0,-0.97548854,0.42529565,0.94016695,-0.8756004,0.059478283,-0.9214591,0.9692524,-0.5939968,-0.98265064,0.97941226,-0.3974949,0.94860137
2025-06-04 17:19:22.144,4.769698,-6.143845,-173.71753,0.22363055,-0.060399648,-0.58220637,-0.30573,1.792353,8.086048,-0.06397247,-0.05672455,-0.514534,-0.9149882,1.3920975,-1.2286568,2.0312786,0.08930206,0.38391876,-0.0023269653,-0.7229233,-1.2957954,-0.8531901,-0.23342133,-4.098572,1.7843837,0.0749588,-10.723431,-0.059547424,0.3245926,5.5963974,-1.3877093,-0.20816803,4.675976,1.662112,-0.84911346,-2.092926,0.106925964,0.007286072,-0.092163086,-1.3416936,1.2259293,1.8329124,2.0121741,0.221138,1.1554146,0.0,0.0,0.0,0.0,0.0,0.0,0.0,0.0,0.0,0.0,0.0,0.0,-0.9840519,0.6046388,0.84162027,-0.9049863,0.07361563,-0.8968543,0.9720526,-0.59728605,-0.9659219,0.9571861,-0.11801588,0.91759384
2025-06-04 17:19:22.195,5.430661,-5.817158,-175.18115,0.101363815,0.10095045,-0.4611111,0.390152,1.341382,8.49297,-0.0737381,-0.23967743,-0.5963211,-0.83396405,1.5405655,-0.6976433,2.0281506,-0.090293884,-0.09460449,-0.025749207,-0.35877228,-1.0467682,-0.85677594,-0.07335663,-5.1984444,1.7955989,0.20496368,-11.305714,-0.039787292,0.13027191,5.5707626,-1.38893,-0.030479431,4.5551224,1.63251,-0.3406906,-2.548256,0.11013031,0.1543808,-0.8172722,-1.2617376,1.5468216,2.5104141,2.0127082,0.021858215,1.1798286,0.0,0.0,0.0,0.0,0.0,0.0,0.0,0.0,0.0,0.0,0.0,0.0,-0.9901992,0.7482759,0.4718068,-0.93398046,0.09813232,-0.8290397,0.9647766,-0.6125928,-0.93374586,0.8959555,0.09341331,0.76141787
2025-06-04 17:19:22.246,5.466119,-5.148984,-176.40146,-0.22731888,0.3158605,-0.43379366,-0.333967,2.459634,10.052057,-0.07892609,0.07183075,-1.3604927,-0.75721234,0.98049164,-0.4327469,1.9929028,-0.7479477,-0.044555664,-0.0497818,-0.52303314,0.0970459,-0.84434,0.6723404,-6.671856,1.8090266,0.35999298,-11.505913,-0.02544403,0.070991516,5.0128937,-1.387633,0.1543045,3.5248337,1.623431,0.0052261353,-3.1403084,0.11173248,-0.06389618,-0.5450516,-1.1843755,1.8551254,2.011139,2.0005774,-0.0623703,0.30945206,0.0,0.0,0.0,0.0,0.0,0.0,0.0,0.0,0.0,0.0,0.0,0.0,-0.9927268,0.8103553,-0.20853287,-0.9552961,0.1354679,-0.5752601,0.94954336,-0.71698284,-0.9330513,0.77191484,-0.088163964,0.12422157
2025-06-04 17:19:22.297,5.18935,-4.725869,-177.43365,-0.23291092,0.27349877,-0.27837306,1.679651,1.659057,8.727675,-0.08327484,0.07564545,-1.1480904,-0.69777936,0.94387054,0.037231445,1.9027233,-1.5864182,-0.07019043,-0.06832123,-0.3472519,-0.18982315,-0.83251446,0.18795013,-5.7233543,1.8284816,0.27118683,-9.698025,-0.013847351,0.007972717,4.8285637,-1.3966357,-0.2701187,1.8426781,1.627856,0.08930206,-3.8275719,0.11554718,0.44132233,-1.7022972,-1.1392858,0.7653427,1.0052643,1.9673895,-0.5787277,-3.8898315,0.0,0.0,0.0,0.0,0.0,0.0,0.0,0.0,0.0,0.0,0.0,0.0,-0.99117756,0.77713037,-0.62147045,-0.9363884,0.06522666,0.1580582,0.90140086,-0.90235007,-0.950358,0.44943374,-0.49789932,-0.63224053
2025-06-04 17:19:22.347,4.248318,-3.981806,-177.94424,-0.35760257,0.34939066,-0.10197481,5.110922,2.068501,6.797621,-0.08419037,-0.083351135,-0.54261017,-0.6694743,0.21938324,0.30701065,1.8036938,-1.7187119,-0.22766495,-0.086250305,-0.20801544,0.285038,-0.84029645,-0.59581757,-3.9362183,1.8709773,0.76984406,-4.5746536,-0.010414124,-0.10570526,4.802929,-1.4100634,-0.20938873,-0.10925293,1.6334255,0.059700012,-4.3170815,0.11089325,-0.060920715,-2.4457169,-1.1405065,0.043067932,-4.3671303,1.932752,-0.39150238,-11.877014,0.0,0.0,0.0,0.0,0.0,0.0,0.0,0.0,0.0,0.0,0.0,0.0,-0.98377585,0.62468904,-0.8713794,-0.23795794,0.24959989,0.65692914,0.49575338,-0.9677265,-0.9051436,-0.4690141,-0.25329497,-0.86082894
2025-06-04 17:19:22.399,2.6133,-2.624004,-178.04065,-0.9331469,1.0491157,-0.09668524,2.320141,2.353225,6.437239,-0.091362,-0.85948944,1.2713814,-0.67496747,-0.20778656,-0.021362305,1.7293072,0.626564,-9.678492,-0.08968353,-0.16925812,3.4564743,-0.85418195,-0.71178436,0.5120926,1.9332331,1.4438248,-4.114441,-0.0157547,-0.020484924,3.3844528,-1.4238726,-0.062294006,-1.1639595,1.6347225,-0.061836243,-3.2428474,0.08823395,-0.63861847,-3.9191284,-1.1131933,0.76000214,-3.4027634,1.8914007,-0.9244156,-9.898224,0.0,0.0,0.0,0.0,0.0,0.0,0.0,0.0,0.0,0.0,0.0,0.0,-0.8415288,-0.73997164,-0.9985348,0.90318966,0.7638308,0.98211753,-0.6285564,-0.93141866,-0.6632067,-0.63849354,-0.7552509,-0.98381364
2025-06-04 17:19:22.450,0.586826,-1.577503,-178.3618,-0.8427544,-0.72888035,-0.2090348,3.057869,-2.606727,11.31874,-0.10562897,-0.33519745,3.1439705,-0.80863446,-2.2153893,-14.925154,1.7782879,0.55309296,-13.701992,-0.048713684,1.2557602,1.4569321,-0.80504864,2.099041,-2.306553,1.9811457,0.62129974,0.3680458,-0.035362244,-0.47016144,0.60974884,-1.468352,-1.9685745,9.261005,1.6346462,-0.0014877319,-0.46326447,0.09120941,-0.34786224,-6.4802017,-1.1655309,-1.5019608,-2.977951,1.8669866,-0.6962967,-12.0442505,0.0,0.0,0.0,0.0,0.0,0.0,0.0,0.0,0.0,0.0,0.0,0.0,-0.36378387,-0.9277132,-0.99924964,0.9881945,0.94858146,0.91202503,-0.8786152,-0.6534624,0.9350455,-0.46134079,-0.87911814,-0.9739512
2025-06-04 17:19:22.500,-2.273823,-3.590436,-178.89464,-0.6062911,-0.51622427,0.030274184,2.45887,-0.12638,9.536274,-0.11463165,-0.08602142,3.7848473,-0.92589825,-2.35104,-14.507668,1.7894268,0.081977844,-11.712215,0.008430481,0.966835,0.7806511,-0.7046458,1.8226242,-0.8978424,2.0012875,0.34442902,0.41077423,-0.058174133,-0.20694733,0.033569336,-1.5158831,-0.6811142,11.252003,1.7178066,0.9498215,9.745632,0.081214905,-0.11219025,-5.2521553,-1.2398412,-1.6611862,-1.5545883,1.8279241,-0.72826385,-9.4941635,0.0,0.0,0.0,0.0,0.0,0.0,0.0,0.0,0.0,0.0,0.0,0.0,-0.13719974,-0.9739251,-0.9997959,0.9982273,0.9841367,0.7895824,-0.9581192,0.17405072,0.9991423,-0.11389736,-0.821206,-0.90115565
2025-06-04 17:19:22.551,-3.03334,-4.101313,-178.33258,0.2235176,0.4642774,0.37702122,0.147047,-1.651592,8.700778,-0.09525299,0.13362885,0.6720085,-1.0156199,-1.5224075,-13.522545,1.8074322,0.18978119,-13.3028145,0.046577454,0.69408417,0.5609207,-0.63102216,0.7690048,-0.3619423,2.0033474,-0.050468445,0.2825966,-0.08228302,0.53661346,-0.35828018,-1.4200579,1.9973373,9.519798,1.7877681,0.067481995,10.4451065,0.0812912,0.20442963,-4.950638,-1.2975957,-0.6606674,-1.6473656,1.7767309,-1.2343216,-4.437935,0.0,0.0,0.0,0.0,0.0,0.0,0.0,0.0,0.0,0.0,0.0,0.0,0.04240488,-0.9522618,-0.9977797,0.9973734,0.98287886,-0.30389482,-0.97887087,0.3875672,0.9980298,-0.02613751,-0.83281094,-0.88542074
2025-06-04 17:19:22.603,-1.762693,-3.219882,-177.26434,0.4658239,0.16102836,0.3778275,5.538112,-1.135062,6.185602,-0.0623703,0.30483246,0.83680344,-1.0988566,-1.893425,-8.249027,1.816206,0.09311676,-12.9256115,0.062294006,-0.3672409,2.0794983,-0.5904338,0.30017853,2.0257874,1.9101924,-2.2478905,0.017700195,-0.10105133,0.35930634,-0.5047684,-1.255797,2.1923485,7.7888145,1.859637,0.92372894,4.848095,0.09143829,-0.017662048,-4.8078117,-1.3517644,-1.3016129,3.8544273,1.7308019,-1.0095596,-2.9852753,0.0,0.0,0.0,0.0,0.0,0.0,0.0,0.0,0.0,0.0,0.0,0.0,-0.05080275,-0.9385059,-0.74590623,0.99322987,0.97643167,-0.9840787,-0.9896069,0.5175234,0.95201904,0.663488,-0.93463653,0.28604868
2025-06-04 17:19:22.654,-0.1701,-2.636286,-176.88103,0.5172274,-0.23911825,-0.17694265,0.960194,-3.108933,4.862866,-0.051612854,-0.6283188,3.1635017,-1.2030779,-2.3350945,-0.25696182,1.8177319,-0.12248993,-8.910658,0.07190704,0.50525665,0.23743057,-0.56678265,0.07228851,0.8612175,1.7762965,-1.7768478,-2.080719,-0.10341644,-0.03314972,-0.1678505,-1.0800883,2.1419182,5.1483955,1.922961,0.70583344,2.1722755,0.10883331,0.77259064,-5.474327,-1.4369085,-2.4221458,8.99733,1.7512487,0.19702911,4.11322,0.0,0.0,0.0,0.0,0.0,0.0,0.0,0.0,0.0,0.0,0.0,0.0,-0.8959245,-0.8183236,0.99170125,0.93240905,0.9380187,-0.99950325,-0.9265603,-0.65902376,-0.98458,0.99118245,-0.98619056,0.9877342
2025-06-04 17:19:22.704,0.719412,-2.304562,-178.39124,0.18272363,-0.38502556,-0.5402582,-9.642735,5.470458,14.719728,-0.06626129,0.4704666,1.7010765,-1.2873827,-0.39295197,-3.9642944,1.8046856,-0.672493,-6.024872,0.069999695,-0.476799,2.9840546,-0.6277415,-0.6713486,7.83276,1.8059748,0.05756378,-12.421455,-0.109825134,0.15033722,0.14587784,-0.9998271,1.8519974,2.6532402,1.9550807,0.64762115,1.6925316,0.11379242,-0.21625519,-1.818264,-1.4905431,-0.41606903,4.278019,1.7684911,0.46611786,3.2062263,0.0,0.0,0.0,0.0,0.0,0.0,0.0,0.0,0.0,0.0,0.0,0.0,-0.99749106,0.1333012,0.9995531,-0.197176,-0.2913111,-0.9997051,0.06029589,-0.9824872,-0.9995748,0.9987971,-0.9544203,0.9987744
2025-06-04 17:19:22.755,0.7848,-3.609364,-179.32478,-0.50228095,-1.1208814,-0.12663868,-1.328884,3.236714,8.78932,-0.07343292,0.48496246,-1.948883,-1.2508379,2.4401512,4.278019,1.8289471,1.8774796,2.879074,0.0333786,-0.4668808,-0.7428093,-0.7152507,-1.9359207,-9.844509,1.7814082,-0.26203156,-9.602806,-0.098991394,0.1304245,5.778286,-1.0002085,-1.9421768,-12.097963,1.9527919,0.6983566,-21.560997,0.13339996,0.64876556,-4.319523,-1.5312078,-1.4976883,9.13405,1.8189214,1.2073135,5.519493,0.0,0.0,0.0,0.0,0.0,0.0,0.0,0.0,0.0,0.0,0.0,0.0,-0.99716735,0.3156829,0.99932045,-0.85041165,-0.67420524,-0.9987932,0.89915794,-0.9759772,-0.99963236,0.9995128,-0.91522443,0.99868023
2025-06-04 17:19:22.806,0.933745,-6.797532,-179.66849,0.0549534,-0.72873163,-0.17713298,4.512421,-2.98443,10.572219,-0.07846832,0.2010727,-1.0260162,-1.0852,2.5645103,-1.3690376,1.9197369,1.4209366,0.53772736,0.016975403,-0.31116486,-4.24506,-0.8232066,-2.051052,-13.586021,1.7722529,-0.08228302,-9.779812,-0.07236481,0.32169342,5.237507,-1.0866495,-1.5468216,-10.116732,1.9800289,0.05580902,-20.356146,0.1543808,0.04398346,-2.2052345,-1.5747716,-0.69545746,8.167238,1.8659185,0.549736,6.6523247,0.0,0.0,0.0,0.0,0.0,0.0,0.0,0.0,0.0,0.0,0.0,0.0,-0.9966077,0.5858929,0.99855655,-0.94616556,-0.81417453,-0.99596864,0.9899052,-0.9564603,-0.9992959,0.99954414,-0.71592855,0.9988903
2025-06-04 17:19:22.857,1.558444,-8.519336,179.47955,0.23391168,-0.25139964,-0.4803236,5.178733,-1.421368,9.774869,-0.08289337,-0.29865265,-0.29358292,-0.9417674,2.3312035,-0.604866,1.9719982,0.9923172,0.38391876,-0.0020980835,-0.43216705,-2.2381935,-0.9265849,-1.9076157,-13.39315,1.7704982,0.015296936,-10.497597,-0.049858093,0.28255463,5.383995,-1.1661516,-1.6439438,-6.0517273,1.9659145,-0.63243866,-17.001602,0.16147614,-0.03856659,-2.9388885,-1.5630987,1.015892,7.409172,1.8977331,0.9295273,3.7103844,0.0,0.0,0.0,0.0,0.0,0.0,0.0,0.0,0.0,0.0,0.0,0.0,-0.99744165,0.7210823,0.9955714,-0.27717003,-0.82082325,-0.99687296,0.9983686,-0.9068983,-0.98580694,0.99962616,0.1049598,0.99951994
2025-06-04 17:19:22.909,2.682292,-8.616396,177.54085,-0.062259663,0.62546,-0.9814898,6.129768,2.204585,12.732993,-0.08457184,0.91754913,-4.396431,-0.82641095,1.5898514,0.19226456,2.0028973,0.16986847,1.7328148,-0.017204285,-0.47611237,1.1126862,-0.99151105,-1.2648392,-12.073547,1.7737788,0.028266907,-10.75761,-0.027198792,0.18985748,5.1898994,-1.2268816,-1.3633347,-4.1071167,1.9106014,-1.4090347,-10.470741,0.1656723,0.8070755,-2.6276054,-1.4386632,1.0861588,15.996948,1.9150518,-0.50922394,8.571299,0.0,0.0,0.0,0.0,0.0,0.0,0.0,0.0,0.0,0.0,0.0,0.0,-0.99788034,0.89559424,0.9795695,0.09410588,-0.8674033,-0.99757856,0.9959267,-0.8741317,-0.8930919,0.9984674,0.8090832,0.99912006
2025-06-04 17:19:22.959,3.460972,-7.86044,175.4286,-0.18988304,0.70819753,-1.0513991,5.690014,4.367162,8.544223,-0.08579254,0.21396637,-3.6896324,-0.7300517,1.47686,1.3067818,2.022276,0.22006989,0.2899208,-0.036582947,-0.2868271,3.6469078,-1.047587,-1.4845657,-9.829861,1.7809504,0.036125183,-11.038376,-0.0005722046,0.84575653,2.1771584,-1.2800585,-1.0940933,-1.137104,1.8451412,-1.4570999,-6.0737,0.16643524,-0.639534,-0.76234055,-1.2052801,5.8504906,0.04333496,1.9456457,1.0400009,0.5108719,0.0,0.0,0.0,0.0,0.0,0.0,0.0,0.0,0.0,0.0,0.0,0.0,-0.99893796,0.9463816,0.7668934,-0.12185706,-0.8801552,-0.9929377,0.9877658,-0.89922726,-0.50508463,0.99442786,0.9748397,0.9837923
2025-06-04 17:19:23.010,4.451678,-7.578253,173.7535,0.2096065,-0.095973454,-0.18142235,2.242796,1.359095,10.179427,-0.085487366,0.11997223,-1.3726997,-0.6540629,1.1496353,0.6243973,2.018156,-0.088768005,-0.13611221,-0.036964417,0.0712204,0.6952019,-1.1466967,-2.3918571,-2.9401093,1.7791957,-0.25310516,-9.72488,0.026893616,0.019874573,2.715496,-1.3622271,-1.7058182,4.5795364,1.8031032,-0.5282974,-3.9679565,0.14904022,-0.9963608,1.2957954,-0.9628179,5.0336876,-1.6754417,1.9807409,0.93006134,0.12756729,0.0,0.0,0.0,0.0,0.0,0.0,0.0,0.0,0.0,0.0,0.0,0.0,-0.9994398,0.9502764,-0.7368134,-0.11935771,-0.87976664,-0.8023557,0.96240664,-0.95053524,-0.62484866,0.99100256,0.96457165,0.27152058
2025-06-04 17:19:23.061,5.909562,-8.523546,174.25706,0.5751581,-0.20566577,0.58595455,1.083055,1.672184,9.117259,-0.08655548,-0.09365082,-0.83558273,-0.60843915,0.53066254,-0.22400284,2.012968,-0.0472641,-0.23865128,-0.008354187,0.5653763,-3.1964607,-1.2613665,-2.2279015,2.6166153,1.7769068,-0.10601044,-10.2607765,0.03261566,-0.111198425,3.851986,-1.4432513,-1.2990189,6.1738014,1.7727382,-0.59215546,-2.1649513,0.12134552,-0.62122345,1.0113678,-0.7851293,2.7124443,-0.77088547,2.0082068,0.44460297,0.64759445,0.0,0.0,0.0,0.0,0.0,0.0,0.0,0.0,0.0,0.0,0.0,0.0,-0.9991946,0.92589986,-0.9944907,0.39547005,-0.85023826,0.98906225,0.6382819,-0.9920231,-0.9196314,0.92964566,-0.011826992,-0.99096745
2025-06-04 17:19:23.113,6.733886,-8.538733,176.44472,0.19616708,0.28124768,0.7714481,1.028042,2.744847,8.64564,-0.08594513,0.12081146,-1.2066841,-0.5801341,0.38097382,-1.0089264,1.9444561,-4.6487083,0.665905,0.023918152,0.6737137,-1.2591743,-1.3716875,-2.4846306,9.037613,1.8145198,1.7348862,3.744564,0.011329651,-0.4594803,3.5834274,-1.4902483,-0.72948456,4.166935,1.7283351,-1.0121536,-3.2062263,0.10837555,0.53440094,-0.67811203,-0.73424125,-2.5389519,-0.9063873,1.9600652,-2.8487816,-2.5506973,0.0,0.0,0.0,0.0,0.0,0.0,0.0,0.0,0.0,0.0,0.0,0.0,-0.9717959,0.8973863,-0.9506542,0.98471457,-0.2842286,0.9567815,-0.839795,-0.9888033,-0.7373346,-0.8325882,-0.30441633,-0.975099
2025-06-04 17:19:23.163,5.238146,-4.923787,178.0792,-2.0109913,1.9916099,0.13913585,2.137529,5.16252,6.655579,-0.09731293,0.13950348,-1.9989319,-0.5747935,0.1342392,-0.19104385,1.7821789,-2.5128593,0.00793457,0.018196106,-0.78014374,7.287098,-1.3950335,-0.34496307,13.616541,1.863882,0.62244415,5.7270164,-0.02910614,-0.5654526,-0.5157547,-1.4833056,0.06877899,0.17395401,1.6831691,-0.8158493,-0.18860245,0.059165955,-1.2570572,-0.5535965,-0.7762029,-0.14743805,-15.884644,1.9409918,-0.84781647,-14.433205,0.0,0.0,0.0,0.0,0.0,0.0,0.0,0.0,0.0,0.0,0.0,0.0,-0.930689,0.8351395,-0.9971217,0.99433255,-0.25327215,0.9540002,-0.98160404,-0.9977178,-0.6599591,-0.97893655,-0.18849476,-0.99693274
2025-06-04 17:19:23.215,0.793216,0.123813,179.60909,-0.11306318,0.64952534,0.69703704,-7.205328,-2.207153,26.180948,-0.10593414,0.7024765,-1.0284576,-0.59730023,-0.8243942,3.2538338,1.8118572,1.291008,-18.515297,0.008354187,0.15117645,3.2843513,-1.4247881,0.047035217,13.73373,1.8806666,-0.03025055,8.1709,-0.04436493,-0.26424408,-1.8548851,-1.478499,-0.13645172,-0.099487305,1.6623409,-0.38959503,-0.57434845,0.024299622,-0.018730164,-5.359577,-0.79855704,-0.77228546,-8.936295,1.9187902,-0.35282135,-16.160526,0.0,0.0,0.0,0.0,0.0,0.0,0.0,0.0,0.0,0.0,0.0,0.0,-0.85905683,0.802372,-0.9985629,0.99464625,-0.20445575,0.9834712,-0.9898102,-0.99761415,-0.53615826,-0.97626257,-0.2646183,-0.9977847
2025-06-04 17:19:23.267,-1.554268,-0.153794,-179.29382,-1.090215,-1.0701616,0.2549569,-3.274784,-1.470685,11.701879,-0.09250641,-0.1922226,0.115356445,-0.64643353,-0.8861923,5.8344383,1.8130016,-0.91213226,-8.311283,0.032844543,0.19924164,1.1273384,-1.2973009,1.7075729,-0.2093544,1.9406337,1.1840439,0.5059891,-0.068473816,-0.15026093,-0.6268425,-1.4871203,-0.71689606,3.970398,1.6586788,-0.0059890747,-0.12390137,0.0046920776,-0.802269,-1.3421822,-0.85905814,-1.4860153,-5.4560165,1.8849157,-0.5541611,-13.289387,0.0,0.0,0.0,0.0,0.0,0.0,0.0,0.0,0.0,0.0,0.0,0.0,-0.6022402,0.24576947,-0.99903065,0.988755,0.58078074,0.99198097,-0.8986529,-0.9947323,-0.30758196,-0.978265,-0.7222259,-0.99230814
2025-06-04 17:19:23.318,-4.079459,-2.947102,-178.25125,-0.32198992,-1.2819144,0.30716807,3.166741,-0.543776,7.762768,-0.07572174,0.071525574,-0.94667053,-0.71296185,-0.72078705,-3.872738,1.7535686,-1.268425,-4.549019,0.05809784,0.11959076,0.80018234,-1.077418,3.7344017,-1.1346626,1.9846553,0.7818985,0.30823135,-0.107307434,-0.58452606,3.4137497,-1.5324389,-1.2587357,7.1699104,1.6628749,-0.082969666,2.8546562,-0.019569397,0.04901886,-3.0597382,-0.9537389,-2.094387,-9.390404,1.8730139,0.031166077,-15.38903,0.0,0.0,0.0,0.0,0.0,0.0,0.0,0.0,0.0,0.0,0.0,0.0,-0.72991145,0.22435184,-0.99843615,0.9862552,0.82735795,0.91370845,-0.76500934,-0.9691841,0.47285315,-0.97600085,-0.69959944,-0.9578225
2025-06-04 17:19:23.369,-5.417923,-5.658117,-176.8104,-0.4353439,-0.58452475,0.45023647,1.968418,-0.512039,7.88648,-0.06351471,0.46466827,-1.3299751,-0.7529399,-0.91213226,-2.5555801,1.7259502,-0.1203537,-7.827877,0.06946564,0.2073288,0.973526,-0.88553876,3.0064812,-0.38880157,2.002737,0.12477875,1.1346626,-0.12210846,-0.35305023,3.617607,-1.5746294,-0.9620285,8.517586,1.7104061,0.8501816,6.4325943,-0.03276825,-0.11348724,-2.4603653,-1.0287359,-1.3731766,-7.732662,1.8684362,-0.06816864,-13.946136,0.0,0.0,0.0,0.0,0.0,0.0,0.0,0.0,0.0,0.0,0.0,0.0,-0.87332904,-0.011298696,-0.99925,0.99282235,0.9340872,0.7125708,-0.7546913,-0.8716131,0.9076941,-0.98319566,-0.6250175,-0.8928257
2025-06-04 17:19:23.420,-6.857114,-6.691862,-175.55106,-0.43075916,-0.34144127,0.36555132,1.698065,-2.238928,9.912308,-0.05504608,0.3799057,-0.7342644,-0.8029887,-0.7908249,-4.372013,1.7300701,0.07778168,-9.330587,0.07434845,-0.10799408,1.3031197,-0.7487437,1.7747116,-0.49744415,1.9985408,-0.122795105,0.18127823,-0.12462616,-0.47130585,3.469902,-1.5867602,-0.7059097,10.366978,1.7865474,0.9554672,7.6081467,-0.04421234,-0.06641388,-2.080719,-1.0825994,-0.95516205,-5.3583565,1.8601965,-0.3736496,-12.220036,0.0,0.0,0.0,0.0,0.0,0.0,0.0,0.0,0.0,0.0,0.0,0.0,-0.92388916,-0.12918474,-0.9993396,0.99434114,0.964123,0.23879983,-0.76490587,-0.6657177,0.97577137,-0.98556405,-0.51917666,-0.8100604
2025-06-04 17:19:23.471,-7.994125,-7.155524,-174.87962,-0.23004374,-0.0028183577,0.0724572,0.841426,-3.567061,9.54227,-0.048561096,0.18848419,-3.875183,-0.84151715,-0.6145096,-6.7231255,1.7403698,0.37326813,-10.657511,0.07816315,0.17765045,0.42908478,-0.66749066,1.5758133,-0.35583878,1.9585627,-0.71086884,-0.06652832,-0.12569427,0.015525818,1.9928284,-1.5676104,1.1757278,5.835659,1.8447597,1.505394,2.256504,-0.051002502,-0.08823395,-1.649807,-1.1125066,-0.49793243,-3.982605,1.8453954,-0.3799057,-9.666286,0.0,0.0,0.0,0.0,0.0,0.0,0.0,0.0,0.0,0.0,0.0,0.0,-0.93220073,-0.041979127,-0.9988678,0.9913661,0.9703821,-0.36765897,-0.74119484,-0.5515728,0.97711855,-0.99048823,-0.45821416,-0.7600217
2025-06-04 17:19:23.522,-8.830124,-7.038369,-174.67485,0.054465827,0.20677148,0.051464714,0.733823,-4.030297,9.210097,-0.04688263,0.10044098,-4.491646,-0.8713481,-0.42125702,-5.2887764,1.7496014,0.20542145,-10.5232315,0.079460144,0.04688263,0.76722336,-0.6087443,0.9207535,0.17517471,1.8641871,-1.4017105,-0.5999832,-0.12187958,-0.10219574,1.7645531,-1.5238177,1.5575027,4.831005,1.8914516,1.540947,0.84412766,-0.052986145,-0.1002121,-1.5423813,-1.1270788,-0.21564484,-3.01091,1.8225073,-0.20671844,-8.887466,0.0,0.0,0.0,0.0,0.0,0.0,0.0,0.0,0.0,0.0,0.0,0.0,-0.9299233,-0.039496087,-0.99793446,0.9846941,0.97191894,-0.7204542,-0.69291943,-0.56104696,0.9604332,-0.9921813,-0.49414843,-0.6957762
2025-06-04 17:19:23.573,-8.919333,-6.790559,-174.70847,0.014096134,-0.07311856,-0.14788923,-1.347578,-2.41455,8.686022,-0.048561096,-0.04459381,-1.7694359,-0.8900401,-0.25722504,-4.4977493,1.7517376,-0.042381287,-9.709011,0.07923126,0.046424866,0.8209343,-0.5788371,0.8899307,-1.1920357,1.7796534,-1.1945724,-0.7476921,-0.11722565,0.48870087,0.35095596,-1.4875017,1.2218857,4.1071167,1.9197567,0.65670013,3.056076,-0.05214691,-0.12119293,-1.7767601,-1.1397436,0.06450653,-4.1156616,1.8168615,-0.09563446,-8.654308,0.0,0.0,0.0,0.0,0.0,0.0,0.0,0.0,0.0,0.0,0.0,0.0,-0.93362796,-0.03247801,-0.99608374,0.9780506,0.9733264,-0.8574057,-0.6689224,-0.5665166,0.92853135,-0.9918475,-0.58371437,-0.6624317
2025-06-04 17:19:23.624,-8.792174,-6.759385,-174.96655,0.24337706,0.093643025,-0.06454713,1.173276,-3.477812,9.72714,-0.05504608,-0.14400482,-1.6253929,-0.9099528,-0.18146515,-3.941101,1.7518139,0.059776306,-9.735867,0.07915497,-0.058631897,1.1859322,-0.5589244,0.5150223,0.19592667,1.6966456,-1.0129166,-0.32043839,-0.11287689,0.22380829,1.4886703,-1.4570605,0.6669235,5.2069893,1.9415004,0.43483734,2.5043106,-0.05115509,-0.039711,-2.16251,-1.1606481,-0.60848236,-3.8458824,1.8208288,0.19741058,-9.588158,0.0,0.0,0.0,0.0,0.0,0.0,0.0,0.0,0.0,0.0,0.0,0.0,-0.92794436,-0.041171018,-0.9936532,0.97301245,0.9742627,-0.9117212,-0.66545963,-0.6008426,0.8836417,-0.99072784,-0.64722764,-0.65651834
2025-06-04 17:19:23.674,-8.293815,-6.649023,-175.29901,0.13757284,0.06796895,-0.022649609,2.045353,-0.971778,9.754201,-0.063056946,-0.08441925,-0.91859436,-0.9236857,-0.03566742,-3.2501717,1.7518902,0.0048446655,-9.705349,0.07892609,-0.041236877,0.973526,-0.5498454,0.09044647,0.4718094,1.6449946,-0.88306427,-0.45838165,-0.10814667,-0.029640198,2.2162209,-1.4402758,-0.0011825562,6.602272,1.947375,0.009346008,3.8129234,-0.05252838,-0.123939514,-2.4750137,-1.1775091,-0.23799896,-4.031433,1.8298315,0.25218964,-10.282749,0.0,0.0,0.0,0.0,0.0,0.0,0.0,0.0,0.0,0.0,0.0,0.0,-0.92869747,-0.08031931,-0.99147105,0.9684254,0.97323453,-0.9277197,-0.65365756,-0.6257936,0.8525568,-0.9885043,-0.6685381,-0.6423527
2025-06-04 17:19:23.726,-7.795602,-6.560629,-175.59073,0.18755023,0.053124487,-0.15364754,0.657207,-1.604518,9.008547,-0.071144104,-0.2816391,-0.41077423,-0.93955487,-0.33771515,-3.0609589,1.7517376,-0.0032424927,-9.70779,0.07884979,-0.009117126,1.0711823,-0.5434367,0.1455307,0.03479004,1.6115779,-0.5213547,-0.5096512,-0.10448456,0.27996063,0.7806511,-1.4298998,0.43231964,4.170597,1.951266,0.032234192,3.1732674,-0.05420685,-0.13057709,-2.0050354,-1.1968877,-0.19351959,-3.97406,1.8428777,0.14247894,-10.332798,0.0,0.0,0.0,0.0,0.0,0.0,0.0,0.0,0.0,0.0,0.0,0.0,-0.9290946,-0.053053893,-0.9896523,0.96716136,0.97339803,-0.9385256,-0.65207815,-0.6170487,0.83497703,-0.9885949,-0.6892422,-0.629802
2025-06-04 17:19:23.777,-7.213925,-6.401693,-175.99089,0.23279224,0.122849956,-0.09178847,1.820567,-1.436452,10.228819,-0.07938385,-0.17520905,-0.17395401,-0.95389813,-0.36830902,-1.9049377,1.7518139,-0.006752014,-9.619898,0.07846832,-0.0762558,1.0540924,-0.53901166,-0.0838089,0.08972168,1.5904444,-0.4668045,-0.3643837,-0.100364685,-0.12073517,1.851223,-1.4195238,0.14827728,5.2509346,1.9535549,0.095710754,2.7423515,-0.053977966,0.07610321,-2.4542618,-1.2144353,-0.14736176,-3.711605,1.8536352,0.12928009,-10.368198,0.0,0.0,0.0,0.0,0.0,0.0,0.0,0.0,0.0,0.0,0.0,0.0,-0.9270029,-0.08128759,-0.98828155,0.9647981,0.9728443,-0.94555825,-0.6440159,-0.6311002,0.8139782,-0.98712313,-0.6898955,-0.6130691
2025-06-04 17:19:23.827,-6.689774,-6.216914,-176.39076,0.1753049,0.08394873,-0.18051,1.326156,-1.321553,9.872014,-0.08869171,-0.34008026,0.61951447,-0.9704539,-0.47283173,-2.084381,1.7518139,-0.021781921,-9.612574,0.0787735,0.07068634,0.77088547,-0.5356547,0.045967102,-0.028686523,1.5796107,-0.15895844,-0.4742508,-0.09479523,0.06679535,0.9710846,-1.4058672,0.194664,3.7433434,1.9555385,0.051994324,2.5262833,-0.05504608,0.024147034,-2.1466408,-1.2280157,-0.24532318,-3.6725426,1.8599676,0.10234833,-10.276646,0.0,0.0,0.0,0.0,0.0,0.0,0.0,0.0,0.0,0.0,0.0,0.0,-0.92757684,-0.09252032,-0.98679656,0.9645022,0.97268134,-0.95067334,-0.64654493,-0.60446537,0.8153584,-0.9858933,-0.69494706,-0.57937825
2025-06-04 17:19:23.879,-6.241464,-6.033564,-176.91986,0.18278782,0.15000206,-0.16009831,1.139915,-0.930056,9.325562,-0.098228455,0.0371933,0.5951004,-0.99006146,-0.24669647,-0.3973465,1.7515087,-0.032157898,-9.599146,0.07923126,-0.10135651,1.2213326,-0.5337474,0.16590118,-0.0982666,1.5691584,-0.12012482,-0.23865128,-0.08678436,0.2968216,0.1702919,-1.3867174,0.091285706,2.8766327,1.9602687,0.031089783,2.4127579,-0.054740906,-0.0047683716,-2.3651466,-1.2429693,-0.29506683,-2.887619,1.8649267,0.06137848,-10.014191,0.0,0.0,0.0,0.0,0.0,0.0,0.0,0.0,0.0,0.0,0.0,0.0,-0.9244225,-0.10844485,-0.98350775,0.9630133,0.97251177,-0.95984584,-0.65664476,-0.5889355,0.78747493,-0.9840776,-0.71331894,-0.54453206
2025-06-04 17:19:23.930,-5.630851,-5.706392,-177.49374,0.1443251,0.097651586,-0.1794909,1.418965,-0.743956,9.000238,-0.10707855,-0.09525299,1.0003815,-1.0111185,-0.2941513,-0.27771378,1.7516613,-0.025901794,-9.573511,0.07923126,0.10059357,0.61463165,-0.53298444,0.032539368,-0.00061035156,1.5625972,-0.03917694,-0.43030548,-0.080451965,0.17024994,0.09338379,-1.3659655,0.6227493,0.95155334,1.9640834,0.2097702,1.1639595,-0.052223206,-0.013542175,-2.3614845,-1.2593725,-0.14842987,-2.769207,1.870191,0.099220276,-9.914093,0.0,0.0,0.0,0.0,0.0,0.0,0.0,0.0,0.0,0.0,0.0,0.0,-0.919997,-0.10742547,-0.97844666,0.9591055,0.97190326,-0.96845776,-0.6592791,-0.59192395,0.7387397,-0.98176765,-0.7241463,-0.5082332
2025-06-04 17:19:23.981,-5.033095,-5.352117,-178.04065,0.25469443,0.17468329,-0.1763922,1.05617,-1.369863,10.018236,-0.11631012,-0.33367157,1.7022972,-1.0291239,-0.35495758,0.5889969,1.7514324,0.010566711,-9.532005,0.078697205,-0.12638092,1.281147,-0.5322978,0.08426666,0.022583008,1.5593928,-0.09075165,-0.38636017,-0.07472992,0.12088776,-0.29602432,-1.3479601,0.3129959,1.543602,1.9653804,-0.016899109,1.3641548,-0.049705505,0.026817322,-2.5348282,-1.2783697,-0.49732208,-1.0284576,1.8749975,0.081214905,-9.766384,0.0,0.0,0.0,0.0,0.0,0.0,0.0,0.0,0.0,0.0,0.0,0.0,-0.91629547,-0.14088951,-0.9731088,0.9566106,0.9707506,-0.9729717,-0.6640955,-0.5785135,0.7123904,-0.97708535,-0.73387474,-0.4518239
2025-06-04 17:19:24.032,-4.365785,-4.926514,-178.661,0.24717054,0.18308198,-0.19012506,1.487237,-1.011835,9.36305,-0.12676239,-0.3055954,2.3041115,-1.0539194,-0.76602936,1.2909126,1.7512035,-0.11287689,-9.340353,0.079078674,0.00995636,0.84168625,-0.5319163,-0.054512024,0.072631836,1.5586299,0.12371063,-1.3421822,-0.069236755,0.30056,-0.4412918,-1.3291155,0.19458771,0.53040314,1.9656093,0.029258728,0.7879753,-0.04688263,0.03139496,-2.6520195,-1.2965276,-0.26584625,-0.80750656,1.8802618,0.071525574,-9.239033,0.0,0.0,0.0,0.0,0.0,0.0,0.0,0.0,0.0,0.0,0.0,0.0,-0.91442096,-0.17254774,-0.9641781,0.953685,0.9699369,-0.9774297,-0.65736324,-0.55893147,0.6719099,-0.9714242,-0.7438361,-0.3654808
2025-06-04 17:19:24.083,-3.865319,-4.641329,-179.28157,0.09811313,-0.014345803,-0.18400726,-0.904906,1.212675,10.998907,-0.1353836,-0.033454895,1.6900902,-1.0741373,-0.15659332,0.37659454,1.7394543,-0.48152924,-6.9843597,0.07450104,-0.15506744,1.600975,-0.5500743,-0.37784576,2.9022675,1.5735835,0.30361176,-2.4090958,-0.06626129,0.005531311,-0.27527237,-1.3153063,0.19939423,1.0138092,1.9644649,-0.002861023,0.57556915,-0.048561096,-0.07160187,-2.2821388,-1.31583,-0.22312164,-0.49866486,1.8820165,-0.011711121,-7.9108887,0.0,0.0,0.0,0.0,0.0,0.0,0.0,0.0,0.0,0.0,0.0,0.0,-0.9113544,-0.2180817,-0.93417895,0.94168353,0.9651428,-0.9828926,-0.6195333,-0.5812868,0.48164424,-0.95763654,-0.7694515,-0.24140628
2025-06-04 17:19:24.134,-3.43931,-4.784373,-179.587,0.063069984,-0.044051062,-0.023647448,-0.408472,0.671448,9.064476,-0.13652802,0.027656555,1.7901878,-1.0860392,0.044898987,-0.10070801,1.7254925,-0.05519867,-7.4763107,0.07091522,0.019950867,1.0162506,-0.56548566,-0.2375412,2.235752,1.5775508,0.048332214,-1.9403381,-0.064201355,0.018348694,-0.048217773,-1.3117205,-0.046653748,1.7181664,1.9524868,-0.2463913,-0.08239746,-0.048179626,-0.06977081,-2.23209,-1.3331487,-0.21495819,-0.58167267,1.8824743,0.04497528,-6.5595474,0.0,0.0,0.0,0.0,0.0,0.0,0.0,0.0,0.0,0.0,0.0,0.0,-0.9075725,-0.28119746,-0.871516,0.91702163,0.9570805,-0.98512936,-0.5414671,-0.61942637,0.19595405,-0.92789406,-0.80179375,-0.113199376
