openverse-orca/OrcaGym/envs/legged_gym/legged_real_env/logs/robot_log_20250606_162427.csv
timestamp,imu_angle_roll,imu_angle_pitch,imu_angle_yaw,imu_angular_velocity_roll,imu_angular_velocity_pitch,imu_angular_velocity_yaw,imu_acc_x,imu_acc_y,imu_acc_z,fl_joint1_pos,fl_joint1_vel,fl_joint1_torque,fl_joint2_pos,fl_joint2_vel,fl_joint2_torque,fl_joint3_pos,fl_joint3_vel,fl_joint3_torque,fr_joint1_pos,fr_joint1_vel,fr_joint1_torque,fr_joint2_pos,fr_joint2_vel,fr_joint2_torque,fr_joint3_pos,fr_joint3_vel,fr_joint3_torque,hl_joint1_pos,hl_joint1_vel,hl_joint1_torque,hl_joint2_pos,hl_joint2_vel,hl_joint2_torque,hl_joint3_pos,hl_joint3_vel,hl_joint3_torque,hr_joint1_pos,hr_joint1_vel,hr_joint1_torque,hr_joint2_pos,hr_joint2_vel,hr_joint2_torque,hr_joint3_pos,hr_joint3_vel,hr_joint3_torque,fl_force_x,fl_force_y,fl_force_z,fr_force_x,fr_force_y,fr_force_z,hl_force_x,hl_force_y,hl_force_z,hr_force_x,hr_force_y,hr_force_z,fl_hip_action,fl_thigh_action,fl_calf_action,fr_hip_action,fr_thigh_action,fr_calf_action,hl_hip_action,hl_thigh_action,hl_calf_action,hr_hip_action,hr_thigh_action,hr_calf_action
2025-06-06 16:24:50.882,-0.809049,-0.768386,0.914402,-0.0008991238,-0.002502802,-0.0013342169,0.136384,-0.141652,9.774566,-0.014832601,-0.05519867,0.6366081,-0.98086,-0.002784729,-0.632946,1.9025142,0.010795593,-4.704052,0.019105062,-0.020561218,-0.90760803,-0.9920752,0.037269592,-0.08483887,1.9063543,0.027961731,-4.865185,-0.013694763,-0.018730164,0.6585808,-0.9767967,0.012931824,-0.8258171,1.9358547,0.029640198,-6.2275124,0.011482239,0.024223328,-0.48767853,-0.97533673,-0.043144226,-0.8258171,1.9226049,0.010643005,-5.569542,0.0,0.0,0.0,0.0,0.0,0.0,0.0,0.0,0.0,0.0,0.0,0.0,0.6014426,0.30837405,-1.1144608,-0.35001844,0.43120712,0.5037108,-0.86764234,-1.1127445,-3.0,-0.11706232,0.27534246,-3.0
2025-06-06 16:24:50.933,-0.992951,-0.508624,0.59615,-0.11308575,0.4518265,-0.4221489,2.215683,-1.528794,13.221657,-0.021851644,-0.1429367,1.8475609,-0.9616339,0.33908844,0.22522354,1.8825252,-0.9116745,-5.98703,0.004532919,-0.33496857,-0.11779785,-0.9667456,0.58849335,0.80628586,1.9067358,-0.35648346,-1.5497055,-0.0182724,0.2840042,-0.8868561,-0.97710186,0.35251617,-8.883802,1.8947322,-1.3672256,-12.581369,0.019340515,0.12897491,-0.91981506,-0.93085736,1.3814163,-2.2211037,1.8649267,-1.4349747,-11.767147,0.0,0.0,0.0,0.0,0.0,0.0,0.0,0.0,0.0,0.0,0.0,0.0,2.8446443,0.9910358,-3.0,2.5248747,0.3184969,1.6889652,-3.0,-2.404148,-3.0,-2.6947749,0.24973838,-3.0
2025-06-06 16:24:50.984,-0.439176,-0.317228,-1.222949,0.5188913,-0.5355915,-0.670577,0.53971,-1.784652,13.584165,-0.025513753,-0.1644516,5.3131905,-0.94881654,0.073280334,4.8896027,1.7740352,-2.52911,-7.064926,0.042145833,0.9595871,1.039444,-0.9443915,0.4983139,-0.30578995,1.9387792,0.7638931,0.54261017,-0.031013489,-0.88954926,-2.240635,-1.1016135,-3.2622185,-8.015869,1.8137844,-2.185482,-8.318609,0.03391266,0.1504898,-5.3253975,-0.9151408,-0.15911102,-0.8160515,1.8148016,-0.9028244,-10.360874,0.0,0.0,0.0,0.0,0.0,0.0,0.0,0.0,0.0,0.0,0.0,0.0,3.0,0.5693657,-3.0,3.0,2.1381757,0.2022975,-3.0,-1.4223331,-3.0,-3.0,0.7994967,-3.0
2025-06-06 16:24:51.035,-0.002137,-1.523521,-2.925931,-0.2140011,0.040636063,-0.5278179,1.94962,0.661374,7.81477,-0.045884237,-0.39447784,6.8659477,-0.94248414,0.26103973,1.5240707,1.670428,-1.6891098,-4.507515,0.08807479,0.06771088,1.1956978,-0.7102454,4.4510307,-1.7511253,1.8700384,-0.7212448,-0.77088547,-0.05115509,0.0346756,-2.5140762,-1.135488,-0.04283905,-4.8737297,1.7075832,-1.6018295,-5.515831,0.030174255,-0.21289825,-5.0678253,-0.8865306,0.6506729,0.7074089,1.7438482,-1.4339828,-7.245594,0.0,0.0,0.0,0.0,0.0,0.0,0.0,0.0,0.0,0.0,0.0,0.0,3.0,-0.5187945,-3.0,3.0,3.0,-1.4806283,-3.0,-1.1839705,-3.0,-3.0,1.329501,-3.0
2025-06-06 16:24:51.086,-0.614785,-1.385205,-4.039937,-0.4054678,0.3094241,-0.37434995,2.270342,1.017878,4.67356,-0.066941366,-0.56575775,7.6289024,-0.9734595,-0.703392,-3.7628746,1.633044,-0.19268036,-5.073929,0.10402022,0.26882172,0.4791336,-0.4966223,2.692913,-1.301899,1.7283605,-2.0407524,-0.2117958,-0.063438416,-0.113105774,-2.0184631,-1.1265616,0.0346756,-3.6151657,1.637469,-0.9421921,-4.3976517,0.016746521,-0.17627716,-4.806591,-0.8548686,0.5150223,3.2721443,1.6795324,-0.98674774,-5.769741,0.0,0.0,0.0,0.0,0.0,0.0,0.0,0.0,0.0,0.0,0.0,0.0,3.0,-0.5067803,-3.0,3.0,3.0,-2.855327,-3.0,-1.3448944,-3.0,-3.0,1.389163,-3.0
2025-06-06 16:24:51.137,-1.15201,-0.298947,-5.335852,0.032080706,0.4956974,-0.48385558,1.144237,0.150474,7.151716,-0.0867015,-0.19985199,7.591057,-1.012522,-1.1407852,-1.60952,1.6418178,0.6180191,-6.352024,0.11447249,0.0258255,0.2471962,-0.4310858,0.13477325,-0.119018555,1.5811132,-2.127346,-0.083618164,-0.06481171,-0.11165619,-1.9855042,-1.1595969,-0.9592056,-2.0221252,1.5834529,-1.4793777,-1.4666977,0.023384094,0.32032013,-5.7843895,-0.8484599,-0.008964539,4.069275,1.6596197,-0.09967804,-6.105438,0.0,0.0,0.0,0.0,0.0,0.0,0.0,0.0,0.0,0.0,0.0,0.0,3.0,-0.45275307,-3.0,3.0,3.0,-3.0,-3.0,-1.3971386,-3.0,-3.0,1.3341341,-3.0
2025-06-06 16:24:51.188,-0.590842,1.541357,-7.140898,-0.15240048,0.3597926,-0.60593545,-2.78477,1.985198,14.494647,-0.09364425,-0.10334015,7.803463,-1.0665381,-0.9037399,0.3607216,1.6726406,0.30887604,-6.9721527,0.110428914,-0.25623322,0.8282585,-0.43795225,-0.43498993,1.0321198,1.597669,0.8549881,-5.0873566,-0.090522766,-0.45734406,-0.6268425,-1.2366538,-1.1577225,0.41809845,1.5113552,-0.7992172,0.061645508,0.044822693,0.23647308,-6.4728775,-0.8485362,0.0011062622,3.6810875,1.6543554,-0.34641266,-5.662319,0.0,0.0,0.0,0.0,0.0,0.0,0.0,0.0,0.0,0.0,0.0,0.0,3.0,-0.6755493,-3.0,3.0,3.0,-3.0,-3.0,-1.4146305,-3.0,-3.0,1.408012,-3.0
2025-06-06 16:24:51.239,-0.85375,2.15247,-8.60403,-0.21611145,-0.018123306,-0.435637,-2.290382,1.687271,11.050665,-0.092652425,0.07488251,7.503166,-1.1079657,-0.75748444,-0.056762695,1.6747005,-0.02620697,-6.767071,0.09906112,-0.28072357,1.1358833,-0.4500067,-0.15399933,1.1016998,1.6094946,-0.17665863,-4.2059975,-0.104026794,-0.0010299683,-0.6768913,-1.2571006,-0.013008118,-0.4730301,1.494189,-0.031013489,-0.41931915,0.06641388,0.17688751,-7.1613655,-0.84289044,0.13317108,3.8117027,1.6287206,-0.5301285,-4.396431,0.0,0.0,0.0,0.0,0.0,0.0,0.0,0.0,0.0,0.0,0.0,0.0,3.0,-0.79868144,-3.0,3.0,3.0,-2.9934876,-3.0,-1.4448658,-3.0,-3.0,1.5508031,-3.0
2025-06-06 16:24:51.290,-1.680623,1.989131,-9.694343,-0.3990593,-0.14596601,-0.3665159,-1.560471,0.388569,9.61869,-0.08944808,0.03917694,7.434807,-1.1390173,-0.32123566,0.056762695,1.6798885,0.22640228,-7.2846565,0.09120284,-0.08174896,1.3446236,-0.44909117,0.13469696,0.8123894,1.5904211,-0.451622,-3.2428474,-0.10448456,-0.017051697,-0.6744499,-1.2620597,-0.098991394,-0.42298126,1.4932735,-0.04459381,-0.3997879,0.08419037,0.25600433,-7.606926,-0.8323619,0.11425018,4.335392,1.60156,-0.44818878,-3.5699997,0.0,0.0,0.0,0.0,0.0,0.0,0.0,0.0,0.0,0.0,0.0,0.0,3.0,-0.87661606,-3.0,3.0,3.0,-2.7083898,-3.0,-1.4129273,-3.0,-3.0,1.7089043,-3.0
2025-06-06 16:24:51.341,-3.012389,1.511714,-10.70775,-0.49804544,-0.14038934,-0.38421312,-0.973379,-0.839746,8.961629,-0.08769332,0.1821518,7.2932014,-1.1741889,-0.56339264,0.99305725,1.7003353,0.5881119,-8.4162655,0.08326827,0.010108948,1.4959946,-0.44024107,0.45467377,0.252079,1.5727972,-0.274086,-1.5692368,-0.10105133,0.19535065,-1.0919342,-1.2683158,-0.40058136,0.3643837,1.4976223,0.4440689,-1.2298775,0.1026535,0.611763,-8.50782,-0.8159587,0.33916473,4.5099564,1.578977,-0.328331,-2.802166,0.0,0.0,0.0,0.0,0.0,0.0,0.0,0.0,0.0,0.0,0.0,0.0,3.0,-1.0451778,-3.0,3.0,3.0,-2.2189803,-3.0,-1.3529135,-3.0,-3.0,1.9864084,-3.0
2025-06-06 16:24:51.392,-4.250968,1.711358,-11.691882,-0.29998443,0.36546963,-0.17277797,0.349293,-2.008906,9.487787,-0.0815898,0.123176575,7.0502777,-1.196543,-0.3458786,0.14587784,1.7341335,0.64022064,-9.716335,0.0828868,0.048561096,1.4691391,-0.42307493,0.35655975,-0.43152618,1.5736364,0.13568878,-0.43152618,-0.079307556,0.4062271,-2.0367737,-1.2748008,0.06122589,0.363163,1.5147121,0.1391983,-1.411766,0.11432648,0.14270782,-8.590828,-0.77338666,0.8382797,4.4977493,1.5439581,-0.56598663,-1.2884712,0.0,0.0,0.0,0.0,0.0,0.0,0.0,0.0,0.0,0.0,0.0,0.0,3.0,-1.2580255,-3.0,3.0,3.0,-1.6347202,-3.0,-1.2502197,-3.0,-3.0,2.2709954,-3.0
2025-06-06 16:24:51.443,-4.989055,2.557349,-12.048348,-0.1271746,0.37315792,-0.0872149,0.118098,-2.906902,9.40608,-0.079682454,-0.008354187,7.188221,-1.2124121,-0.4063034,-0.6756706,1.76282,0.4204178,-10.4780655,0.08517562,-0.017967224,1.4129868,-0.4195654,0.14186859,-0.22522354,1.6079687,0.36197662,0.15442276,-0.07030487,0.03856659,-2.0172424,-1.2641959,0.19374847,0.5438309,1.5165431,-0.059165955,-1.1737251,0.11798859,0.020179749,-8.567635,-0.74088544,0.48854828,5.691616,1.5187811,-0.17986298,-0.91737366,0.0,0.0,0.0,0.0,0.0,0.0,0.0,0.0,0.0,0.0,0.0,0.0,3.0,-1.3774017,-3.0,3.0,3.0,-1.3158823,-3.0,-1.1908672,-3.0,-3.0,2.3308828,-3.0
2025-06-06 16:24:51.495,-5.239966,3.323311,-12.454983,0.05746601,0.28658614,-0.12844253,-0.192972,-2.07589,8.877196,-0.0816661,-0.12004852,7.389641,-1.2269843,-0.3507614,-0.9271393,1.7818935,0.13584137,-10.710003,0.08380233,-0.047721863,1.5020981,-0.42032835,-0.05924225,-0.017700195,1.6426061,0.42675018,-0.072631836,-0.06374359,0.31154633,-2.3761368,-1.2574058,0.07663727,0.7818718,1.512347,-0.1543808,-0.87831116,0.12218475,0.1884079,-8.841076,-0.72799176,0.17032623,5.888153,1.5159582,0.010108948,-1.235981,0.0,0.0,0.0,0.0,0.0,0.0,0.0,0.0,0.0,0.0,0.0,0.0,3.0,-1.4618071,-3.0,3.0,3.0,-1.1085612,-3.0,-1.1513515,-3.0,-3.0,2.360057,-3.0
2025-06-06 16:24:51.547,-4.88607,4.07818,-13.041193,0.18992102,0.27679417,-0.23362695,-0.500831,-1.463344,9.908502,-0.087235555,-0.2009201,7.725338,-1.2383521,-0.23906708,-1.2762642,1.7899806,0.028648376,-10.833296,0.0778514,-0.29888153,1.9635315,-0.4221594,-0.11035919,0.072631836,1.6799139,0.7404709,-0.7721062,-0.056037903,0.007896423,-2.461586,-1.2474875,0.2866745,0.6256218,1.498843,-0.2801895,-0.29968643,0.12866974,0.069618225,-8.9900055,-0.7208964,0.18276215,6.0102234,1.5225958,0.23616791,-1.6376,0.0,0.0,0.0,0.0,0.0,0.0,0.0,0.0,0.0,0.0,0.0,0.0,3.0,-1.5238546,-3.0,3.0,3.0,-0.9856331,-3.0,-1.1195592,-3.0,-3.0,2.355342,-3.0
2025-06-06 16:24:51.600,-4.42385,4.798135,-13.8828,0.13980658,0.22830164,-0.23481196,-1.000249,-0.221928,9.658557,-0.09661971,-0.27561188,8.057373,-1.2483466,-0.20030975,-1.3665962,1.7897518,-0.0052261353,-10.786907,0.065186605,-0.1454544,2.3736916,-0.42444822,0.016899109,0.12512589,1.7169927,0.44696808,-1.4642563,-0.05420685,-0.0049972534,-2.449379,-1.236959,0.2312851,0.4730301,1.4879329,-0.13408661,-0.05432129,0.13103485,-0.011634827,-9.01564,-0.7157847,0.10219574,5.823452,1.5287756,0.09525299,-1.719387,0.0,0.0,0.0,0.0,0.0,0.0,0.0,0.0,0.0,0.0,0.0,0.0,3.0,-1.5823991,-3.0,3.0,3.0,-0.8427054,-3.0,-1.084204,-3.0,-3.0,2.3862598,-3.0
2025-06-06 16:24:51.651,-3.911405,5.376065,-14.497893,0.27129403,0.20739172,-0.21565522,-1.156393,0.103533,9.443603,-0.098832235,0.018959045,7.8474083,-1.2569678,-0.19191742,-1.3775864,1.7894466,-0.034370422,-10.755169,0.060685262,-0.02544403,2.2784767,-0.4271185,0.027275085,0.16418839,1.7496465,0.60985565,-2.0672913,-0.07419586,-0.3837967,-1.0894928,-1.2190299,0.33618927,0.016479492,1.4844234,0.02773285,-0.11779785,0.13935089,0.25074005,-9.542992,-0.7109019,0.17024994,5.7270164,1.5339636,0.032310486,-1.8377953,0.0,0.0,0.0,0.0,0.0,0.0,0.0,0.0,0.0,0.0,0.0,0.0,3.0,-1.570003,-3.0,3.0,3.0,-0.8538222,-3.0,-1.0991346,-3.0,-3.0,2.3366406,-3.0
2025-06-06 16:24:51.702,-3.381065,5.730613,-15.360192,0.08294002,0.006387329,-0.292602,-1.447317,0.296054,9.959881,-0.09776412,0.07312775,7.8181114,-1.2710059,-0.15918732,-0.64271164,1.7885311,-0.04283905,-10.751507,0.05503951,-0.11898041,2.6727715,-0.4284918,-0.045661926,0.23010635,1.7675756,0.15125275,-2.211338,-0.08693695,-0.05619049,-1.2591743,-1.2133842,-0.10303497,0.111694336,1.4844997,-0.0031661987,-0.11291504,0.15232086,0.15499115,-9.964142,-0.70777386,0.020561218,5.5060654,1.5357183,0.0037002563,-1.8902893,0.0,0.0,0.0,0.0,0.0,0.0,0.0,0.0,0.0,0.0,0.0,0.0,3.0,-1.5906321,-3.0,3.0,3.0,-0.7766209,-3.0,-1.0784491,-3.0,-3.0,2.401148,-3.0
2025-06-06 16:24:51.753,-3.501423,5.613962,-16.108284,-0.084609196,-0.03849409,-0.1929508,-1.23921,-0.14224,10.35288,-0.09814559,-0.0062179565,7.855953,-1.2871802,-0.14659882,-0.38513947,1.7888362,0.013694763,-10.727093,0.047181234,-0.14713287,2.8485527,-0.42894956,0.03452301,0.23254776,1.7707037,-0.0146865845,-1.8402367,-0.08052826,0.12516022,-1.8170433,-1.2222342,-0.26599884,0.8172722,1.4846523,0.0017166138,-0.12145996,0.15911102,0.11379242,-10.124054,-0.7048747,0.102882385,5.7636375,1.5342687,-0.045967102,-1.6998558,0.0,0.0,0.0,0.0,0.0,0.0,0.0,0.0,0.0,0.0,0.0,0.0,3.0,-1.6979531,-3.0,3.0,3.0,-0.58000964,-3.0,-0.9970531,-3.0,-3.0,2.511178,-3.0
2025-06-06 16:24:51.804,-3.759688,5.592163,-16.381618,-0.06262964,0.06662252,-0.031036334,-0.829769,-1.172835,9.956331,-0.09700118,0.037269592,7.7277794,-1.2938178,-0.06389618,-1.0772858,1.7892177,0.053520203,-10.745403,0.047028646,0.011253357,2.7106133,-0.42925474,0.016059875,0.22766495,1.7721533,-0.025215149,-1.1224518,-0.07488251,0.05290985,-1.8646507,-1.2250571,0.015449524,1.1041412,1.4846523,-0.0016403198,-0.122680664,0.16223907,0.058555603,-10.08255,-0.6983897,0.22312164,6.183567,1.5236639,-0.2878952,-1.1920357,0.0,0.0,0.0,0.0,0.0,0.0,0.0,0.0,0.0,0.0,0.0,0.0,3.0,-1.763889,-3.0,3.0,3.0,-0.42465898,-3.0,-0.94436616,-3.0,-3.0,2.549307,-3.0
2025-06-06 16:24:51.855,-3.966394,5.703935,-16.442171,-0.01950772,0.06268299,-0.019089015,-0.826986,-1.260653,9.182805,-0.09616195,-0.013465881,7.770504,-1.2976325,-0.10387421,-1.33852,1.7891414,0.02193451,-10.786907,0.04710494,-0.06084442,2.7130547,-0.4309332,-0.03894806,0.31921768,1.7749761,0.04573822,-0.79896164,-0.07434845,-0.052604675,-1.806057,-1.2222342,0.0598526,1.359272,1.4839656,-0.093574524,-0.018920898,0.1619339,-0.009651184,-10.0312805,-0.6948802,0.019264221,6.426491,1.516416,-0.018577576,-1.0992584,0.0,0.0,0.0,0.0,0.0,0.0,0.0,0.0,0.0,0.0,0.0,0.0,3.0,-1.7579535,-3.0,3.0,3.0,-0.38812467,-3.0,-0.93060774,-3.0,-3.0,2.5297751,-3.0
2025-06-06 16:24:51.907,-3.96971,5.885827,-16.542593,0.04902415,0.083931714,-0.03975127,-1.059168,-0.974749,9.50333,-0.096924886,-0.012550354,7.779049,-1.3005316,-0.015296936,-1.2799263,1.7892177,0.038108826,-10.778362,0.046952352,0.032539368,2.7557793,-0.4335272,0.014457703,0.42664337,1.7860388,0.25554657,-1.3104439,-0.07259369,0.06290436,-1.8951721,-1.2184196,0.14492035,1.215229,1.4783199,-0.10059357,0.24109268,0.16277313,0.044898987,-10.136265,-0.69434613,0.014228821,6.25803,1.5161108,-0.023994446,-1.190815,0.0,0.0,0.0,0.0,0.0,0.0,0.0,0.0,0.0,0.0,0.0,0.0,3.0,-1.7779652,-3.0,3.0,3.0,-0.39032242,-3.0,-0.9248521,-3.0,-3.0,2.5179794,-3.0
2025-06-06 16:24:51.957,-3.773021,6.17173,-16.709547,0.076226786,0.08177656,-0.059674237,-1.170416,-0.545525,9.822903,-0.096924886,0.005683899,7.7680626,-1.3025916,-0.00019073486,-1.3409615,1.7891414,-0.026359558,-10.761272,0.046189412,-0.04634857,2.8131523,-0.4347479,0.05153656,0.4412918,1.7970251,0.21907806,-1.5899887,-0.0724411,-0.0024795532,-1.8072777,-1.2131553,0.103645325,1.0565338,1.474963,-0.007896423,0.22522354,0.16498566,-0.043525696,-10.226597,-0.69266766,-0.0019454956,6.159153,1.5172552,0.005455017,-1.256733,0.0,0.0,0.0,0.0,0.0,0.0,0.0,0.0,0.0,0.0,0.0,0.0,3.0,-1.7730876,-3.0,3.0,3.0,-0.38030812,-3.0,-0.934843,-3.0,-3.0,2.51636,-3.0
2025-06-06 16:24:52.008,-3.59522,6.355817,-16.936817,0.023289936,0.03176618,-0.08259132,-1.331774,-0.113191,9.846455,-0.097077474,0.0434494,7.7924767,-1.3062537,-0.030708313,-1.0785065,1.7890651,-0.026130676,-10.768597,0.04344283,-0.07595062,2.9474335,-0.43505308,0.016288757,0.42786407,1.8031286,0.12485504,-1.5985336,-0.07335663,0.031318665,-1.8329124,-1.2105613,0.008430481,1.0882721,1.4748104,-0.0065994263,0.22034073,0.16803741,-0.005378723,-10.321812,-0.6907603,-0.009269714,6.082245,1.5174841,-0.023536682,-1.2372017,0.0,0.0,0.0,0.0,0.0,0.0,0.0,0.0,0.0,0.0,0.0,0.0,3.0,-1.7844585,-3.0,3.0,3.0,-0.35175702,-3.0,-0.92081743,-3.0,-3.0,2.5347612,-3.0
2025-06-06 16:24:52.059,-3.593052,6.397403,-17.114523,-0.010422583,-0.006600032,-0.03419381,-1.243467,-0.466646,9.911722,-0.097077474,0.016365051,7.7692833,-1.3095343,-0.022697449,-1.1200104,1.7892177,-0.0052261353,-10.755169,0.041993245,-0.008888245,2.92424,-0.4349005,-0.023994446,0.436409,1.80557,0.090293884,-1.4874496,-0.07236481,0.0024795532,-1.8622093,-1.2121634,-0.044898987,1.2372017,1.4746578,0.007209778,0.21912003,0.16986847,0.07167816,-10.342564,-0.6899974,0.016059875,6.207981,1.5174078,-0.0008773804,-1.1956978,0.0,0.0,0.0,0.0,0.0,0.0,0.0,0.0,0.0,0.0,0.0,0.0,3.0,-1.8035318,-3.0,3.0,3.0,-0.3111497,-3.0,-0.9071607,-3.0,-3.0,2.5519211,-3.0
2025-06-06 16:24:52.110,-3.641075,6.37769,-17.145134,-0.0066678207,0.0031178212,0.004962966,-1.0703,-0.888225,9.681153,-0.097077474,0.033836365,7.7851524,-1.3106787,-0.027961731,-1.2872505,1.7891414,-0.031013489,-10.811321,0.04206954,-0.0182724,2.8912811,-0.43520567,-0.035743713,0.4425125,1.80557,-0.0015640259,-1.2945747,-0.072135925,-0.0012588501,-1.8402367,-1.2120872,-0.010185242,1.301899,1.474963,0.010719299,0.21912003,0.16994476,0.062294006,-10.31815,-0.6894633,-0.008049011,6.3447,1.5171026,0.004081726,-1.2164497,0.0,0.0,0.0,0.0,0.0,0.0,0.0,0.0,0.0,0.0,0.0,0.0,3.0,-1.8046781,-3.0,3.0,3.0,-0.28234264,-3.0,-0.898836,-3.0,-3.0,2.556652,-3.0
2025-06-06 16:24:52.161,-3.652418,6.386985,-17.144014,0.015065734,0.008688057,-0.007289315,-1.12821,-0.686755,9.653259,-0.09700118,0.014457703,7.7680626,-1.3105261,0.02483368,-1.2884712,1.7892177,0.045585632,-10.758831,0.04206954,0.0045394897,2.8937225,-0.43520567,-0.011329651,0.4351883,1.8064855,0.036125183,-1.3031197,-0.072135925,-0.007820129,-1.8438988,-1.2119346,-0.015220642,1.3238716,1.4748867,0.004310608,0.21912003,0.17002106,0.050086975,-10.323032,-0.689387,0.039711,6.2641335,1.51695,-0.037956238,-1.248188,0.0,0.0,0.0,0.0,0.0,0.0,0.0,0.0,0.0,0.0,0.0,0.0,3.0,-1.8097881,-3.0,3.0,3.0,-0.27307567,-3.0,-0.8938689,-3.0,-3.0,2.5575824,-3.0
2025-06-06 16:24:52.212,-3.602006,6.430529,-17.174072,0.015891712,0.018533144,-0.010220316,-1.110539,-0.497064,9.754307,-0.097077474,0.013618469,7.761959,-1.310221,-0.03139496,-1.3604927,1.7889125,-0.0409317,-10.783245,0.0413066,0.013084412,2.9596405,-0.43421385,0.012931824,0.38758087,1.8087744,0.0007247925,-1.3641548,-0.07221222,-0.0104904175,-1.8597679,-1.2109427,-0.013008118,1.3360786,1.4747341,-0.010948181,0.21423721,0.17009735,0.044517517,-10.341343,-0.6885478,0.03429413,6.3056374,1.5171789,-0.005531311,-1.2408638,0.0,0.0,0.0,0.0,0.0,0.0,0.0,0.0,0.0,0.0,0.0,0.0,3.0,-1.8089145,-3.0,3.0,3.0,-0.2646086,-3.0,-0.8926381,-3.0,-3.0,2.5599391,-3.0
2025-06-06 16:24:52.263,-3.567622,6.447432,-17.214848,0.0050192354,0.004381876,-0.012338675,-0.999846,-0.509486,9.73665,-0.09715377,0.0052261353,7.787594,-1.3104498,0.024375916,-1.3092232,1.789294,0.027427673,-10.777142,0.040772542,0.0024032593,2.944992,-0.43398497,0.057258606,0.38636017,1.809995,0.030021667,-1.3446236,-0.07144928,0.020713806,-1.89151,-1.2107902,0.0548172,1.3849106,1.4746578,0.01209259,0.23132706,0.17063141,0.043678284,-10.358433,-0.6874797,0.06900787,6.315403,1.5172552,-0.0052261353,-1.2213326,0.0,0.0,0.0,0.0,0.0,0.0,0.0,0.0,0.0,0.0,0.0,0.0,3.0,-1.8174295,-3.0,3.0,3.0,-0.24995036,-3.0,-0.89142305,-3.0,-3.0,2.567127,-3.0
2025-06-06 16:24:52.316,-3.561713,6.457615,-17.242695,0.001660192,0.0053120493,-0.010276062,-1.070957,-0.592247,9.667274,-0.096924886,-0.012779236,7.7851524,-1.3110602,-0.042304993,-1.3226509,1.7890651,0.034217834,-10.763714,0.04092513,0.037574768,2.9437714,-0.43413755,-0.0030899048,0.41199493,1.8109869,0.079689026,-1.314106,-0.0712204,-0.0888443,-1.936676,-1.2108665,0.039100647,1.3531685,1.4747341,0.001335144,0.21423721,0.17093658,0.044898987,-10.360874,-0.6871745,-0.031929016,6.3337135,1.5173315,-0.061149597,-1.1871529,0.0,0.0,0.0,0.0,0.0,0.0,0.0,0.0,0.0,0.0,0.0,0.0,3.0,-1.809141,-3.0,3.0,3.0,-0.25806734,-3.0,-0.8891759,-3.0,-3.0,2.5582938,-3.0
2025-06-06 16:24:52.367,-3.558334,6.477665,-17.270592,0.0026043279,0.0065070586,-0.008025949,-1.150304,-0.596411,9.747056,-0.09723006,-0.0005722046,7.7729454,-1.3117468,-0.03818512,-1.2506294,1.7889125,0.024757385,-10.763714,0.040772542,0.040626526,2.9376678,-0.43444273,0.03803253,0.41809845,1.8115972,0.020103455,-1.3934555,-0.07106781,-0.04825592,-1.9147034,-1.211019,0.026054382,1.4056625,1.4745052,-0.019798279,0.24231339,0.17147064,0.0064468384,-10.362095,-0.68755597,-0.024223328,6.3007545,1.5172552,0.06374359,-1.2213326,0.0,0.0,0.0,0.0,0.0,0.0,0.0,0.0,0.0,0.0,0.0,0.0,3.0,-1.8152782,-3.0,3.0,3.0,-0.25067827,-3.0,-0.89125,-3.0,-3.0,2.5668268,-3.0
2025-06-06 16:24:52.418,-3.552274,6.491101,-17.289497,0.0028759185,0.0026719244,-0.007865937,-1.133114,-0.597452,9.687702,-0.09723006,0.011177063,7.7924767,-1.3122809,0.023765564,-1.2848091,1.789294,0.06771088,-10.766155,0.040467367,-0.032539368,2.944992,-0.43436643,0.013923645,0.42298126,1.812589,-0.017280579,-1.4105453,-0.07083893,-0.006980896,-1.9208069,-1.2108665,0.005683899,1.33852,1.4744289,0.01285553,0.23254776,0.17154694,0.022468567,-10.354771,-0.6871745,-0.025138855,6.353245,1.5171789,0.018882751,-1.215229,0.0,0.0,0.0,0.0,0.0,0.0,0.0,0.0,0.0,0.0,0.0,0.0,3.0,-1.8177832,-3.0,3.0,3.0,-0.2394106,-3.0,-0.8861591,-3.0,-3.0,2.5696223,-3.0
2025-06-06 16:24:52.470,-3.542175,6.499731,-17.319586,0.0059307856,0.0047927266,-0.0112737445,-1.09998,-0.605294,9.71257,-0.097077474,-0.016212463,7.7595177,-1.312815,-0.0346756,-1.2860298,1.7891414,-0.044898987,-10.795452,0.04016219,-0.052452087,2.9474335,-0.43444273,-0.0020217896,0.41809845,1.8141149,0.063438416,-1.3971176,-0.07083893,-0.017585754,-1.8841858,-1.2107139,0.028877258,1.4129868,1.4743526,0.035972595,0.24231339,0.172081,0.014533997,-10.410927,-0.6868693,-0.0712204,6.348362,1.5170263,-0.06481171,-1.2286568,0.0,0.0,0.0,0.0,0.0,0.0,0.0,0.0,0.0,0.0,0.0,0.0,3.0,-1.8198403,-3.0,3.0,3.0,-0.24026723,-3.0,-0.88035727,-3.0,-3.0,2.5682063,-3.0
2025-06-06 16:24:52.523,-3.526279,6.514665,-17.358545,0.0052315197,0.008494866,-0.017522164,-1.095613,-0.562205,9.69394,-0.097077474,0.05443573,7.786373,-1.3129675,-0.0090408325,-1.2799263,1.7891414,-0.018882751,-10.782024,0.040085897,-0.0062942505,2.9889374,-0.43444273,0.08785248,0.40711212,1.8157934,0.079841614,-1.4825668,-0.07053375,-0.009727478,-1.9134827,-1.2101798,0.014381409,1.4068832,1.4742763,0.03528595,0.23743057,0.17253876,-0.02872467,-10.408485,-0.68671674,-0.027275085,6.298313,1.5171789,-0.0409317,-1.215229,0.0,0.0,0.0,0.0,0.0,0.0,0.0,0.0,0.0,0.0,0.0,0.0,3.0,-1.8247328,-3.0,3.0,3.0,-0.23076601,-3.0,-0.8860306,-3.0,-3.0,2.575229,-3.0
2025-06-06 16:24:52.577,-3.504208,6.544924,-17.411406,0.010543028,0.01366036,-0.022577422,-1.088405,-0.565108,9.6732,-0.097077474,0.018501282,7.7766075,-1.3142645,-0.04825592,-1.2201118,1.7889888,0.07419586,-10.793011,0.03955184,-0.035972595,3.031662,-0.4346716,0.014839172,0.40711212,1.8180822,0.0472641,-1.5497055,-0.07045746,0.05672455,-1.903717,-1.2098746,0.021476746,1.3336372,1.4743526,-0.057258606,0.2471962,0.17383575,0.0033187866,-10.500038,-0.6861827,0.032310486,6.311741,1.5171026,-0.040016174,-1.2372017,0.0,0.0,0.0,0.0,0.0,0.0,0.0,0.0,0.0,0.0,0.0,0.0,3.0,-1.8301315,-3.0,3.0,3.0,-0.21602018,-3.0,-0.87433785,-3.0,-3.0,2.5757039,-3.0
2025-06-06 16:24:52.633,-3.479673,6.571533,-17.49853,0.005964837,0.007883722,-0.02729016,-1.121456,-0.54299,9.753252,-0.09715377,-0.0104904175,7.777828,-1.3156378,-0.046043396,-1.2103462,1.7892177,-0.0063705444,-10.796673,0.03840743,0.008811951,3.043869,-0.4346716,0.016670227,0.42176056,1.8202184,0.09777069,-1.52285,-0.07045746,-0.05504608,-1.9330139,-1.209722,0.03200531,1.432518,1.4741237,0.014381409,0.2471962,0.17482758,-0.05382538,-10.534218,-0.68534344,0.028495789,6.2629128,1.5171789,-0.008735657,-1.223774,0.0,0.0,0.0,0.0,0.0,0.0,0.0,0.0,0.0,0.0,0.0,0.0,3.0,-1.8341268,-3.0,3.0,3.0,-0.20463927,-3.0,-0.8743424,-3.0,-3.0,2.5809298,-3.0
2025-06-06 16:24:52.685,-3.468822,6.594101,-17.566814,0.0045626746,0.010058943,-0.019891972,-1.145768,-0.538747,9.683518,-0.097077474,-0.0077438354,7.7888145,-1.3170874,-0.0011825562,-1.2213326,1.7891414,0.010261536,-10.795452,0.037949666,0.028038025,3.056076,-0.4349005,-0.06374359,0.43030548,1.8215917,0.00049591064,-1.5350571,-0.07053375,-0.046653748,-1.8976135,-1.2095695,-0.037956238,1.4337387,1.4742,0.002784729,0.2484169,0.17589569,0.06374359,-10.55497,-0.684962,-0.018119812,6.332493,1.5172552,0.010719299,-1.2140083,0.0,0.0,0.0,0.0,0.0,0.0,0.0,0.0,0.0,0.0,0.0,0.0,3.0,-1.8354009,-3.0,3.0,3.0,-0.19205327,-3.0,-0.8675317,-3.0,-3.0,2.5854466,-3.0
2025-06-06 16:24:52.737,-3.460833,6.615534,-17.624928,0.0033652391,0.007368588,-0.017670393,-1.168494,-0.591547,9.727853,-0.097077474,-0.04032135,7.775387,-1.3182318,-0.019187927,-1.1871529,1.7891414,0.02986908,-10.79179,0.03741561,0.027961731,3.1049042,-0.4349005,-0.014915466,0.4327469,1.822965,-0.0030899048,-1.5301743,-0.07045746,-0.037879944,-1.8927307,-1.2094932,0.0017166138,1.4691391,1.4742,-0.0045394897,0.2484169,0.17658234,-0.022468567,-10.570839,-0.6846568,-0.005455017,6.3617897,1.5172552,0.0019454956,-1.1883736,0.0,0.0,0.0,0.0,0.0,0.0,0.0,0.0,0.0,0.0,0.0,0.0,3.0,-1.8422039,-3.0,3.0,3.0,-0.17742868,-3.0,-0.862334,-3.0,-3.0,2.5916662,-3.0
2025-06-06 16:24:52.791,-3.45823,6.635526,-17.671457,0.006008261,0.005973023,-0.01272935,-1.164439,-0.594171,9.728417,-0.097077474,0.009803772,7.7851524,-1.3189948,-0.019264221,-1.2396431,1.7889888,-0.05191803,-10.771038,0.036805257,0.041999817,3.0914764,-0.4349005,-0.046806335,0.42420197,1.8241857,-0.023536682,-1.5374985,-0.07045746,0.071372986,-1.9024963,-1.2094169,0.04070282,1.5118637,1.4739711,-0.022697449,0.252079,0.17688751,0.08930206,-10.565956,-0.68419904,-0.046272278,6.381325,1.5172552,-0.008277893,-1.2335396,0.0,0.0,0.0,0.0,0.0,0.0,0.0,0.0,0.0,0.0,0.0,0.0,3.0,-1.8466388,-3.0,3.0,3.0,-0.16504772,-3.0,-0.8573694,-3.0,-3.0,2.5938492,-3.0
2025-06-06 16:24:52.843,-3.442801,6.654533,-17.698145,0.009001064,0.010644623,-0.0072912173,-1.154403,-0.580869,9.686964,-0.097306356,0.027275085,7.777828,-1.3193762,0.04108429,-1.2945747,1.7891414,0.036201477,-10.806438,0.036347494,-0.05054474,3.1110077,-0.4348242,-0.0020217896,0.42176056,1.8257116,0.028648376,-1.4972153,-0.07053375,-0.011940002,-1.912262,-1.2087302,0.056114197,1.5167465,1.4738948,-0.009269714,0.25696182,0.17757416,0.046577454,-10.586708,-0.68412274,-0.03139496,6.392311,1.5172552,0.017967224,-1.2127876,0.0,0.0,0.0,0.0,0.0,0.0,0.0,0.0,0.0,0.0,0.0,0.0,3.0,-1.8478192,-3.0,3.0,3.0,-0.16108175,-3.0,-0.8616055,-3.0,-3.0,2.5943468,-3.0
2025-06-06 16:24:52.897,-3.427556,6.677779,-17.728195,0.0025810627,0.0065605356,-0.010001557,-1.144135,-0.520461,9.723214,-0.096924886,0.012626648,7.7839317,-1.3196814,0.05634308,-1.2530708,1.7889888,-0.039787292,-10.799114,0.03611861,-0.002861023,3.1073456,-0.43505308,0.023384094,0.44495392,1.8267034,0.024223328,-1.5155258,-0.07053375,-0.010566711,-1.8890686,-1.2085013,-0.003929138,1.4703598,1.4737422,-0.006828308,0.25574112,0.17765045,0.09754181,-10.600136,-0.683665,0.036201477,6.3715553,1.5172552,0.019340515,-1.2201118,0.0,0.0,0.0,0.0,0.0,0.0,0.0,0.0,0.0,0.0,0.0,0.0,3.0,-1.8501555,-3.0,3.0,3.0,-0.15058334,-3.0,-0.8557935,-3.0,-3.0,2.5989692,-3.0
2025-06-06 16:24:52.951,-3.414955,6.699938,-17.754333,0.0023050215,0.005713789,-0.005329677,-1.135176,-0.53638,9.712894,-0.09715377,0.011558533,7.7729454,-1.3200629,0.009422302,-1.2286568,1.7892177,-0.022621155,-10.793011,0.035737142,0.04146576,3.1122284,-0.4347479,-0.023460388,0.4351883,1.8273901,-0.021400452,-1.4947739,-0.07045746,0.022315979,-1.9232483,-1.2080436,0.060386658,1.5155258,1.4735134,-0.00705719,0.27771378,0.17772675,-0.002784729,-10.591591,-0.6832072,-0.007896423,6.397194,1.5171789,0.050239563,-1.2079048,0.0,0.0,0.0,0.0,0.0,0.0,0.0,0.0,0.0,0.0,0.0,0.0,3.0,-1.8496546,-3.0,3.0,3.0,-0.14615603,-3.0,-0.8537475,-3.0,-3.0,2.5971713,-3.0
2025-06-06 16:24:53.006,-3.413278,6.710451,-17.770409,0.00050312607,0.0005080828,-0.0062820157,-1.15842,-0.55919,9.686583,-0.09715377,0.01865387,7.7595177,-1.3202155,-0.0157547,-1.2445259,1.7890651,-0.019264221,-10.789349,0.035660848,-0.011482239,3.1232147,-0.4349768,0.024375916,0.42664337,1.8278478,-0.059318542,-1.4923325,-0.07061005,-0.019798279,-1.9147034,-1.2079673,0.045204163,1.5082016,1.4733608,-0.02483368,0.26916885,0.17787933,-0.007820129,-10.602577,-0.6832072,-0.03238678,6.3996353,1.5172552,0.007820129,-1.2140083,0.0,0.0,0.0,0.0,0.0,0.0,0.0,0.0,0.0,0.0,0.0,0.0,3.0,-1.8491014,-3.0,3.0,3.0,-0.1417218,-3.0,-0.85325843,-3.0,-3.0,2.601487,-3.0
2025-06-06 16:24:53.059,-3.405501,6.721678,-17.780598,0.0017496926,0.0020051738,-0.0033637031,-1.158338,-0.577805,9.724405,-0.09723006,0.0052261353,7.770504,-1.3204443,-0.0046920776,-1.2457466,1.7891414,0.055274963,-10.806438,0.035737142,0.042304993,3.1476326,-0.4349005,-0.048179626,0.41931915,1.8282293,0.0007247925,-1.4618149,-0.07068634,-0.037956238,-1.9024963,-1.2076621,0.055656433,1.5069809,1.4733608,0.00667572,0.26428604,0.17803192,0.024909973,-10.574501,-0.68274945,0.07106781,6.413063,1.5172552,-0.004463196,-1.2347603,0.0,0.0,0.0,0.0,0.0,0.0,0.0,0.0,0.0,0.0,0.0,0.0,3.0,-1.8540953,-3.0,3.0,3.0,-0.14390548,-3.0,-0.8510352,-3.0,-3.0,2.596195,-3.0
2025-06-06 16:24:53.111,-3.400372,6.725425,-17.791862,0.0004454429,0.0026815238,-0.003779912,-1.134187,-0.546092,9.710685,-0.097077474,-0.0046920776,7.761959,-1.3205969,-0.042686462,-1.2713814,1.7890651,-0.005607605,-10.812544,0.035355672,0.005607605,3.1647224,-0.4347479,0.007820129,0.41931915,1.8283819,-0.002632141,-1.486229,-0.070381165,0.016593933,-1.9195862,-1.2074332,0.059394836,1.5350571,1.4732845,-0.027122498,0.27283096,0.17810822,-0.0077438354,-10.60746,-0.68267316,-0.0025558472,6.360569,1.5172552,0.06160736,-1.2347603,0.0,0.0,0.0,0.0,0.0,0.0,0.0,0.0,0.0,0.0,0.0,0.0,3.0,-1.8503387,-3.0,3.0,3.0,-0.13944502,-3.0,-0.8548716,-3.0,-3.0,2.5997016,-3.0
2025-06-06 16:24:53.164,-3.391315,6.733756,-17.79553,-0.0014692879,0.0023241676,-0.00031520645,-1.136726,-0.550777,9.684973,-0.09715377,0.029029846,7.7839317,-1.3204443,0.018730164,-1.2506294,1.7891414,-0.015220642,-10.7856865,0.035431966,-0.0025558472,3.1158905,-0.4348242,-0.012397766,0.42298126,1.8284582,-0.002937317,-1.486229,-0.07045746,-0.019111633,-1.8866272,-1.2074332,-0.002632141,1.45327,1.4731319,0.005378723,0.28137589,0.17810822,-0.03917694,-10.591591,-0.68267316,-0.050086975,6.3752213,1.5170263,0.037498474,-1.2274361,0.0,0.0,0.0,0.0,0.0,0.0,0.0,0.0,0.0,0.0,0.0,0.0,3.0,-1.8486267,-3.0,3.0,3.0,-0.14338537,-3.0,-0.85209876,-3.0,-3.0,2.600203,-3.0
2025-06-06 16:24:53.217,-3.388559,6.738181,-17.803946,-0.0010961365,0.005010753,-0.0043109804,-1.141675,-0.552744,9.731039,-0.09723006,-0.018424988,7.786373,-1.3209021,-0.05252838,-1.2530708,1.7890651,-0.0009536743,-10.795452,0.035584554,0.047798157,3.146412,-0.43459532,0.01712799,0.41687775,1.8285345,-0.036888123,-1.5423813,-0.07061005,-0.0073623657,-1.903717,-1.2072806,-0.018348694,1.4837875,1.4732845,0.028572083,0.27405167,0.17810822,-0.0010299683,-10.611122,-0.682368,0.019187927,6.388649,1.5171026,-0.026512146,-1.2079048,0.0,0.0,0.0,0.0,0.0,0.0,0.0,0.0,0.0,0.0,0.0,0.0,3.0,-1.8542718,-3.0,3.0,3.0,-0.13541646,-3.0,-0.8483726,-3.0,-3.0,2.6053686,-3.0
2025-06-06 16:24:53.270,-3.38614,6.745991,-17.80733,0.0013295045,0.0023171515,-0.0021516767,-1.149174,-0.588664,9.705985,-0.09715377,-0.021400452,7.7814903,-1.3208258,-0.024223328,-1.2445259,1.789294,0.05344391,-10.772259,0.035584554,-0.07129669,3.1488533,-0.43459532,0.026664734,0.42786407,1.8286871,0.0146865845,-1.5179672,-0.07053375,0.0132369995,-1.9110413,-1.2072043,-0.012245178,1.5277328,1.4732845,-0.0002670288,0.2899208,0.17803192,-0.008354187,-10.592812,-0.6822917,0.008125305,6.397194,1.5172552,-0.054130554,-1.235981,0.0,0.0,0.0,0.0,0.0,0.0,0.0,0.0,0.0,0.0,0.0,0.0,3.0,-1.8540051,-3.0,3.0,3.0,-0.13617773,-3.0,-0.84919304,-3.0,-3.0,2.6024797,-3.0
2025-06-06 16:24:53.322,-3.385535,6.74733,-17.815762,-0.0009786759,0.00043929936,-0.0045318347,-1.172875,-0.540074,9.709812,-0.09715377,-0.010719299,7.7729454,-1.3209784,0.08808136,-1.2506294,1.7891414,0.037879944,-10.799114,0.035203084,-0.082588196,3.1390877,-0.4347479,-0.07602692,0.41199493,1.8289922,-0.037117004,-1.4764633,-0.07053375,0.016899109,-1.9073792,-1.207128,-0.037879944,1.510643,1.4731319,-0.002937317,0.2862587,0.17818451,0.01865387,-10.603798,-0.6821391,0.03376007,6.42527,1.5173315,-0.022163391,-1.2201118,0.0,0.0,0.0,0.0,0.0,0.0,0.0,0.0,0.0,0.0,0.0,0.0,3.0,-1.855605,-3.0,3.0,3.0,-0.13607903,-3.0,-0.84689206,-3.0,-3.0,2.6013334,-3.0
2025-06-06 16:24:53.375,-3.38055,6.751293,-17.82099,-4.946263e-05,0.00275858,-0.0028465097,-1.140969,-0.541455,9.70716,-0.09715377,0.025138855,7.7839317,-1.3212073,0.0005722046,-1.2701607,1.7891414,-0.0075912476,-10.766155,0.035203084,-0.010643005,3.1061249,-0.43421385,-0.002861023,0.4022293,1.8292211,-0.01613617,-1.5265121,-0.07053375,-0.060691833,-1.8866272,-1.2066703,0.051765442,1.5045395,1.4730556,0.021629333,0.2887001,0.17818451,0.03681183,-10.602577,-0.6822154,-0.01613617,6.3898697,1.5172552,-0.06290436,-1.2433052,0.0,0.0,0.0,0.0,0.0,0.0,0.0,0.0,0.0,0.0,0.0,0.0,3.0,-1.8524374,-3.0,3.0,3.0,-0.1402945,-3.0,-0.8522301,-3.0,-3.0,2.5996468,-3.0
2025-06-06 16:24:53.429,-3.382856,6.75394,-17.827269,-0.0022070736,0.001644868,0.001155216,-1.138739,-0.568143,9.712147,-0.09715377,0.011787415,7.7692833,-1.3212073,0.020561218,-1.2530708,1.7892177,-0.024757385,-10.773479,0.035050496,0.013847351,3.129322,-0.43444273,-0.049171448,0.4022293,1.8292974,-0.03704071,-1.5350571,-0.07045746,-0.010108948,-1.9049377,-1.2068229,-0.005455017,1.45327,1.4730556,0.015907288,0.26672745,0.17810822,-0.035057068,-10.612343,-0.6820628,0.051841736,6.3495827,1.5173315,-0.04283905,-1.2066841,0.0,0.0,0.0,0.0,0.0,0.0,0.0,0.0,0.0,0.0,0.0,0.0,3.0,-1.8556337,-3.0,3.0,3.0,-0.13424058,-3.0,-0.8463746,-3.0,-3.0,2.6031075,-3.0
2025-06-06 16:24:53.482,-3.381463,6.758466,-17.832676,0.0009888163,0.00015657349,-0.003912365,-1.153033,-0.567545,9.722057,-0.09715377,-0.011940002,7.7888145,-1.3212836,-0.009651184,-1.2384224,1.7892177,0.035438538,-10.768597,0.035203084,0.024528503,3.1525154,-0.43429014,0.07091522,0.40467072,1.8292974,-0.0308609,-1.5252914,-0.07045746,0.035591125,-1.9049377,-1.206594,-0.012550354,1.477684,1.4729793,0.0035476685,0.2887001,0.17810822,-0.022850037,-10.616005,-0.6820628,-0.07778168,6.409401,1.5173315,-0.0017166138,-1.2176704,0.0,0.0,0.0,0.0,0.0,0.0,0.0,0.0,0.0,0.0,0.0,0.0,3.0,-1.850698,-3.0,3.0,3.0,-0.13301583,-3.0,-0.8519421,-3.0,-3.0,2.6053216,-3.0
2025-06-06 16:24:53.534,-3.375803,6.765114,-17.83909,-0.0013690712,0.001516534,-0.002130052,-1.166122,-0.548928,9.726242,-0.09715377,0.0031661987,7.786373,-1.3213599,-0.045204163,-1.215229,1.7889125,-0.042381287,-10.800335,0.03527938,-0.062294006,3.1073456,-0.43451902,-0.049858093,0.3961258,1.8293737,-0.008659363,-1.4825668,-0.070381165,0.06679535,-1.9269104,-1.2067466,-0.03803253,1.477684,1.4730556,0.008201599,0.2874794,0.17841339,0.04009247,-10.608681,-0.6820628,-0.019721985,6.3752213,1.5172552,0.005760193,-1.2433052,0.0,0.0,0.0,0.0,0.0,0.0,0.0,0.0,0.0,0.0,0.0,0.0,3.0,-1.8552606,-3.0,3.0,3.0,-0.13571008,-3.0,-0.8436478,-3.0,-3.0,2.6023982,-3.0
2025-06-06 16:24:53.587,-3.372579,6.773284,-17.838974,0.0002990447,-0.0013463469,-0.0011890405,-1.13399,-0.558585,9.698209,-0.09715377,0.008964539,7.791256,-1.3214362,0.011558533,-1.2335396,1.7890651,0.011482239,-10.762493,0.03527938,-0.0023269653,3.170826,-0.43436643,0.016288757,0.40711212,1.8296789,0.050697327,-1.510643,-0.07061005,-0.03551483,-1.9232483,-1.2062888,-0.022315979,1.5265121,1.472903,3.8146973e-05,0.2887001,0.1782608,-0.065574646,-10.616005,-0.6820628,0.058937073,6.405739,1.5172552,-0.019264221,-1.2213326,0.0,0.0,0.0,0.0,0.0,0.0,0.0,0.0,0.0,0.0,0.0,0.0,3.0,-1.8563032,-3.0,3.0,3.0,-0.13934894,-3.0,-0.8510666,-3.0,-3.0,2.6005144,-3.0
2025-06-06 16:24:53.639,-3.3679,6.773784,-17.841967,-0.00018301522,-0.0023795643,-0.0038123925,-1.154928,-0.550281,9.711829,-0.09700118,0.028114319,7.7766075,-1.3214362,-0.021324158,-1.2445259,1.789294,0.0047683716,-10.775921,0.03527938,-0.0035476685,3.1268806,-0.43406126,0.01209259,0.40345,1.8295263,-0.0022506714,-1.5045395,-0.07083893,0.037117004,-1.9183655,-1.2068229,0.011558533,1.510643,1.4729793,0.048484802,0.28137589,0.1782608,0.03993988,-10.640423,-0.68168133,-0.02872467,6.3544655,1.5172552,0.012016296,-1.215229,0.0,0.0,0.0,0.0,0.0,0.0,0.0,0.0,0.0,0.0,0.0,0.0,3.0,-1.8520943,-3.0,3.0,3.0,-0.13460024,-3.0,-0.8541495,-3.0,-3.0,2.6034107,-3.0
2025-06-06 16:24:53.692,-3.364418,6.772981,-17.84627,-0.0019945274,-0.0015487353,-0.0035299633,-1.155484,-0.553425,9.702914,-0.09723006,-0.00667572,7.770504,-1.3215888,-0.05672455,-1.2127876,1.7892177,0.008964539,-10.753948,0.035355672,-0.05672455,3.141529,-0.43421385,-0.008430481,0.40345,1.82945,-0.013465881,-1.5069809,-0.07068634,0.013771057,-1.9012756,-1.2065177,-0.013313293,1.4666977,1.4728267,0.02155304,0.28137589,0.17810822,0.0012588501,-10.606239,-0.6820628,0.029563904,6.409401,1.5171789,0.013771057,-1.2420845,0.0,0.0,0.0,0.0,0.0,0.0,0.0,0.0,0.0,0.0,0.0,0.0,3.0,-1.8539006,-3.0,3.0,3.0,-0.13475116,-3.0,-0.8464216,-3.0,-3.0,2.6011105,-3.0
2025-06-06 16:24:53.743,-3.361671,6.77573,-17.849003,-0.0020715313,0.00012952088,-0.0005245762,-1.164778,-0.553931,9.715069,-0.097077474,-0.016670227,7.770504,-1.3213599,0.004310608,-1.2164497,1.7889888,0.0157547,-10.802776,0.035660848,0.040016174,3.146412,-0.43413755,-0.040550232,0.3985672,1.8296789,-0.016288757,-1.5240707,-0.07083893,-0.0838089,-1.8878479,-1.2063651,-0.04634857,1.4789047,1.472903,-0.00415802,0.2862587,0.1782608,0.027275085,-10.62455,-0.6817576,0.016670227,6.331272,1.5171789,-0.026512146,-1.1932564,0.0,0.0,0.0,0.0,0.0,0.0,0.0,0.0,0.0,0.0,0.0,0.0,3.0,-1.8515943,-3.0,3.0,3.0,-0.14416035,-3.0,-0.84962374,-3.0,-3.0,2.5975213,-3.0
2025-06-06 16:24:53.794,-3.361297,6.773875,-17.850283,0.0010174047,-0.0008875348,-0.00083505275,-1.139776,-0.562648,9.71716,-0.097306356,0.011558533,7.7973595,-1.3217413,-0.046043396,-1.2652779,1.7892177,-0.05329132,-10.799114,0.035431966,-0.018959045,3.1305428,-0.43413755,0.0051498413,0.4327469,1.8296789,0.023460388,-1.5460434,-0.07053375,-0.00034332275,-1.9085999,-1.2063651,-0.06397247,1.5155258,1.4729793,0.03604889,0.28137589,0.17818451,-0.0017166138,-10.595253,-0.6818339,-0.039405823,6.3459206,1.5173315,0.0025558472,-1.2298775,0.0,0.0,0.0,0.0,0.0,0.0,0.0,0.0,0.0,0.0,0.0,0.0,3.0,-1.8528503,-3.0,3.0,3.0,-0.14218779,-3.0,-0.85172695,-3.0,-3.0,2.603184,-3.0
2025-06-06 16:24:53.845,-3.359315,6.769364,-17.853016,-0.001341652,0.0012573701,-0.0019866733,-1.13721,-0.552549,9.725875,-0.09723006,0.018806458,7.794918,-1.3213599,0.1379013,-1.235981,1.7890651,0.0005722046,-10.734417,0.035355672,-0.044136047,3.1158905,-0.43413755,-0.031013489,0.38269806,1.8296789,-0.004310608,-1.5143051,-0.07053375,-0.035820007,-1.9269104,-1.2065177,-0.00034332275,1.4630356,1.4728267,0.012931824,0.2899208,0.1783371,0.010948181,-10.644085,-0.6817576,-0.032081604,6.3898697,1.5171026,-0.010871887,-1.2262154,0.0,0.0,0.0,0.0,0.0,0.0,0.0,0.0,0.0,0.0,0.0,0.0,3.0,-1.8535031,-3.0,3.0,3.0,-0.14646585,-3.0,-0.8506259,-3.0,-3.0,2.59809,-3.0
2025-06-06 16:24:53.896,-3.353511,6.772011,-17.854986,-0.00033787827,-0.0014096326,-0.0009839643,-1.153384,-0.52894,9.73587,-0.09715377,-0.008125305,7.7717247,-1.3218939,0.016212463,-1.2213326,1.7891414,0.02620697,-10.767376,0.035431966,-0.012626648,3.1342049,-0.43421385,0.02948761,0.40467072,1.8296789,0.0050735474,-1.5655746,-0.07068634,-0.009498596,-1.8707542,-1.2062888,-0.006828308,1.4813461,1.4728267,-0.011940002,0.2911415,0.17810822,0.008811951,-10.618446,-0.68168133,0.0021743774,6.364231,1.5172552,-0.040168762,-1.2286568,0.0,0.0,0.0,0.0,0.0,0.0,0.0,0.0,0.0,0.0,0.0,0.0,3.0,-1.8542289,-3.0,3.0,3.0,-0.1421506,-3.0,-0.8515547,-3.0,-3.0,2.600772,-3.0
2025-06-06 16:24:53.947,-3.35363,6.77545,-17.857403,-0.0019505101,-0.0013828244,0.0024687857,-1.163838,-0.559004,9.686325,-0.09723006,-0.020484924,7.7814903,-1.321665,0.008125305,-1.2079048,1.7890651,3.8146973e-05,-10.766155,0.035355672,-0.003929138,3.1281013,-0.43429014,-0.027122498,0.39002228,1.8297552,0.03200531,-1.5362778,-0.07053375,0.023612976,-1.9256897,-1.2062888,0.042686462,1.4874496,1.4728267,0.011405945,0.2923622,0.17818451,0.040550232,-10.606239,-0.6817576,-0.021400452,6.360569,1.5172552,-0.04398346,-1.2433052,0.0,0.0,0.0,0.0,0.0,0.0,0.0,0.0,0.0,0.0,0.0,0.0,3.0,-1.8537115,-3.0,3.0,3.0,-0.14539023,-3.0,-0.84969336,-3.0,-3.0,2.5958543,-3.0
2025-06-06 16:24:53.998,-3.355272,6.775671,-17.86003,-0.0032193295,-0.0031622923,-0.0038285193,-1.145268,-0.549375,9.70468,-0.09715377,0.030326843,7.7802696,-1.3218176,-0.019798279,-1.203022,1.7889125,-0.04840851,-10.805218,0.035355672,0.021400452,3.113449,-0.43421385,-0.049095154,0.39246368,1.8297552,0.012779236,-1.5802231,-0.07083893,0.05809784,-1.903717,-1.2065177,-0.0258255,1.5045395,1.4729793,-0.02483368,0.2825966,0.1782608,0.008583069,-10.622108,-0.6818339,0.048103333,6.3447,1.5172552,0.01903534,-1.223774,0.0,0.0,0.0,0.0,0.0,0.0,0.0,0.0,0.0,0.0,0.0,0.0,3.0,-1.8564832,-3.0,3.0,3.0,-0.13982005,-3.0,-0.84994924,-3.0,-3.0,2.6002777,-3.0
2025-06-06 16:24:54.049,-3.355799,6.778376,-17.861485,-0.001915813,-0.0006558773,-0.0009779952,-1.139983,-0.554521,9.710561,-0.09723006,0.0046920776,7.7814903,-1.3218939,0.0038528442,-1.2225533,1.7891414,-0.01651764,-10.803997,0.035355672,0.0075912476,3.1525154,-0.43436643,0.09151459,0.40955353,1.8297552,0.008659363,-1.498436,-0.07068634,0.023612976,-1.9098206,-1.2062888,0.017433167,1.4935532,1.4730556,-0.010871887,0.2899208,0.1782608,0.0033187866,-10.622108,-0.68168133,-0.0104904175,6.3630104,1.5170263,-0.004386902,-1.2225533,0.0,0.0,0.0,0.0,0.0,0.0,0.0,0.0,0.0,0.0,0.0,0.0,3.0,-1.8542746,-3.0,3.0,3.0,-0.1327947,-3.0,-0.85178345,-3.0,-3.0,2.604926,-3.0
2025-06-06 16:24:54.100,-3.359158,6.777454,-17.86646,0.0001563815,-0.00092942273,-0.005439807,-1.145503,-0.553547,9.737585,-0.09723006,0.027122498,7.7729454,-1.3219702,0.00064849854,-1.2188911,1.7890651,-0.035362244,-10.782024,0.035431966,0.022010803,3.1207733,-0.43406126,0.0146102905,0.39002228,1.8297552,0.019874573,-1.5448227,-0.07053375,-0.011634827,-1.8768616,-1.2065177,0.015144348,1.4349594,1.4728267,-0.0258255,0.2838173,0.17818451,-0.0052261353,-10.616005,-0.68160504,0.024681091,6.3715553,1.5173315,-0.02254486,-1.2213326,0.0,0.0,0.0,0.0,0.0,0.0,0.0,0.0,0.0,0.0,0.0,0.0,3.0,-1.8555962,-3.0,3.0,3.0,-0.13618357,-3.0,-0.84591347,-3.0,-3.0,2.600587,-3.0
2025-06-06 16:24:54.151,-3.353484,6.779094,-17.875443,-0.0012826774,0.00033248522,-0.0012851208,-1.146381,-0.56384,9.721893,-0.09715377,-0.0024795532,7.761959,-1.3218939,-0.032234192,-1.2408638,1.7891414,-0.0037002563,-10.768597,0.035203084,-0.05596161,3.1573982,-0.43421385,0.0035476685,0.41199493,1.8298315,0.014533997,-1.5301743,-0.07045746,-0.0036239624,-1.9085999,-1.2062125,-0.01865387,1.4947739,1.472903,0.02117157,0.2923622,0.17818451,0.025062561,-10.60746,-0.68160504,0.07297516,6.365452,1.5172552,0.016059875,-1.2335396,0.0,0.0,0.0,0.0,0.0,0.0,0.0,0.0,0.0,0.0,0.0,0.0,3.0,-1.857821,-3.0,3.0,3.0,-0.132544,-3.0,-0.8502527,-3.0,-3.0,2.6027644,-3.0
2025-06-06 16:24:54.202,-3.35184,6.779376,-17.87628,-0.0013727712,0.00013229596,-0.002918016,-1.15538,-0.579488,9.700198,-0.09723006,-0.034751892,7.7680626,-1.3218939,0.0016403198,-1.2542915,1.7891414,0.004310608,-10.753948,0.035431966,-0.04322052,3.1281013,-0.43406126,-0.08853912,0.41565704,1.8297552,0.0059127808,-1.5240707,-0.07053375,0.068244934,-1.8854065,-1.2060599,-0.01712799,1.4959946,1.472903,0.0346756,0.2923622,0.17795563,-0.02117157,-10.580605,-0.68145245,0.00995636,6.360569,1.5172552,-0.028800964,-1.1883736,0.0,0.0,0.0,0.0,0.0,0.0,0.0,0.0,0.0,0.0,0.0,0.0,3.0,-1.8535484,-3.0,3.0,3.0,-0.13772269,-3.0,-0.8449647,-3.0,-3.0,2.5966063,-3.0
2025-06-06 16:24:54.253,-3.348922,6.779935,-17.882532,0.00015495032,0.0005361826,-0.0011558268,-1.169096,-0.561472,9.754768,-0.097306356,-0.029182434,7.7644005,-1.3221228,-0.043525696,-1.2310982,1.7890651,0.023231506,-10.7747,0.035431966,0.0002670288,3.1342049,-0.43421385,0.01964569,0.40589142,1.8298315,0.0030899048,-1.5509262,-0.070381165,-0.008354187,-1.86343,-1.2062888,0.023841858,1.5155258,1.472903,-0.017280579,0.2899208,0.1782608,-0.010108948,-10.619667,-0.68160504,-0.057182312,6.3422585,1.5172552,-0.009269714,-1.2176704,0.0,0.0,0.0,0.0,0.0,0.0,0.0,0.0,0.0,0.0,0.0,0.0,3.0,-1.852985,-3.0,3.0,3.0,-0.14135416,-3.0,-0.85222894,-3.0,-3.0,2.6000881,-3.0
2025-06-06 16:24:54.304,-3.347781,6.77945,-17.880232,0.001266533,-0.0016459501,-0.0034227301,-1.15378,-0.584922,9.66843,-0.09700118,-0.023002625,7.7680626,-1.3219702,-0.044898987,-1.2176704,1.7889888,-0.034599304,-10.795452,0.035355672,0.066719055,3.1244354,-0.43375608,0.022468567,0.40467072,1.8298315,0.009346008,-1.5179672,-0.07053375,-0.02368927,-1.9147034,-1.2062125,-0.018806458,1.4435043,1.472903,-0.024223328,0.2899208,0.17818451,0.029792786,-10.6013565,-0.68160504,-0.028419495,6.3422585,1.5171789,-0.04398346,-1.2347603,0.0,0.0,0.0,0.0,0.0,0.0,0.0,0.0,0.0,0.0,0.0,0.0,3.0,-1.851946,-3.0,3.0,3.0,-0.14304061,-3.0,-0.847657,-3.0,-3.0,2.5996485,-3.0
2025-06-06 16:24:54.355,-3.342319,6.784231,-17.885136,-0.0014230541,-0.0017537766,-0.0017608627,-1.156428,-0.54559,9.714236,-0.097077474,0.0015640259,7.7814903,-1.3219702,-0.051460266,-1.2249947,1.7890651,-0.02368927,-10.767376,0.03550826,0.0074386597,3.109787,-0.43390867,0.012397766,0.3973465,1.8297552,-0.0020980835,-1.5667953,-0.07053375,0.0014877319,-1.9159241,-1.2061362,-0.015068054,1.4959946,1.4728267,-0.016975403,0.28137589,0.1782608,0.035743713,-10.597694,-0.68137616,0.027046204,6.331272,1.5172552,0.07595062,-1.1944771,0.0,0.0,0.0,0.0,0.0,0.0,0.0,0.0,0.0,0.0,0.0,0.0,3.0,-1.8554395,-3.0,3.0,3.0,-0.13963659,-3.0,-0.85201067,-3.0,-3.0,2.601021,-3.0
2025-06-06 16:24:54.406,-3.342868,6.783915,-17.884312,-0.00471745,-0.0030484793,-0.00019868829,-1.141341,-0.557862,9.729094,-0.09723006,-0.024147034,7.7644005,-1.3220465,-0.0076675415,-1.235981,1.7889125,0.00995636,-10.794231,0.03527938,-0.0762558,3.141529,-0.43383238,0.03139496,0.3961258,1.8298315,-0.011634827,-1.5460434,-0.070762634,-0.06389618,-1.9305725,-1.2059836,0.005302429,1.4422836,1.472903,-0.01964569,0.2874794,0.1783371,0.06626129,-10.605019,-0.68152875,-0.055732727,6.339817,1.5172552,0.04184723,-1.2274361,0.0,0.0,0.0,0.0,0.0,0.0,0.0,0.0,0.0,0.0,0.0,0.0,3.0,-1.8488847,-3.0,3.0,3.0,-0.14447267,-3.0,-0.8526255,-3.0,-3.0,2.5976536,-3.0
2025-06-06 16:24:54.457,-3.343506,6.781901,-17.888824,-0.0012003501,-0.0011796331,1.8675023e-06,-1.155602,-0.556835,9.721025,-0.09723006,-0.023612976,7.7888145,-1.3219702,-0.027427673,-1.1798286,1.789294,0.006828308,-10.751507,0.03527938,-0.034446716,3.1549568,-0.43398497,-0.046272278,0.38513947,1.8298315,0.007820129,-1.5728989,-0.07061005,0.008583069,-1.9000549,-1.2062125,0.011024475,1.4422836,1.4728267,0.023002625,0.2899208,0.1783371,0.06977081,-10.598915,-0.68152875,-0.0060653687,6.3593483,1.5173315,0.012168884,-1.2323189,0.0,0.0,0.0,0.0,0.0,0.0,0.0,0.0,0.0,0.0,0.0,0.0,3.0,-1.8551852,-3.0,3.0,3.0,-0.14498957,-3.0,-0.8500864,-3.0,-3.0,2.5980477,-3.0
2025-06-06 16:24:54.508,-3.336777,6.785575,-17.890709,-0.00022724186,-0.0011414104,-0.0020551425,-1.166457,-0.571858,9.721185,-0.097077474,-0.038871765,7.770504,-1.3219702,0.025596619,-1.2323189,1.7891414,-0.045280457,-10.777142,0.035584554,0.008125305,3.1085663,-0.4335272,-0.018730164,0.38147736,1.8299078,0.054588318,-1.5570297,-0.07068634,-0.0075149536,-1.9195862,-1.2061362,0.018577576,1.486229,1.4728267,0.010795593,0.2923622,0.1782608,0.013694763,-10.62455,-0.68145245,0.01903534,6.303196,1.5171026,-0.016670227,-1.235981,0.0,0.0,0.0,0.0,0.0,0.0,0.0,0.0,0.0,0.0,0.0,0.0,3.0,-1.8546263,-3.0,3.0,3.0,-0.14664467,-3.0,-0.8504511,-3.0,-3.0,2.5958865,-3.0
2025-06-06 16:24:54.559,-3.334087,6.786527,-17.89379,-0.0022992094,-0.00078700384,0.00014165092,-1.158491,-0.552403,9.698802,-0.09715377,-0.008583069,7.7717247,-1.3219702,-0.054969788,-1.2298775,1.789294,0.0010299683,-10.753948,0.035203084,-0.026359558,3.1317635,-0.43390867,0.049324036,0.37903595,1.8298315,-0.0009536743,-1.5631332,-0.07045746,0.017356873,-1.9024963,-1.2062888,-0.022697449,1.4801254,1.472903,0.0059890747,0.29358292,0.17795563,-0.022087097,-10.619667,-0.68129987,0.0623703,6.336155,1.5171789,-0.038337708,-1.2140083,0.0,0.0,0.0,0.0,0.0,0.0,0.0,0.0,0.0,0.0,0.0,0.0,3.0,-1.8575,-3.0,3.0,3.0,-0.13081177,-3.0,-0.85051554,-3.0,-3.0,2.6066725,-3.0
2025-06-06 16:24:54.610,-3.335574,6.787222,-17.89456,0.00087259477,0.0020825444,-0.0013193467,-1.170183,-0.570863,9.692662,-0.097077474,0.016975403,7.787594,-1.3221228,0.010566711,-1.2310982,1.7891414,0.004463196,-10.750286,0.035203084,0.018882751,3.1061249,-0.4336798,0.056266785,0.4010086,1.8299078,0.03528595,-1.4837875,-0.07053375,0.0033187866,-1.8963928,-1.2062125,0.033454895,1.4850082,1.4728267,-0.0118637085,0.2899208,0.17803192,-0.042762756,-10.62455,-0.681071,-0.05657196,6.367893,1.5172552,0.01750946,-1.2335396,0.0,0.0,0.0,0.0,0.0,0.0,0.0,0.0,0.0,0.0,0.0,0.0,3.0,-1.851246,-3.0,3.0,3.0,-0.13789137,-3.0,-0.85043865,-3.0,-3.0,2.5996006,-3.0
2025-06-06 16:24:54.661,-3.333777,6.789869,-17.8987,0.00015486307,-0.0007338062,-0.0020485977,-1.15989,-0.550967,9.710128,-0.09723006,-0.0011825562,7.774166,-1.3219702,-0.0065231323,-1.2323189,1.7890651,-3.8146973e-05,-10.812544,0.03512679,0.010185242,3.1439705,-0.4336798,0.023460388,0.38880157,1.8298315,-0.023002625,-1.5289536,-0.07068634,-0.045814514,-1.8951721,-1.2060599,0.024299622,1.5094223,1.472903,-0.01247406,0.2911415,0.17810822,-0.022621155,-10.614784,-0.68129987,0.048866272,6.32761,1.5172552,-0.0002670288,-1.2384224,0.0,0.0,0.0,0.0,0.0,0.0,0.0,0.0,0.0,0.0,0.0,0.0,3.0,-1.8560921,-3.0,3.0,3.0,-0.13623221,-3.0,-0.84864604,-3.0,-3.0,2.6019454,-3.0
2025-06-06 16:24:54.712,-3.331128,6.79046,-17.894604,0.0025272367,-0.0008315621,-0.0023721643,-1.169687,-0.563035,9.709211,-0.09700118,0.04169464,7.7692833,-1.3221991,-0.004234314,-1.2054634,1.7890651,-0.0036239624,-10.766155,0.03512679,-0.01651764,3.1268806,-0.43375608,0.022315979,0.4022293,1.8298315,-0.00064849854,-1.5570297,-0.070762634,-0.02910614,-1.9098206,-1.2060599,0.00034332275,1.4752426,1.4729793,0.035362244,0.2911415,0.1782608,0.012016296,-10.618446,-0.6811473,0.018424988,6.367893,1.5171789,0.01789093,-1.2347603,0.0,0.0,0.0,0.0,0.0,0.0,0.0,0.0,0.0,0.0,0.0,0.0,3.0,-1.8546098,-3.0,3.0,3.0,-0.13440378,-3.0,-0.85261184,-3.0,-3.0,2.6031508,-3.0
2025-06-06 16:24:54.763,-3.333661,6.787226,-17.89146,-0.002045491,0.0001680054,-3.0717794e-05,-1.157729,-0.53992,9.705503,-0.097077474,0.034751892,7.7729454,-1.3220465,0.018196106,-1.1664009,1.7892177,0.029716492,-10.760052,0.03527938,-0.004463196,3.1476326,-0.4336798,0.010032654,0.38391876,1.8299078,-0.016670227,-1.555809,-0.07045746,-0.0346756,-1.8902893,-1.2062125,-0.019874573,1.4459457,1.4727504,0.027580261,0.2923622,0.1782608,0.02407074,-10.613564,-0.6809947,-0.0118637085,6.3825455,1.5172552,3.8146973e-05,-1.2408638,0.0,0.0,0.0,0.0,0.0,0.0,0.0,0.0,0.0,0.0,0.0,0.0,3.0,-1.8532977,-3.0,3.0,3.0,-0.1342761,-3.0,-0.8502936,-3.0,-3.0,2.6035545,-3.0
2025-06-06 16:24:54.814,-3.33387,6.787321,-17.885626,0.0002905275,0.0029207561,0.00046959828,-1.176914,-0.558578,9.71494,-0.09715377,0.002937317,7.7814903,-1.3221228,-0.02002716,-1.2176704,1.7890651,-0.041542053,-10.72221,0.035431966,0.03299713,3.113449,-0.4335272,-0.0598526,0.38636017,1.8300604,0.016670227,-1.5289536,-0.07045746,0.036582947,-1.903717,-1.2062125,-0.019798279,1.4618149,1.4729793,0.00064849854,0.29480362,0.1782608,-0.008888245,-10.609901,-0.6812236,-0.052452087,6.3739967,1.5172552,-0.03238678,-1.2201118,0.0,0.0,0.0,0.0,0.0,0.0,0.0,0.0,0.0,0.0,0.0,0.0,3.0,-1.8536892,-3.0,3.0,3.0,-0.14247485,-3.0,-0.8449822,-3.0,-3.0,2.5984616,-3.0
2025-06-06 16:24:54.865,-3.333866,6.784419,-17.882805,0.00054068555,0.0021038372,0.0002958682,-1.157222,-0.56556,9.732285,-0.09723006,-0.013313293,7.7766075,-1.3223517,-0.04802704,-1.215229,1.7890651,-0.008125305,-10.803997,0.035431966,0.020637512,3.1268806,-0.4335272,-0.016365051,0.40345,1.8299078,-0.016212463,-1.5387192,-0.07061005,-0.050697327,-1.9440002,-1.2061362,0.027809143,1.5130844,1.4727504,0.0050735474,0.2911415,0.1783371,0.012626648,-10.619667,-0.6812236,0.014533997,6.3178444,1.5173315,0.027656555,-1.2262154,0.0,0.0,0.0,0.0,0.0,0.0,0.0,0.0,0.0,0.0,0.0,0.0,3.0,-1.8551735,-3.0,3.0,3.0,-0.14124401,-3.0,-0.85227793,-3.0,-3.0,2.5993388,-3.0
2025-06-06 16:24:54.916,-3.333932,6.780692,-17.878689,-0.0030579565,-0.0020638693,-0.0020507618,-1.150731,-0.556237,9.711248,-0.09715377,-0.026741028,7.779049,-1.3221991,0.008125305,-1.2054634,1.7891414,0.045280457,-10.799114,0.035355672,0.028953552,3.1476326,-0.43383238,-0.060386658,0.37903595,1.8299078,-0.023536682,-1.5045395,-0.07045746,-0.04611969,-1.912262,-1.2059073,0.08060455,1.4593735,1.4727504,-0.025520325,0.2899208,0.17810822,0.021018982,-10.617226,-0.6809184,-0.025062561,6.3385963,1.5172552,0.0497818,-1.2066841,0.0,0.0,0.0,0.0,0.0,0.0,0.0,0.0,0.0,0.0,0.0,0.0,3.0,-1.8496507,-3.0,3.0,3.0,-0.14805515,-3.0,-0.85203457,-3.0,-3.0,2.5915878,-3.0
2025-06-06 16:24:54.967,-3.329098,6.781132,-17.876064,0.00011334168,-0.0010437418,0.0018251606,-1.170069,-0.557086,9.734522,-0.097077474,0.05054474,7.786373,-1.3221228,0.030555725,-1.1773872,1.7891414,0.0004196167,-10.807659,0.035431966,-0.07419586,3.0841522,-0.4333746,0.020942688,0.3949051,1.8299841,0.032844543,-1.5667953,-0.07061005,-0.027198792,-1.8524437,-1.2061362,0.04863739,1.4483871,1.4728267,0.027809143,0.2911415,0.17818451,0.045051575,-10.626995,-0.68129987,0.014762878,6.266575,1.5173315,0.022621155,-1.2115669,0.0,0.0,0.0,0.0,0.0,0.0,0.0,0.0,0.0,0.0,0.0,0.0,3.0,-1.8567077,-3.0,3.0,3.0,-0.1450016,-3.0,-0.85694253,-3.0,-3.0,2.6006236,-3.0
2025-06-06 16:24:55.018,-3.324425,6.783896,-17.870235,-0.0013875368,0.00017184511,-0.0014789571,-1.145338,-0.558627,9.716683,-0.097077474,-0.008049011,7.782711,-1.3221991,-0.04497528,-1.2176704,1.7891414,0.011024475,-10.729534,0.03527938,0.030174255,3.129322,-0.4336035,-0.0051498413,0.38147736,1.8300604,0.041770935,-1.5814438,-0.07068634,0.0011062622,-1.8902893,-1.2060599,-0.046195984,1.4312973,1.4728267,-0.029335022,0.29480362,0.17803192,0.012702942,-10.578163,-0.6811473,-0.00705719,6.331272,1.5172552,0.036964417,-1.2469673,0.0,0.0,0.0,0.0,0.0,0.0,0.0,0.0,0.0,0.0,0.0,0.0,3.0,-1.8495375,-3.0,3.0,3.0,-0.14432986,-3.0,-0.85037374,-3.0,-3.0,2.596785,-3.0
2025-06-06 16:24:55.069,-3.325998,6.785235,-17.869003,-0.002153457,0.001899023,0.0017847038,-1.156486,-0.538289,9.708948,-0.097077474,0.00957489,7.786373,-1.3221991,0.016822815,-1.1566353,1.7892177,0.030555725,-10.779583,0.03550826,0.0118637085,3.1366463,-0.4336035,-0.0002670288,0.38513947,1.8299841,-0.0033187866,-1.5814438,-0.07061005,-0.022315979,-1.8780823,-1.2060599,-0.02407074,1.4837875,1.472903,-0.002861023,0.2911415,0.17818451,0.02986908,-10.59037,-0.681071,0.00667572,6.3422585,1.5173315,-0.032234192,-1.2286568,0.0,0.0,0.0,0.0,0.0,0.0,0.0,0.0,0.0,0.0,0.0,0.0,3.0,-1.8563159,-3.0,3.0,3.0,-0.14271088,-3.0,-0.85065526,-3.0,-3.0,2.6020093,-3.0
2025-06-06 16:24:55.120,-3.325762,6.785866,-17.864157,-0.0007742455,-0.0020463113,-0.0041369363,-1.160698,-0.575844,9.711604,-0.09723006,-0.017662048,7.76318,-1.3225043,-0.06351471,-1.2274361,1.7890651,-0.01789093,-10.812544,0.035584554,0.033836365,3.1329842,-0.4336798,-0.030937195,0.38758087,1.8299841,-0.02193451,-1.5069809,-0.07053375,0.0036239624,-1.9000549,-1.2060599,-0.026359558,1.4825668,1.4727504,0.018424988,0.29480362,0.17818451,0.013771057,-10.622108,-0.6811473,-0.02292633,6.3666725,1.5174078,0.005760193,-1.235981,0.0,0.0,0.0,0.0,0.0,0.0,0.0,0.0,0.0,0.0,0.0,0.0,3.0,-1.8519559,-3.0,3.0,3.0,-0.13950773,-3.0,-0.8485261,-3.0,-3.0,2.5995564,-3.0
2025-06-06 16:24:55.171,-3.322164,6.785909,-17.865334,-0.00058801885,0.00044230133,0.0018975568,-1.155497,-0.534964,9.687654,-0.097306356,-0.021781921,7.770504,-1.322428,-0.0077438354,-1.1981392,1.7890651,0.0104904175,-10.788128,0.035355672,-0.06374359,3.1061249,-0.4334509,0.022087097,0.4010086,1.8299841,-0.02620697,-1.5387192,-0.07061005,0.015830994,-1.8988342,-1.2061362,-0.016288757,1.477684,1.4727504,-0.029716492,0.29968643,0.17810822,-0.0037765503,-10.597694,-0.681071,-0.040397644,6.3178444,1.5172552,0.040016174,-1.2298775,0.0,0.0,0.0,0.0,0.0,0.0,0.0,0.0,0.0,0.0,0.0,0.0,3.0,-3.0,-3.0,3.0,3.0,2.647018,-3.0,0.36783174,-3.0,-3.0,1.7594596,-3.0
2025-06-06 16:24:55.222,-3.264993,6.896571,-17.775702,0.19786812,0.459953,0.11223184,0.702049,-3.146208,6.233247,-0.091508016,-0.05214691,7.639889,-1.345545,-0.5171585,-7.49218,1.8101223,0.79509735,-12.677805,0.06739913,0.92731476,0.5572586,-0.42948362,0.90595245,-0.46570587,1.9822668,2.6151695,-0.06530762,-0.07854462,-0.22655487,-1.1627388,-1.1623435,0.71804047,7.2236214,1.451083,-0.459404,1.6205063,0.17398834,-0.18695831,-10.269321,-0.69396466,-0.034370422,1.1200104,1.5261053,0.13706207,-1.6730003,0.0,0.0,0.0,0.0,0.0,0.0,0.0,0.0,0.0,0.0,0.0,0.0,3.0,-3.0,-3.0,3.0,3.0,3.0,-3.0,-0.40713063,0.7423273,-3.0,1.0919889,-3.0
2025-06-06 16:24:55.273,-3.618501,7.705887,-17.175888,0.075728215,-0.16093972,0.18204121,1.260954,-1.686905,9.358207,-0.101731405,-0.28141022,8.266117,-1.3897192,-1.2552261,-4.5343704,1.832629,-0.06397247,-12.218815,0.09532271,0.050621033,0.9625397,-0.43009397,0.24486542,0.18005753,2.068708,0.79235077,0.7843132,-0.10631561,-0.5235672,0.037231445,-1.1366324,1.5890884,-0.07873535,1.7061336,5.2986565,-0.7428093,0.16674042,0.009880066,-10.255894,-0.75721234,-1.9117355,1.477684,1.5760778,1.5615463,-5.421837,0.0,0.0,0.0,0.0,0.0,0.0,0.0,0.0,0.0,0.0,0.0,0.0,3.0,-3.0,-3.0,3.0,3.0,1.3019592,-3.0,1.2938532,3.0,-3.0,0.1668738,-3.0
2025-06-06 16:24:55.325,-3.90278,6.299768,-17.293287,-0.1875829,-0.5254943,-0.1317524,2.070571,0.358766,9.446661,-0.1219493,-0.53691864,9.306171,-1.4790595,-2.1328392,-0.547493,1.8176754,-0.6834793,-10.956589,0.09898482,-0.25485992,1.170063,-0.42513487,-0.29384613,0.37781525,1.9918798,-1.6146469,0.27283096,-0.11325836,0.28064728,-0.61341095,-0.86868817,5.2623405,-2.9974823,1.9865901,4.0649834,-0.604866,0.16712189,-0.035057068,-10.219273,-0.8922526,-2.3350945,0.2874794,1.6598486,1.6515732,-8.552986,0.0,0.0,0.0,0.0,0.0,0.0,0.0,0.0,0.0,0.0,0.0,0.0,3.0,-2.8633614,-3.0,3.0,3.0,-3.0,-2.9468782,0.8013199,3.0,-3.0,-1.5096666,-3.0
2025-06-06 16:24:55.376,-5.436555,3.654365,-18.108809,-1.045619,-1.5868388,-0.3611896,-3.76566,2.91042,22.21487,-0.15887557,-0.43735504,10.856487,-1.5960181,-2.076229,4.6198196,1.749316,-2.1840324,-6.499733,0.100205526,-1.2970352,2.614174,-0.48815367,-2.6343956,6.2262917,1.8308233,-1.3370895,-10.172886,-0.11211395,-0.07701874,-0.16540909,-0.831533,-0.6560898,0.3961258,2.0839412,0.481987,0.5523758,0.15460968,-0.501976,-9.1865425,-1.0938975,-3.7360802,-1.6351585,1.7330145,0.6040573,-9.558861,0.0,0.0,0.0,0.0,0.0,0.0,0.0,0.0,0.0,0.0,0.0,0.0,3.0,-2.4471781,-0.43358666,-1.0896847,3.0,-3.0,3.0,0.17324938,3.0,-3.0,-3.0,-3.0
2025-06-06 16:24:55.427,-7.168895,-0.149334,-17.953121,-0.38518685,-1.1105146,0.40986115,-5.467929,3.806794,9.889662,-0.13095199,0.8603287,7.876709,-1.6535437,-0.6435013,7.2468147,1.7141445,-0.39218903,1.9354553,0.0828868,1.4542007,-6.166477,-0.603739,-1.1874008,7.9035645,1.764829,-2.2930565,-7.0148773,-0.067481995,0.4870987,6.131077,-0.98969036,-1.7137527,2.9803925,2.1719081,0.99155426,-3.1073456,0.13103485,-1.3984299,-7.4323654,-1.2771593,-3.047451,-6.334934,1.7327093,-1.0438156,-7.207752,0.0,0.0,0.0,0.0,0.0,0.0,0.0,0.0,0.0,0.0,0.0,0.0,3.0,-1.4414939,3.0,-3.0,2.4768176,-3.0,3.0,-0.2404602,-1.3626288,-0.32671472,-3.0,-3.0
2025-06-06 16:24:55.478,-7.67262,0.035048,-14.942832,0.37892967,0.8124329,1.1285429,-3.173232,-2.876043,8.647662,-0.047562703,1.7451859,3.7140465,-1.6430151,0.28209686,12.196842,1.806689,1.4006424,8.842297,0.15658675,1.7839432,-12.14435,-0.62380433,0.8398056,2.4689102,1.6814398,-1.4787674,-4.995804,-0.033607483,1.2178421,4.0668335,-0.9612327,1.9878769,-5.7062645,2.1042354,-1.740303,-13.305256,0.03162384,-2.9945793,2.581215,-1.4228045,-3.0421867,-1.1688423,1.6084265,-3.287243,-0.29358292,0.0,0.0,0.0,0.0,0.0,0.0,0.0,0.0,0.0,0.0,0.0,0.0,3.0,-0.17039439,3.0,-3.0,0.6765006,-3.0,3.0,-2.2876878,-3.0,3.0,-3.0,1.2552327
2025-06-06 16:24:55.529,-7.495014,2.369019,-13.423047,-0.0023636993,0.18286029,0.011616178,1.766102,-5.191812,12.655114,0.016981974,0.63007355,2.9913788,-1.5960944,0.28446198,19.28313,1.8255336,-0.24784088,10.567177,0.18557845,-0.57338715,-9.82498,-0.6596625,-1.1301041,-5.9760437,1.6515325,-0.74199677,-4.9469757,0.022392273,0.425148,3.1512947,-0.9525352,-0.3143692,-16.718395,2.0419796,-0.37281036,-19.124437,0.07312775,1.3798904,-0.18371964,-1.5499865,-0.6341171,0.21423721,1.7839025,4.5706596,-0.26428604,0.0,0.0,0.0,0.0,0.0,0.0,0.0,0.0,0.0,0.0,0.0,0.0,3.0,-0.9925745,3.0,-3.0,2.7458718,-3.0,3.0,-2.4910474,-3.0,3.0,-3.0,1.6986082
2025-06-06 16:24:55.580,-9.76397,1.85306,-14.145152,-0.74487305,0.016394697,-0.71311736,0.644811,-5.730407,7.968204,0.045363322,0.39730072,2.3944473,-1.5663397,0.68149567,12.079651,1.8549831,0.7405472,7.8706017,0.14125167,-1.0976028,-7.8266563,-0.6054175,0.8093643,3.527275,1.5715765,-1.567421,-1.0357819,0.04573822,0.55446625,1.830471,-0.9990745,-1.1587143,-15.066759,2.0247371,-0.23792267,-18.765545,0.10005951,0.13736725,0.75867844,-1.5523516,0.10318756,-0.9845123,1.9278692,1.534996,-0.10681152,0.0,0.0,0.0,0.0,0.0,0.0,0.0,0.0,0.0,0.0,0.0,0.0,3.0,-1.4083222,3.0,-3.0,3.0,-3.0,3.0,-2.9711726,-3.0,3.0,-3.0,-0.4475192
2025-06-06 16:24:55.631,-12.556647,1.090932,-17.9124,-0.7454914,0.097904555,-1.8650935,1.50151,-4.631534,7.475806,0.06664933,0.5501938,1.4935532,-1.5219367,0.80387115,7.8596153,1.9241054,1.1650467,5.380333,0.06686507,-1.8072128,-4.6894035,-0.55445313,0.9482956,3.4174118,1.5238928,-0.42980194,-0.95399475,0.09288788,1.3798141,-0.35461807,-1.0942893,-2.0713463,-13.896086,2.021609,-0.006904602,-18.916914,0.10669708,0.023460388,0.7037468,-1.553496,-0.42186737,-0.42053986,1.8272375,-2.2440758,0.35950089,0.0,0.0,0.0,0.0,0.0,0.0,0.0,0.0,0.0,0.0,0.0,0.0,3.0,-1.3010792,3.0,-3.0,3.0,-3.0,3.0,-3.0,-3.0,3.0,-3.0,-2.1502705
2025-06-06 16:24:55.682,-14.559089,0.285278,-24.292679,-0.5209457,0.5031948,-2.39221,0.006051,-2.860705,6.797672,0.072905436,0.06755829,1.7694359,-1.4937079,0.15033722,8.195316,1.9611843,0.37525177,5.2301826,-0.016219035,-1.6270065,-1.7242699,-0.5108893,0.81264496,2.0550842,1.525266,0.32634735,-2.0172424,0.17620087,1.9374466,-4.022888,-1.1877494,-1.5295029,-11.67071,2.0143611,-0.4166031,-18.142977,0.104637146,-0.044517517,0.83802414,-1.5560137,-0.3697586,-0.35950089,1.6564153,-2.425579,0.27283096,0.0,0.0,0.0,0.0,0.0,0.0,0.0,0.0,0.0,0.0,0.0,0.0,3.0,-0.9748512,3.0,-3.0,3.0,-3.0,3.0,-3.0,-3.0,3.0,-3.0,-3.0
2025-06-06 16:24:55.733,-15.890933,0.557072,-31.687004,-0.43200913,0.8167511,-1.9093626,-1.36604,-0.802119,8.563764,0.06733598,0.0016403198,2.0318909,-1.5161383,-0.34816742,12.173649,1.9572933,-0.05130768,5.6134872,-0.0884694,-1.0281754,0.06530762,-0.47983763,0.42613983,1.3043404,1.5550207,0.4844284,-3.2831306,0.26294708,1.4527512,-6.552223,-1.2282615,-0.2625656,-11.852598,1.9791133,-1.0038376,-16.11902,0.101509094,-0.04711151,0.9796295,-1.5583025,-0.05558014,-0.41565704,1.5357183,-1.4305496,0.10192871,0.0,0.0,0.0,0.0,0.0,0.0,0.0,0.0,0.0,0.0,0.0,0.0,3.0,-0.88131845,3.0,-3.0,3.0,-3.0,3.0,-3.0,-3.0,3.0,-3.0,-3.0
2025-06-06 16:24:55.784,-17.292324,1.85446,-36.270374,-0.77127904,0.7148749,-0.90335095,-0.878678,-0.188523,10.204815,0.06634416,0.024986267,2.0013733,-1.550318,-0.49648285,14.0694275,1.9549282,0.003929138,5.6891747,-0.12989701,-0.33679962,0.8563347,-0.46213743,0.1657486,1.1737251,1.5713476,0.029640198,-3.150074,0.30864716,0.3887558,-7.155262,-1.2294822,0.037574768,-12.117495,1.9343288,-0.68927765,-14.777447,0.10128021,-0.003929138,0.83802414,-1.5623461,-0.053749084,-0.330204,1.5005468,-0.40294647,-0.21301651,0.0,0.0,0.0,0.0,0.0,0.0,0.0,0.0,0.0,0.0,0.0,0.0,3.0,-0.9469357,3.0,-3.0,3.0,-3.0,3.0,-3.0,-3.0,3.0,-3.0,-3.0
2025-06-06 16:24:55.835,-19.48706,3.156458,-37.79356,-0.8711401,0.37460646,0.07372452,-0.579916,-1.411979,9.569071,0.07572831,0.22220612,1.2848091,-1.5782416,-0.6080246,14.732281,1.9576747,0.109825134,5.376671,-0.13607682,0.108680725,0.14953995,-0.4664099,-0.28896332,1.8731956,1.5645574,-0.43117523,-2.395668,0.3145218,-0.061531067,-6.4777603,-1.2305503,-0.067863464,-12.07477,1.8987758,-0.61985016,-13.979095,0.10295868,0.008735657,0.8160515,-1.5636431,-0.008201599,-0.41443634,1.4926885,-0.057640076,-0.27649307,0.0,0.0,0.0,0.0,0.0,0.0,0.0,0.0,0.0,0.0,0.0,0.0,3.0,-0.96587723,3.0,-3.0,3.0,-3.0,3.0,-3.0,-3.0,3.0,-3.0,-3.0
2025-06-06 16:24:55.886,-21.855833,4.322489,-37.010902,-0.9191018,0.1929048,0.6344174,-0.622495,-2.731218,8.878629,0.095335856,0.3586197,0.6549187,-1.6060126,-0.60131073,15.622185,1.96683,0.19481659,4.9262238,-0.110976115,0.8360672,-1.3226509,-0.48594114,-0.34488678,2.805828,1.5370153,-0.6671524,-1.0321198,0.2981949,-0.454216,-5.125202,-1.2445121,-0.9660721,-10.258335,1.8682582,-0.8246994,-12.449532,0.10234833,-0.065345764,0.91615295,-1.5615832,0.17230988,-0.61219025,1.4916204,0.022621155,-0.31555557,0.0,0.0,0.0,0.0,0.0,0.0,0.0,0.0,0.0,0.0,0.0,0.0,3.0,-0.91102,3.0,-3.0,3.0,-3.0,3.0,-3.0,-3.0,3.0,-3.0,-3.0
2025-06-06 16:24:55.937,-24.559977,5.821635,-35.245293,-1.0237465,0.2915571,0.83836114,-1.384442,-3.824662,8.404137,0.11418046,0.49640656,-0.11413574,-1.6304266,-0.3762436,16.531624,1.9817073,0.28224945,4.2767982,-0.084502116,0.49625397,-2.211338,-0.505625,-0.3762436,3.2965584,1.5037512,-0.51677704,-0.128788,0.25928497,-0.93852997,-3.5175095,-1.2944846,-1.0532761,-8.085451,1.81058,-1.5610886,-9.429464,0.10219574,-0.03681183,0.8844147,-1.5582262,0.076789856,-0.6268425,1.4916967,0.012931824,-0.31799698,0.0,0.0,0.0,0.0,0.0,0.0,0.0,0.0,0.0,0.0,0.0,0.0,3.0,-0.7739201,3.0,-3.0,3.0,-3.0,3.0,-3.0,-3.0,3.0,-3.0,-3.0
2025-06-06 16:24:55.988,-27.615498,8.225208,-33.397526,-1.0463914,0.4324374,0.77931875,-3.750351,-4.062178,6.351195,0.13539018,0.52684784,-0.9747467,-1.6521704,-0.28964996,18.058746,2.0084102,0.81027985,2.5958633,-0.058333293,0.2564621,-3.068283,-0.51287293,0.05405426,3.0572968,1.4827703,-0.38524628,0.4010086,0.20259857,-1.4207077,-0.7086296,-1.4212089,-3.6134758,-0.4791336,1.6388423,-4.4356956,-0.0030517578,0.10379791,0.013771057,0.7452507,-1.5578448,0.13118744,-0.7098503,1.4916204,-0.031547546,-0.33386612,0.0,0.0,0.0,0.0,0.0,0.0,0.0,0.0,0.0,0.0,0.0,0.0,3.0,-0.5296379,3.0,-3.0,3.0,-3.0,3.0,-3.0,-3.0,3.0,-3.0,-3.0
2025-06-06 16:24:56.039,-29.838572,11.506354,-32.68995,-0.6142609,1.093472,0.52613926,-3.981779,-5.915863,8.431285,0.1729268,0.9082413,-2.9889374,-1.6581213,0.047798157,19.375908,2.0593746,1.2105179,0.49744415,-0.027586833,0.4796219,-4.203556,-0.4876196,0.7970047,1.0565338,1.4804815,0.011329651,0.0579834,0.15727997,-0.46154022,-0.38391876,-1.5387015,-1.2231827,0.2471962,1.5174587,-0.8625412,0.037231445,0.101127625,-0.039024353,0.91981506,-1.5511309,0.091285706,-0.9417877,1.4916204,0.054359436,-0.33264542,0.0,0.0,0.0,0.0,0.0,0.0,0.0,0.0,0.0,0.0,0.0,0.0,3.0,-0.2289953,3.0,-3.0,3.0,-3.0,3.0,-3.0,-3.0,3.0,-3.0,-3.0
2025-06-06 16:24:56.090,-32.00069,15.087829,-33.741234,-0.81602186,1.1824753,0.03466807,-3.785641,-6.345761,10.05282,0.21107377,0.74077606,-3.822689,-1.6375983,0.7091141,20.041199,2.1008022,0.51670074,-0.12023926,-0.022169963,-0.34053802,-3.1561775,-0.43459532,0.84156036,-0.84290695,1.480863,0.04673004,0.037231445,0.14705658,0.011940002,-0.76600266,-1.5593772,-0.27378082,-0.41321564,1.4976223,-0.09914398,-0.45227814,0.10135651,0.06977081,0.8319206,-1.5527331,-0.101890564,-0.6610222,1.4914678,-0.0034713745,-0.3216591,0.0,0.0,0.0,0.0,0.0,0.0,0.0,0.0,0.0,0.0,0.0,0.0,3.0,0.022117289,3.0,-3.0,3.0,-3.0,3.0,-3.0,-3.0,3.0,-3.0,-3.0
2025-06-06 16:24:56.141,-34.71948,17.502207,-35.687527,-0.69578624,0.83990157,-0.24467036,-4.026686,-5.337363,9.999341,0.23983659,0.5788803,-4.8285637,-1.5796149,1.3895035,18.338291,2.1143062,0.052986145,0.004272461,-0.060850993,-0.9458542,-0.94667053,-0.4044592,0.36205292,-1.0455475,1.4810919,0.057487488,0.012817383,0.14698029,-0.05672455,-0.69276047,-1.5622764,-0.040550232,-0.4339676,1.4944179,0.012397766,-0.46570587,0.10547638,-0.016822815,0.7379265,-1.5589129,-0.06160736,-0.48645782,1.4913915,-0.025978088,-0.3228798,0.0,0.0,0.0,0.0,0.0,0.0,0.0,0.0,0.0,0.0,0.0,0.0,3.0,0.3579128,3.0,-3.0,3.0,-3.0,3.0,-3.0,-3.0,3.0,-3.0,-3.0
2025-06-06 16:24:56.192,-37.25367,19.156755,-37.846306,-0.6852493,0.68409973,-0.3670441,-4.208006,-3.916984,7.669412,0.2773732,0.7614517,-6.3166237,-1.4872229,2.1321526,16.669567,2.106982,-0.30651093,0.7025261,-0.11036576,-1.0489273,0.632946,-0.40049192,-0.09304047,-0.6598015,1.4812444,-0.01499176,0.03479004,0.145607,-0.046272278,-0.6378288,-1.5625052,-0.044517517,-0.45838165,1.4942653,-0.011100769,-0.45349884,0.10410309,0.042762756,0.7830925,-1.5578448,0.045814514,-0.6756706,1.4914678,0.022621155,-0.3277626,0.0,0.0,0.0,0.0,0.0,0.0,0.0,0.0,0.0,0.0,0.0,0.0,3.0,0.8460594,3.0,-3.0,3.0,-3.0,3.0,-3.0,-3.0,3.0,-3.0,-2.878573
2025-06-06 16:24:56.243,-40.001217,20.836603,-40.070667,-1.000399,0.89838517,-0.39206812,-4.044907,-3.850564,6.58491,0.31468093,0.43949127,-7.6411095,-1.3744605,2.121624,16.040894,2.0977504,0.0065231323,0.68787766,-0.14370622,-0.44338226,1.157856,-0.40606138,-0.2740097,-0.3936844,1.4811682,-0.019798279,0.05065918,0.1429367,-0.053367615,-0.52796173,-1.5628867,-0.084495544,-0.37170792,1.4942653,0.022087097,-0.46570587,0.10181427,-0.13027191,0.95399475,-1.5554034,0.015983582,-0.80750656,1.4924597,-0.067481995,0.10192871,0.0,0.0,0.0,0.0,0.0,0.0,0.0,0.0,0.0,0.0,0.0,0.0,3.0,1.4399377,3.0,-3.0,3.0,-3.0,3.0,-3.0,-3.0,3.0,-3.0,-2.3456898
2025-06-06 16:24:56.294,-44.698795,22.840715,-43.070496,-1.7601423,1.1523756,-0.5422184,-4.48568,-3.798835,6.672027,0.3391713,0.24082184,-7.822994,-1.2401068,3.1732597,13.793545,2.1024044,0.15422821,0.2484169,-0.15324296,-0.06893158,1.0736237,-0.40804502,0.046653748,-0.48767853,1.4810919,0.035362244,0.03112793,0.13896942,-0.17902374,-0.3314247,-1.5648704,-0.15522003,-0.31067276,1.494189,-0.01964569,-0.46692657,0.10089874,-0.0573349,0.9332428,-1.5545641,0.074272156,-0.80384445,1.5262579,0.6796646,0.006713867,0.0,0.0,0.0,0.0,0.0,0.0,0.0,0.0,0.0,0.0,0.0,0.0,3.0,2.1507094,3.0,-3.0,3.0,-3.0,3.0,-3.0,-3.0,3.0,-3.0,-1.4225324
2025-06-06 16:24:56.345,-52.721107,24.60554,-47.20924,-2.8711386,1.4089589,-0.8170505,-4.572201,-3.9905,5.155538,0.33993423,-0.25669098,-7.241932,-1.0650122,3.9596977,11.443657,2.1110256,0.1618576,0.029907227,-0.15499772,0.044517517,0.98817444,-0.40766355,-0.10066986,-0.4779129,1.4812444,0.007896423,0.03112793,0.13454437,-0.016670227,-0.23743057,-1.566854,0.055732727,-0.37537384,1.4944179,0.09548187,-0.5230789,0.10105133,0.018119812,0.87586975,-1.5525805,0.1303482,-0.9771881,1.6043066,1.3075638,-0.14709854,0.0,0.0,0.0,0.0,0.0,0.0,0.0,0.0,0.0,0.0,0.0,0.0,3.0,2.9407663,3.0,-3.0,3.0,-2.950491,3.0,-3.0,-3.0,3.0,-3.0,-0.2862655
2025-06-06 16:24:56.396,-65.086754,25.461334,-52.7506,-4.4924746,1.6024286,-0.9068007,-3.600522,-3.976554,2.387645,0.2998036,-2.4828758,-3.0963593,-0.8461249,3.307232,10.08255,2.1157558,0.029029846,-0.02746582,-0.15942277,-0.06061554,1.26894,-0.41140196,-0.30056,-0.19592667,1.4840673,0.065574646,0.103149414,0.14736176,-0.061149597,-0.61219025,-1.5038352,0.17108917,-2.8290215,1.5289028,-0.016441345,-1.5118637,0.10349274,0.24555206,0.34729385,-1.5558611,0.051078796,-0.7464714,1.7111944,1.6862106,-0.1324501,0.0,0.0,0.0,0.0,0.0,0.0,0.0,0.0,0.0,0.0,0.0,0.0,3.0,3.0,2.1570926,-3.0,3.0,-2.3294063,3.0,-3.0,-3.0,3.0,-3.0,0.95406425
2025-06-06 16:24:56.447,-82.15748,17.389154,-59.186745,-4.186729,1.4970746,-3.4470966,0.410287,0.709378,0.338686,0.15919389,-1.4918137,0.8245964,-0.56933045,5.605816,-2.6044083,2.0555599,-0.5601883,-0.15442276,-0.15072526,1.2385178,-0.8160515,-0.4095709,-0.27996063,-0.18616104,1.5200781,0.6595993,0.3277626,0.1481247,0.34656525,-1.0797272,-1.5374808,-0.27706146,-1.1346626,1.4986141,-0.33779144,-0.19836807,0.13134003,0.6508255,-1.2701607,-1.5732561,0.022468567,0.11779785,1.8379949,1.8039322,0.06286621,0.0,0.0,0.0,0.0,0.0,0.0,0.0,0.0,0.0,0.0,0.0,0.0,3.0,3.0,0.3102234,-3.0,3.0,-1.0635972,1.3488823,-3.0,-3.0,3.0,-2.5456944,0.6455097
2025-06-06 16:24:56.498,-95.45739,8.907128,-63.250446,-4.396918,0.70994735,-1.0692706,15.099061,-30.778465,2.830114,0.06733598,-0.98896027,3.4015427,-0.46442625,-0.108299255,1.7767601,1.9167812,-2.379879,0.07141113,-0.15095414,-0.49861908,1.4496078,-0.44771788,-0.2437973,1.3372993,1.6139959,1.5701675,0.61829376,0.10974884,-0.05924225,-1.752346,-1.4742332,0.6344986,-4.573433,1.486407,-0.25211334,0.09338379,0.14186859,0.25814056,-0.95399475,-1.5457903,0.38784027,1.2506294,1.8566107,-0.027809143,0.41199493,0.0,0.0,0.0,0.0,0.0,0.0,0.0,0.0,0.0,0.0,0.0,0.0,3.0,2.9325507,-3.0,-3.0,2.8382854,0.6062289,-3.0,-3.0,-3.0,3.0,-2.051614,-3.0
2025-06-06 16:24:56.549,-108.215195,5.509286,-63.72262,-4.9782734,-0.9204987,1.1966896,4.793217,-7.032518,-0.148437,0.047957316,-0.12302399,2.8522148,-0.46656248,-0.28964996,1.6607933,1.6259487,-5.2021446,1.7645531,-0.14820756,0.4719925,0.22888565,-0.4750311,0.20137787,0.57923126,1.7655157,2.3944511,0.363163,-0.0020217896,-2.1471825,-1.3311958,-1.4730887,-0.941658,-2.190586,1.4811428,-0.039253235,0.029907227,0.14125824,-0.077171326,-0.5108719,-1.4595782,1.3900375,0.37903595,1.6151403,-4.022106,0.53284454,0.0,0.0,0.0,0.0,0.0,0.0,0.0,0.0,0.0,0.0,0.0,0.0,3.0,1.439205,-3.0,-3.0,2.0561886,0.1497349,-3.0,-2.7740426,-3.0,3.0,-0.3207364,-3.0
2025-06-06 16:24:56.600,-121.97348,8.711151,-60.99799,-5.069838,-1.5019028,0.2771212,-3.152163,-3.227336,-1.533956,0.07679643,1.09478,0.31433487,-0.61106324,-2.781414,0.060424805,1.5194423,-1.076088,0.14709854,-0.13241471,0.6522751,-0.33508682,-0.5421698,-1.87603,0.48401642,1.8074011,0.0623703,0.27038956,-0.089530945,-1.2905502,0.092163086,-1.5103202,-0.55454254,-0.30456924,1.481219,0.06389618,-0.033569336,0.13614655,-0.73726654,0.65369797,-1.2142168,5.2033653,-1.5863266,1.5055822,-0.32413483,-0.13611221,0.0,0.0,0.0,0.0,0.0,0.0,0.0,0.0,0.0,0.0,0.0,0.0,3.0,0.40177962,-3.0,-2.7399197,2.448749,0.9538168,-3.0,-2.021078,-3.0,3.0,0.3914834,-3.0
2025-06-06 16:24:56.651,-135.51752,13.913182,-58.425613,-4.9231343,-1.1633675,0.24215314,-2.483348,-1.61342,-2.635631,0.13813676,0.9421158,-1.8780823,-0.77875733,-3.3478966,-0.68299484,1.4942653,-0.36373138,-0.012817383,-0.11540116,0.17017365,-0.2838173,-0.5432379,0.5526352,-0.31189346,1.8569921,0.99819183,0.31677628,-0.1266098,-0.43712616,0.41077423,-1.4431052,1.4608383,-0.14099503,1.4801509,0.02254486,0.025024414,0.10532379,-0.30239105,1.375145,-0.98029584,3.0556908,-1.8756409,1.4959692,-0.05016327,-0.4376297,0.0,0.0,0.0,0.0,0.0,0.0,0.0,0.0,0.0,0.0,0.0,0.0,3.0,-0.7629654,-3.0,-1.2764485,2.8298974,1.2769957,-3.0,-1.244749,-3.0,2.406369,0.5971558,-3.0
2025-06-06 16:24:56.702,-152.80737,18.673023,-57.8883,-6.00736,-0.7541942,0.7583765,-2.87236,0.442117,-3.934601,0.1678151,0.091362,-1.5973129,-1.0027564,-3.9582481,0.13733292,1.4905269,-0.18573761,-0.1678505,-0.0771779,1.0223007,-0.41687775,-0.4777777,0.8639145,-0.46082306,1.8989538,0.605278,0.6012039,-0.13980865,-0.19016266,0.7830925,-1.3003592,2.4125328,-1.2823677,1.4796932,0.010414124,0.029907227,0.08533478,-0.3243637,1.0125885,-0.8914134,0.7034683,-0.99183655,1.4932989,-0.079689026,-0.30578995,0.0,0.0,0.0,0.0,0.0,0.0,0.0,0.0,0.0,0.0,0.0,0.0,3.0,-1.80996,-3.0,3.0,3.0,0.46195355,-3.0,-0.43422353,-3.0,-0.7088846,0.4068445,-3.0
2025-06-06 16:24:56.753,-171.51895,13.368683,-60.06948,-5.716698,3.166936,0.1045924,-12.325476,-6.61966,-11.547791,0.10296525,-0.6708908,1.7035179,-1.2513983,-4.844631,3.46624,1.4882381,-1.1298752,0.8624382,0.10035811,1.7329788,-1.5350571,-0.42124388,-0.23181915,0.41443634,1.8852972,-0.93364716,-0.15930557,-0.13629913,-1.6923904,2.855877,-1.1267905,0.14896393,0.5889969,1.4899929,0.096092224,-0.4791336,0.044898987,0.023918152,-2.621498,-0.89049786,-2.3433342,2.453041,1.4972662,-0.425148,-0.09460449,0.0,0.0,0.0,0.0,0.0,0.0,0.0,0.0,0.0,0.0,0.0,0.0,3.0,-1.6984938,-3.0,3.0,3.0,-2.6601868,-3.0,-0.6235965,-2.0957186,-3.0,0.21400778,-3.0
2025-06-06 16:24:56.804,171.13977,10.536555,-59.10447,-6.2507796,0.18825848,-0.79936594,0.520211,-0.223213,-5.469634,0.10044755,0.5641556,0.30456924,-1.3488257,-0.046043396,0.8709831,1.4764125,0.07030487,0.16052628,0.124772176,-0.057868958,-0.04333496,-0.42566893,-0.24166107,0.25818253,1.6473364,-3.8946953,0.5828934,-0.16582489,0.122795105,1.0907135,-1.1577659,0.140419,1.1200104,1.5350063,0.8800125,0.38758087,-0.014839172,-1.6736984,-1.4312973,-0.97625226,-0.5637741,1.5875473,1.4881872,-0.056648254,-0.11047363,0.0,0.0,0.0,0.0,0.0,0.0,0.0,0.0,0.0,0.0,0.0,0.0,3.0,0.11507097,-3.0,3.0,2.4747734,-3.0,-3.0,-2.5793867,-3.0,-3.0,-1.2585579,-3.0
2025-06-06 16:24:56.855,158.92941,8.04793,-57.76643,-2.9446745,0.21539794,0.23834968,-4.155302,3.610035,-4.76531,0.11479081,0.08975983,0.31067276,-1.1213934,5.552868,-2.6654472,1.4713771,0.20198822,0.04333496,0.10073958,0.69828033,0.032348633,-0.49173948,-0.571785,-0.41199493,1.5319036,-1.4063644,0.13733292,-0.10532379,-0.014152527,-0.7061882,-1.335607,-4.791912,1.006485,1.5205867,-1.1944962,-0.07751465,-0.059318542,-1.1896133,-0.68787766,-1.1550127,-3.6999931,2.1234436,1.490476,-0.41683197,0.18371964,0.0,0.0,0.0,0.0,0.0,0.0,0.0,0.0,0.0,0.0,0.0,0.0,3.0,0.40557817,-3.0,3.0,3.0,-3.0,-3.0,-2.0883796,-3.0,-3.0,-1.1192442,-3.0
2025-06-06 16:24:56.906,151.62782,6.043716,-57.778137,-2.253074,1.1014917,0.38880426,-0.810193,2.371836,-2.116771,0.13363542,0.36777496,-0.7843132,-0.95247865,1.329155,-0.99794006,1.4825923,0.010032654,-0.048217773,0.12584029,0.19435883,-0.34729385,-0.43703672,0.98812103,-0.95277405,1.5056585,-0.0011062622,-0.79774094,-0.1292038,-0.1556015,0.3949051,-1.4230399,0.25959015,0.5511551,1.487704,-0.05832672,-0.15930557,-0.09159088,-0.07228851,-0.87586975,-1.2185656,-0.10417938,0.5462723,1.4832281,-0.0037765503,-0.028686523,0.0,0.0,0.0,0.0,0.0,0.0,0.0,0.0,0.0,0.0,0.0,0.0,3.0,0.35609978,-3.0,3.0,3.0,-3.0,-3.0,-2.1337013,-3.0,-3.0,-1.4290018,-3.0
2025-06-06 16:24:56.957,146.02689,3.312505,-57.61096,-1.5333244,0.6556355,0.641103,-2.764909,5.025779,-4.897542,0.13859452,-0.11714935,-0.3985672,-0.93119264,-0.07564545,-0.022583008,1.4823635,-0.032081604,-0.03845215,0.12469588,-0.21266937,0.22156143,-0.4006445,0.430336,-1.5667953,1.5045904,0.03742218,-0.7867546,-0.1292038,0.034828186,0.15808487,-1.4223533,-0.024223328,0.5120926,1.4867122,-0.005302429,-0.18494034,-0.09037018,0.19657135,-1.432518,-1.2623583,-1.0315323,1.1676216,1.4829992,0.00667572,-0.037231445,0.0,0.0,0.0,0.0,0.0,0.0,0.0,0.0,0.0,0.0,0.0,0.0,3.0,0.39673078,-3.0,3.0,3.0,-3.0,-3.0,-2.1616817,-3.0,-3.0,-1.4993961,-3.0
2025-06-06 16:24:57.008,142.39435,1.204072,-58.428284,-0.7187476,0.2824125,0.6594727,0.136014,6.342916,-6.103786,0.13485612,-0.10845184,-0.25696182,-0.9328711,0.011329651,0.31921768,1.4822109,-0.0008773804,-0.040893555,0.1169139,-0.10814667,0.5084305,-0.39286253,-0.03414154,-0.9710846,1.5043615,-0.02445221,-0.76966476,-0.12928009,-0.010566711,0.16296768,-1.4263206,-0.14438629,0.57556915,1.4864833,-0.0065994263,-0.18860245,-0.08792877,-0.0022506714,-1.3458443,-1.2986742,-0.33535004,0.96131897,1.4831518,-0.023002625,-0.014038086,0.0,0.0,0.0,0.0,0.0,0.0,0.0,0.0,0.0,0.0,0.0,0.0,3.0,0.34414014,-3.0,3.0,3.0,-3.0,-3.0,-2.1527944,-3.0,-3.0,-1.5409118,-3.0
2025-06-06 16:24:57.059,140.7931,-0.34977,-59.13932,-0.3378196,0.014091195,0.12629385,2.838275,7.190716,-7.113724,0.13310136,0.08190155,-0.2911415,-0.94103456,-0.15453339,0.44983673,1.4822109,0.0132369995,-0.033569336,0.10821639,-0.15377045,0.6561394,-0.40110227,-0.08312225,-0.54016876,1.5042089,-0.053596497,-0.7794304,-0.12928009,-0.04360199,0.119018555,-1.4334922,0.0038528442,0.68055344,1.486407,0.001335144,-0.18494034,-0.08556366,-0.07297516,-1.3641548,-1.308745,-0.10334015,0.6024246,1.4833044,-0.025062561,-0.032348633,0.0,0.0,0.0,0.0,0.0,0.0,0.0,0.0,0.0,0.0,0.0,0.0,3.0,0.32309002,-3.0,3.0,3.0,-3.0,-3.0,-2.183068,-3.0,-3.0,-1.5318725,-3.0
2025-06-06 16:24:57.110,140.66537,-0.297945,-59.112003,0.36267218,-0.16588607,-0.12556806,-0.417396,6.438192,-5.846912,0.13470353,0.031089783,-0.33264542,-0.94126344,0.018196106,0.009155273,1.4822872,-0.017967224,-0.042114258,0.11615096,0.54180145,0.009155273,-0.40361997,-0.014457703,-0.7000847,1.50398,-0.0023269653,-0.75867844,-0.12897491,0.0049209595,0.14221573,-1.4325004,-0.06549835,0.42176056,1.4862545,0.014839172,-0.17883682,-0.088386536,-0.20206451,-1.1285591,-1.3098894,0.037269592,0.50232697,1.4831518,-0.03261566,-0.03112793,0.0,0.0,0.0,0.0,0.0,0.0,0.0,0.0,0.0,0.0,0.0,0.0,3.0,0.35781172,-3.0,3.0,3.0,-3.0,-3.0,-2.1744444,-3.0,-3.0,-1.5672485,-3.0
2025-06-06 16:24:57.161,142.42969,0.411258,-59.403824,0.93852663,-0.28700545,0.018878808,-0.734886,6.308676,-5.450989,0.13401689,-0.014381409,-0.30823135,-0.9379065,0.041236877,0.122680664,1.4820583,0.005836487,-0.03479004,0.120118245,0.057868958,0.14343643,-0.40270445,-0.12599945,-0.6976433,1.50398,0.011024475,-0.76234055,-0.12935638,-0.015602112,0.15564346,-1.4321952,-0.08403778,0.5169754,1.4864833,-0.012626648,-0.19104385,-0.09349823,-0.00957489,-1.0870514,-1.3107287,-0.08594513,0.436409,1.4833044,0.01033783,-0.03479004,0.0,0.0,0.0,0.0,0.0,0.0,0.0,0.0,0.0,0.0,0.0,0.0,3.0,0.36480847,-3.0,3.0,3.0,-3.0,-3.0,-2.153374,-3.0,-3.0,-1.6135741,-3.0
2025-06-06 16:24:57.212,146.11885,1.459367,-60.274876,1.5547006,-0.5998901,0.021375554,-0.105742,5.311175,-6.42697,0.1338643,0.015983582,-0.2874794,-0.93744874,0.016899109,0.22278214,1.4821346,-0.019187927,-0.036010742,0.11195479,-0.3773117,0.7086296,-0.40423033,-0.06763458,-0.5462723,1.5040563,0.017738342,-0.76966476,-0.12935638,0.029716492,0.15442276,-1.4319663,0.08182526,0.6353874,1.4863307,-0.037345886,-0.18249893,-0.090522766,0.16620636,-1.3556099,-1.3211809,-0.30536652,0.83436203,1.4830755,-0.018043518,-0.037231445,0.0,0.0,0.0,0.0,0.0,0.0,0.0,0.0,0.0,0.0,0.0,0.0,3.0,0.3632791,-3.0,3.0,3.0,-3.0,-3.0,-2.158381,-3.0,-3.0,-1.6462296,-3.0
2025-06-06 16:24:57.263,151.54698,3.357154,-61.434788,2.322158,-0.9679869,-0.014623031,-0.520545,4.155652,-6.650021,0.13325395,-0.007820129,-0.23865128,-0.936991,-0.019340515,0.21301651,1.4820583,-0.0046920776,-0.03479004,0.10440169,-0.12760162,0.8722038,-0.4058325,0.02544403,-0.61829376,1.50398,0.009651184,-0.7342644,-0.12950897,-0.019569397,0.1690712,-1.4323478,-0.040626526,0.5975418,1.4863307,0.019264221,-0.18127823,-0.088386536,-0.05794525,-1.26894,-1.3318621,-0.10066986,0.7415886,1.4830755,-0.010948181,-0.03112793,0.0,0.0,0.0,0.0,0.0,0.0,0.0,0.0,0.0,0.0,0.0,0.0,3.0,0.37131098,-3.0,3.0,3.0,-3.0,-3.0,-2.1716573,-3.0,-3.0,-1.6848017,-3.0
2025-06-06 16:24:57.314,158.86665,6.359808,-62.73288,2.7745013,-1.3336244,-0.07166683,-0.536953,3.24358,-9.05056,0.123717204,-0.4933548,0.6012039,-0.93752503,0.007896423,0.31799698,1.4822872,0.017433167,-0.04699707,0.09448348,-0.27484894,1.3983383,-0.40476438,-0.0447464,-0.69031906,1.5036749,-0.00019073486,-0.7428093,-0.13568878,-0.11287689,0.6256218,-1.4344077,0.02040863,0.6610222,1.486407,0.0157547,-0.18127823,-0.08960724,-0.011100769,-1.1761665,-1.339873,-0.06778717,0.69153976,1.4831518,0.039482117,-0.017700195,0.0,0.0,0.0,0.0,0.0,0.0,0.0,0.0,0.0,0.0,0.0,0.0,3.0,0.38479516,-3.0,3.0,3.0,-3.0,-3.0,-2.1674852,-3.0,-3.0,-1.7583232,-3.0
2025-06-06 16:24:57.365,165.80713,9.347918,-63.71813,1.9010491,-0.887757,0.14847024,0.587533,4.584168,-18.102516,0.09426774,-0.20572662,1.4825668,-0.93859315,0.05039215,0.363163,1.4825923,-0.021247864,-0.051879883,0.11668502,1.4168167,-1.5118637,-0.41002867,-0.18878937,-0.24109268,1.5039037,0.024604797,-0.7330437,-0.15163422,0.15239716,0.90760803,-1.435247,0.025291443,0.6366081,1.4863307,0.0062179565,-0.17761612,-0.10219574,-0.048789978,-0.67933273,-1.342467,-0.19710541,0.35583878,1.4830755,-0.04901886,-0.03845215,0.0,0.0,0.0,0.0,0.0,0.0,0.0,0.0,0.0,0.0,0.0,0.0,3.0,0.3996233,-3.0,3.0,3.0,-3.0,-3.0,-2.1674306,-3.0,-3.0,-1.8872982,-3.0
2025-06-06 16:24:57.416,170.91963,11.192291,-64.77061,1.6496037,-0.7432482,0.22506002,-4.441621,0.108402,-6.398904,0.09663285,0.15605927,0.7916374,-0.93363404,0.14217377,0.17883682,1.4824398,0.0063705444,-0.04699707,0.13842879,-0.11249542,-0.3241005,-0.42040464,-0.069999695,0.0982666,1.5037512,-0.038414,-0.76234055,-0.14980316,0.10295868,0.7354851,-1.4349418,0.017433167,0.5853348,1.486407,0.0012588501,-0.18371964,-0.1052475,-0.115852356,-0.5951004,-1.3608538,-0.319252,0.43152618,1.4830755,-0.04436493,-0.03845215,0.0,0.0,0.0,0.0,0.0,0.0,0.0,0.0,0.0,0.0,0.0,0.0,3.0,0.4399604,-3.0,3.0,3.0,-3.0,-3.0,-2.128788,-3.0,-3.0,-2.0050101,-3.0
2025-06-06 16:24:57.467,175.36319,14.08154,-65.69152,1.3407389,-0.7454816,0.17827097,-4.378979,0.394269,-10.496434,0.09892167,-0.01613617,0.9796295,-0.9225714,0.15804291,0.014038086,1.4826686,0.01750946,-0.049438477,0.14140426,0.08358002,-0.8123894,-0.41933653,0.068626404,-0.17395401,1.5038275,0.00957489,-0.75745773,-0.1479721,0.14781952,0.72816086,-1.4268546,0.24654388,0.3656044,1.4863307,-0.0024795532,-0.18005753,-0.10669708,-0.014915466,-0.60852814,-1.380385,-0.25173187,0.30334854,1.4832281,-0.004463196,-0.02746582,0.0,0.0,0.0,0.0,0.0,0.0,0.0,0.0,0.0,0.0,0.0,0.0,3.0,0.47211015,-2.9586751,3.0,3.0,-3.0,-3.0,-2.0972996,-3.0,-3.0,-2.1306064,-3.0
2025-06-06 16:24:57.518,178.74669,15.382802,-66.22544,1.1160957,-0.1563578,0.1434434,-2.953276,0.099562,-8.874488,0.09831132,0.065727234,0.87586975,-0.91845155,0.090293884,0.22522354,1.4834316,-0.026664734,0.08117676,0.14575301,0.0036239624,-0.72694016,-0.42025205,-0.014228821,-0.061645508,1.5038275,-0.0033950806,-0.7452507,-0.14537811,0.03261566,0.60974884,-1.416326,0.14278412,0.26550674,1.4862545,0.032539368,-0.17883682,-0.10990143,-0.015983582,-0.4376297,-1.3990008,-0.41500092,0.0982666,1.4830755,0.010566711,-0.032348633,0.0,0.0,0.0,0.0,0.0,0.0,0.0,0.0,0.0,0.0,0.0,0.0,3.0,0.5033995,-2.771308,3.0,3.0,-3.0,-3.0,-2.0470169,-3.0,-3.0,-2.2428405,-3.0
2025-06-06 16:24:57.569,-178.24861,15.382305,-66.54805,1.0481617,0.19390804,0.085426584,-3.359201,-0.534588,-9.506576,0.09953202,0.03681183,0.94667053,-0.9153235,0.08808136,0.34485245,1.4957912,0.18154144,0.14587784,0.14628707,-0.034370422,-0.7794304,-0.42025205,0.01613617,-0.09460449,1.5038275,-0.02368927,-0.76600266,-0.14476776,-0.04032135,0.71717453,-1.4090018,0.117759705,0.3680458,1.4862545,0.010261536,-0.18005753,-0.10974884,0.08365631,-0.5584793,-1.4236437,-0.36579132,0.44617462,1.4830755,-0.02254486,-0.029907227,0.0,0.0,0.0,0.0,0.0,0.0,0.0,0.0,0.0,0.0,0.0,0.0,3.0,0.005311223,-3.0,3.0,3.0,-3.0,-3.0,-2.1624436,-3.0,-3.0,-1.0949259,-3.0
2025-06-06 16:24:57.620,-175.7211,14.420324,-66.72353,0.68987453,0.4943894,-0.023848895,-3.43064,-1.61497,-9.23546,0.09884538,0.09868622,0.80384445,-0.96369386,-1.6856003,0.56946564,1.4941127,-0.06275177,-0.37781525,0.14392196,0.006904602,-0.6720085,-0.4210913,-0.076789856,0.119018555,1.5037512,-0.0008010864,-0.7415886,-0.1467514,-0.14453888,1.0260162,-1.4211326,-0.51799774,0.8233757,1.4863307,0.033836365,-0.17761612,-0.10082245,-0.031547546,-0.80262375,-1.3127886,2.8278008,0.033569336,1.4797949,-0.0052261353,0.064086914,0.0,0.0,0.0,0.0,0.0,0.0,0.0,0.0,0.0,0.0,0.0,0.0,3.0,-0.41998327,-3.0,3.0,3.0,-3.0,-3.0,-1.6642748,-3.0,-3.0,-0.55797917,-3.0
2025-06-06 16:24:57.671,-173.69315,13.49464,-66.951004,0.48282915,0.07641802,0.048305407,-0.964761,-1.730942,-9.008484,0.0985402,-0.00064849854,0.9039459,-1.0587561,-1.7033005,1.5912094,1.4912899,-0.18558502,-0.18005753,0.14315902,-0.051002502,-0.57312775,-0.42765257,-0.14347076,0.25940323,1.5033697,-0.07015228,-0.7342644,-0.14965057,0.042304993,0.83558273,-1.385427,0.9354782,1.0272369,1.4850338,-0.004386902,-0.1312294,-0.10570526,0.19382477,-0.8282585,-1.1735522,1.7853165,-0.09460449,1.4797186,0.014457703,0.08239746,0.0,0.0,0.0,0.0,0.0,0.0,0.0,0.0,0.0,0.0,0.0,0.0,3.0,-0.4504573,-3.0,3.0,3.0,-3.0,-3.0,-1.7507867,-3.0,-3.0,-0.3122937,-3.0
2025-06-06 16:24:57.722,-172.42877,14.034689,-66.89794,0.36416534,-0.38979578,0.0040086373,-2.020777,-1.368202,-8.856942,0.09594621,0.017738342,0.9808502,-1.095072,-0.063819885,0.4376297,1.4896114,-0.0002670288,-0.29724503,0.14392196,0.036888123,-0.7013054,-0.42704222,0.01209259,0.0982666,1.503446,0.01247406,-0.73060226,-0.14606476,-0.006904602,0.7818718,-1.3613944,0.102500916,0.61341095,1.4849575,-0.028266907,-0.13733292,-0.10677338,0.0021743774,-0.62073517,-1.1001536,1.0643387,-0.016479492,1.4800237,0.017967224,0.076293945,0.0,0.0,0.0,0.0,0.0,0.0,0.0,0.0,0.0,0.0,0.0,0.0,3.0,-0.46079457,-3.0,3.0,3.0,-3.0,-3.0,-1.6223576,-3.0,-3.0,-0.13796611,-3.0
2025-06-06 16:24:57.773,-171.41927,15.14979,-66.94731,0.36556304,-0.2519201,0.085465714,-3.455218,-1.160497,-9.530546,0.09754838,-0.024757385,0.8990631,-1.0943854,-0.068855286,0.22522354,1.4894588,0.014381409,-0.2923622,0.14750777,0.040397644,-0.8319206,-0.42276976,0.05504608,-0.07019043,1.5032171,-0.03261566,-0.7367058,-0.14530182,-0.0146865845,0.6964226,-1.3383536,0.51021576,0.34485245,1.48511,0.037345886,-0.1336708,-0.10738373,0.081977844,-0.6231766,-1.051478,0.48740387,0.03479004,1.4803289,0.00049591064,0.06286621,0.0,0.0,0.0,0.0,0.0,0.0,0.0,0.0,0.0,0.0,0.0,0.0,3.0,-0.39974433,-3.0,3.0,3.0,-3.0,-3.0,-1.6261731,-3.0,-3.0,-0.06069417,-3.0
2025-06-06 16:24:57.824,-170.25539,15.768756,-67.04753,0.4643219,-0.07332772,0.029548075,-3.016804,-1.458672,-9.131597,0.098006144,-0.08892059,0.95887756,-1.0888159,0.07167816,0.25696182,1.4896877,0.017204285,-0.29724503,0.14735518,-0.03452301,-0.76600266,-0.42284605,0.009269714,0.00793457,1.5032171,-0.022697449,-0.7330437,-0.14240265,0.063819885,0.49744415,-1.3277488,0.051002502,0.4400711,1.4849575,0.017051697,-0.13489151,-0.10807037,0.015830994,-0.592659,-1.0245463,0.23662567,0.08605957,1.4801763,-0.02040863,0.064086914,0.0,0.0,0.0,0.0,0.0,0.0,0.0,0.0,0.0,0.0,0.0,0.0,3.0,-0.3815614,-3.0,3.0,3.0,-3.0,-3.0,-1.5747291,-3.0,-3.0,0.009392787,-3.0
2025-06-06 16:24:57.875,-168.94319,15.785602,-67.056946,0.42175183,0.058766298,-0.017496053,-3.010398,-1.871792,-9.134975,0.097624674,0.038871765,0.96131897,-1.0847723,0.047721863,0.3680458,1.4894588,0.01941681,-0.29602432,0.14666854,-0.045814514,-0.7000847,-0.4233801,-0.0048446655,0.07507324,1.5032171,0.013771057,-0.7354851,-0.13988495,0.0522995,0.48279572,-1.3246207,0.016822815,0.6720085,1.4850338,0.008888245,-0.1336708,-0.10822296,-0.013160706,-0.5938797,-1.0121104,0.23014069,0.27527237,1.4802526,-0.0050735474,0.06286621,0.0,0.0,0.0,0.0,0.0,0.0,0.0,0.0,0.0,0.0,0.0,0.0,3.0,-0.3728092,-3.0,3.0,3.0,-3.0,-3.0,-1.567658,-3.0,-3.0,0.047647048,-3.0
2025-06-06 16:24:57.926,-167.80101,15.762969,-67.03089,0.24403954,-0.03827673,0.0047609787,-2.461318,-2.403003,-9.137592,0.09632768,-0.040779114,1.0052643,-1.0838568,0.013771057,0.34973526,1.4894588,-0.010566711,-0.29724503,0.14575301,-0.047187805,-0.7159538,-0.4246771,-0.04207611,0.07507324,1.5031408,-0.03551483,-0.7403679,-0.1379776,-0.0061416626,0.43152618,-1.3231711,0.029563904,0.7159538,1.4849575,-0.0014877319,-0.1336708,-0.10890961,0.01789093,-0.53894806,-1.0044047,0.15659332,0.34729385,1.4802526,-0.027961731,0.06774902,0.0,0.0,0.0,0.0,0.0,0.0,0.0,0.0,0.0,0.0,0.0,0.0,3.0,-0.37008262,-3.0,3.0,3.0,-3.0,-3.0,-1.5560427,-3.0,-3.0,0.06573491,-3.0
2025-06-06 16:24:57.977,-167.3782,15.898057,-67.02241,0.052491073,-0.0314834,0.0074973586,-3.033628,-2.371421,-8.988652,0.096480265,0.027122498,0.9808502,-1.0821021,0.05382538,0.32043839,1.4895351,-0.011787415,-0.30456924,0.14529525,-0.027198792,-0.6976433,-0.42322752,0.008964539,-0.02746582,1.5033697,-0.040397644,-0.7391472,-0.13744354,-0.015602112,0.4412918,-1.3192801,0.027427673,0.6268425,1.4849575,0.004463196,-0.13489151,-0.11051178,-0.022697449,-0.46570587,-0.9973094,0.10547638,0.23010635,1.4803289,-0.026283264,0.07751465,0.0,0.0,0.0,0.0,0.0,0.0,0.0,0.0,0.0,0.0,0.0,0.0,3.0,-0.36043802,-3.0,3.0,3.0,-3.0,-3.0,-1.5568593,-3.0,-3.0,0.07384567,-3.0
2025-06-06 16:24:58.028,-167.49544,15.933505,-67.0293,-0.12208939,0.034745753,-0.0016891471,-2.879747,-2.213565,-8.970312,0.09655656,-0.0047683716,0.9649811,-1.0801947,0.0005722046,0.33752823,1.4895351,0.016288757,-0.29724503,0.14544784,0.01964569,-0.7000847,-0.42376158,0.0064468384,0.040893555,1.5032934,0.00995636,-0.72571945,-0.13751984,-0.016746521,0.4412918,-1.3167624,0.0025558472,0.6012039,1.48511,-0.018043518,-0.13489151,-0.11127472,0.053215027,-0.5181961,-0.99547833,-0.037345886,0.37903595,1.4802526,0.009651184,0.06652832,0.0,0.0,0.0,0.0,0.0,0.0,0.0,0.0,0.0,0.0,0.0,0.0,3.0,-0.3465552,-3.0,3.0,3.0,-3.0,-3.0,-1.5547168,-3.0,-3.0,0.06995432,-3.0
2025-06-06 16:24:58.079,-167.96692,15.839757,-67.045494,-0.20312922,0.03035632,-0.009201096,-2.749552,-2.028835,-9.24015,0.096861735,-0.0050735474,0.98695374,-1.0792029,0.0033950806,0.37781525,1.4894588,-0.008430481,-0.29602432,0.14560042,0.0012588501,-0.7391472,-0.423609,0.011024475,0.026245117,1.5032934,0.016670227,-0.75867844,-0.13736725,-0.001335144,0.45349884,-1.3168387,0.059394836,0.6231766,1.48511,-0.013542175,-0.13489151,-0.11074066,0.008201599,-0.5157547,-0.9960124,-0.033073425,0.35217667,1.4804052,0.034065247,0.06530762,0.0,0.0,0.0,0.0,0.0,0.0,0.0,0.0,0.0,0.0,0.0,0.0,3.0,-0.34823245,-3.0,3.0,3.0,-3.0,-3.0,-1.5491643,-3.0,-3.0,0.07399289,-3.0
2025-06-06 16:24:58.130,-168.55386,15.781656,-67.0022,-0.20004754,0.022711515,-0.021223238,-2.794465,-1.745058,-9.225819,0.09754838,0.005760193,0.9393463,-1.0780585,-0.028266907,0.35095596,1.4895351,0.021095276,-0.29480362,0.14605819,0.0030136108,-0.77088547,-0.42399046,0.03429413,0.042114258,1.5032934,0.023612976,-0.72205734,-0.1379776,-0.057411194,0.45349884,-1.3152366,0.058021545,0.57678986,1.4850338,-0.0022506714,-0.13489151,-0.110435486,0.0017166138,-0.49011993,-0.9960124,-0.07167816,0.38758087,1.4802526,0.019950867,0.07141113,0.0,0.0,0.0,0.0,0.0,0.0,0.0,0.0,0.0,0.0,0.0,0.0,3.0,-0.3380952,-3.0,3.0,3.0,-3.0,-3.0,-1.5506991,-3.0,-3.0,0.07329242,-3.0
2025-06-06 16:24:58.181,-169.04877,15.711203,-66.99035,-0.13512196,0.042423178,-0.007359041,-2.76585,-1.668802,-9.278259,0.09777726,0.022315979,0.9271393,-1.0766852,0.061912537,0.3643837,1.4894588,0.0063705444,-0.2825966,0.14643966,-0.04459381,-0.75989914,-0.42399046,-0.065193176,0.03845215,1.503446,-0.011405945,-0.7476921,-0.1380539,-0.014228821,0.46814728,-1.3138633,0.012931824,0.5828934,1.48511,-0.02368927,-0.13489151,-0.10997772,-0.023460388,-0.5450516,-0.9959361,-0.04650116,0.37781525,1.4804052,0.041007996,0.06530762,0.0,0.0,0.0,0.0,0.0,0.0,0.0,0.0,0.0,0.0,0.0,0.0,3.0,-0.3360572,-3.0,3.0,3.0,-3.0,-3.0,-1.5412735,-3.0,-3.0,0.0761271,-3.0
2025-06-06 16:24:58.233,-169.37215,15.605147,-67.0002,-0.06385842,0.02849688,-0.0065237614,-2.689098,-1.660387,-9.226029,0.09792985,-0.031471252,0.9662018,-1.0761511,0.05947113,0.37781525,1.4896114,0.00415802,-0.2862587,0.14659224,-0.0062942505,-0.7525749,-0.42399046,-0.017356873,0.044555664,1.5035223,0.0035476685,-0.7452507,-0.13828278,0.062675476,0.4779129,-1.3137107,-0.01209259,0.5999832,1.4851863,0.005378723,-0.13611221,-0.10974884,0.010261536,-0.5633621,-0.9959361,0.0045394897,0.37292862,1.4801763,0.022010803,0.06530762,0.0,0.0,0.0,0.0,0.0,0.0,0.0,0.0,0.0,0.0,0.0,0.0,3.0,-0.33904856,-3.0,3.0,3.0,-3.0,-3.0,-1.5390939,-3.0,-3.0,0.083683655,-3.0
2025-06-06 16:24:58.284,-169.48358,15.579321,-66.99958,-0.010834184,-0.0043702694,-0.00026333527,-2.665913,-1.633253,-9.257092,0.09808244,-0.0048446655,0.95033264,-1.0762274,-0.011482239,0.34363174,1.4895351,0.027275085,-0.29724503,0.14651595,0.04863739,-0.7415886,-0.42406675,-0.016365051,0.010375977,1.5032934,-0.0020980835,-0.72205734,-0.13843536,0.027198792,0.4766922,-1.3135581,-0.016746521,0.5902176,1.4850338,0.0064468384,-0.13855362,-0.10951996,0.114860535,-0.53528595,-0.9955546,0.010414124,0.44373322,1.4803289,-0.04383087,0.06774902,0.0,0.0,0.0,0.0,0.0,0.0,0.0,0.0,0.0,0.0,0.0,0.0,3.0,-0.3383435,-3.0,3.0,3.0,-3.0,-3.0,-1.5404245,-3.0,-3.0,0.08663349,-3.0
2025-06-06 16:24:58.335,-169.43694,15.646424,-67.00967,0.05168747,-0.02233421,0.006310412,-2.720616,-1.631184,-9.243396,0.09792985,-0.025367737,0.95277405,-1.0760748,0.011253357,0.34607315,1.4895351,-0.019187927,-0.29724503,0.14674483,0.07923126,-0.7489128,-0.42421934,-0.04688263,0.03967285,1.5035223,0.0063705444,-0.7379265,-0.13835907,0.030555725,0.4742508,-1.3131003,0.036506653,0.56824493,1.4850338,-0.034751892,-0.13611221,-0.10951996,-0.028038025,-0.53040314,-0.99540204,-0.0014877319,0.45594025,1.4802526,0.0047683716,0.06774902,0.0,0.0,0.0,0.0,0.0,0.0,0.0,0.0,0.0,0.0,0.0,0.0,3.0,-0.33588994,-3.0,3.0,3.0,-3.0,-3.0,-1.5381337,-3.0,-3.0,0.08264284,-3.0
2025-06-06 16:24:58.386,-169.22633,15.722247,-67.018196,0.10123178,-0.017978968,0.003302547,-2.711669,-1.666302,-9.238153,0.09815873,-0.10295868,0.9430084,-1.075846,0.032844543,0.3704872,1.4896114,0.034065247,-0.29846573,0.14636336,-0.026283264,-0.76600266,-0.42406675,0.062446594,0.06896973,1.5033697,-0.035362244,-0.72938156,-0.13835907,-0.037879944,0.4730301,-1.3126426,-0.043373108,0.5828934,1.4849575,-0.013008118,-0.1336708,-0.10921478,0.012550354,-0.54138947,-0.9955546,0.06717682,0.41321564,1.4803289,0.02735138,0.06774902,0.0,0.0,0.0,0.0,0.0,0.0,0.0,0.0,0.0,0.0,0.0,0.0,3.0,-0.3360917,-3.0,3.0,3.0,-3.0,-3.0,-1.5376092,-3.0,-3.0,0.08950119,-3.0
2025-06-06 16:24:58.437,-168.86925,15.822947,-67.02883,0.122159295,-0.033194784,0.008420969,-2.766195,-1.814195,-9.248366,0.09792985,-0.017356873,0.95033264,-1.0756171,-0.05542755,0.35828018,1.4896114,-0.014076233,-0.29724503,0.14666854,-0.0061416626,-0.76111984,-0.42399046,0.1026535,0.04699707,1.5032934,-0.042762756,-0.7098503,-0.13813019,-0.016975403,0.44983673,-1.3125663,-0.041618347,0.57556915,1.4849575,-0.013771057,-0.1336708,-0.10951996,-0.0016403198,-0.526741,-0.9955546,-0.014228821,0.44617462,1.4803289,0.012397766,0.07385254,0.0,0.0,0.0,0.0,0.0,0.0,0.0,0.0,0.0,0.0,0.0,0.0,3.0,-0.33351165,-3.0,3.0,3.0,-3.0,-3.0,-1.5412669,-3.0,-3.0,0.08914678,-3.0
2025-06-06 16:24:58.488,-168.56798,15.914458,-67.04031,0.10739098,-0.027189665,0.005571475,-2.816562,-1.911728,-9.209128,0.09747209,-0.087776184,0.99671936,-1.0756171,0.0938797,0.3692665,1.4895351,0.0017166138,-0.29602432,0.14636336,-0.016975403,-0.74403,-0.42406675,-0.06465912,0.032348633,1.5033697,-0.013847351,-0.75623703,-0.13782501,-0.022163391,0.44617462,-1.31249,-0.046272278,0.54261017,1.4848812,0.0009536743,-0.1324501,-0.10967255,0.032463074,-0.52918243,-0.994868,0.06046295,0.42176056,1.4804052,0.048789978,0.07019043,0.0,0.0,0.0,0.0,0.0,0.0,0.0,0.0,0.0,0.0,0.0,0.0,3.0,-0.33413768,-3.0,3.0,3.0,-3.0,-3.0,-1.5369433,-3.0,-3.0,0.08322148,-3.0
2025-06-06 16:24:58.539,-168.30331,15.973791,-67.03841,0.050059184,-0.0003562915,-0.0023090357,-2.807083,-2.031436,-9.141102,0.0973195,0.01537323,0.9686432,-1.0755408,0.07785797,0.3668251,1.4896114,0.0059127808,-0.29358292,0.14628707,-0.03391266,-0.7489128,-0.42391416,0.039711,0.055541992,1.5033697,0.0011825562,-0.7537956,-0.13767242,0.007896423,0.436409,-1.3124137,0.062294006,0.57678986,1.4850338,-0.040016174,-0.1336708,-0.10990143,0.04459381,-0.5108719,-0.99524945,-0.03604889,0.4022293,1.4803289,0.02483368,0.06896973,0.0,0.0,0.0,0.0,0.0,0.0,0.0,0.0,0.0,0.0,0.0,0.0,3.0,-0.33305728,-3.0,3.0,3.0,-3.0,-3.0,-1.5464582,-3.0,-3.0,0.07958178,-3.0
2025-06-06 16:24:58.590,-168.24553,15.978873,-67.03372,-0.01745537,0.0010884048,-0.0005813168,-2.788907,-2.049242,-9.160978,0.09747209,0.011482239,0.9662018,-1.0756171,0.034065247,0.35950089,1.4894588,0.0014877319,-0.29968643,0.14628707,0.06801605,-0.7782097,-0.42391416,0.042152405,0.045776367,1.5033697,-0.009803772,-0.7513542,-0.13759613,-0.0060653687,0.4400711,-1.3129478,-0.065574646,0.5120926,1.48511,-0.015068054,-0.13489151,-0.11013031,-0.046272278,-0.5120926,-0.99509686,-0.037727356,0.4022293,1.4803289,0.0008010864,0.06530762,0.0,0.0,0.0,0.0,0.0,0.0,0.0,0.0,0.0,0.0,0.0,0.0,3.0,-0.33612728,-3.0,3.0,3.0,-3.0,-3.0,-1.5434288,-3.0,-3.0,0.08256535,-3.0
2025-06-06 16:24:58.641,-168.3726,15.982193,-67.04427,-0.06387364,0.006096121,0.0002945243,-2.797964,-1.944653,-9.189973,0.09770097,0.00919342,0.96131897,-1.0754645,-0.04650116,0.38147736,1.4896114,-0.00995636,-0.2862587,0.14636336,-0.054130554,-0.76356125,-0.42414305,0.03551483,0.02746582,1.503446,-0.0035476685,-0.72938156,-0.13767242,-0.0015640259,0.4327469,-1.3125663,-0.019569397,0.53894806,1.4849575,0.0059890747,-0.13489151,-0.110054016,0.0060653687,-0.52918243,-0.99517316,0.0052261353,0.39124298,1.4802526,0.008888245,0.06530762,0.0,0.0,0.0,0.0,0.0,0.0,0.0,0.0,0.0,0.0,0.0,0.0,3.0,-0.3346668,-3.0,3.0,3.0,-3.0,-3.0,-1.5449327,-3.0,-3.0,0.081357166,-3.0
