openverse-orca/OrcaGym/envs/legged_gym/legged_real_env/logs/robot_log_20250604_183041.csv
timestamp,imu_angle_roll,imu_angle_pitch,imu_angle_yaw,imu_angular_velocity_roll,imu_angular_velocity_pitch,imu_angular_velocity_yaw,imu_acc_x,imu_acc_y,imu_acc_z,fl_joint1_pos,fl_joint1_vel,fl_joint1_torque,fl_joint2_pos,fl_joint2_vel,fl_joint2_torque,fl_joint3_pos,fl_joint3_vel,fl_joint3_torque,fr_joint1_pos,fr_joint1_vel,fr_joint1_torque,fr_joint2_pos,fr_joint2_vel,fr_joint2_torque,fr_joint3_pos,fr_joint3_vel,fr_joint3_torque,hl_joint1_pos,hl_joint1_vel,hl_joint1_torque,hl_joint2_pos,hl_joint2_vel,hl_joint2_torque,hl_joint3_pos,hl_joint3_vel,hl_joint3_torque,hr_joint1_pos,hr_joint1_vel,hr_joint1_torque,hr_joint2_pos,hr_joint2_vel,hr_joint2_torque,hr_joint3_pos,hr_joint3_vel,hr_joint3_torque,fl_force_x,fl_force_y,fl_force_z,fr_force_x,fr_force_y,fr_force_z,hl_force_x,hl_force_y,hl_force_z,hr_force_x,hr_force_y,hr_force_z,fl_hip_action,fl_thigh_action,fl_calf_action,fr_hip_action,fr_thigh_action,fr_calf_action,hl_hip_action,hl_thigh_action,hl_calf_action,hr_hip_action,hr_thigh_action,hr_calf_action
2025-06-04 18:31:01.417,-0.813551,-1.237796,-161.54723,0.00040882593,0.0009772622,-0.0013432053,0.204443,-0.167975,9.790966,-0.01094161,-0.06893158,0.45471954,-0.9871161,-0.006980896,-0.39124298,1.9058712,-0.03299713,-4.896927,0.0075846766,-0.019798279,-0.3704872,-0.97687954,-0.042304993,-0.76356125,1.9021581,-0.0023269653,-4.6515617,-0.00995636,-0.00705719,0.4718094,-0.9726768,0.03391266,-1.0235748,1.9313533,-0.037117004,-6.0419617,0.016975403,0.021095276,-0.7342644,-0.9796855,-0.01537323,-0.62073517,1.9380926,0.017051697,-6.2555885,0.0,0.0,0.0,0.0,0.0,0.0,0.0,0.0,0.0,0.0,0.0,0.0,0.9796592,0.52452976,-0.98300564,-0.96448725,-0.06863739,-0.14213966,-0.9977869,-0.8527311,-0.38966027,0.99997246,0.93363726,-0.7540248
2025-06-04 18:31:01.470,-0.871918,-1.327291,-162.05075,0.01103919,-0.0025635571,-0.7293073,-1.762416,-2.607739,14.549874,-0.011094198,-0.11165619,5.36446,-0.95224977,0.39699554,6.3459206,1.855746,-1.3547897,-8.097658,-0.018813029,-0.59108734,-1.0455475,-0.9726071,0.31093597,-3.7763023,1.8897985,-0.2853775,-4.184025,-0.02040863,-0.26073456,-2.727703,-1.0570579,-2.6972618,-4.97139,1.9125087,-1.4630508,-3.6078415,0.04840851,0.58223724,0.526741,-0.8966014,1.6284561,8.330816,1.8821691,-1.4985275,-6.795147,0.0,0.0,0.0,0.0,0.0,0.0,0.0,0.0,0.0,0.0,0.0,0.0,0.9541469,0.78834754,-0.96600604,-0.9992756,-0.23126185,0.7015799,-0.9999272,-0.96882033,-0.9925408,0.99998134,-0.5406419,-0.9898769
2025-06-04 18:31:01.523,1.239568,-1.138405,-164.47084,1.2044134,-0.47404957,-0.40189517,0.192351,1.749848,7.792442,0.010649577,0.71468353,0.6732292,-0.89571595,0.8121872,8.352787,1.7577846,-1.7307663,-1.7169456,-0.05131425,-0.8059311,0.40955353,-1.0131192,-0.8953476,-0.80750656,1.9214605,0.49663544,0.60608673,-0.053596497,-0.8082199,0.665905,-1.2213187,-2.653469,0.6707878,1.7704494,-2.3360863,-0.46570587,0.09716034,1.3183212,-3.9887085,-0.9255931,-0.32535553,-13.697109,1.8549322,0.011177063,-14.225681,0.0,0.0,0.0,0.0,0.0,0.0,0.0,0.0,0.0,0.0,0.0,0.0,0.75809103,0.82204217,-0.9047934,-0.9977891,0.012090932,0.20905487,-0.99980366,-0.9459133,-0.99554837,0.9998928,-0.27155477,-0.97831875
2025-06-04 18:31:01.576,3.090832,-2.950821,-163.63887,-0.06439607,-0.38209474,0.7250838,-0.358534,1.983861,8.61783,0.035902873,0.44353485,0.092163086,-0.8571875,0.7186508,8.441902,1.7044551,-0.50014496,-4.4525833,-0.08015336,-0.3936386,0.5535965,-1.0079312,0.13912201,-0.41809845,1.9022344,-0.3169632,-0.33996964,-0.07030487,-0.032844543,-0.46204376,-1.3114982,-1.0800552,-1.2164497,1.6798122,-1.0474014,-1.6437035,0.11188507,-0.10631561,-0.009155273,-0.940623,-0.46398163,-6.207981,1.8548559,0.0472641,-14.137791,0.0,0.0,0.0,0.0,0.0,0.0,0.0,0.0,0.0,0.0,0.0,0.0,0.76558876,0.68181384,-0.9358341,-0.99750495,-0.18933643,0.32942516,-0.99977446,-0.9392918,-0.9952458,0.9999392,-0.4526713,-0.9762325
2025-06-04 18:31:01.628,2.939772,-3.977786,-161.4215,-0.06804911,-0.35600698,0.77908665,0.998694,1.240883,9.167207,0.06268205,0.4932785,-1.0809479,-0.82651734,0.68553925,4.544136,1.6836269,-0.34900665,-4.5673294,-0.09770097,-0.16109467,0.52918243,-1.0332608,-0.6606674,-0.1300087,1.8962072,-0.040016174,-0.1690712,-0.084877014,-0.25867462,0.72083664,-1.3539176,-0.3220749,-2.7960625,1.6405971,-0.25951385,-3.867855,0.10227203,0.035362244,1.293354,-0.96641034,-0.6398392,-9.363544,1.8588232,0.1278305,-14.709087,0.0,0.0,0.0,0.0,0.0,0.0,0.0,0.0,0.0,0.0,0.0,0.0,0.8041762,0.7524061,-0.94367474,-0.99694806,-0.16800448,0.46893382,-0.9998002,-0.93169963,-0.9936335,0.9999151,-0.38067207,-0.97018033
2025-06-04 18:31:01.680,2.484472,-5.262431,-159.66806,-0.10250336,-0.24176876,0.31047696,2.289289,0.03793,9.440852,0.08763017,0.5485916,-1.8109398,-0.80629945,0.14865875,6.8915863,1.6617305,-0.4227829,-3.3038826,-0.10571183,-0.12760162,0.4339676,-1.0492826,-0.18749237,-0.44373322,1.9049047,0.025978088,0.35339737,-0.09838104,0.020637512,0.17395401,-1.3583426,-0.15399933,-3.7970543,1.6447933,0.13339996,-5.4938583,0.0989151,-0.008659363,0.30334854,-0.9821269,-0.19924164,-8.050049,1.8591284,-0.08457184,-13.738613,0.0,0.0,0.0,0.0,0.0,0.0,0.0,0.0,0.0,0.0,0.0,0.0,0.832249,0.7911478,-0.9524169,-0.9967643,-0.14415476,0.56126094,-0.9998615,-0.94576055,-0.9933469,0.99991685,-0.41195023,-0.9758849
2025-06-04 18:31:01.733,2.063056,-6.074424,-158.93916,-0.08928787,-0.20958358,0.27369666,1.873144,-0.492122,9.364561,0.10494889,0.23525238,-1.9781799,-0.8003485,-0.021018982,7.9816895,1.6444118,-0.19771576,-3.162281,-0.109602824,0.017585754,0.53772736,-1.0528684,-0.02193451,-0.64271164,1.9148992,0.22815704,0.68787766,-0.10135651,-0.0661087,0.06286621,-1.3671927,-0.19412994,-3.2587166,1.651202,0.088005066,-5.508507,0.1014328,0.048866272,0.07507324,-0.9984538,-0.43437958,-7.2724495,1.8510412,-0.14987946,-12.939041,0.0,0.0,0.0,0.0,0.0,0.0,0.0,0.0,0.0,0.0,0.0,0.0,0.83594036,0.79921484,-0.9486549,-0.996571,-0.109150186,0.5348406,-0.999862,-0.9496304,-0.9932175,0.99990153,-0.4381811,-0.97692764
2025-06-04 18:31:01.784,1.651409,-6.591916,-158.07971,-0.07947711,-0.10540581,0.24066095,1.50662,-0.270261,9.333435,0.11768998,0.024757385,-1.5826645,-0.8006537,-0.21503448,8.687267,1.635104,-0.08907318,-3.3893356,-0.111739054,-0.051689148,0.3973465,-1.049664,-0.016441345,-0.45960236,1.9198583,0.123558044,0.65125656,-0.106163025,-0.06931305,0.42542267,-1.3719993,-0.07564545,-3.4686813,1.6512783,-0.027198792,-5.0263214,0.102500916,0.18856049,0.07751465,-1.0165354,-0.3459549,-7.270008,1.8415045,-0.18795013,-12.724194,0.0,0.0,0.0,0.0,0.0,0.0,0.0,0.0,0.0,0.0,0.0,0.0,0.8386891,0.78393763,-0.94792205,-0.9963627,-0.13150978,0.51736414,-0.99985206,-0.9466179,-0.9927661,0.99989325,-0.4613276,-0.9763484
2025-06-04 18:31:01.835,1.394535,-6.811963,-157.53613,-0.045347128,-0.05851738,0.13783392,1.014137,-0.20324,9.32056,0.12615861,0.1467514,-2.2711525,-0.80622315,-0.08190155,8.715343,1.6315181,-0.041770935,-3.7091637,-0.11295976,-0.034446716,0.4718094,-1.049664,0.07083893,-0.50110626,1.9216894,0.08686066,0.5951004,-0.10860443,-0.015144348,0.31799698,-1.3762717,-0.12386322,-3.1207733,1.6482265,-0.050621033,-4.855419,0.10242462,-0.14400482,-0.02746582,-1.0323282,-0.13561249,-7.4860764,1.8368505,-0.07144928,-12.934158,0.0,0.0,0.0,0.0,0.0,0.0,0.0,0.0,0.0,0.0,0.0,0.0,0.8384315,0.77927285,-0.9487473,-0.9960722,-0.13016902,0.5024,-0.99984545,-0.94293344,-0.9925548,0.9998902,-0.45299074,-0.9749327
2025-06-04 18:31:01.886,1.235902,-6.909733,-157.24696,-0.014998819,-0.014895949,0.06943098,0.899328,-0.249575,9.720606,0.13165177,0.07450104,-2.5250626,-0.8131659,-0.12577057,8.773937,1.6313655,-0.027046204,-3.7628746,-0.114256755,0.018348694,0.5951004,-1.0498929,0.014381409,-0.45838165,1.921842,0.016975403,0.5609207,-0.1089859,0.051612854,0.18127823,-1.3804679,-0.04863739,-3.01091,1.6454036,-0.022010803,-4.675976,0.10311127,0.012779236,0.083618164,-1.0427042,-0.17681122,-7.183338,1.8334173,-0.090065,-12.845043,0.0,0.0,0.0,0.0,0.0,0.0,0.0,0.0,0.0,0.0,0.0,0.0,0.8407031,0.7725252,-0.9493392,-0.99604845,-0.1433843,0.49959248,-0.9998467,-0.9421634,-0.99245346,0.9998896,-0.4660867,-0.97477084
2025-06-04 18:31:01.937,1.150742,-6.943327,-157.10683,-0.019994615,-0.03277306,0.031880602,0.888993,-0.088441,9.598615,0.13432206,-0.02948761,-2.2748146,-0.81881166,-0.10921478,8.965591,1.631213,-0.013847351,-3.7763023,-0.114638224,0.00705719,0.46326447,-1.0518765,-0.12187958,-0.547493,1.9221472,-0.019493103,0.49866486,-0.10890961,-0.00667572,0.252079,-1.384664,-0.02986908,-2.835125,1.6431911,0.0075149536,-4.650341,0.103645325,0.039482117,0.040893555,-1.0500284,-0.07564545,-7.1979866,1.8324255,-0.030708313,-13.059891,0.0,0.0,0.0,0.0,0.0,0.0,0.0,0.0,0.0,0.0,0.0,0.0,0.84055865,0.77165556,-0.94897795,-0.99596256,-0.13965347,0.49326268,-0.9998448,-0.94126636,-0.99238604,0.99988633,-0.4657708,-0.97412795
2025-06-04 18:31:01.988,1.105863,-6.978256,-157.03123,0.0065320516,-0.008835729,0.012233553,0.986245,-0.034194,9.770797,0.13539018,0.13347626,-2.2162209,-0.82277894,-0.024223328,8.91066,1.6312892,0.022163391,-3.7763023,-0.11471452,-0.014305115,0.46570587,-1.0527158,-0.0002670288,-0.5120926,1.9219946,-0.06755829,0.43030548,-0.10913849,-0.028266907,0.23865128,-1.3875632,-0.039711,-2.5384903,1.6418178,-0.021095276,-4.613716,0.10387421,0.079460144,0.026245117,-1.0552927,-0.051460266,-7.2590218,1.8322729,-0.03856659,-13.117264,0.0,0.0,0.0,0.0,0.0,0.0,0.0,0.0,0.0,0.0,0.0,0.0,0.8397294,0.76849127,-0.94860417,-0.9959958,-0.13860773,0.4864696,-0.99984527,-0.94131184,-0.9925102,0.9998878,-0.4668143,-0.97395974
2025-06-04 18:31:02.039,1.106519,-6.975499,-157.04512,0.005347584,-0.0030513243,-0.018050404,1.027013,0.085142,9.697549,0.13439836,-0.27820587,-2.04776,-0.8248389,-0.09479523,8.789806,1.631213,0.032920837,-3.7470055,-0.114867106,-0.01964569,0.42664337,-1.0526395,0.02696991,-0.50110626,1.9217657,-0.016899109,0.35950089,-0.10883331,0.04108429,0.18494034,-1.3887839,-0.014915466,-2.868084,1.6402919,-0.0146865845,-4.6247025,0.10387421,0.06542206,0.033569336,-1.0572764,-0.024147034,-7.285877,1.8321966,0.027885437,-13.063553,0.0,0.0,0.0,0.0,0.0,0.0,0.0,0.0,0.0,0.0,0.0,0.0,0.8435683,0.7643781,-0.9493662,-0.9959907,-0.14977914,0.48832023,-0.999845,-0.94057155,-0.99226314,0.9998859,-0.4736765,-0.97375596
2025-06-04 18:31:02.090,1.122296,-6.976995,-157.10043,0.0023363675,0.0051059257,-0.011222205,1.135255,0.244229,9.719016,0.13401689,-0.01247406,-2.0257874,-0.8258307,-0.055351257,8.529793,1.6310604,0.01537323,-3.7921715,-0.114867106,0.01613617,0.45716095,-1.0546994,-0.044898987,-0.5059891,1.9219946,0.020179749,0.37781525,-0.108680725,0.054512024,0.18616104,-1.3896232,-0.044670105,-3.228199,1.6392238,0.01285553,-4.5758743,0.104408264,0.0075912476,0.16662979,-1.0581919,0.024757385,-7.5422287,1.8325018,-0.00415802,-13.069656,0.0,0.0,0.0,0.0,0.0,0.0,0.0,0.0,0.0,0.0,0.0,0.0,0.8409091,0.76699126,-0.94934434,-0.99593973,-0.14108443,0.48699948,-0.9998436,-0.94027054,-0.9924093,0.999887,-0.46532002,-0.973307
2025-06-04 18:31:02.141,1.141466,-6.960645,-157.11586,0.0043293415,0.004915528,-0.008789304,1.169399,0.250353,9.748089,0.1338643,-0.06565094,-1.9623108,-0.8260596,-0.0005722046,8.654308,1.6309078,-0.014457703,-3.7726402,-0.114867106,-0.00011444092,0.45716095,-1.0553861,-0.034599304,-0.4779129,1.9219946,0.01964569,0.3961258,-0.10860443,0.07648468,0.22156143,-1.3891654,0.5324173,-4.093689,1.6383083,-0.023155212,-4.6198196,0.104026794,-0.3557968,0.13611221,-1.0585734,-0.02445221,-7.429924,1.8322729,-0.010108948,-13.014725,0.0,0.0,0.0,0.0,0.0,0.0,0.0,0.0,0.0,0.0,0.0,0.0,0.84646267,0.76714945,-0.9510408,-0.9959116,-0.14747082,0.48732367,-0.99984896,-0.9399765,-0.9922131,0.99988997,-0.47343174,-0.97423124
2025-06-04 18:31:02.192,1.155341,-6.958487,-157.13101,0.004968621,-0.0015510566,-0.00097567396,1.181883,0.258967,9.728709,0.13363542,0.06900787,-1.9769592,-0.8261359,0.018806458,8.678722,1.6308315,0.063438416,-3.798275,-0.11509599,-0.056495667,0.5084305,-1.056149,0.009727478,-0.44861603,1.921842,0.025367737,0.38636017,-0.10852814,0.099983215,0.15686417,-1.3899283,-0.16994476,-3.8324547,1.637469,-0.01941681,-4.557564,0.10410309,-0.08068085,0.24353409,-1.0590311,-0.025749207,-7.5434494,1.8322729,0.005683899,-13.072098,0.0,0.0,0.0,0.0,0.0,0.0,0.0,0.0,0.0,0.0,0.0,0.0,0.8403401,0.7665678,-0.94946235,-0.9958971,-0.142139,0.49039295,-0.9998431,-0.9400434,-0.9923995,0.99988747,-0.46405387,-0.9733625
2025-06-04 18:31:02.243,1.155215,-6.955753,-157.1177,0.0011172376,0.0022418753,0.0042691976,1.146042,0.17644,9.718632,0.133788,-0.0030899048,-2.1686134,-0.82651734,0.049858093,8.750744,1.6306026,-0.057868958,-3.7677574,-0.11509599,-0.033073425,0.481575,-1.0565305,0.0077438354,-0.4425125,1.9220709,0.00957489,0.37781525,-0.108680725,-0.08640289,0.25574112,-1.3900046,0.13782501,-2.5214005,1.6371639,-0.008659363,-4.5844193,0.10456085,0.26622772,0.02746582,-1.0594126,-0.037574768,-7.195545,1.8322729,-0.031471252,-13.000076,0.0,0.0,0.0,0.0,0.0,0.0,0.0,0.0,0.0,0.0,0.0,0.0,0.8421429,0.76599514,-0.94956666,-0.9960271,-0.14535436,0.49292842,-0.99984926,-0.9411103,-0.9924975,0.9998896,-0.46942315,-0.97380745
2025-06-04 18:31:02.294,1.152345,-6.955779,-157.1175,0.0011478506,-0.0016617978,-0.0036714745,1.132817,0.204768,9.712754,0.1338643,0.054893494,-2.1393166,-0.82659364,0.01499176,8.738537,1.6307552,0.036888123,-3.7470055,-0.11509599,-0.0033950806,0.44373322,-1.0570645,-0.036735535,-0.5133133,1.9219183,0.011787415,0.42298126,-0.10845184,0.046043396,0.20203018,-1.3903861,0.061836243,-2.920578,1.6371639,0.005378723,-4.5001907,0.10471344,0.20160675,0.08483887,-1.0597178,0.035972595,-7.372547,1.8323492,0.0024032593,-13.090408,0.0,0.0,0.0,0.0,0.0,0.0,0.0,0.0,0.0,0.0,0.0,0.0,0.84205055,0.76630855,-0.9493016,-0.9959949,-0.14163819,0.4885176,-0.9998481,-0.94132966,-0.9924969,0.9998884,-0.47078642,-0.9737248
2025-06-04 18:31:02.345,1.149269,-6.96031,-157.11539,0.0013017713,0.0001309695,0.004204603,1.189512,0.184631,9.71396,0.13355912,-0.03643036,-2.1100159,-0.8267462,-0.040245056,8.786144,1.6305263,0.029716492,-3.7543297,-0.115019694,-0.0048446655,0.4754715,-1.0569882,-0.036964417,-0.4779129,1.9219183,-0.005836487,0.38880157,-0.108680725,-0.05580902,0.24231339,-1.3905387,-0.042304993,-2.810711,1.6371639,0.012397766,-4.5539017,0.10448456,-0.078697205,0.016479492,-1.0598704,0.07633209,-7.339588,1.8323492,0.011482239,-13.089188,0.0,0.0,0.0,0.0,0.0,0.0,0.0,0.0,0.0,0.0,0.0,0.0,0.8403927,0.7669184,-0.94928855,-0.99595517,-0.13939375,0.4896525,-0.9998426,-0.9407124,-0.9924106,0.9998866,-0.4653635,-0.9731631
2025-06-04 18:31:02.396,1.149793,-6.956629,-157.10887,0.0016854819,0.00074207905,-0.00047017424,1.174084,0.174563,9.709886,0.13401689,-0.00034332275,-2.1234436,-0.82651734,0.03932953,8.736095,1.6303737,-0.032157898,-3.7933922,-0.11509599,-0.0002670288,0.46326447,-1.0566831,0.03490448,-0.3961258,1.9219183,-0.019569397,0.34851456,-0.108680725,-0.049934387,0.22156143,-1.390615,-0.04802704,-2.7301445,1.6371639,0.0045394897,-4.5514603,0.10417938,-0.25074005,0.2459755,-1.0599467,0.03391266,-7.4396896,1.8321966,-0.0008773804,-13.004959,0.0,0.0,0.0,0.0,0.0,0.0,0.0,0.0,0.0,0.0,0.0,0.0,0.8400241,0.76736724,-0.94997543,-0.9959197,-0.14033712,0.49258986,-0.99984205,-0.940376,-0.9924152,0.9998879,-0.4627324,-0.9731711
2025-06-04 18:31:02.447,1.144572,-6.955544,-157.10822,-0.0032059778,0.0008529773,-0.0012055512,1.141293,0.193953,9.730697,0.13394059,0.00019073486,-2.0306702,-0.8267462,0.057487488,8.690929,1.6306789,0.058937073,-3.6932945,-0.1149434,0.0015640259,0.45960236,-1.0566068,0.041923523,-0.4779129,1.9219183,0.02155304,0.45716095,-0.108680725,0.03681183,0.1678505,-1.3903861,0.1001358,-2.7948418,1.6370876,-0.02193451,-4.531929,0.104255676,-0.03803253,0.30578995,-1.0600992,-0.049171448,-7.36034,1.8323492,-0.011711121,-12.968338,0.0,0.0,0.0,0.0,0.0,0.0,0.0,0.0,0.0,0.0,0.0,0.0,0.8432455,0.7663387,-0.94991434,-0.9959788,-0.14417721,0.48881543,-0.9998482,-0.94103354,-0.9924021,0.9998887,-0.4709361,-0.9738222
2025-06-04 18:31:02.498,1.141151,-6.96127,-157.1074,-0.002620472,-0.0019316431,0.0029917213,1.192709,0.17305,9.691809,0.1338643,0.05947113,-2.1734962,-0.82651734,0.03177643,8.737316,1.63045,-0.034599304,-3.7592125,-0.1149434,-0.037269592,0.4376297,-1.056912,-0.0018692017,-0.5230789,1.9220709,0.0132369995,0.37537384,-0.10875702,0.053596497,0.23010635,-1.3904624,0.015983582,-2.847332,1.6371639,-0.002861023,-4.5209427,0.10471344,0.18787384,0.16662979,-1.0603281,-0.06397247,-7.467766,1.8322729,-0.012626648,-13.100174,0.0,0.0,0.0,0.0,0.0,0.0,0.0,0.0,0.0,0.0,0.0,0.0,0.84197646,0.76475406,-0.94974136,-0.99595493,-0.14749105,0.49286595,-0.9998468,-0.9403978,-0.9924451,0.99988884,-0.46993276,-0.9736484
2025-06-04 18:31:02.549,1.141127,-6.964357,-157.1001,2.5726153e-05,-0.0016178678,0.0010649998,1.153688,0.190885,9.718886,0.133788,0.054283142,-2.1686134,-0.82666993,-0.12500763,8.723888,1.63045,-0.016975403,-3.7347984,-0.115019694,0.01789093,0.45960236,-1.0575986,-0.044059753,-0.49500275,1.9219183,0.031089783,0.41443634,-0.10875702,-0.021705627,0.23865128,-1.3906913,0.03643036,-2.8046074,1.6373165,-0.050621033,-4.605171,0.10471344,0.21518707,-0.119018555,-1.0606333,-0.093193054,-7.3859787,1.8321966,0.0008010864,-13.039139,0.0,0.0,0.0,0.0,0.0,0.0,0.0,0.0,0.0,0.0,0.0,0.0,0.84149295,0.76743203,-0.9488768,-0.996012,-0.14176592,0.4875591,-0.9998469,-0.9409548,-0.99244964,0.99988663,-0.4688292,-0.97351384
2025-06-04 18:31:02.600,1.139908,-6.960715,-157.09724,7.093018e-05,-0.0034324168,-0.0017950885,1.152494,0.166985,9.744953,0.1338643,-0.06351471,-2.2638283,-0.82659364,-0.01247406,8.784924,1.63045,0.012321472,-3.7335777,-0.11509599,-0.059013367,0.4754715,-1.057446,-0.05558014,-0.42664337,1.9219183,-0.006752014,0.38147736,-0.108680725,0.06023407,0.23132706,-1.390615,-0.004234314,-2.7948418,1.6371639,-0.009346008,-4.535591,0.105018616,0.22327423,-0.15808487,-1.0609385,0.02407074,-7.3090706,1.8323492,-0.0014877319,-13.059891,0.0,0.0,0.0,0.0,0.0,0.0,0.0,0.0,0.0,0.0,0.0,0.0,0.84245884,0.7645266,-0.94973963,-0.99596417,-0.14801246,0.49311906,-0.9998475,-0.9407839,-0.9924023,0.9998879,-0.47243607,-0.9736764
2025-06-04 18:31:02.651,1.136962,-6.963187,-157.09235,0.00041289252,0.0013581628,0.0060813203,1.161515,0.161752,9.71144,0.13394059,0.045661926,-2.0209045,-0.82651734,-0.009117126,8.672619,1.6303737,-0.01033783,-3.7433434,-0.115019694,0.032539368,0.46692657,-1.0581326,-0.05420685,-0.48279572,1.9217657,0.004463196,0.42786407,-0.10875702,-0.011711121,0.2117958,-1.3907676,0.002937317,-2.760662,1.6372402,0.0005722046,-4.5502396,0.10456085,0.17169952,0.15686417,-1.0610148,-0.014533997,-7.3371468,1.8322729,-0.01285553,-13.0403595,0.0,0.0,0.0,0.0,0.0,0.0,0.0,0.0,0.0,0.0,0.0,0.0,0.84126663,0.76674056,-0.9493958,-0.9959557,-0.14148177,0.4912589,-0.9998465,-0.94075996,-0.9924726,0.9998875,-0.4676813,-0.97344154
2025-06-04 18:31:02.702,1.134603,-6.959499,-157.08475,-0.003920568,-0.002278248,-0.001236461,1.160204,0.169792,9.72916,0.13394059,-0.057182312,-2.0660706,-0.8267462,-0.006904602,8.737316,1.6303737,-0.014381409,-3.7421227,-0.115019694,-0.04787445,0.4742508,-1.0577512,0.036735535,-0.40955353,1.9219183,-0.03566742,0.44861603,-0.10890961,-0.08579254,0.2093544,-1.3907676,0.02620697,-2.7411308,1.6370876,-0.007133484,-4.5709915,0.105018616,0.06977081,-0.08483887,-1.0609385,0.036964417,-7.323719,1.8323492,0.010643005,-13.074539,0.0,0.0,0.0,0.0,0.0,0.0,0.0,0.0,0.0,0.0,0.0,0.0,0.84189856,0.7671833,-0.9494379,-0.9960016,-0.14100446,0.4927972,-0.9998469,-0.94117355,-0.9924316,0.9998878,-0.46713418,-0.97353625
2025-06-04 18:31:02.753,1.138346,-6.955949,-157.0837,0.00071685907,-0.0010133033,-0.0015616333,1.161396,0.17292,9.732275,0.13394059,0.022850037,-2.0965881,-0.82659364,-0.03803253,8.723888,1.6302974,-0.01285553,-3.761654,-0.1149434,0.056495667,0.4400711,-1.0577512,-0.0010299683,-0.44617462,1.9220709,0.037117004,0.42664337,-0.10875702,-0.002784729,0.20080948,-1.3907676,-0.004310608,-2.8241386,1.6371639,0.015144348,-4.51606,0.10448456,-0.2602768,0.23132706,-1.0611674,-0.030784607,-7.2809944,1.8323492,-0.004234314,-13.012283,0.0,0.0,0.0,0.0,0.0,0.0,0.0,0.0,0.0,0.0,0.0,0.0,0.84131783,0.7674396,-0.95011747,-0.99590534,-0.14141086,0.49126396,-0.9998423,-0.94036084,-0.99235916,0.99988705,-0.46576634,-0.9731913
2025-06-04 18:31:02.804,1.135897,-6.95661,-157.08841,0.0031349952,0.0010801319,-0.00052215013,1.171406,0.180166,9.686176,0.13394059,0.030326843,-2.1148987,-0.8267462,-0.0060653687,8.809338,1.6301448,0.0016403198,-3.7421227,-0.115019694,-0.016288757,0.4742508,-1.0578275,0.06656647,-0.41199493,1.921842,0.0051498413,0.44861603,-0.108680725,0.016899109,0.20447159,-1.390615,0.0015640259,-2.744793,1.6370876,-0.023002625,-4.5343704,0.10433197,-0.042762756,0.27161026,-1.0610148,0.018119812,-7.306629,1.8321966,0.027503967,-13.030594,0.0,0.0,0.0,0.0,0.0,0.0,0.0,0.0,0.0,0.0,0.0,0.0,0.84184486,0.7667681,-0.9497555,-0.99596775,-0.1422119,0.49163765,-0.9998461,-0.940908,-0.99242145,0.9998883,-0.46725976,-0.973524
2025-06-04 18:31:02.855,1.136609,-6.957423,-157.08795,0.0007578394,0.0021644176,-0.0017802009,1.159359,0.178545,9.723208,0.13394059,0.018424988,-2.0611877,-0.8267462,-0.044441223,8.750744,1.6303737,0.023460388,-3.7677574,-0.11509599,-0.014152527,0.45838165,-1.0575986,0.02544403,-0.44373322,1.9219183,-0.035591125,0.44373322,-0.10883331,-0.019187927,0.21545792,-1.3907676,0.0007247925,-2.8461113,1.6372402,0.023155212,-4.547798,0.105018616,0.2098465,0.055541992,-1.0612437,0.018501282,-7.2675667,1.8322729,0.010871887,-13.062332,0.0,0.0,0.0,0.0,0.0,0.0,0.0,0.0,0.0,0.0,0.0,0.0,0.8422208,0.7661803,-0.94911647,-0.99603635,-0.14173555,0.49102983,-0.999848,-0.94163126,-0.9924803,0.99988806,-0.47078416,-0.97366333
2025-06-04 18:31:02.906,1.13646,-6.959555,-157.09068,-0.0032117548,-0.0011463672,0.00026038566,1.175088,0.215035,9.725807,0.1338643,0.0076675415,-2.113678,-0.8267462,-0.049705505,8.771496,1.6302974,-0.012626648,-3.7128258,-0.115019694,0.010795593,0.45960236,-1.0575986,0.0022506714,-0.3680458,1.9219183,-0.0025558472,0.42786407,-0.10860443,-0.02773285,0.19104385,-1.3907676,-0.012931824,-2.7924004,1.6371639,-0.005302429,-4.581978,0.104408264,0.06137848,0.13733292,-1.0613962,-0.066185,-7.3542366,1.8324255,-0.008430481,-13.065994,0.0,0.0,0.0,0.0,0.0,0.0,0.0,0.0,0.0,0.0,0.0,0.0,0.8418046,0.7656697,-0.94940025,-0.9959712,-0.14409569,0.49071628,-0.99984485,-0.9406254,-0.99240786,0.99988705,-0.46918696,-0.97341144
2025-06-04 18:31:02.957,1.131157,-6.963134,-157.07838,-0.007626705,-0.0009999864,0.0017044361,1.132589,0.177449,9.678334,0.13394059,-0.036506653,-2.1148987,-0.82659364,-0.0012588501,8.715343,1.6302211,-0.010032654,-3.7640953,-0.1149434,-0.013694763,0.46326447,-1.0579801,-0.01247406,-0.40833282,1.9219946,0.009346008,0.38269806,-0.1089859,-0.09876251,0.22766495,-1.3907676,0.013999939,-2.7508965,1.6372402,-0.016365051,-4.577095,0.105018616,0.16368866,-0.115356445,-1.0614725,0.0346756,-7.29076,1.8323492,0.008659363,-13.029373,0.0,0.0,0.0,0.0,0.0,0.0,0.0,0.0,0.0,0.0,0.0,0.0,0.8415116,0.7666432,-0.94937927,-0.9959884,-0.14164035,0.49182844,-0.99984664,-0.9409268,-0.9924466,0.9998876,-0.46660265,-0.97339946
2025-06-04 18:31:03.009,1.125664,-6.960681,-157.07565,-0.002014267,-0.001778473,-0.002931385,1.157262,0.167837,9.738381,0.1338643,0.0022506714,-2.122223,-0.82666993,0.011558533,8.747082,1.6303737,-0.029411316,-3.7506676,-0.1149434,-0.050697327,0.46692657,-1.0579801,-0.047950745,-0.3985672,1.9219946,0.0049972534,0.41931915,-0.10883331,-0.061149597,0.2117958,-1.3907676,0.0011062622,-2.802166,1.6371639,0.021858215,-4.601509,0.104789734,-0.1102829,-0.09338379,-1.0616251,0.013999939,-7.294422,1.8323492,-0.022392273,-13.045242,0.0,0.0,0.0,0.0,0.0,0.0,0.0,0.0,0.0,0.0,0.0,0.0,0.8409973,0.7681836,-0.95010257,-0.995926,-0.14182305,0.49532837,-0.999844,-0.9405749,-0.9923789,0.99988747,-0.46475753,-0.9732871
2025-06-04 18:31:03.060,1.120666,-6.960475,-157.07692,-9.1315625e-05,0.0005046794,0.0052806158,1.158649,0.154518,9.692537,0.1338643,-0.01865387,-2.1087952,-0.8267462,-0.070991516,8.798351,1.6303737,-0.025291443,-3.7372398,-0.115019694,0.03414154,0.4425125,-1.0577512,-0.012321472,-0.42176056,1.921842,-0.06122589,0.43152618,-0.108680725,0.04459381,0.2459755,-1.3909202,-0.005455017,-2.7545586,1.6370113,-0.0075912476,-4.580757,0.104789734,-0.19359589,-0.026245117,-1.0615488,0.032081604,-7.266346,1.8322729,-0.008277893,-12.964676,0.0,0.0,0.0,0.0,0.0,0.0,0.0,0.0,0.0,0.0,0.0,0.0,0.84111905,0.76908964,-0.9498305,-0.9959268,-0.13783796,0.4913184,-0.9998455,-0.9411387,-0.9924254,0.9998869,-0.4679208,-0.9735395
2025-06-04 18:31:03.111,1.123289,-6.959428,-157.07422,-0.0014971609,-0.00010306169,-0.0024930458,1.177143,0.1867,9.734092,0.1338643,0.026741028,-2.0794983,-0.8267462,-0.08563995,8.767834,1.6302211,0.03238678,-3.7433434,-0.1149434,0.032539368,0.44739532,-1.0575986,-0.021018982,-0.40955353,1.9219946,-0.0037002563,0.43030548,-0.108680725,0.035591125,0.23620987,-1.3908439,-0.010719299,-2.8253593,1.6371639,0.009422302,-4.5453568,0.104789734,-0.2073288,-0.03112793,-1.0615488,0.012931824,-7.2980843,1.8322729,-0.024375916,-13.076981,0.0,0.0,0.0,0.0,0.0,0.0,0.0,0.0,0.0,0.0,0.0,0.0,0.8410112,0.76713604,-0.94971603,-0.99592334,-0.14051855,0.48912373,-0.99984294,-0.94077814,-0.9923818,0.9998866,-0.4688032,-0.9733412
2025-06-04 18:31:03.162,1.125349,-6.959295,-157.07399,-0.0026262319,0.002089927,0.0013728061,1.140823,0.219186,9.722149,0.1338643,0.005760193,-2.1112366,-0.82666993,-0.014457703,8.776379,1.6302211,-0.027427673,-3.756771,-0.1149434,0.0047683716,0.4412918,-1.0573697,0.056800842,-0.41443634,1.921842,-0.054740906,0.41687775,-0.108680725,0.12928009,0.18494034,-1.3907676,-0.008201599,-2.7704277,1.6370113,0.012016296,-4.5966263,0.10456085,-0.0258255,0.23376846,-1.0617777,-0.06473541,-7.3090706,1.8323492,-0.02254486,-13.031815,0.0,0.0,0.0,0.0,0.0,0.0,0.0,0.0,0.0,0.0,0.0,0.0,0.842818,0.7645792,-0.9502072,-0.9959262,-0.14800797,0.49378717,-0.9998464,-0.9403992,-0.9923845,0.99988854,-0.4721014,-0.97368634
2025-06-04 18:31:03.213,1.120297,-6.960967,-157.06572,-0.0030185643,0.0016671036,0.0032414603,1.13717,0.180293,9.722294,0.13394059,0.0062179565,-2.150303,-0.82666993,0.035362244,8.642101,1.6302211,0.028266907,-3.723812,-0.115019694,0.017433167,0.45594025,-1.0583615,-0.0157547,-0.4791336,1.9219946,0.0011825562,0.43030548,-0.10883331,0.060081482,0.19836807,-1.3907676,0.020179749,-2.7594414,1.6371639,0.010871887,-4.5502396,0.10494232,0.090065,-0.03479004,-1.0623118,-0.017204285,-7.4152756,1.8323492,0.005683899,-13.079422,0.0,0.0,0.0,0.0,0.0,0.0,0.0,0.0,0.0,0.0,0.0,0.0,0.8428135,0.7662567,-0.949794,-0.9959333,-0.1430497,0.4908708,-0.99984765,-0.9406667,-0.9924109,0.9998878,-0.46946502,-0.97359157
2025-06-04 18:31:03.264,1.116908,-6.95918,-157.05794,0.00069334946,-0.00133961,0.0004955513,1.173859,0.157834,9.729246,0.13401689,0.030937195,-2.059967,-0.8267462,-0.032157898,8.684826,1.6302974,-0.01209259,-3.7128258,-0.115019694,-0.0036239624,0.436409,-1.0582852,0.07129669,-0.42176056,1.9219946,-0.019798279,0.44373322,-0.1089859,0.01285553,0.19836807,-1.3907676,0.02483368,-2.7179375,1.6371639,0.017280579,-4.494087,0.10471344,0.14431,0.122680664,-1.0622355,0.01285553,-7.3432503,1.8324255,-0.014762878,-13.009842,0.0,0.0,0.0,0.0,0.0,0.0,0.0,0.0,0.0,0.0,0.0,0.0,0.8428964,0.7657645,-0.9497822,-0.9959939,-0.14390224,0.49397644,-0.9998483,-0.9411293,-0.99244887,0.99988884,-0.47005162,-0.9736394
2025-06-04 18:31:03.315,1.115658,-6.959373,-157.05652,0.000692599,-0.00029192376,-0.00015053464,1.130072,0.152452,9.720192,0.13401689,0.010108948,-2.1002502,-0.8267462,-0.010261536,8.780041,1.6302211,-0.0073623657,-3.7213707,-0.1149434,0.026741028,0.46936798,-1.0583615,0.02986908,-0.4339676,1.9220709,0.010108948,0.4400711,-0.10883331,0.022239685,0.22888565,-1.391149,0.020866394,-2.879074,1.6370113,0.016899109,-4.5416946,0.10494232,0.08396149,0.11657715,-1.0623118,0.011177063,-7.2553596,1.8324255,-3.8146973e-05,-13.059891,0.0,0.0,0.0,0.0,0.0,0.0,0.0,0.0,0.0,0.0,0.0,0.0,0.8426648,0.7662368,-0.949821,-0.9959662,-0.14270364,0.49244374,-0.9998471,-0.9410171,-0.992435,0.999888,-0.46960115,-0.97351706
2025-06-04 18:31:03.366,1.113674,-6.959293,-157.06427,0.0010101442,-0.00064004713,-0.0024828878,1.166605,0.195639,9.716221,0.13401689,0.06732941,-2.1283302,-0.82666993,-0.018806458,8.644543,1.6302211,0.021018982,-3.7250328,-0.1149434,0.035743713,0.4779129,-1.0584378,-0.046577454,-0.45105743,1.9219946,-0.04009247,0.45105743,-0.1089859,-0.036201477,0.23987198,-1.3913016,-0.051460266,-2.694744,1.6371639,-0.024681091,-4.577095,0.10494232,-0.06160736,0.053100586,-1.0623881,-0.0036239624,-7.2773323,1.8322729,-0.0017166138,-13.061111,0.0,0.0,0.0,0.0,0.0,0.0,0.0,0.0,0.0,0.0,0.0,0.0,0.84044814,0.7675588,-0.9493255,-0.9959343,-0.13828555,0.48917785,-0.9998444,-0.94076294,-0.99245,0.9998867,-0.4662299,-0.97333133
2025-06-04 18:31:03.417,1.11697,-6.956373,-157.06276,0.0024618742,0.0025388082,0.0021394247,1.191211,0.224266,9.741258,0.13394059,0.017280579,-2.0990295,-0.82659364,-0.029563904,8.6823845,1.6302211,0.011100769,-3.732357,-0.1149434,0.00011444092,0.4412918,-1.0578275,0.0346756,-0.39246368,1.9219183,-0.066719055,0.3949051,-0.10883331,0.050849915,0.23743057,-1.3912253,0.12805939,-2.7631035,1.6370876,0.019340515,-4.5844193,0.10486603,-0.022163391,0.00061035156,-1.0625407,-0.051612854,-7.172352,1.8325018,-0.009880066,-12.981766,0.0,0.0,0.0,0.0,0.0,0.0,0.0,0.0,0.0,0.0,0.0,0.0,0.84399766,0.7652583,-0.9500316,-0.9959758,-0.14611347,0.49182883,-0.9998482,-0.94096464,-0.9923727,0.99988884,-0.47388586,-0.97386926
2025-06-04 18:31:03.468,1.120211,-6.960713,-157.05925,-0.0063133095,-0.0012096877,0.0003312984,1.182232,0.216896,9.707932,0.1338643,-0.007286072,-2.223545,-0.8267462,0.01789093,8.749523,1.6302211,0.029945374,-3.7384605,-0.1149434,0.01964569,0.45105743,-1.0582852,0.025978088,-0.44739532,1.9219183,0.017585754,0.44617462,-0.109062195,-0.01613617,0.252079,-1.3913016,-0.11608124,-2.974289,1.6370876,-0.007972717,-4.5661087,0.104789734,0.0074386597,0.1702919,-1.0626932,-0.029945374,-7.417717,1.8322729,-0.0047683716,-13.068436,0.0,0.0,0.0,0.0,0.0,0.0,0.0,0.0,0.0,0.0,0.0,0.0,0.84127134,0.76613486,-0.9495677,-0.995919,-0.14161459,0.4911007,-0.99984425,-0.9403301,-0.99240524,0.99988663,-0.46559545,-0.9731822
2025-06-04 18:31:03.519,1.11478,-6.963577,-157.05368,-0.0024440542,-0.0028425828,0.0017787698,1.207042,0.179428,9.716069,0.133788,-0.027961731,-2.035553,-0.8268225,0.0010299683,8.666515,1.6300685,0.010566711,-3.7213707,-0.11509599,-0.020561218,0.46692657,-1.0580564,0.011177063,-0.41687775,1.9219946,0.023841858,0.46448517,-0.10883331,0.14225006,0.1678505,-1.3913016,0.0063705444,-3.8336754,1.636935,-0.06679535,-4.5673294,0.104789734,0.121269226,-0.026245117,-1.0629984,0.0061416626,-7.245594,1.8324255,-0.001335144,-13.028152,0.0,0.0,0.0,0.0,0.0,0.0,0.0,0.0,0.0,0.0,0.0,0.0,0.8430903,0.76505667,-0.9501558,-0.9959474,-0.14776106,0.49138322,-0.99984866,-0.94074386,-0.99239993,0.9998881,-0.47256786,-0.9737198
2025-06-04 18:31:03.570,1.120175,-6.96727,-157.05031,-0.002028055,-0.00056567864,0.000598997,1.171244,0.18877,9.709611,0.13409318,0.011100769,-2.334629,-0.82750916,0.029640198,9.069351,1.6301448,-0.005683899,-3.723812,-0.115019694,0.014915466,0.48889923,-1.0588193,0.0009536743,-0.45471954,1.9219946,0.040016174,0.42664337,-0.1089859,-0.1745987,0.2081337,-1.3925223,-0.31375885,-1.0492096,1.6364772,-0.06656647,-4.450142,0.10509491,0.018730164,0.095825195,-1.0632273,-0.019264221,-7.261463,1.8324255,0.0358963,-13.052567,0.0,0.0,0.0,0.0,0.0,0.0,0.0,0.0,0.0,0.0,0.0,0.0,0.8370612,0.7674749,-0.9486991,-0.9959121,-0.1356523,0.48913282,-0.99984,-0.9401423,-0.9924954,0.9998847,-0.45754218,-0.97252053
2025-06-04 18:31:03.621,1.120223,-6.964023,-157.0498,0.0038716637,0.006053378,-0.005559432,1.159793,0.165622,9.716248,0.13416947,0.0031661987,-2.0831604,-0.82766175,-0.14263153,8.734875,1.6299922,-0.03513336,-3.6847496,-0.11547746,-0.08686066,0.57068634,-1.0579038,0.05039215,-0.35583878,1.9219946,-0.02948761,0.3704872,-0.10852814,0.11714935,0.09094238,-1.391912,-0.4806137,-3.8983765,1.636172,-0.06320953,-4.3939896,0.10494232,0.14591217,-0.03845215,-1.0633799,0.0033187866,-7.0356293,1.8322729,-0.035438538,-12.993973,0.0,0.0,0.0,0.0,0.0,0.0,0.0,0.0,0.0,0.0,0.0,0.0,0.83754945,0.7658827,-0.94941723,-0.9959884,-0.14597914,0.4963369,-0.99984246,-0.94121253,-0.9924961,0.99988574,-0.46681812,-0.97293496
2025-06-04 18:31:03.672,1.135523,-6.956415,-157.06587,0.0017918946,-0.0022143864,-0.00412999,1.121272,0.192325,9.741809,0.13394059,0.0065231323,-2.2223244,-0.8274329,0.05832672,8.982681,1.6300685,-0.035438538,-3.7701988,-0.11532487,0.063056946,0.41321564,-1.0580564,0.014076233,-0.43030548,1.9219946,-0.044059753,0.4779129,-0.10883331,-0.169487,0.23743057,-1.392446,0.003929138,-1.5838852,1.6358669,0.042686462,-4.573433,0.1051712,-0.08922577,0.049438477,-1.0636088,-0.017280579,-7.1418343,1.8322729,-0.031166077,-13.018387,0.0,0.0,0.0,0.0,0.0,0.0,0.0,0.0,0.0,0.0,0.0,0.0,0.8396292,0.76886916,-0.94940424,-0.9959423,-0.13360032,0.48873305,-0.9998447,-0.9410807,-0.992524,0.9998869,-0.46375734,-0.9730865
2025-06-04 18:31:03.723,1.13681,-6.953027,-157.07367,0.00522953,0.004205179,0.000334248,1.191018,0.250681,9.710162,0.133788,-0.11432648,-1.9012756,-0.8273566,0.14911652,8.565193,1.629916,-0.02117157,-3.7372398,-0.11509599,0.042304993,0.39124298,-1.0572934,0.021629333,-0.3704872,1.9219183,0.024909973,0.37170792,-0.10883331,0.0020980835,0.26672745,-1.3914542,0.41286469,-3.1879158,1.6357143,-0.026130676,-4.5465775,0.10509491,-0.04749298,0.033569336,-1.0635325,0.00919342,-7.078354,1.8324255,-0.01712799,-13.000076,0.0,0.0,0.0,0.0,0.0,0.0,0.0,0.0,0.0,0.0,0.0,0.0,0.84571433,0.7629488,-0.95086956,-0.9959293,-0.15007722,0.4890966,-0.9998504,-0.94047797,-0.9923609,0.9998902,-0.4776085,-0.9740885
2025-06-04 18:31:03.774,1.1432,-6.955624,-157.06721,-0.006815057,0.0016633685,0.005102121,1.16997,0.220485,9.740743,0.13394059,0.037117004,-2.0831604,-0.82781434,-0.034751892,8.645763,1.6302211,-0.011253357,-3.7506676,-0.11517228,-0.071525574,0.57190704,-1.058209,-0.016822815,-0.46936798,1.9219183,-0.009117126,0.40467072,-0.108680725,0.094566345,0.17883682,-1.3922172,-0.5006027,-3.8300133,1.6357906,-0.027961731,-4.4123,0.1051712,-0.00995636,0.006713867,-1.0641428,0.019874573,-7.3835373,1.8323492,-0.0077438354,-13.035477,0.0,0.0,0.0,0.0,0.0,0.0,0.0,0.0,0.0,0.0,0.0,0.0,0.8369384,0.7668895,-0.9492465,-0.9958539,-0.14007884,0.49412817,-0.99983877,-0.939716,-0.9924443,0.9998844,-0.45932633,-0.97250503
2025-06-04 18:31:03.825,1.136538,-6.953825,-157.04842,0.0035911195,0.0054544504,0.0040985565,1.151544,0.170214,9.73027,0.13401689,-0.043678284,-2.0758362,-0.8280432,0.009117126,8.883804,1.6299922,0.0005722046,-3.728695,-0.11532487,0.087776184,0.42176056,-1.0579801,0.027122498,-0.38513947,1.921842,-0.027961731,0.44617462,-0.10890961,-0.06702423,0.252079,-1.3918357,0.3998947,-2.235752,1.635638,0.025978088,-4.5746536,0.10486603,0.016975403,0.07751465,-1.0643717,0.041770935,-6.7756157,1.8321966,-0.023918152,-12.968338,0.0,0.0,0.0,0.0,0.0,0.0,0.0,0.0,0.0,0.0,0.0,0.0,0.8450127,0.7667831,-0.95010126,-0.99602306,-0.14048868,0.48665145,-0.99985236,-0.9418921,-0.9924591,0.9998896,-0.4758465,-0.97400945
2025-06-04 18:31:03.876,1.135254,-6.962371,-157.04776,-0.0036595715,-0.0087382,0.0049007274,1.198677,0.202413,9.737425,0.13409318,0.02735138,-2.0587463,-0.8281195,0.05908966,8.734875,1.6299922,-0.01712799,-3.7592125,-0.115248576,0.028648376,0.42786407,-1.0577512,-0.021629333,-0.4351883,1.9219183,0.0033187866,0.39002228,-0.1089859,-0.0077438354,0.25818253,-1.3926749,-0.03238678,-2.9071503,1.6354091,-0.02002716,-4.4928665,0.105018616,0.049095154,0.037231445,-1.0648295,0.0048446655,-7.4164963,1.8323492,0.0024032593,-13.028152,0.0,0.0,0.0,0.0,0.0,0.0,0.0,0.0,0.0,0.0,0.0,0.0,0.8406825,0.7630179,-0.94950795,-0.99588794,-0.14441901,0.4883037,-0.9998431,-0.93993306,-0.99245423,0.999887,-0.47000095,-0.973189
2025-06-04 18:31:03.927,1.123352,-6.961902,-157.03029,0.0037396122,0.004668075,0.003827437,1.12836,0.159253,9.657114,0.13394059,-0.01537323,-2.11734,-0.8283484,-0.0623703,8.719006,1.629916,-0.028114319,-3.7604332,-0.11509599,-0.07953644,0.5133133,-1.058209,-0.034751892,-0.40711212,1.9221472,0.022850037,0.35217667,-0.10890961,-0.044288635,0.20569229,-1.3925223,0.028190613,-2.7545586,1.6354854,-0.0024032593,-4.5050735,0.10471344,0.013847351,0.051879883,-1.0651346,0.05329132,-7.143055,1.8324255,-0.01712799,-12.9366,0.0,0.0,0.0,0.0,0.0,0.0,0.0,0.0,0.0,0.0,0.0,0.0,0.8414827,0.767254,-0.9498663,-0.9959543,-0.14259088,0.49232596,-0.9998449,-0.9405055,-0.99236345,0.99988663,-0.466331,-0.97308385
2025-06-04 18:31:03.978,1.130976,-6.956879,-157.04056,0.0010278418,-0.00047305404,-0.001248242,1.128135,0.175274,9.776129,0.1338643,-0.05634308,-2.092926,-0.8281958,-0.038490295,8.780041,1.6300685,0.0052261353,-3.756771,-0.115248576,0.002708435,0.514534,-1.058209,-0.007286072,-0.43152618,1.9220709,-0.009346008,0.43152618,-0.10875702,0.06755829,0.24231339,-1.3925986,0.01613617,-2.6593437,1.6354091,-0.0032424927,-4.4647903,0.105018616,-0.0061416626,0.056762695,-1.0649058,0.022468567,-7.090561,1.8323492,0.0011062622,-12.98909,0.0,0.0,0.0,0.0,0.0,0.0,0.0,0.0,0.0,0.0,0.0,0.0,0.84261596,0.76624775,-0.9499436,-0.99593747,-0.1427044,0.49019766,-0.9998472,-0.94103456,-0.992401,0.99988693,-0.47232857,-0.9735038
2025-06-04 18:31:04.029,1.125468,-6.962391,-157.03932,0.0021474531,0.0013648125,0.0033020931,1.205847,0.198095,9.701231,0.13416947,-0.014305115,-2.0953674,-0.8281958,0.023918152,8.833752,1.6299922,0.030021667,-3.716488,-0.11517228,-0.021705627,0.4803543,-1.0579038,-0.03627777,-0.4376297,1.921842,0.004386902,0.38513947,-0.10883331,-0.021095276,0.22644424,-1.392446,-0.019569397,-2.637371,1.6354091,-0.0012588501,-4.4965286,0.10486603,0.029335022,-0.03967285,-1.064982,-0.019111633,-7.191883,1.8322729,-0.041236877,-13.068436,0.0,0.0,0.0,0.0,0.0,0.0,0.0,0.0,0.0,0.0,0.0,0.0,0.8414706,0.76549995,-0.9496135,-0.9959152,-0.14283314,0.48962808,-0.999845,-0.9404542,-0.99240386,0.9998864,-0.4698238,-0.9732859
2025-06-04 18:31:04.080,1.129219,-6.961204,-157.0395,0.00081553997,0.002856685,-0.004106341,1.129238,0.170287,9.721581,0.13409318,0.00415802,-2.0941467,-0.8281958,-0.005760193,8.759289,1.629916,0.008354187,-3.7274742,-0.115248576,0.022163391,0.45471954,-1.0580564,0.044822693,-0.42908478,1.9219946,-0.005836487,0.38269806,-0.10883331,-0.06252289,0.1727333,-1.392446,-0.027198792,-2.6923027,1.6354854,0.022239685,-4.458687,0.10486603,-0.0074386597,0.15808487,-1.064982,-0.0062942505,-7.229725,1.8323492,0.0021743774,-12.981766,0.0,0.0,0.0,0.0,0.0,0.0,0.0,0.0,0.0,0.0,0.0,0.0,0.84144723,0.765481,-0.94949245,-0.9959557,-0.1410485,0.4890041,-0.9998447,-0.9406942,-0.99243146,0.999887,-0.46798992,-0.9731474
2025-06-04 18:31:04.131,1.129,-6.957997,-157.04176,0.001578371,-0.0047686934,-0.000115418625,1.103383,0.141339,9.733899,0.13416947,0.021858215,-2.0904846,-0.8282721,-0.0035476685,8.847179,1.629916,-0.019493103,-3.7958336,-0.115248576,-0.015907288,0.53406525,-1.0579801,-0.015220642,-0.42908478,1.9219946,0.026359558,0.38391876,-0.109062195,-0.0146102905,0.18860245,-1.392446,0.016746521,-2.7093925,1.6353328,-0.011711121,-4.4684525,0.105018616,-0.025138855,-0.040893555,-1.064982,-0.00705719,-7.1454964,1.8322729,-0.0015640259,-12.968338,0.0,0.0,0.0,0.0,0.0,0.0,0.0,0.0,0.0,0.0,0.0,0.0,0.8415204,0.765557,-0.9498919,-0.99593174,-0.1440679,0.49005985,-0.9998445,-0.94038695,-0.99239457,0.9998871,-0.46878138,-0.9732028
2025-06-04 18:31:04.182,1.124174,-6.961335,-157.04358,-0.00031077332,0.0017070193,-0.0017090264,1.199764,0.166252,9.714543,0.13409318,-0.018501282,-2.1893654,-0.8279669,-0.014762878,8.769054,1.6298397,-0.028877258,-3.7799644,-0.11517228,0.018882751,0.4327469,-1.058209,-0.0497818,-0.4010086,1.9220709,-0.011100769,0.3656044,-0.10890961,-0.0018692017,0.21545792,-1.392446,0.022850037,-2.7167168,1.6354091,0.018882751,-4.453804,0.104789734,-0.09677887,0.14221573,-1.0651346,-0.015830994,-7.1332893,1.8321966,-0.014839172,-13.015945,0.0,0.0,0.0,0.0,0.0,0.0,0.0,0.0,0.0,0.0,0.0,0.0,0.84178233,0.7664005,-0.95015067,-0.9958918,-0.14309682,0.49193463,-0.9998448,-0.94027364,-0.9923699,0.9998868,-0.4689325,-0.9732475
2025-06-04 18:31:04.233,1.127415,-6.958074,-157.04419,0.0035485858,0.003212575,0.0031423955,1.171107,0.191459,9.738394,0.13401689,-0.043678284,-2.174717,-0.8279669,0.0233078,8.765392,1.6299922,0.009651184,-3.7433434,-0.11517228,0.026512146,0.4327469,-1.0582852,-0.004005432,-0.4376297,1.9220709,0.0032424927,0.42664337,-0.10875702,-0.034217834,0.27405167,-1.392446,-0.011405945,-2.666668,1.6354091,0.0077438354,-4.486763,0.10494232,-0.054283142,0.06774902,-1.064982,-0.042304993,-7.1454964,1.8324255,-0.0018692017,-12.946365,0.0,0.0,0.0,0.0,0.0,0.0,0.0,0.0,0.0,0.0,0.0,0.0,0.8419193,0.76597,-0.94978577,-0.99591696,-0.14218263,0.49012125,-0.99984515,-0.94051284,-0.99238795,0.99988663,-0.46895626,-0.97327715
2025-06-04 18:31:04.284,1.127489,-6.955034,-157.0397,0.0011553207,-0.0006784618,-0.00015132004,1.138029,0.190161,9.709863,0.13401689,-0.005378723,-2.0758362,-0.8281195,-0.015144348,8.853283,1.629916,-0.050315857,-3.761654,-0.11517228,-0.012550354,0.45105743,-1.0577512,0.048789978,-0.41809845,1.9220709,-0.01613617,0.38880157,-0.1089859,-0.002937317,0.2105751,-1.3925986,-0.03238678,-2.5958633,1.6354091,0.013465881,-4.4769974,0.10509491,0.0573349,-0.0030517578,-1.064982,-0.019874573,-7.129627,1.8322729,-0.015830994,-13.001297,0.0,0.0,0.0,0.0,0.0,0.0,0.0,0.0,0.0,0.0,0.0,0.0,0.8416704,0.76541084,-0.94979584,-0.99595267,-0.14380594,0.49225724,-0.99984574,-0.9406799,-0.99243677,0.99988747,-0.46940953,-0.9733013
2025-06-04 18:31:04.335,1.123954,-6.9549,-157.03922,-0.00075916585,0.0009368229,0.0022616326,1.188556,0.180891,9.723734,0.13401689,-0.002632141,-2.0758362,-0.8281195,0.017967224,8.799572,1.6299922,0.008430481,-3.7421227,-0.11532487,0.009880066,0.46570587,-1.0579801,0.049705505,-0.4339676,1.9220709,0.05077362,0.4388504,-0.1089859,-0.035057068,0.20447159,-1.3923697,-0.025978088,-2.760662,1.635638,0.02872467,-4.4428177,0.1051712,0.04283905,0.0592041,-1.0650584,-0.048561096,-7.1686897,1.8323492,-0.0049972534,-12.959793,0.0,0.0,0.0,0.0,0.0,0.0,0.0,0.0,0.0,0.0,0.0,0.0,0.84196204,0.76544344,-0.9496743,-0.99595726,-0.1428948,0.4893882,-0.9998451,-0.9406742,-0.99241537,0.99988705,-0.46853137,-0.97316074
2025-06-04 18:31:04.386,1.121315,-6.955362,-157.03821,0.00043340016,-0.0012693953,-0.00020968386,1.16379,0.164013,9.70961,0.13416947,-0.0020980835,-2.186924,-0.8279669,-0.0035476685,8.832531,1.6299922,0.0052261353,-3.761654,-0.11509599,-0.02948761,0.48401642,-1.0580564,0.051231384,-0.43152618,1.9219946,0.039253235,0.4022293,-0.10883331,-0.037727356,0.22278214,-1.392446,-0.008659363,-2.6312675,1.6354854,0.013771057,-4.458687,0.10509491,-0.06374359,-0.025024414,-1.0650584,0.007209778,-7.216297,1.8321203,0.014839172,-13.02449,0.0,0.0,0.0,0.0,0.0,0.0,0.0,0.0,0.0,0.0,0.0,0.0,0.84202963,0.76612914,-0.94991595,-0.9959466,-0.14255089,0.49099874,-0.99984443,-0.9405518,-0.9923715,0.99988717,-0.46699944,-0.9731151
2025-06-04 18:31:04.437,1.121023,-6.951664,-157.03882,0.000929126,-0.00054035394,-0.00064020423,1.135433,0.174306,9.734205,0.13401689,-0.0008773804,-2.133213,-0.8281958,-0.035820007,8.828869,1.629916,-0.00705719,-3.6896324,-0.115248576,0.05619049,0.4425125,-1.0581326,0.024375916,-0.40833282,1.9220709,-0.0019454956,0.436409,-0.10875702,0.02773285,0.21301651,-1.3923697,-0.02773285,-2.6520195,1.6354091,0.019264221,-4.441597,0.1052475,0.03665924,0.016479492,-1.0652109,0.0333786,-7.012436,1.8321966,-0.0233078,-13.030594,0.0,0.0,0.0,0.0,0.0,0.0,0.0,0.0,0.0,0.0,0.0,0.0,0.84164274,0.7655057,-0.94979125,-0.9959521,-0.14171267,0.48994282,-0.9998462,-0.94102186,-0.9924708,0.9998874,-0.47069773,-0.9732941
2025-06-04 18:31:04.488,1.121598,-6.953845,-157.04227,0.0004341681,0.004159346,0.0027357861,1.1837,0.199085,9.686614,0.13409318,-0.020256042,-2.1039124,-0.8282721,0.0011825562,8.74464,1.6299922,-0.0047683716,-3.674984,-0.11517228,-0.0090408325,0.49378204,-1.0579801,-0.0064468384,-0.37292862,1.9219946,0.044898987,0.38025665,-0.10875702,-0.036354065,0.2117958,-1.3925986,-0.04436493,-2.724041,1.6354854,-0.022697449,-4.5062943,0.105018616,0.05908966,0.005493164,-1.0651346,0.04840851,-7.20409,1.8323492,-0.004005432,-13.045242,0.0,0.0,0.0,0.0,0.0,0.0,0.0,0.0,0.0,0.0,0.0,0.0,0.8407731,0.7653951,-0.9495585,-0.9959395,-0.1423006,0.48903492,-0.9998441,-0.94054323,-0.9924329,0.9998864,-0.46789455,-0.9730581
2025-06-04 18:31:04.539,1.120087,-6.949387,-157.0407,0.00018732618,-0.0009815034,0.0026138923,1.163065,0.178879,9.688899,0.13416947,-0.00011444092,-2.0709534,-0.8281195,-0.015296936,8.793468,1.629916,0.00995636,-3.728695,-0.115248576,-0.0011062622,0.46570587,-1.0579801,-0.029792786,-0.40833282,1.9219183,0.025367737,0.38147736,-0.10890961,0.0060653687,0.18738174,-1.3925223,0.028495789,-2.7045097,1.6354854,0.026817322,-4.4550247,0.1052475,-0.025062561,0.017700195,-1.064982,-0.006752014,-7.1613655,1.8322729,-0.0065994263,-12.991531,0.0,0.0,0.0,0.0,0.0,0.0,0.0,0.0,0.0,0.0,0.0,0.0,0.8420726,0.7655393,-0.9499601,-0.9959345,-0.14413315,0.49012005,-0.99984485,-0.9405382,-0.9923767,0.99988705,-0.47007018,-0.973226
2025-06-04 18:31:04.590,1.117771,-6.949501,-157.0388,-0.0017951584,0.0029091323,0.0018783582,1.163743,0.157399,9.724017,0.13401689,0.020179749,-2.0648499,-0.8282721,-0.024681091,8.793468,1.629916,-0.013923645,-3.7677574,-0.11509599,0.012016296,0.5059891,-1.0580564,0.01789093,-0.45838165,1.9219946,-0.00011444092,0.3936844,-0.10890961,-0.07534027,0.19714737,-1.3925986,0.051460266,-2.6593437,1.6354091,0.009117126,-4.4892044,0.105018616,-0.002632141,0.009155273,-1.0652109,0.051231384,-7.1528206,1.8323492,0.017967224,-13.034256,0.0,0.0,0.0,0.0,0.0,0.0,0.0,0.0,0.0,0.0,0.0,0.0,0.84151536,0.7666284,-0.9494705,-0.9959612,-0.13881677,0.48823202,-0.99984556,-0.9408683,-0.99244684,0.99988717,-0.46763584,-0.9732118
2025-06-04 18:31:04.641,1.114612,-6.949058,-157.04106,0.0005279795,-0.0013202368,-0.00075736817,1.174905,0.197539,9.728292,0.13409318,0.034370422,-2.1246643,-0.8281195,0.0049209595,8.737316,1.6299922,0.010566711,-3.728695,-0.11547746,0.0472641,0.4766922,-1.0576749,-0.052757263,-0.38269806,1.9219946,0.01964569,0.38147736,-0.10883331,-0.030784607,0.21301651,-1.3926749,0.031852722,-2.7740898,1.6354091,0.02117157,-4.4769974,0.1051712,-0.03803253,0.016479492,-1.0650584,0.0901413,-7.150379,1.8323492,-0.01247406,-12.982986,0.0,0.0,0.0,0.0,0.0,0.0,0.0,0.0,0.0,0.0,0.0,0.0,0.84063846,0.765165,-0.94970244,-0.99593204,-0.14077498,0.48754224,-0.9998437,-0.94076467,-0.9924672,0.9998872,-0.46954596,-0.9731267
2025-06-04 18:31:04.692,1.116889,-6.947623,-157.04291,0.0017841104,0.00011112511,-0.0027785467,1.172741,0.185754,9.699602,0.13394059,-0.00049591064,-2.1271095,-0.8281195,-0.00919342,8.770275,1.6299922,0.013389587,-3.678646,-0.115248576,-0.04962921,0.4351883,-1.0578275,-0.06313324,-0.42420197,1.9220709,0.03391266,0.37170792,-0.10883331,0.074653625,0.21545792,-1.3926749,-0.01209259,-2.6605644,1.6354854,-0.0017929077,-4.479439,0.10494232,0.0076675415,0.022583008,-1.064982,0.030708313,-7.122299,1.8323492,0.012016296,-13.002518,0.0,0.0,0.0,0.0,0.0,0.0,0.0,0.0,0.0,0.0,0.0,0.0,0.8417907,0.76476705,-0.9500108,-0.99591595,-0.14662151,0.49040315,-0.9998441,-0.940283,-0.9923519,0.9998867,-0.4707535,-0.97320694
2025-06-04 18:31:04.743,1.11682,-6.942116,-157.04366,-0.0042246743,0.0034488752,-9.791297e-05,1.13516,0.169115,9.724781,0.1338643,0.001335144,-2.129551,-0.8282721,0.014533997,8.710461,1.629916,-0.0017929077,-3.732357,-0.11517228,-0.015144348,0.481575,-1.0582852,-0.022315979,-0.4351883,1.9219183,-0.020332336,0.38269806,-0.10883331,0.025901794,0.23865128,-1.3927512,-0.018043518,-2.7167168,1.6354091,-0.013542175,-4.4977493,0.10494232,-0.043754578,0.009155273,-1.0650584,0.04634857,-7.2224007,1.8322729,-0.0146102905,-13.00618,0.0,0.0,0.0,0.0,0.0,0.0,0.0,0.0,0.0,0.0,0.0,0.0,0.8411088,0.7669376,-0.94984716,-0.9959028,-0.13992767,0.4896177,-0.99984574,-0.94050545,-0.9924335,0.99988693,-0.4674059,-0.9732528
2025-06-04 18:31:04.794,1.114497,-6.939062,-157.04631,0.0023195774,-0.0016932312,0.00058690185,1.173795,0.1713,9.729405,0.13409318,0.008125305,-2.1283302,-0.8282721,-0.032463074,8.74464,1.629916,-0.014533997,-3.7482262,-0.11517228,0.016059875,0.4388504,-1.0579801,-0.048713684,-0.37659454,1.921842,-0.005607605,0.3704872,-0.10875702,-0.008125305,0.18616104,-1.3927512,-0.048713684,-2.7472343,1.6353328,0.0037765503,-4.466011,0.10486603,0.013465881,0.05432129,-1.0651346,0.049552917,-7.0759125,1.8323492,-0.029411316,-13.022049,0.0,0.0,0.0,0.0,0.0,0.0,0.0,0.0,0.0,0.0,0.0,0.0,0.8404796,0.7658019,-0.94971937,-0.9959292,-0.14202034,0.4909013,-0.99984443,-0.9407876,-0.9924537,0.99988675,-0.46967056,-0.9731933
2025-06-04 18:31:04.845,1.115922,-6.939864,-157.04626,-0.0013623168,-0.00013311626,0.001197034,1.173432,0.175279,9.703502,0.13401689,-0.04131317,-2.1368752,-0.8280432,0.0009536743,8.841076,1.6298397,0.007896423,-3.7335777,-0.11517228,-0.02544403,0.4742508,-1.0578275,0.019493103,-0.44861603,1.9219946,-0.0037002563,0.42420197,-0.10890961,0.06649017,0.23498917,-1.3925986,0.022087097,-2.6813164,1.6354854,0.0031661987,-4.4440384,0.10494232,0.012550354,0.020141602,-1.064982,-0.01499176,-7.1540413,1.8322729,0.02292633,-13.003738,0.0,0.0,0.0,0.0,0.0,0.0,0.0,0.0,0.0,0.0,0.0,0.0,0.8430613,0.76497924,-0.94992334,-0.9959374,-0.14550209,0.48974916,-0.99984634,-0.94059914,-0.99235904,0.99988705,-0.4721992,-0.9734502
2025-06-04 18:31:04.896,1.118103,-6.93069,-157.04674,-0.002433565,0.0029511945,5.2621675e-05,1.143224,0.182881,9.728584,0.13394059,-0.008125305,-2.0746155,-0.8280432,-0.02696991,8.6823845,1.6299922,-0.0157547,-3.7555504,-0.11509599,0.028038025,0.44861603,-1.0585904,0.022697449,-0.45594025,1.921842,-0.03513336,0.3692665,-0.10883331,-0.007972717,0.23865128,-1.3925223,0.04611969,-2.748455,1.6353328,-0.00705719,-4.461128,0.10509491,0.017051697,0.014038086,-1.0653635,-0.03604889,-7.205311,1.8321966,-0.02193451,-13.07576,0.0,0.0,0.0,0.0,0.0,0.0,0.0,0.0,0.0,0.0,0.0,0.0,0.84266335,0.7657267,-0.94976896,-0.99593544,-0.14239287,0.49015787,-0.99984705,-0.94053173,-0.9924133,0.99988735,-0.47037733,-0.9734312
2025-06-04 18:31:04.947,1.11717,-6.925254,-157.04579,0.0011534531,0.0017775131,0.00061449554,1.176362,0.20877,9.718097,0.13371171,-0.012702942,-2.129551,-0.8281958,0.022163391,8.745861,1.6299922,0.016441345,-3.7018394,-0.115248576,0.01865387,0.5206375,-1.058209,-0.030937195,-0.3949051,1.9219946,0.0308609,0.37414932,-0.109062195,-0.046195984,0.20203018,-1.3925986,-0.0074386597,-2.6739922,1.6354854,-0.0024032593,-4.486763,0.105018616,0.052604675,0.099487305,-1.0652872,0.03566742,-7.2150764,1.8321966,0.0022506714,-13.039139,0.0,0.0,0.0,0.0,0.0,0.0,0.0,0.0,0.0,0.0,0.0,0.0,0.8413889,0.76527745,-0.94957787,-0.9959379,-0.1418571,0.48853782,-0.99984497,-0.94062924,-0.9924338,0.9998868,-0.46885812,-0.9731762
2025-06-04 18:31:04.998,1.118263,-6.920177,-157.04503,0.0016333314,-0.0005449092,-0.0035302949,1.179294,0.183634,9.711245,0.13401689,0.0233078,-2.0819397,-0.8281195,0.025062561,8.811779,1.629916,0.00019073486,-3.7152672,-0.11509599,-0.026664734,0.49500275,-1.0580564,0.021476746,-0.42664337,1.9221472,-0.065345764,0.38758087,-0.10875702,-0.031166077,0.22522354,-1.3925986,0.07305145,-2.6678886,1.6353328,-0.03932953,-4.470894,0.105018616,0.06664276,0.012817383,-1.0653635,0.008888245,-7.129627,1.8323492,0.023078918,-12.992752,0.0,0.0,0.0,0.0,0.0,0.0,0.0,0.0,0.0,0.0,0.0,0.0,0.84246874,0.7653832,-0.9494234,-0.995974,-0.14191328,0.48747227,-0.9998479,-0.9408514,-0.9924473,0.9998878,-0.470887,-0.97358537
2025-06-04 18:31:05.049,1.115824,-6.919772,-157.04605,0.0011879758,0.002333575,0.0024226042,1.17377,0.135478,9.713675,0.13401689,-0.011329651,-2.105133,-0.8280432,0.05847931,8.821545,1.629916,0.027427673,-3.740902,-0.115248576,0.0030136108,0.47058868,-1.058209,-0.073890686,-0.44861603,1.9221472,-0.017662048,0.37170792,-0.108680725,0.023231506,0.23498917,-1.3926749,-0.011100769,-2.7215996,1.6354854,0.028648376,-4.4428177,0.1051712,0.008354187,-0.005493164,-1.0652109,0.02773285,-7.1857796,1.8322729,-0.0024795532,-13.0733185,0.0,0.0,0.0,0.0,0.0,0.0,0.0,0.0,0.0,0.0,0.0,0.0,0.8418143,0.76415855,-0.9499245,-0.9959006,-0.14471,0.49017638,-0.99984473,-0.94032484,-0.9924024,0.9998873,-0.4709232,-0.9732853
2025-06-04 18:31:05.100,1.117081,-6.914367,-157.04378,-0.0013761222,0.0018033615,-0.0013301503,1.154984,0.142143,9.691366,0.13409318,-0.018882751,-2.0819397,-0.8281195,0.046424866,8.758068,1.6300685,0.03276825,-3.7433434,-0.115019694,0.0724411,0.4339676,-1.058209,0.05054474,-0.44617462,1.9219183,-0.015907288,0.37903595,-0.10883331,0.032234192,0.18249893,-1.3925986,0.0024795532,-2.6727715,1.6353328,0.009269714,-4.425728,0.10509491,-0.01499176,0.022583008,-1.0652872,-0.012702942,-7.212635,1.8323492,0.015144348,-12.975662,0.0,0.0,0.0,0.0,0.0,0.0,0.0,0.0,0.0,0.0,0.0,0.0,0.8429544,0.7643621,-0.94986737,-0.9959289,-0.14315274,0.4880754,-0.9998466,-0.94050187,-0.9924136,0.99988765,-0.47075337,-0.97335553
2025-06-04 18:31:05.151,1.113271,-6.914114,-157.04506,-0.0036192718,-0.0013113357,0.0008044746,1.172028,0.173607,9.714005,0.13409318,0.03276825,-2.2125587,-0.8281958,0.022315979,8.748302,1.629916,0.008735657,-3.7543297,-0.11540116,-0.07320404,0.44495392,-1.0584378,-0.041542053,-0.38147736,1.9220709,0.029411316,0.4022293,-0.10890961,-0.013313293,0.23132706,-1.3925986,-0.016212463,-2.637371,1.6355617,0.022468567,-4.511177,0.10509491,0.028266907,0.049438477,-1.0652872,0.014152527,-7.2150764,1.8323492,0.0030136108,-12.980545,0.0,0.0,0.0,0.0,0.0,0.0,0.0,0.0,0.0,0.0,0.0,0.0,0.8417958,0.7655755,-0.9498855,-0.9959368,-0.14457613,0.49223882,-0.9998445,-0.94037825,-0.9923736,0.9998873,-0.46785063,-0.9731731
2025-06-04 18:31:05.202,1.110761,-6.90959,-157.04343,0.0010702359,0.000924274,0.0006863333,1.164339,0.188044,9.70618,0.13409318,-0.01941681,-2.1478615,-0.8281958,0.049858093,8.800793,1.629916,-0.025978088,-3.7592125,-0.11509599,0.06061554,0.47058868,-1.0581326,0.009498596,-0.48279572,1.9219946,-0.055122375,0.44373322,-0.1089859,-0.026435852,0.21789932,-1.3927512,-0.0011825562,-2.6532402,1.6353328,0.0032424927,-4.4843216,0.104789734,0.004310608,0.01159668,-1.0653635,-0.020484924,-7.139393,1.8322729,-0.01789093,-13.052567,0.0,0.0,0.0,0.0,0.0,0.0,0.0,0.0,0.0,0.0,0.0,0.0,0.8419614,0.76586574,-0.9498635,-0.9959232,-0.1411963,0.4904318,-0.9998473,-0.9407195,-0.9924664,0.99988765,-0.46987146,-0.973443
2025-06-04 18:31:05.253,1.110567,-6.910161,-157.04372,-0.0019042414,-0.0016514654,0.0011218976,1.201558,0.158736,9.678566,0.1338643,0.043754578,-2.1148987,-0.8281195,0.029029846,8.777599,1.629916,0.010566711,-3.7640953,-0.11509599,0.039787292,0.42420197,-1.0579801,0.045280457,-0.42176056,1.9221472,-0.037345886,0.38758087,-0.1089859,-0.017585754,0.23987198,-1.3927512,-0.044136047,-2.609291,1.6354854,0.04459381,-4.4550247,0.10494232,0.021018982,0.064086914,-1.0653635,-0.0064468384,-7.13451,1.8323492,0.030174255,-13.069656,0.0,0.0,0.0,0.0,0.0,0.0,0.0,0.0,0.0,0.0,0.0,0.0,0.84184325,0.7645079,-0.9494812,-0.99595964,-0.14189991,0.48894674,-0.99984515,-0.9408504,-0.99245596,0.99988765,-0.4700992,-0.9732841
2025-06-04 18:31:05.304,1.110402,-6.904172,-157.04333,-0.0010970266,-0.001581949,-0.0012826599,1.173787,0.167665,9.726739,0.13394059,-0.014915466,-2.1356544,-0.8281195,0.011558533,8.708019,1.629916,0.00064849854,-3.716488,-0.11509599,-0.027809143,0.47058868,-1.0580564,-0.094947815,-0.40833282,1.9217657,0.02117157,0.3997879,-0.10875702,0.07297516,0.19958878,-1.3926749,-0.0076675415,-2.7423515,1.6354854,-0.030784607,-4.49897,0.10509491,0.021781921,-0.023803711,-1.0653635,0.011787415,-7.1454964,1.8322729,0.017433167,-12.959793,0.0,0.0,0.0,0.0,0.0,0.0,0.0,0.0,0.0,0.0,0.0,0.0,0.8420141,0.7647787,-0.9499839,-0.9959014,-0.14669971,0.489796,-0.9998447,-0.9401494,-0.992356,0.9998865,-0.47126457,-0.9732983
2025-06-04 18:31:05.356,1.108561,-6.902131,-157.04533,-0.0031563756,-0.00014297737,-6.796312e-05,1.145085,0.174594,9.710544,0.13394059,0.009727478,-2.1466408,-0.8281195,-0.05214691,8.67506,1.6299922,-0.0073623657,-3.732357,-0.11517228,0.011711121,0.49622345,-1.0583615,0.025215149,-0.5108719,1.9221472,-0.011787415,0.3692665,-0.10875702,-0.054359436,0.21789932,-1.392446,-0.013999939,-2.6630058,1.6354091,0.014076233,-4.453804,0.10494232,0.017051697,0.022583008,-1.0652872,0.021705627,-7.179676,1.8323492,-0.014839172,-13.018387,0.0,0.0,0.0,0.0,0.0,0.0,0.0,0.0,0.0,0.0,0.0,0.0,0.84155256,0.7668604,-0.94953614,-0.9959565,-0.13925429,0.48973158,-0.999846,-0.9407924,-0.9924391,0.999887,-0.46715015,-0.9731875
2025-06-04 18:31:05.407,1.104657,-6.903611,-157.04462,-0.00063720223,0.0003521027,-0.002054078,1.138795,0.178114,9.72382,0.13409318,0.026130676,-2.1686134,-0.8280432,-0.03261566,8.784924,1.6299922,0.014915466,-3.711605,-0.11517228,-0.03177643,0.49256134,-1.0579038,-0.05558014,-0.38880157,1.9219183,-0.014839172,0.3949051,-0.10883331,-0.012626648,0.19104385,-1.3927512,-0.0005722046,-2.6739922,1.6354854,-0.014533997,-4.5050735,0.105018616,-0.0051498413,0.055541992,-1.0653635,0.009422302,-7.0295258,1.8322729,-0.0033187866,-13.0074005,0.0,0.0,0.0,0.0,0.0,0.0,0.0,0.0,0.0,0.0,0.0,0.0,0.8416049,0.766148,-0.949586,-0.99595124,-0.14251363,0.48922178,-0.99984527,-0.94085306,-0.9924024,0.99988663,-0.4706899,-0.97337013
2025-06-04 18:31:05.458,1.103267,-6.901211,-157.04868,-0.0027666609,0.0012510346,0.0014951712,1.151908,0.173653,9.72884,0.13401689,0.01209259,-2.1380959,-0.8281958,-0.017967224,8.706799,1.629916,-0.028266907,-3.7640953,-0.11509599,-0.01964569,0.4730301,-1.0579801,0.015449524,-0.4376297,1.9219946,0.018959045,0.40345,-0.10883331,-0.007286072,0.19348526,-1.3926749,-0.023384094,-2.699627,1.6354854,-0.024681091,-4.511177,0.10471344,-0.02407074,0.036010742,-1.0655161,0.026130676,-7.172352,1.8323492,-0.019569397,-12.985428,0.0,0.0,0.0,0.0,0.0,0.0,0.0,0.0,0.0,0.0,0.0,0.0,0.84125394,0.7659197,-0.94989014,-0.99591947,-0.14254697,0.49000293,-0.9998448,-0.94038206,-0.99241436,0.999887,-0.4679289,-0.9731751
2025-06-04 18:31:05.509,1.098686,-6.900012,-157.04826,0.0019094599,-0.00075888657,0.0002616423,1.181755,0.155161,9.733448,0.13409318,-0.004463196,-2.1148987,-0.8281195,0.0008773804,8.716564,1.6299922,-0.0034713745,-3.7225914,-0.11532487,0.027275085,0.46692657,-1.0581326,-0.05039215,-0.44495392,1.9219946,-0.032157898,0.37292862,-0.1089859,-0.037345886,0.22644424,-1.3926749,-0.0023269653,-2.6556816,1.6354854,-0.0005722046,-4.491646,0.10509491,0.052223206,0.004272461,-1.0653635,-0.02773285,-7.1442757,1.8323492,0.03139496,-13.013504,0.0,0.0,0.0,0.0,0.0,0.0,0.0,0.0,0.0,0.0,0.0,0.0,0.8417978,0.7653376,-0.94946027,-0.99594605,-0.14274427,0.48860452,-0.9998458,-0.9406851,-0.9924224,0.9998868,-0.4708025,-0.9733718
2025-06-04 18:31:05.560,1.096388,-6.898036,-157.0475,0.00022835887,0.0016964077,0.00013140583,1.158156,0.172913,9.704675,0.13409318,-0.013008118,-2.072174,-0.82781434,0.01941681,8.679943,1.629916,0.030937195,-3.6676598,-0.11555375,0.020332336,0.44861603,-1.0583615,-0.018501282,-0.44617462,1.9220709,0.010108948,0.4022293,-0.10875702,0.09449005,0.19958878,-1.3926749,0.01033783,-2.6727715,1.6354854,0.008049011,-4.474556,0.10486603,0.025978088,0.04699707,-1.0653635,0.034217834,-7.188221,1.8323492,0.018348694,-12.993973,0.0,0.0,0.0,0.0,0.0,0.0,0.0,0.0,0.0,0.0,0.0,0.0,0.84296805,0.76388913,-0.9500962,-0.9959127,-0.14590673,0.4893586,-0.99984616,-0.9404455,-0.9923846,0.9998876,-0.4726123,-0.97339284
2025-06-04 18:31:05.611,1.096182,-6.896055,-157.04877,-0.002501755,0.00052745594,0.00017051866,1.164873,0.153444,9.718091,0.13409318,0.0118637085,-2.1234436,-0.8280432,0.05329132,8.677502,1.6300685,-0.029182434,-3.732357,-0.11532487,-0.028953552,0.46326447,-1.0583615,-0.056800842,-0.45838165,1.9219946,0.040473938,0.38391876,-0.10890961,0.006904602,0.2117958,-1.3925986,-0.024604797,-2.7289238,1.6354854,-0.011024475,-4.4806595,0.104789734,-0.00919342,0.009155273,-1.0652872,-0.02117157,-7.183338,1.8322729,-0.013084412,-12.978104,0.0,0.0,0.0,0.0,0.0,0.0,0.0,0.0,0.0,0.0,0.0,0.0,0.84149265,0.7656645,-0.9501767,-0.99587893,-0.14520565,0.49240148,-0.9998443,-0.9398004,-0.99237037,0.99988705,-0.4669321,-0.97313535
2025-06-04 18:31:05.662,1.097733,-6.88813,-157.05106,-0.0010200228,0.0017233904,0.00015517721,1.132517,0.153404,9.746707,0.13394059,0.005836487,-2.1258888,-0.8281195,-0.0033187866,8.736095,1.629916,0.026512146,-3.732357,-0.11540116,-0.06717682,0.48279572,-1.058743,-0.011024475,-0.46448517,1.9220709,0.077171326,0.4425125,-0.1089859,-0.058631897,0.22888565,-1.3925986,0.009269714,-2.7045097,1.6354091,0.002937317,-4.470894,0.104789734,-0.012931824,0.079956055,-1.0652872,-0.022392273,-7.05394,1.8323492,0.008277893,-13.012283,0.0,0.0,0.0,0.0,0.0,0.0,0.0,0.0,0.0,0.0,0.0,0.0,0.8423174,0.767676,-0.9498904,-0.9959547,-0.14199844,0.4914054,-0.99984604,-0.94076097,-0.9923519,0.9998869,-0.4667396,-0.9732226
2025-06-04 18:31:05.713,1.098211,-6.884204,-157.05159,0.0018645526,0.001139159,0.0012454321,1.139831,0.18202,9.708941,0.1338643,0.03566742,-2.1100159,-0.8281958,-0.0012588501,8.856945,1.6299922,-0.031547546,-3.7763023,-0.11540116,0.029258728,0.42664337,-1.058209,0.014533997,-0.40589142,1.9219946,0.03238678,0.42420197,-0.1089859,-0.063056946,0.23132706,-1.3927512,-0.0036239624,-2.6556816,1.6354854,0.024909973,-4.4928665,0.10509491,-0.0004196167,0.022583008,-1.0653635,-0.00011444092,-7.0673676,1.8323492,0.013923645,-13.004959,0.0,0.0,0.0,0.0,0.0,0.0,0.0,0.0,0.0,0.0,0.0,0.0,0.8413586,0.76597714,-0.9497156,-0.9959514,-0.14105907,0.489932,-0.999845,-0.9408661,-0.99245775,0.9998875,-0.4684895,-0.9732068
2025-06-04 18:31:05.764,1.098263,-6.881077,-157.05003,-0.000789936,4.925319e-05,-0.0013096601,1.190241,0.16358,9.704624,0.1338643,-0.02910614,-2.141758,-0.8279669,-0.011558533,8.751965,1.6298397,-0.024909973,-3.7189293,-0.11509599,0.049476624,0.46814728,-1.0581326,-0.013542175,-0.3704872,1.9219946,0.026893616,0.3668251,-0.108680725,0.036964417,0.25452042,-1.3925986,-0.011329651,-2.711834,1.6354091,0.037727356,-4.483101,0.10509491,-0.03139496,0.07019043,-1.0653635,0.015830994,-7.1577034,1.8323492,0.0015640259,-12.993973,0.0,0.0,0.0,0.0,0.0,0.0,0.0,0.0,0.0,0.0,0.0,0.0,0.8422955,0.7645918,-0.9502304,-0.99591607,-0.14558098,0.49191195,-0.99984455,-0.940456,-0.99238616,0.9998873,-0.47109136,-0.9732044
2025-06-04 18:31:05.815,1.100175,-6.879093,-157.05344,-0.0028218483,0.0016146913,0.0014746636,1.127483,0.155699,9.728192,0.13401689,-0.023155212,-2.1637306,-0.8282721,0.057868958,8.705578,1.6299922,-0.0132369995,-3.7128258,-0.11532487,-0.01903534,0.4425125,-1.0586667,0.0065994263,-0.45960236,1.9220709,-0.004463196,0.4351883,-0.10890961,-0.06549835,0.18738174,-1.3926749,-0.004005432,-2.68742,1.6354854,-0.006828308,-4.4428177,0.10494232,0.012931824,0.07873535,-1.0655161,-0.033988953,-7.237049,1.8323492,0.0007247925,-13.001297,0.0,0.0,0.0,0.0,0.0,0.0,0.0,0.0,0.0,0.0,0.0,0.0,0.842083,0.7663031,-0.94975066,-0.99593276,-0.14193992,0.4908178,-0.99984616,-0.94043684,-0.9924045,0.9998871,-0.46730214,-0.97329056
2025-06-04 18:31:05.866,1.095453,-6.878705,-157.05186,-0.0020919167,-0.00040282198,-0.00053023105,1.163798,0.163513,9.731471,0.1338643,-0.03124237,-2.1283302,-0.8281958,-0.01033783,8.789806,1.6298397,0.005760193,-3.7213707,-0.115019694,0.04650116,0.45838165,-1.058209,0.057868958,-0.3961258,1.9219946,0.034217834,0.40955353,-0.10890961,0.03627777,0.21545792,-1.3926749,0.0037002563,-2.6654472,1.6353328,0.026054382,-4.4721146,0.1051712,0.023384094,0.014038086,-1.0654398,0.01537323,-7.0795746,1.8323492,0.004081726,-12.991531,0.0,0.0,0.0,0.0,0.0,0.0,0.0,0.0,0.0,0.0,0.0,0.0,0.84323055,0.7646679,-0.9501254,-0.99595535,-0.14461534,0.49077788,-0.99984694,-0.94088775,-0.9924089,0.99988794,-0.47182667,-0.9733673
2025-06-04 18:31:05.917,1.095814,-6.876689,-157.0557,0.0008276002,0.003730135,0.00038407714,1.1821,0.180644,9.709405,0.13401689,0.045661926,-2.0880432,-0.8281195,-0.022392273,8.794689,1.629916,0.012245178,-3.7518883,-0.11517228,-0.014076233,0.49866486,-1.0584378,-0.095939636,-0.42053986,1.9221472,0.01903534,0.41199493,-0.1089859,-0.052375793,0.20203018,-1.3927512,-0.015449524,-2.7057304,1.6354091,0.01903534,-4.450142,0.10486603,-0.0258255,0.042114258,-1.0655161,-0.0035476685,-7.167469,1.8323492,-0.016975403,-12.976883,0.0,0.0,0.0,0.0,0.0,0.0,0.0,0.0,0.0,0.0,0.0,0.0,0.4354352,0.35391372,-0.94920766,-0.955436,-0.4244279,0.824897,-0.99979526,-0.8925615,-0.9976524,0.9999559,-0.690194,-0.97185415
2025-06-04 18:31:05.968,0.889831,-7.289405,-157.05464,-0.27256614,-0.19531272,-0.012551483,3.216688,-0.076712,9.503383,0.12554826,-0.36403656,-2.5885391,-0.852381,-0.6857681,2.9974823,1.6302211,0.018577576,-3.7433434,-0.114638224,0.08319855,0.07141113,-1.1069608,-0.9580612,-0.04699707,1.9508337,0.5412674,0.7794304,-0.11569977,-0.027046204,1.1468697,-1.4006858,-0.5929947,0.22766495,1.6357143,0.03566742,-4.5416946,0.10334015,-0.098228455,0.46936798,-1.0868784,-0.37181854,-9.040054,1.8382238,0.067100525,-13.579918,0.0,0.0,0.0,0.0,0.0,0.0,0.0,0.0,0.0,0.0,0.0,0.0,0.319979,0.54014593,-0.9419669,-0.9337198,-0.21688215,0.7904968,-0.99963,-0.86197627,-0.9964207,0.9998686,-0.5516404,-0.94507194
2025-06-04 18:31:06.019,0.558387,-7.376464,-157.18364,0.0030077258,0.14100651,-0.064829506,0.985055,-0.487895,9.813563,0.11761369,-0.037879944,-3.6212692,-0.8635962,-0.2865219,7.0185394,1.6308315,0.08342743,-3.8361168,-0.11295976,0.029335022,0.69153976,-1.1084867,0.16208649,-0.34485245,1.9693731,0.1996994,0.9637604,-0.11478424,-0.021705627,0.2874794,-1.4073234,0.010414124,-0.0982666,1.6225917,-0.43209076,-2.2821388,0.10082245,0.075798035,0.099487305,-1.0969492,-0.28255463,-6.516823,1.8334936,-0.11463165,-12.238346,0.0,0.0,0.0,0.0,0.0,0.0,0.0,0.0,0.0,0.0,0.0,0.0,0.26787636,0.504369,-0.94648415,-0.93968946,-0.23329765,0.7563906,-0.9997044,-0.88320184,-0.9972384,0.99989957,-0.5913268,-0.9519591
2025-06-04 18:31:06.070,0.56091,-7.159,-157.32587,-0.006007423,-0.0046364497,-0.06527496,0.842418,-0.352772,9.623633,0.1124257,0.13912201,-3.5187302,-0.8811438,-0.46001434,6.6498833,1.6321285,-0.026664734,-3.7701988,-0.11295976,0.013389587,0.57312775,-1.1064267,0.08792877,-0.40711212,1.9763159,0.16155243,0.6964226,-0.11463165,-0.051078796,0.38758087,-1.4134269,-0.045585632,-0.04333496,1.6057308,-0.29506683,-2.0184631,0.09929657,-0.06877899,0.45716095,-1.1115214,-0.35770416,-6.4325943,1.8310522,0.02696991,-12.719311,0.0,0.0,0.0,0.0,0.0,0.0,0.0,0.0,0.0,0.0,0.0,0.0,0.22474462,0.48605523,-0.9410113,-0.93670654,-0.24192224,0.7313974,-0.9996367,-0.8725852,-0.9970874,0.99987996,-0.60147154,-0.9433413
2025-06-04 18:31:06.121,0.6118,-7.057382,-157.59357,0.021688962,0.037921607,-0.11591803,0.743568,-0.007617,9.59628,0.10372819,-0.030632019,-2.8009453,-0.89594483,-0.1958847,7.0051117,1.6324337,-0.0065994263,-3.7836266,-0.11280717,-0.025520325,0.64393234,-1.1067319,-0.008201599,-0.2825966,1.9790624,0.038490295,0.5609207,-0.11379242,0.02193451,0.3253212,-1.4160972,-0.02445221,0.03112793,1.5906246,-0.22159576,-1.33852,0.0976944,-0.012016296,0.5169754,-1.1232706,-0.18047333,-6.778057,1.8309759,0.0233078,-12.6143265,0.0,0.0,0.0,0.0,0.0,0.0,0.0,0.0,0.0,0.0,0.0,0.0,0.19479837,0.47486252,-0.9401784,-0.93454045,-0.24724554,0.7151891,-0.999624,-0.86653,-0.9970935,0.9998762,-0.59992874,-0.9379128
2025-06-04 18:31:06.172,0.704406,-6.903433,-157.93703,0.0045978604,0.05071672,-0.116442956,0.84552,0.213819,9.651532,0.09503068,-0.08052826,-2.5238419,-0.90815187,-0.18512726,6.953842,1.6328151,0.03643036,-3.7763023,-0.11280717,-0.0024795532,0.68177414,-1.1076474,0.006904602,-0.3216591,1.9794439,0.053215027,0.47058868,-0.11287689,0.051612854,0.29602432,-1.4180045,-0.06160736,0.19592667,1.5784175,-0.21892548,-1.0467682,0.09662628,-0.03276825,0.4718094,-1.1297556,-0.14064789,-6.6901665,1.8310522,0.01499176,-12.554512,0.0,0.0,0.0,0.0,0.0,0.0,0.0,0.0,0.0,0.0,0.0,0.0,0.17061892,0.46868414,-0.93896353,-0.93422043,-0.24583563,0.7016374,-0.99961096,-0.8640279,-0.99712765,0.99987185,-0.5990659,-0.93361783
2025-06-04 18:31:06.223,0.79685,-6.69974,-158.30391,0.011701787,0.053768933,-0.11600418,0.801963,0.358088,9.816254,0.087019816,-0.079460144,-2.625164,-0.91700196,-0.16361237,6.996567,1.6338832,0.003929138,-3.9093628,-0.112730876,-0.046806335,0.64881516,-1.1078763,0.03124237,-0.41931915,1.9794439,0.0022506714,0.3228798,-0.11135101,0.010795593,0.23498917,-1.4189963,0.010108948,0.24231339,1.5675075,-0.25806427,-0.64637375,0.09502411,-0.068092346,0.547493,-1.13296,-0.05252838,-6.6767387,1.8309759,-0.019798279,-12.469063,0.0,0.0,0.0,0.0,0.0,0.0,0.0,0.0,0.0,0.0,0.0,0.0,0.15104613,0.4651588,-0.93798494,-0.9345322,-0.24199407,0.6919666,-0.9996025,-0.8628475,-0.997184,0.9998696,-0.598309,-0.93077374
2025-06-04 18:31:06.274,0.8798,-6.524454,-158.6034,0.014448376,0.042137273,-0.09002233,0.889467,0.330203,9.775764,0.08076371,-0.11432648,-2.4396133,-0.9231055,-0.1001358,7.040512,1.635104,0.004386902,-3.8483238,-0.11257829,0.032234192,0.60730743,-1.1077237,0.032310486,-0.38025665,1.979215,-0.012397766,0.23376846,-0.10967255,0.023536682,0.12145996,-1.4190726,0.04611969,0.07385254,1.5591152,-0.12088776,-0.5072098,0.09464264,-0.0011062622,0.57556915,-1.1341807,-0.020103455,-6.770733,1.8312048,0.017204285,-12.449532,0.0,0.0,0.0,0.0,0.0,0.0,0.0,0.0,0.0,0.0,0.0,0.0,0.13631573,0.4587227,-0.9370649,-0.9351529,-0.24484727,0.68544674,-0.9995919,-0.8625395,-0.99723244,0.9998688,-0.6014601,-0.9283503
2025-06-04 18:31:06.325,0.942593,-6.408419,-158.79716,0.003174876,0.028351547,-0.061507635,0.895715,0.439284,9.756869,0.07603349,-0.053596497,-2.461586,-0.9266913,-0.10379791,6.8671684,1.6354854,0.013694763,-3.8995972,-0.112501994,0.0038528442,0.5902176,-1.1077237,0.04207611,-0.3936844,1.9791387,-0.020561218,0.17517471,-0.108680725,-0.0062942505,0.1324501,-1.4189963,-0.0046157837,0.115356445,1.5540035,-0.054512024,-0.38147736,0.09410858,-0.0031661987,0.47058868,-1.1350962,-0.015602112,-6.720684,1.8310522,-0.025672913,-12.431221,0.0,0.0,0.0,0.0,0.0,0.0,0.0,0.0,0.0,0.0,0.0,0.0,0.11977991,0.4588521,-0.93615174,-0.9352481,-0.24155144,0.68151337,-0.99957776,-0.86177015,-0.99725735,0.9998665,-0.5984299,-0.9257076
2025-06-04 18:31:06.377,0.988234,-6.312237,-158.93463,-0.0035493015,0.013358261,-0.030923953,0.882928,0.370496,9.743233,0.073058024,-0.039863586,-2.5775528,-0.92981935,-0.03238678,6.8635063,1.6362484,0.041923523,-3.9057007,-0.11257829,-0.006752014,0.65003586,-1.1071134,0.030708313,-0.3973465,1.9790624,-0.035591125,0.11779785,-0.108299255,-0.028038025,0.18860245,-1.4191489,0.057411194,0.26550674,1.5501125,0.016670227,-0.4766922,0.09326935,-0.05504608,0.5853348,-1.136088,-0.0333786,-6.634014,1.8312048,0.021476746,-12.384834,0.0,0.0,0.0,0.0,0.0,0.0,0.0,0.0,0.0,0.0,0.0,0.0,0.11141341,0.45727587,-0.93563515,-0.93558127,-0.24237911,0.6758205,-0.9995703,-0.86155283,-0.9972679,0.9998657,-0.599038,-0.9242957
2025-06-04 18:31:06.428,0.987546,-6.267963,-159.01001,-0.012352323,0.008746508,-0.016470881,0.962216,0.250731,9.788815,0.07130326,-0.040168762,-2.6739922,-0.9314215,-0.099220276,6.920883,1.6364009,-0.0073623657,-3.8971558,-0.11280717,-0.036582947,0.60852814,-1.107266,0.023078918,-0.37292862,1.9791387,-0.0046920776,0.06774902,-0.10845184,0.023841858,0.18371964,-1.4192252,-0.039024353,0.31311417,1.5485866,-0.058250427,-0.5450516,0.09296417,-0.025291443,0.64881516,-1.1364695,0.035438538,-6.69627,1.8310522,0.023536682,-12.388496,0.0,0.0,0.0,0.0,0.0,0.0,0.0,0.0,0.0,0.0,0.0,0.0,0.09736816,0.45814267,-0.9355305,-0.9353306,-0.24378765,0.67331314,-0.99956083,-0.86048603,-0.99728423,0.9998643,-0.59582067,-0.922323
2025-06-04 18:31:06.479,0.966654,-6.254131,-159.02957,-0.0073717646,9.161233e-05,0.0010877416,0.942057,0.200004,9.750841,0.07023515,0.03314972,-2.67033,-0.9319556,-0.028572083,6.7634087,1.6366298,-0.03604889,-3.8580894,-0.11280717,-0.051078796,0.61219025,-1.1074185,0.048789978,-0.40345,1.9789861,0.016593933,0.021362305,-0.10822296,0.013008118,0.19714737,-1.419683,-0.020942688,0.2508583,1.5482051,-0.0015640259,-0.5987625,0.09273529,-0.0623703,0.6549187,-1.1366221,-0.008583069,-6.6401176,1.8310522,0.0030136108,-12.303043,0.0,0.0,0.0,0.0,0.0,0.0,0.0,0.0,0.0,0.0,0.0,0.0,0.08153351,0.46340933,-0.9359742,-0.93477345,-0.24435973,0.6726169,-0.99955434,-0.8598935,-0.997316,0.99986523,-0.591388,-0.92077404
2025-06-04 18:31:06.530,0.945843,-6.251205,-159.02032,-0.0059226872,-0.0016660913,0.0046896124,1.016992,0.121633,9.750646,0.07008256,-0.024528503,-2.8888397,-0.931803,-0.008430481,6.930649,1.6368587,-0.018119812,-3.8458824,-0.11265458,0.0046920776,0.6341667,-1.1076474,0.013771057,-0.39124298,1.9789099,-0.05504608,0.015258789,-0.108680725,-0.04573822,0.22278214,-1.4196067,-0.0059127808,0.26062393,1.5482814,0.006828308,-0.61463165,0.09227753,-0.0009536743,0.592659,-1.1366221,0.02620697,-6.6291313,1.8311285,0.016899109,-12.348209,0.0,0.0,0.0,0.0,0.0,0.0,0.0,0.0,0.0,0.0,0.0,0.0,0.07403032,0.4640856,-0.93611014,-0.93384117,-0.24103074,0.6705039,-0.999557,-0.86018974,-0.99733835,0.99986404,-0.5923318,-0.920615
2025-06-04 18:31:06.581,0.924919,-6.259948,-159.0221,-0.0031178212,0.0012847892,-0.003675384,1.127196,0.10949,9.734384,0.06992997,0.014915466,-2.8046074,-0.931803,0.049552917,6.8586235,1.6368587,0.025062561,-3.8861694,-0.112730876,0.020332336,0.65003586,-1.107266,-0.03704071,-0.3619423,1.978681,-0.042152405,0.02746582,-0.108680725,-0.011100769,0.20325089,-1.419683,-0.0008010864,0.25574112,1.548434,0.005531311,-0.64515305,0.09212494,0.048789978,0.6268425,-1.1367747,-0.05870819,-6.6657524,1.8312048,-0.015983582,-12.339664,0.0,0.0,0.0,0.0,0.0,0.0,0.0,0.0,0.0,0.0,0.0,0.0,0.67792547,0.8117073,-0.92564136,-0.99587685,0.034343682,0.09494682,-0.99969137,-0.92963886,-0.99309415,0.99973047,-0.30961904,-0.92082757
2025-06-04 18:31:06.632,1.081969,-5.904967,-159.03056,0.2113156,0.27644473,-0.060148146,-1.085508,-0.445214,10.147424,0.0796193,0.2853775,-1.6974144,-0.9105933,0.49053192,11.349659,1.6371639,-0.030708313,-3.7213707,-0.11288346,-0.06465912,0.62073517,-1.0611844,0.8335495,-0.44739532,1.9293188,-1.0219193,-0.46692657,-0.10227203,0.074043274,-0.5511551,-1.4225059,-0.11394501,-0.7074089,1.5473659,-0.13149261,-0.26184464,0.0951767,0.057182312,0.051879883,-1.1106821,0.6018448,-4.2963295,1.8243383,-0.124320984,-11.402153,0.0,0.0,0.0,0.0,0.0,0.0,0.0,0.0,0.0,0.0,0.0,0.0,0.7952393,0.60354984,-0.95343125,-0.9962334,-0.25008956,0.4146392,-0.99981916,-0.9310812,-0.9942234,0.9999254,-0.5664101,-0.96490264
2025-06-04 18:31:06.683,1.989635,-5.374034,-158.68565,0.10533085,-0.06118707,0.21636003,0.766557,1.016416,9.265597,0.09487809,0.14888763,-0.91493225,-0.89213014,0.2426529,6.463112,1.6376979,0.03376007,-4.2597084,-0.1161641,-0.03353119,0.37170792,-1.0745358,-0.25485992,-0.18860245,1.9180273,-0.060005188,-0.022583008,-0.101509094,0.19207,-0.68421555,-1.4317374,-0.24196625,-0.018920898,1.5453823,-0.052452087,-0.22522354,0.0989151,-0.24036407,0.80994797,-1.1052653,-0.014915466,-7.6337852,1.8271612,0.17665863,-13.752041,0.0,0.0,0.0,0.0,0.0,0.0,0.0,0.0,0.0,0.0,0.0,0.0,0.3986141,0.31376642,-0.94253474,-0.9517892,-0.40652722,0.8094314,-0.9997423,-0.8713088,-0.9974992,0.99994266,-0.6828867,-0.9593535
2025-06-04 18:31:06.734,1.57095,-5.990153,-157.87666,-0.3851754,-0.3557348,0.22184926,1.617219,1.30312,9.331893,0.09014787,-0.14835358,-1.5411606,-0.8965552,-0.2867508,2.7289238,1.6392238,0.058403015,-4.2108803,-0.115630046,0.18428802,0.29968643,-1.1165738,-0.7185745,-0.13489151,1.9464849,0.47847748,0.80750656,-0.10318756,-0.6559372,0.83680344,-1.429296,0.009117126,1.2213326,1.545306,0.26294708,-1.465477,0.08670807,-0.1644516,2.2626076,-1.124415,-0.5259323,-6.7927055,1.8434881,0.47672272,-14.911728,0.0,0.0,0.0,0.0,0.0,0.0,0.0,0.0,0.0,0.0,0.0,0.0,0.33033738,0.5086664,-0.936972,-0.9314844,-0.18558276,0.7925418,-0.9996353,-0.86570156,-0.99651706,0.99985474,-0.5873731,-0.94153965
2025-06-04 18:31:06.785,0.999998,-6.512167,-157.68117,0.03264647,0.09375943,0.0027417203,1.510317,-0.164533,9.783331,0.091826335,0.2148056,-3.0792694,-0.89052796,-0.022468567,6.000458,1.639529,0.018043518,-4.0949097,-0.11280717,0.005378723,0.61829376,-1.1081052,0.3293991,-0.64149094,1.9669317,0.2212143,0.9259186,-0.10341644,-0.026512146,-0.17883682,-1.4315848,0.04398346,0.69153976,1.5517147,0.107536316,-0.9832916,0.08419037,0.16773224,0.72327805,-1.1254832,-0.03932953,-7.1784554,1.8470739,0.02986908,-13.074539,0.0,0.0,0.0,0.0,0.0,0.0,0.0,0.0,0.0,0.0,0.0,0.0,0.29578215,0.47558224,-0.9447423,-0.93690556,-0.22107242,0.77555513,-0.99970263,-0.8873037,-0.99727863,0.9998912,-0.63064796,-0.9506496
2025-06-04 18:31:06.836,0.803233,-6.65662,-157.4979,-0.0705028,-0.042456042,0.105853066,1.628805,-0.550369,9.89653,0.09457292,-0.003929138,-3.1976814,-0.8938086,-0.07335663,5.589073,1.6396816,0.002937317,-4.149845,-0.11265458,-0.04070282,0.57190704,-1.1037564,0.027885437,-0.20080948,1.9763159,0.17841339,0.61219025,-0.10417938,0.012626648,0.028686523,-1.4360099,-0.018882751,0.64027023,1.5546138,-0.05580902,-0.8966217,0.08441925,-0.07846832,1.1920357,-1.1305948,-0.12119293,-7.224842,1.843717,-0.018806458,-12.982986,0.0,0.0,0.0,0.0,0.0,0.0,0.0,0.0,0.0,0.0,0.0,0.0,0.25647202,0.47692257,-0.94053346,-0.9316484,-0.22007874,0.7547569,-0.9996488,-0.87603056,-0.9970905,0.9998694,-0.6275668,-0.94426966
2025-06-04 18:31:06.887,0.621805,-6.728576,-157.21509,-0.0047641555,0.011385184,0.0489154,1.03615,-0.221494,9.417898,0.0960225,0.0132369995,-3.2135506,-0.89716554,-0.111579895,6.093231,1.6397579,-0.038871765,-4.0961304,-0.1124257,-0.037879944,0.69153976,-1.1019254,0.117378235,-0.21667862,1.981809,0.017204285,0.6683464,-0.10585785,0.021858215,0.1336708,-1.4366965,-0.0434494,0.7049675,1.5526302,-0.06542206,-0.5499344,0.08174896,0.0025558472,1.1810493,-1.1366221,-0.14461517,-6.913559,1.8418096,0.047798157,-13.030594,0.0,0.0,0.0,0.0,0.0,0.0,0.0,0.0,0.0,0.0,0.0,0.0,0.2405793,0.46861687,-0.9404311,-0.9301149,-0.2276412,0.74523365,-0.99964565,-0.8718935,-0.9970507,0.99986815,-0.6261237,-0.941605
2025-06-04 18:31:06.938,0.611275,-6.711149,-157.22731,-0.0006467841,0.0032943438,-0.035433203,0.934502,-0.051519,9.806615,0.09495439,-0.08358002,-3.0048065,-0.9017432,-0.047721863,5.936981,1.640063,0.0035476685,-4.057068,-0.112501994,0.021629333,0.604866,-1.1019254,0.0004196167,-0.29602432,1.984403,0.036201477,0.49622345,-0.10601044,-0.0019454956,0.06774902,-1.4379172,-0.091667175,0.8648796,1.5495021,-0.060157776,-0.42420197,0.08174896,-0.011177063,1.1041412,-1.1402842,-0.022010803,-6.9697113,1.8418096,-3.8146973e-05,-13.031815,0.0,0.0,0.0,0.0,0.0,0.0,0.0,0.0,0.0,0.0,0.0,0.0,0.22393745,0.46933693,-0.94066274,-0.92876005,-0.22782882,0.73962885,-0.99963945,-0.86967397,-0.9970545,0.9998657,-0.6218205,-0.9389275
2025-06-04 18:31:06.989,0.615104,-6.676705,-157.34027,0.010072138,0.01342036,-0.041700926,0.969726,0.01592,9.70654,0.092818156,-0.0749588,-3.0475311,-0.9054053,-0.005760193,6.2848854,1.6402156,-0.045051575,-4.1119995,-0.11227311,0.062294006,0.6256218,-1.1022305,0.009422302,-0.285038,1.9863104,-0.015449524,0.3643837,-0.10593414,-0.025215149,0.037231445,-1.4392142,-0.038261414,1.0089264,1.5465267,-0.05832672,-0.2911415,0.08190155,0.01033783,1.0980377,-1.1415049,-0.01651764,-6.9697113,1.8419622,-0.008659363,-13.051346,0.0,0.0,0.0,0.0,0.0,0.0,0.0,0.0,0.0,0.0,0.0,0.0,0.2103655,0.46975312,-0.9405793,-0.9282625,-0.22490346,0.7346871,-0.99963886,-0.8691419,-0.9971066,0.9998656,-0.6208887,-0.9378796
2025-06-04 18:31:07.040,0.663209,-6.615414,-157.45622,0.0137009565,0.015467265,-0.040969875,1.026531,0.115272,9.790325,0.09045304,-0.023002625,-2.9669647,-0.90700746,0.0762558,5.96994,1.6403682,-0.004463196,-4.1193237,-0.11257829,-0.12134552,0.61585236,-1.1020017,0.005607605,-0.23376846,1.986997,0.03551483,0.34485245,-0.10593414,-0.025520325,0.08972168,-1.4393668,-0.0674057,0.9674225,1.5438564,-0.04840851,-0.21301651,0.08190155,-0.0048446655,1.0406647,-1.1415049,-0.023002625,-7.064926,1.8418096,0.0030899048,-13.123367,0.0,0.0,0.0,0.0,0.0,0.0,0.0,0.0,0.0,0.0,0.0,0.0,0.19895521,0.470412,-0.94051707,-0.92838454,-0.22737798,0.73204803,-0.9996311,-0.8685209,-0.9971039,0.9998651,-0.6177856,-0.9364404
2025-06-04 18:31:07.091,0.706583,-6.564043,-157.56697,0.008456138,0.014837934,-0.034401033,1.048047,0.205636,9.714813,0.088164225,-0.0258255,-2.9596405,-0.90822816,-0.010032654,6.131077,1.6403682,0.012931824,-4.081482,-0.1124257,0.027580261,0.6317253,-1.102078,0.008201599,-0.33508682,1.9870733,0.0065231323,0.34851456,-0.10585785,0.033607483,0.076293945,-1.4390616,0.13843536,0.95887756,1.5416439,-0.02735138,-0.16296768,0.08190155,-0.048179626,1.0345612,-1.1413523,-0.0036239624,-7.0185394,1.8421148,0.04261017,-13.064774,0.0,0.0,0.0,0.0,0.0,0.0,0.0,0.0,0.0,0.0,0.0,0.0,0.20241974,0.4679992,-0.94020736,-0.9288753,-0.22511989,0.7255199,-0.9996362,-0.8689325,-0.9971143,0.99986494,-0.6222867,-0.9366548
2025-06-04 18:31:07.142,0.739045,-6.532985,-157.63829,0.0036591003,0.005349207,-0.01645999,1.091615,0.277436,9.755164,0.08663835,-0.014533997,-2.8375664,-0.9091437,-0.008735657,5.96994,1.6403682,0.0034713745,-4.0949097,-0.11227311,0.00415802,0.61707306,-1.1020017,-0.008583069,-0.2471962,1.9870733,0.027275085,0.26916885,-0.105781555,0.040397644,0.099487305,-1.4390616,-0.069618225,0.8599968,1.5402706,-0.036735535,-0.15076065,0.08182526,0.0025558472,1.0748444,-1.1414286,-0.03429413,-7.045395,1.8422674,0.01903534,-13.026932,0.0,0.0,0.0,0.0,0.0,0.0,0.0,0.0,0.0,0.0,0.0,0.0,0.1931055,0.4648324,-0.93973416,-0.92891115,-0.23004988,0.72664726,-0.99962574,-0.867599,-0.9971166,0.99986416,-0.62017834,-0.93519485
2025-06-04 18:31:07.193,0.748898,-6.520993,-157.66925,-0.006195552,0.0036903939,-0.008645645,1.065469,0.198446,9.743005,0.08625688,-0.011711121,-2.995041,-0.9100592,-0.0023269653,6.037079,1.6403682,0.016822815,-4.0863647,-0.112349406,0.023231506,0.6756706,-1.1023068,-0.005378723,-0.30578995,1.986997,-0.009498596,0.30090714,-0.10570526,0.042915344,0.03845215,-1.4390616,0.01903534,0.8526726,1.5395839,-0.023841858,-0.2093544,0.08182526,-0.0038528442,1.0882721,-1.1415049,-0.020942688,-6.908676,1.8421911,0.013465881,-12.95491,0.0,0.0,0.0,0.0,0.0,0.0,0.0,0.0,0.0,0.0,0.0,0.0,-0.19278567,0.7359227,-0.84748405,-0.50244856,0.061298523,0.96165025,-0.9998845,-0.90248686,-0.9993482,0.9999597,-0.70631176,-0.9786624
2025-06-04 18:31:07.244,0.685572,-6.393058,-157.6187,-0.053291462,-0.034884296,0.09497579,0.746076,0.000282,10.560495,0.08076371,-0.011024475,-4.577095,-0.8999884,0.05443573,11.131153,1.6415126,-0.013160706,-2.9022675,-0.09785356,0.22510529,1.1712837,-1.0543942,0.8663559,-0.7342644,2.0047736,0.33245087,0.8258171,-0.10562897,-0.21259308,0.3607216,-1.4404349,-0.06542206,0.330204,1.540118,0.037727356,-0.37414932,0.07884979,0.046272278,1.4728012,-1.143416,-0.08029938,-8.474861,1.8420385,0.021476746,-13.653164,0.0,0.0,0.0,0.0,0.0,0.0,0.0,0.0,0.0,0.0,0.0,0.0,-0.27930748,0.7826573,-0.84742457,0.09458216,0.5480311,0.9586826,-0.9998794,-0.9035996,-0.99935246,0.9999006,-0.76467466,-0.9828696
2025-06-04 18:31:07.295,0.592563,-6.351847,-157.29842,0.020557081,-0.07177638,0.11393476,1.537231,-0.070672,10.502732,0.08000077,0.023460388,-4.9188995,-0.8887732,0.0838089,11.353321,1.6396053,-0.2135849,-2.1930275,-0.06466569,0.47634125,0.6317253,-0.9341549,1.9757462,-0.53528595,2.0191169,0.30460358,0.5108719,-0.11112213,-0.18863678,0.9246979,-1.4372306,0.06389618,-0.03479004,1.5424831,0.1517868,-0.7049675,0.07297516,-0.05672455,1.7254906,-1.1451708,-0.100746155,-9.438011,1.8447088,0.22090912,-14.341648,0.0,0.0,0.0,0.0,0.0,0.0,0.0,0.0,0.0,0.0,0.0,0.0,-0.00968852,0.7406095,-0.8064618,0.50363606,0.81634235,0.9593443,-0.9999117,-0.89002436,-0.9991065,0.9998341,-0.83407843,-0.9893803
2025-06-04 18:31:07.346,0.699624,-6.500838,-157.04083,0.04555084,-0.08267691,0.07271033,1.973011,0.351114,9.713604,0.085265055,0.11936188,-4.2352943,-0.88335633,-0.003929138,10.57206,1.6386135,-0.056419373,-2.2467384,-0.02636613,0.73329926,0.6573601,-0.80544704,2.115673,-0.6366081,2.027738,0.12523651,0.5120926,-0.11608124,-0.12332916,1.145649,-1.4334159,0.019340515,0.10681152,1.5456111,0.105781555,-0.84168625,0.07015228,-0.008659363,1.5191879,-1.1507403,-0.23509979,-10.443886,1.852033,0.27187347,-15.116806,0.0,0.0,0.0,0.0,0.0,0.0,0.0,0.0,0.0,0.0,0.0,0.0,0.36680162,0.64904714,-0.7260476,0.62503016,0.9010205,0.94703627,-0.999948,-0.87697244,-0.99884826,0.99980193,-0.89790636,-0.9942717
2025-06-04 18:31:07.397,0.960087,-6.661581,-156.75696,0.10733462,-0.013635559,0.12733953,2.262852,0.600274,9.880007,0.09632768,0.19260406,-3.6603355,-0.88442445,-0.065193176,8.992447,1.64136,0.0075149536,-1.7206078,0.0017863367,0.40439606,0.9271393,-0.70863,1.7134476,-0.5487137,2.0315528,0.0409317,0.6585808,-0.11859894,-0.02483368,0.80506516,-1.430059,-0.05130768,0.16540909,1.5470607,-0.03879547,-0.5609207,0.07068634,-0.0073623657,1.5143051,-1.1612688,-0.12874603,-10.971237,1.8573736,0.16902924,-14.94957,0.0,0.0,0.0,0.0,0.0,0.0,0.0,0.0,0.0,0.0,0.0,0.0,0.5530854,0.5628884,-0.5866714,0.5424566,0.90701354,0.9132006,-0.9999648,-0.8715476,-0.99885654,0.9998279,-0.9300162,-0.99601847
2025-06-04 18:31:07.448,1.183027,-6.770277,-156.25261,0.041753232,0.051016234,0.18262051,1.89649,1.005674,8.901634,0.11044206,0.1669693,-3.8263512,-0.89556336,-0.48488617,8.825207,1.6533382,0.32047272,-1.6974144,0.018189535,0.08037567,1.1297798,-0.64919704,0.87047577,-0.15564346,2.0317054,0.005760193,0.48401642,-0.12088776,-0.0409317,0.7843132,-1.4279227,0.03528595,0.37292862,1.5462978,-0.06938934,-0.46814728,0.0712204,0.028953552,1.2018013,-1.1772143,-0.2714157,-10.908981,1.8599676,0.04169464,-14.676128,0.0,0.0,0.0,0.0,0.0,0.0,0.0,0.0,0.0,0.0,0.0,0.0,0.59785175,0.20869811,-0.79125905,-0.79375917,0.49816817,0.3410666,-0.9998491,-0.90576684,-0.9959618,0.999206,-0.8816235,-0.98578316
2025-06-04 18:31:07.499,0.959391,-6.973377,-155.79945,-0.0180222,-0.11006137,-0.004983299,1.707195,-0.304886,8.66008,0.12074174,0.7613754,-3.3356209,-0.92997193,-0.6267166,4.384224,1.6631801,0.28095245,-4.2304115,-0.022551432,-0.84156036,1.0247955,-0.683453,-0.78243256,-0.009155273,1.9839453,-0.7401657,-0.31311417,-0.12439728,0.16551971,0.44373322,-1.4394431,-0.13217926,1.157856,1.5450008,-0.11753082,-0.06286621,0.07511139,0.091056824,0.75745773,-1.1991106,-0.25730133,-8.640881,1.8599676,-0.05466461,-14.413673,0.0,0.0,0.0,0.0,0.0,0.0,0.0,0.0,0.0,0.0,0.0,0.0,0.25186023,-0.0012630422,-0.8116225,-0.9707757,-0.41759267,0.13444921,-0.99878657,-0.851461,-0.9954062,0.9998335,-0.848285,-0.95685726
2025-06-04 18:31:07.550,0.62718,-7.265074,-155.85057,-0.1984485,0.070834816,-0.09811366,0.054342,-1.974945,7.470127,0.12051286,-0.10166168,-4.191349,-0.9732306,-0.8790207,1.8695335,1.6777523,0.40721893,-6.504616,-0.06115617,-0.39424896,0.53284454,-0.8677029,-3.2019463,0.2923622,1.9293951,-0.9064865,-0.3253212,-0.12218475,0.083351135,0.21912003,-1.4549308,-0.20084381,3.0011444,1.5402706,-0.23571014,0.3289833,0.079689026,0.017738342,1.1920357,-1.2233721,-0.4541397,-6.8097954,1.8550848,-0.35449982,-12.476387,0.0,0.0,0.0,0.0,0.0,0.0,0.0,0.0,0.0,0.0,0.0,0.0,0.18134539,0.21582997,-0.90383995,-0.9406668,-0.46059707,0.43034127,-0.99898714,-0.7166686,-0.9942835,0.9997983,-0.68475085,-0.8844275
2025-06-04 18:31:07.601,0.234335,-6.649139,-156.01129,-0.021733223,0.36261806,-0.033740792,-0.941279,-0.929996,10.864624,0.119292155,0.050849915,-5.5475693,-0.9960425,-0.42697906,5.9357605,1.6932399,0.18184662,-6.7939262,-0.082137,-0.09181976,0.42053986,-1.0086179,-2.1274986,0.10803223,1.9202398,-0.046424866,-0.092163086,-0.11646271,0.123558044,0.16296768,-1.4483695,0.48046112,2.621498,1.5261562,-0.107307434,1.0833893,0.084877014,-0.051841736,0.68299484,-1.2256609,-0.085868835,-4.539253,1.8360876,-0.32367706,-10.423134,0.0,0.0,0.0,0.0,0.0,0.0,0.0,0.0,0.0,0.0,0.0,0.0,0.21083155,0.365289,-0.9354606,-0.9312445,-0.37267452,0.6410871,-0.9994679,-0.7741618,-0.99538827,0.9998436,-0.57957435,-0.8894291
2025-06-04 18:31:07.652,0.29309,-5.802382,-156.14267,0.073487855,0.21512416,-0.122485615,-1.078184,-1.581166,10.392952,0.11692704,-0.15583038,-3.768978,-1.0015357,-0.17841339,8.233158,1.6933162,-0.17475128,-5.96994,-0.097243205,-0.2827835,1.5008774,-1.0767484,-1.0806656,-0.14343643,1.9343542,0.28690338,0.49134064,-0.10959625,0.12081146,-0.39002228,-1.4306693,0.3761673,1.1236725,1.5230281,-0.032157898,0.69276047,0.086631775,-0.12584686,0.9662018,-1.2168108,0.1556015,-3.5699997,1.8153356,-0.325737,-9.881134,0.0,0.0,0.0,0.0,0.0,0.0,0.0,0.0,0.0,0.0,0.0,0.0,0.23001674,0.43988994,-0.9445793,-0.9289725,-0.3144793,0.7073082,-0.99960893,-0.8354545,-0.9963648,0.99985665,-0.60607064,-0.91806036
2025-06-04 18:31:07.703,0.499896,-5.248041,-156.6302,0.11024006,0.061922133,-0.18264246,-0.293241,-0.305377,9.388662,0.10716142,-0.07991791,-2.658123,-0.9997809,-0.028800964,9.50515,1.6843898,-0.19161224,-5.183796,-0.10258378,-0.06290436,0.53894806,-1.1049771,-0.478096,-0.7379265,1.9490026,0.22937775,0.68177414,-0.10417938,0.026817322,-0.31189346,-1.4196067,0.22853851,0.23865128,1.5244014,0.03162384,0.34973526,0.08571625,0.014762878,0.8929596,-1.2096392,0.047340393,-4.249943,1.8085455,0.01903534,-11.315479,0.0,0.0,0.0,0.0,0.0,0.0,0.0,0.0,0.0,0.0,0.0,0.0,-0.11622282,0.7051145,-0.8174797,-0.5332269,-0.023266403,0.95417416,-0.99988025,-0.8919382,-0.9992163,0.99995476,-0.72923756,-0.97747684
2025-06-04 18:31:07.754,0.831899,-4.915703,-157.1023,0.075124174,0.045081034,-0.09908077,0.186506,0.105855,10.504553,0.08999528,-0.16147614,-3.5822067,-0.9822333,0.40081024,12.605782,1.6768367,-0.17269135,-3.3698006,-0.093581095,0.058174133,1.1883736,-1.0707974,0.6834793,-0.53894806,1.9818853,0.4630661,0.4718094,-0.09975433,0.02620697,-0.38880157,-1.4174705,-0.018577576,-0.46204376,1.5274532,0.018882751,0.18249893,0.08106232,-0.16643524,1.3507271,-1.2064348,0.03803253,-6.675518,1.8112158,0.20412445,-12.755932,0.0,0.0,0.0,0.0,0.0,0.0,0.0,0.0,0.0,0.0,0.0,0.0,-0.24555255,0.7673365,-0.7933924,-0.01906789,0.46077088,0.9417204,-0.99987566,-0.9004606,-0.9993114,0.999899,-0.7817825,-0.9817593
2025-06-04 18:31:07.805,1.200843,-4.680871,-157.10858,0.10901111,-0.0025808706,0.09570509,0.879742,0.433274,10.527332,0.079085246,-0.1279068,-4.110779,-0.96010804,0.38959503,12.780346,1.668597,-0.2728653,-2.6617851,-0.06634416,0.36159515,0.6268425,-0.9633755,1.8806839,-0.31433487,2.0030951,0.4153824,0.8306999,-0.09662628,0.022315979,-0.34363174,-1.4189963,-0.014228821,-0.95399475,1.5300472,0.027503967,0.11657715,0.069618225,-0.27500153,2.7386894,-1.2052904,0.013694763,-7.6215744,1.8215917,0.15659332,-13.555504,0.0,0.0,0.0,0.0,0.0,0.0,0.0,0.0,0.0,0.0,0.0,0.0,-0.09315714,0.74438846,-0.7303986,0.3376361,0.74912316,0.92964256,-0.999902,-0.89197654,-0.9991925,0.9998457,-0.83820087,-0.98734623
2025-06-04 18:31:07.856,1.676968,-4.530564,-156.66203,0.16707718,0.05890364,0.21701728,1.260395,0.672612,9.983234,0.07755937,-0.023460388,-4.020447,-0.93844056,0.66547394,11.077438,1.6659267,-0.06969452,-2.4188614,-0.033766642,0.7178116,0.50232697,-0.8361935,2.1635094,-0.9051666,2.0146155,0.19794464,0.57312775,-0.09410858,-0.06977081,-0.38513947,-1.4182334,0.09563446,-0.592659,1.5312679,0.044136047,0.115356445,0.055732727,-0.18764496,3.073166,-1.2052904,-0.056114197,-8.667736,1.8353246,0.29140472,-14.847027,0.0,0.0,0.0,0.0,0.0,0.0,0.0,0.0,0.0,0.0,0.0,0.0,0.18260114,0.6930014,-0.6178251,0.46332484,0.8557434,0.89358544,-0.9999366,-0.88626295,-0.99909544,0.999826,-0.8935021,-0.99244434
2025-06-04 18:31:07.907,2.348366,-4.330559,-155.87775,0.22446941,0.076083526,0.26501206,1.433554,0.965992,9.642439,0.08434953,0.11432648,-3.3820114,-0.9204352,0.3646469,9.77737,1.6702754,0.06481171,-1.9305725,-0.008437052,0.107917786,1.1834908,-0.73479885,1.5763474,-0.45960236,2.019956,0.071754456,0.5206375,-0.092659,0.03414154,-0.5584793,-1.4176993,0.023536682,-0.46204376,1.5316494,-0.006980896,0.128788,0.043373108,-0.09815216,3.7994957,-1.2088,-0.2628708,-9.210957,1.8524908,0.16269684,-15.317005,0.0,0.0,0.0,0.0,0.0,0.0,0.0,0.0,0.0,0.0,0.0,0.0,0.35150835,0.6406071,-0.4317451,0.3724274,0.85444707,0.81944966,-0.9999558,-0.8897593,-0.9991594,0.9998524,-0.926793,-0.9946037
2025-06-04 18:31:07.958,2.799262,-4.149176,-155.168,0.09797613,0.14955392,0.22538665,1.815935,1.339874,9.087955,0.09335221,0.19245148,-3.3319588,-0.91318727,0.049858093,9.792019,1.6878994,0.3800583,-1.7108421,0.002396688,0.14080048,0.76966476,-0.67574733,0.9012985,-0.10925293,2.0194983,0.0064468384,-0.03967285,-0.09151459,0.09876251,-0.7928581,-1.417623,0.015449524,-0.41443634,1.5317256,0.009346008,0.14587784,0.035209656,-0.1832962,4.020447,-1.2142168,-0.048866272,-9.796902,1.8635534,0.31963348,-15.96521,0.0,0.0,0.0,0.0,0.0,0.0,0.0,0.0,0.0,0.0,0.0,0.0,0.25558382,0.651623,-0.124669015,0.04561491,0.76804394,0.61279404,-0.9999547,-0.91323096,-0.9994153,0.99989516,-0.9351852,-0.9939495
2025-06-04 18:31:08.009,2.932062,-3.717678,-154.53015,-0.040475406,0.28144115,0.18628046,0.845848,1.052639,8.428037,0.100523844,0.17185211,-3.798275,-0.9156287,-0.0371933,10.689251,1.7262752,0.79265594,-1.7389183,-0.0011128333,-0.15529633,0.75745773,-0.6535458,0.16681671,-0.029907227,2.0005774,-0.4164505,0.021362305,-0.09037018,0.054969788,-0.7403679,-1.4209037,-0.05558014,-0.50110626,1.5319545,0.010795593,0.10070801,0.026893616,-0.18222809,4.216984,-1.2174975,-0.06969452,-10.359653,1.8724035,0.19649506,-15.78088,0.0,0.0,0.0,0.0,0.0,0.0,0.0,0.0,0.0,0.0,0.0,0.0,-0.30124676,0.7606355,0.27159026,-0.4756097,0.36328512,0.022939563,-0.9999289,-0.9480171,-0.9997138,0.9999512,-0.9200642,-0.98790187
2025-06-04 18:31:08.060,2.55311,-2.906909,-153.84993,-0.23001854,0.45913208,0.17951563,-0.494974,0.115584,7.409361,0.09792985,0.16483307,-5.814907,-0.9213507,-0.11440277,13.404137,1.7847164,1.2468338,-1.2115669,-0.024992839,-0.43598175,0.57678986,-0.7105374,-1.1991501,0.38758087,1.9331335,-1.2239456,-0.01159668,-0.08937836,0.034751892,-0.9442291,-1.4278464,-0.13889313,-0.7501335,1.5324123,0.026741028,0.00793457,0.01537323,-0.4214859,5.6928368,-1.2145983,0.16147614,-11.128712,1.8765997,0.03429413,-15.436638,0.0,0.0,0.0,0.0,0.0,0.0,0.0,0.0,0.0,0.0,0.0,0.0,-0.9230321,0.92852825,0.61721265,-0.8129735,-0.71217716,-0.7273724,-0.99979705,-0.96870637,-0.9998937,0.9999881,-0.76568174,-0.92481524
2025-06-04 18:31:08.111,1.791267,-1.629413,-153.05276,-0.31949088,0.65079266,0.1900206,-3.304457,-0.726562,7.283928,0.084883586,-0.22403717,-6.9526215,-0.9202826,-0.09220123,17.104141,1.8571956,1.2107468,-0.67811203,-0.050627604,0.42339325,-2.3028908,-0.8867764,-1.579628,-14.254978,1.8560003,-0.1719284,-10.680706,-0.09143829,0.08731842,-0.072631836,-1.4387565,-0.2641678,0.57312775,1.5326412,-0.0283432,0.03112793,-0.0007247925,-0.8584213,7.434807,-1.2018572,-0.025596619,-8.095215,1.8806432,0.008125305,-14.643169,0.0,0.0,0.0,0.0,0.0,0.0,0.0,0.0,0.0,0.0,0.0,0.0,-0.8889845,0.85134995,-0.6517477,-0.61725926,-0.8905127,-0.9398101,-0.99945354,-0.7114227,-0.9981475,0.99999315,-0.111392446,-0.04956757
2025-06-04 18:31:08.162,-0.03456,-2.010877,-151.77998,-0.48309308,-0.6466946,0.34558028,-4.499831,-1.351033,15.082153,0.07359208,0.06313324,-7.721676,-0.91959596,0.78121185,11.690243,1.8280513,-0.8271408,-5.786831,-0.053755656,-0.18070221,-0.8880768,-0.99305385,-2.2246208,-9.817654,1.8253301,-0.81172943,-8.565193,-0.095939636,-0.039100647,-0.09460449,-1.4190726,0.47489166,2.0746155,1.5326412,0.03917694,-0.03479004,-0.019950867,-0.3069687,7.3298225,-1.1848437,0.2729416,4.3329506,1.8912481,-0.22975922,-3.8214684,0.0,0.0,0.0,0.0,0.0,0.0,0.0,0.0,0.0,0.0,0.0,0.0,-0.5484483,0.81400824,-0.9771837,-0.7796136,-0.78891766,0.5262565,-0.9999153,-0.4614652,-0.99441576,0.9999959,0.5094738,-0.09651882
2025-06-04 18:31:08.213,-0.594642,-1.457911,-152.37917,0.2501082,0.85094976,-0.79274094,-5.000701,-4.416414,7.366735,0.07275285,-0.123786926,-5.117874,-0.861994,1.5855026,4.7272453,1.7883022,-0.381279,-9.341574,-0.06565751,-0.19298553,-0.27771378,-1.1296201,-2.396511,-0.026245117,1.8604254,0.6948471,0.8197136,-0.08975983,-0.040168762,-0.45349884,-1.3555198,1.6969681,-0.95399475,1.5298946,0.16857147,-0.044555664,-0.0076675415,0.5799484,2.3236427,-1.0697886,2.97398,2.3089943,1.851499,-0.7689285,-0.060424805,0.0,0.0,0.0,0.0,0.0,0.0,0.0,0.0,0.0,0.0,0.0,0.0,-0.22477214,0.94749326,-0.99772906,-0.68264174,-0.24047177,0.9926594,-0.99997455,-0.922678,-0.9978857,0.99999064,0.21834327,-0.9517461
2025-06-04 18:31:08.264,0.388653,-0.010867,-155.89983,0.35482556,-0.009662509,-1.3627274,-0.970378,0.078692,10.059674,0.050246134,-0.642128,-0.5072098,-0.7956183,1.4060593,6.089569,1.7519863,-1.0234451,-5.8979187,-0.07282914,0.042381287,0.06530762,-1.1359525,0.16788483,-0.26916885,1.9294714,1.3173294,0.4803543,-0.09151459,-0.10456085,-0.07385254,-1.3746696,-0.44483185,-0.09338379,1.5334041,0.025978088,0.014038086,0.038414,0.8155441,-0.8685417,-0.96648663,2.0236626,-5.3461494,1.8077062,0.023002625,-11.547417,0.0,0.0,0.0,0.0,0.0,0.0,0.0,0.0,0.0,0.0,0.0,0.0,-0.4549886,0.9077061,-0.99492913,-0.5587008,0.065354824,0.97475415,-0.9999213,-0.9573374,-0.9992675,0.9999404,-0.53374237,-0.9786228
2025-06-04 18:31:08.315,1.521832,-0.922773,-159.22585,0.18159348,-1.0182106,-0.73029435,2.241116,3.167737,8.882006,0.01400651,-0.6851578,-0.15320206,-0.7515204,0.602684,6.221409,1.6960628,-1.2678909,-1.8341331,-0.07313432,-0.20160675,0.1678505,-1.0754514,1.156807,-0.7806511,1.9750189,0.6545639,0.79896164,-0.0989151,0.052604675,0.46814728,-1.4102225,-0.42972565,0.2838173,1.5335567,0.029563904,0.06652832,0.06893158,0.17368317,-0.04333496,-0.948939,0.027961731,-13.582359,1.8412756,1.2491226,-19.639584,0.0,0.0,0.0,0.0,0.0,0.0,0.0,0.0,0.0,0.0,0.0,0.0,-0.34241837,0.7897997,-0.9735045,-0.7246516,0.057511754,0.8871017,-0.9996323,-0.9161414,-0.9986541,0.9997792,-0.55314124,-0.95243084
2025-06-04 18:31:08.366,1.379248,-3.927919,-160.30617,-0.25486478,-0.8729595,-0.029007616,3.551823,2.323467,8.835311,-0.0066691493,-0.04940033,-1.157856,-0.7337439,0.48740387,2.2027931,1.6596706,-0.46985626,-2.990158,-0.073058024,0.15628815,-0.87586975,-1.0294461,0.5134964,-0.2887001,1.9976019,0.19817352,0.45716095,-0.105018616,0.054740906,0.7464714,-1.4299827,-0.4630661,1.0662994,1.5562923,0.9621048,-5.5268173,0.07015228,0.18177032,0.92225647,-0.95763654,0.017662048,-14.099945,1.8952917,0.77014923,-19.401543,0.0,0.0,0.0,0.0,0.0,0.0,0.0,0.0,0.0,0.0,0.0,0.0,-0.23141554,0.72466874,-0.9635062,-0.8694296,-0.015462414,0.8245598,-0.9995711,-0.91415,-0.99852824,0.9998305,-0.5219865,-0.9436025
2025-06-04 18:31:08.417,2.26576,-5.081404,-159.9659,0.0074772523,-0.1683374,0.276013,4.342129,0.808842,10.002176,0.0048512365,0.12935638,-1.9708557,-0.71047425,0.098838806,1.4728012,1.6455562,0.006752014,-4.3414955,-0.08907975,-0.09143829,0.79896164,-1.0179257,0.12325287,-0.10925293,2.000196,0.03177643,0.7904167,-0.107536316,-0.035972595,0.6353874,-1.4344077,-0.11791229,0.1727333,1.5868099,0.3647995,-4.048523,0.07411957,0.039100647,1.6595726,-0.9564921,-0.21282196,-12.6546135,1.9138311,0.08304596,-16.65858,0.0,0.0,0.0,0.0,0.0,0.0,0.0,0.0,0.0,0.0,0.0,0.0,-0.11292562,0.6808934,-0.9584633,-0.9202466,-0.08046928,0.7852874,-0.99958605,-0.91316974,-0.998342,0.9998667,-0.5121019,-0.9450971
2025-06-04 18:31:08.468,2.198321,-5.511272,-159.19939,0.0004159992,-0.040051397,0.14633673,2.526862,0.856039,9.968677,0.017134562,0.12813568,-2.2516212,-0.7126105,-0.39020538,2.5946426,1.6451747,0.0076675415,-4.6234818,-0.099379435,-0.17932892,0.8148308,-1.0218167,0.05001068,-0.30578995,1.9996618,-0.020103455,0.41321564,-0.112342834,0.050086975,0.38758087,-1.437078,-0.1694107,0.24231339,1.5887172,-0.11066437,-1.936676,0.07305145,-0.0075912476,1.5118637,-0.9706828,-0.58864594,-10.282749,1.9139837,0.01865387,-16.338749,0.0,0.0,0.0,0.0,0.0,0.0,0.0,0.0,0.0,0.0,0.0,0.0,0.0017901054,0.64835894,-0.9567803,-0.9317309,-0.12886022,0.7813548,-0.999635,-0.9082302,-0.9980861,0.99988,-0.5310209,-0.9485335
2025-06-04 18:31:08.519,1.988532,-5.908599,-158.9045,-0.07520622,-0.08625464,0.10288473,1.256656,0.509921,9.608202,0.027510539,0.2186966,-2.1966896,-0.7341254,-0.47084808,4.2999916,1.646014,0.033988953,-4.7675285,-0.10372819,-0.00064849854,0.42298126,-1.0341,-0.13576508,-0.3619423,1.9997381,0.007820129,0.40345,-0.11226654,0.07297516,0.2484169,-1.4472251,-0.17719269,1.4166489,1.5811641,-0.18558502,-1.2713814,0.07556915,0.08655548,1.0565338,-0.9980723,-0.56461334,-9.138935,1.9134496,-0.13332367,-15.979858,0.0,0.0,0.0,0.0,0.0,0.0,0.0,0.0,0.0,0.0,0.0,0.0,0.66267407,0.87327635,-0.9321684,-0.99577594,0.106264755,0.28528488,-0.99978495,-0.9515297,-0.9937202,0.9997504,-0.30251688,-0.9504118
