openverse-orca/OrcaGym/envs/legged_gym/legged_real_env/logs/robot_log_20250610_164657.csv
timestamp,imu_angle_roll,imu_angle_pitch,imu_angle_yaw,imu_angular_velocity_roll,imu_angular_velocity_pitch,imu_angular_velocity_yaw,imu_acc_x,imu_acc_y,imu_acc_z,fl_joint1_pos,fl_joint1_vel,fl_joint1_torque,fl_joint2_pos,fl_joint2_vel,fl_joint2_torque,fl_joint3_pos,fl_joint3_vel,fl_joint3_torque,fr_joint1_pos,fr_joint1_vel,fr_joint1_torque,fr_joint2_pos,fr_joint2_vel,fr_joint2_torque,fr_joint3_pos,fr_joint3_vel,fr_joint3_torque,hl_joint1_pos,hl_joint1_vel,hl_joint1_torque,hl_joint2_pos,hl_joint2_vel,hl_joint2_torque,hl_joint3_pos,hl_joint3_vel,hl_joint3_torque,hr_joint1_pos,hr_joint1_vel,hr_joint1_torque,hr_joint2_pos,hr_joint2_vel,hr_joint2_torque,hr_joint3_pos,hr_joint3_vel,hr_joint3_torque,fl_force_x,fl_force_y,fl_force_z,fr_force_x,fr_force_y,fr_force_z,hl_force_x,hl_force_y,hl_force_z,hr_force_x,hr_force_y,hr_force_z,fl_hip_action,fl_thigh_action,fl_calf_action,fr_hip_action,fr_thigh_action,fr_calf_action,hl_hip_action,hl_thigh_action,hl_calf_action,hr_hip_action,hr_thigh_action,hr_calf_action,command_lin_vel_x,command_lin_vel_y,command_lin_vel_z,command_ang_vel
2025-06-10 16:47:18.681,-1.191136,-0.919137,-0.742351,-0.0010386279,-0.00046930157,3.583161e-05,0.148921,-0.199414,9.800326,-0.011551961,-0.028572083,0.49866486,-0.98642945,0.08609772,-0.3936844,1.9061763,-0.0065231323,-4.8908234,0.012391195,0.03551483,-0.5987625,-0.9835303,0.041389465,-0.45716095,1.9035314,-0.008506775,-4.732128,-0.013999939,0.05558014,0.6695671,-0.9739738,-0.03162384,-0.95399475,1.9336753,0.025978088,-6.1445045,0.01651764,0.0014877319,-0.72571945,-0.97967887,0.0146865845,-0.60974884,1.9338964,0.030784607,-6.113983,0.0,0.0,0.0,0.0,0.0,0.0,0.0,0.0,0.0,0.0,0.0,0.0,-0.9049448,-0.30050322,-2.0,-2.0,0.6348716,0.65898114,1.4213039,-1.8180802,-2.0,-0.6982719,-0.2312219,-2.0,0.0,0.0,0.0,0.0
2025-06-10 16:47:18.702,-1.196852,-0.918457,-0.743904,-0.0014454991,0.001245624,0.0020921784,0.27368,-0.193556,9.819742,-0.023606405,-1.5295029,0.9002838,-0.99024415,-0.023612976,-2.7093925,1.8879421,-1.1717606,-10.132601,-0.0022572426,-1.3153458,-1.5411606,-0.97277284,-0.27065277,4.2426186,1.9115423,0.18878937,-1.0565338,-0.011100769,-0.10028839,2.9559784,-1.0118918,-1.0930252,-12.102846,1.9313865,0.48770905,-13.753262,0.016059875,0.3836441,-2.2540627,-0.9805181,0.21259308,-2.879074,1.9208502,-0.3557968,-12.605782,0.0,0.0,0.0,0.0,0.0,0.0,0.0,0.0,0.0,0.0,0.0,0.0,-2.0,0.613028,-2.0,-2.0,0.98823464,2.0,-2.0,-2.0,-1.3515718,-2.0,-1.6334555,-2.0,0.0,0.0,0.0,0.0
2025-06-10 16:47:18.723,-1.462418,-1.15008,-0.934734,-0.25428662,-0.42314205,-0.46718913,3.260187,-4.289815,17.893135,-0.049317464,-1.3224411,0.26062393,-0.9805548,-0.50151825,4.7553215,1.8600948,-2.1571007,-7.687496,-0.027815714,-1.6862106,-0.34363174,-0.9591925,0.80768585,5.5292587,1.9211553,0.6973648,3.363697,-0.027046204,-0.81783295,-1.3397408,-1.0453849,-2.4118462,-10.906538,1.9371085,0.061836243,-10.784466,0.0062179565,-0.68920135,-2.6691093,-1.0135534,-1.0078049,-10.951706,1.9203161,0.16124725,-13.02327,0.0,0.0,0.0,0.0,0.0,0.0,0.0,0.0,0.0,0.0,0.0,0.0,-2.0,2.0,-2.0,-2.0,2.0,2.0,-2.0,-2.0,-1.1123656,-2.0,-2.0,-2.0,0.0,0.0,0.0,0.0
2025-06-10 16:47:18.744,-2.324845,-2.356777,-2.006781,-0.77805537,-1.2015265,-0.9527711,1.924515,-2.729366,17.921919,-0.08120833,-1.3778305,1.1798286,-0.9754431,0.002861023,14.773785,1.8056209,-3.4425774,-4.1193237,-0.06596269,-1.5452957,0.9308014,-0.87191224,6.2832336,2.7997246,1.9544195,1.2194443,1.5973129,-0.034980774,-0.010643005,-2.1808205,-1.1023002,-2.457775,-8.817884,1.9516044,0.6723404,-10.858931,-0.0022506714,-0.45986176,-2.6630058,-1.0462835,-1.1435318,-12.298161,1.9203924,-0.021095276,-12.863354,0.0,0.0,0.0,0.0,0.0,0.0,0.0,0.0,0.0,0.0,0.0,0.0,-2.0,1.5749028,-2.0,-2.0,2.0,-1.1361274,-2.0,-2.0,2.0,-2.0,-2.0,-2.0,0.0,0.0,0.0,0.0
2025-06-10 16:47:18.765,-2.909182,-3.898784,-2.810485,-0.20219548,-1.4378113,-0.56960636,-0.124078,-2.281702,13.775801,-0.09715377,-1.0892868,1.2347603,-0.9861243,-0.37441254,12.637524,1.7409999,-3.1999626,-2.228428,-0.08938493,-1.437645,1.4569321,-0.7297766,7.037323,-3.170826,1.9238256,-4.7604027,-2.199131,-0.03665924,-0.7403946,-1.1236725,-1.168447,-4.935116,-3.2635994,1.9912009,2.4266472,-0.9796295,-0.007820129,-0.56804657,-2.4689102,-1.0832098,-2.5841942,-9.2524605,1.921842,0.2438736,-13.253986,0.0,0.0,0.0,0.0,0.0,0.0,0.0,0.0,0.0,0.0,0.0,0.0,-2.0,1.995092,-2.0,-2.0,2.0,-2.0,-2.0,-2.0,2.0,-2.0,-2.0,-2.0,0.0,0.0,0.0,0.0
2025-06-10 16:47:18.787,-3.230604,-5.89419,-3.125499,-0.60930693,-1.9349434,-0.1625117,0.735874,1.788474,8.583435,-0.113328084,-0.40996552,1.2323189,-0.98795533,0.074043274,15.158314,1.6709621,-2.9185143,-0.4412918,-0.10784806,-0.2703476,0.7855339,-0.6228125,3.5921135,-2.3859024,1.7955755,-6.2426453,-0.27893448,-0.051383972,-0.5275345,-1.0760651,-1.2828879,-4.6121635,0.053100586,2.0171409,0.13134003,0.4327469,-0.02620697,-1.2459946,-1.0003815,-1.1437109,-2.7582207,-6.9929047,1.9329809,0.66921234,-13.966888,0.0,0.0,0.0,0.0,0.0,0.0,0.0,0.0,0.0,0.0,0.0,0.0,-2.0,2.0,-2.0,-2.0,2.0,-2.0,-2.0,-2.0,-0.73120666,-2.0,-2.0,-2.0,0.0,0.0,0.0,0.0
2025-06-10 16:47:18.808,-3.65067,-7.768147,-2.842749,-0.20511629,-1.4312465,0.33257747,-0.026345,1.859693,6.799674,-0.11714278,0.16414642,0.53284454,-0.9784949,0.7866287,13.883881,1.6166408,-1.8963242,0.2093544,-0.10647477,0.24868011,0.08728027,-0.5763495,1.1704636,-0.6305046,1.6856359,-3.856701,0.19592667,-0.064201355,-0.99185944,-0.16662979,-1.3512473,-1.3322067,-1.2115669,1.9725852,-4.8683586,-1.9537659,-0.048713684,-1.0083389,-0.4339676,-1.1935308,-1.835289,-6.1579323,1.9386266,0.06198883,-13.573814,0.0,0.0,0.0,0.0,0.0,0.0,0.0,0.0,0.0,0.0,0.0,0.0,-2.0,2.0,-2.0,-2.0,2.0,-2.0,-2.0,-2.0,-2.0,-2.0,-2.0,-2.0,0.0,0.0,0.0,0.0
2025-06-10 16:47:18.829,-3.789363,-8.978745,-2.086386,0.10867572,-0.73546255,0.76684636,0.634141,0.547753,7.270334,-0.10920821,0.8309555,-0.34241104,-0.9604132,0.89588165,12.946365,1.5876491,-1.4601517,0.481575,-0.10258378,0.45719147,-0.17761612,-0.5613959,0.31345367,-0.22034073,1.6323065,-1.9210434,-0.21545792,-0.082359314,-0.89466095,0.38025665,-1.3447623,1.0326004,-5.1203156,1.9162803,-2.2554436,-9.807888,-0.06603241,-0.43437958,-0.21667862,-1.2237432,-1.3370895,-6.101776,1.937406,-0.15476227,-13.081863,0.0,0.0,0.0,0.0,0.0,0.0,0.0,0.0,0.0,0.0,0.0,0.0,-2.0,2.0,-2.0,-2.0,2.0,-2.0,-2.0,-2.0,-2.0,-2.0,-2.0,-2.0,0.0,0.0,0.0,0.0
2025-06-10 16:47:18.850,-3.307624,-9.570086,-0.768258,0.844939,-0.18243118,0.9425093,2.867762,-0.803881,7.671911,-0.090516195,0.75237274,-1.3507271,-0.9395087,0.87802887,12.334782,1.5526302,-1.4133072,1.8207054,-0.100523844,-0.15735626,0.10437012,-0.55826783,0.13431549,0.12390137,1.602094,-1.0082626,-0.31311417,-0.09464264,-0.51158905,0.4779129,-1.3113456,1.4548111,-6.7634087,1.8722587,-2.0020714,-8.542,-0.076560974,-0.45986176,-0.19836807,-1.2442663,-0.6862259,-6.1603737,1.9279455,-0.47588348,-12.390938,0.0,0.0,0.0,0.0,0.0,0.0,0.0,0.0,0.0,0.0,0.0,0.0,-2.0,2.0,-2.0,-2.0,2.0,-2.0,-2.0,-2.0,-2.0,-2.0,-2.0,-2.0,0.0,0.0,0.0,0.0
2025-06-10 16:47:18.872,-2.575914,-9.625209,0.343199,0.7428308,0.047468156,0.9525579,2.456634,-0.247852,6.597401,-0.075257406,0.69423676,-1.8890686,-0.92196107,0.67417145,11.875793,1.5278347,-0.9328842,1.9794006,-0.10662736,-0.24341583,0.61585236,-0.5575049,0.06374359,0.22278214,1.5850805,-0.529747,-0.43152618,-0.10471344,-0.423851,0.84412766,-1.2820487,1.195488,-7.4164963,1.831594,-1.7908096,-7.409172,-0.08655548,-0.41217804,0.2496376,-1.2592962,-0.7702255,-5.593956,1.9184088,-0.29323578,-12.328678,0.0,0.0,0.0,0.0,0.0,0.0,0.0,0.0,0.0,0.0,0.0,0.0,-2.0,2.0,-2.0,-2.0,2.0,-2.0,-2.0,-2.0,-2.0,-2.0,-2.0,-2.0,0.0,0.0,0.0,0.0
2025-06-10 16:47:18.893,-1.902836,-9.498948,1.432198,0.73735994,0.17995395,0.90981555,2.115792,-0.174597,5.559583,-0.061677083,0.47122955,-1.879303,-0.90983033,0.4830551,11.861141,1.5132625,-0.41187286,1.8084984,-0.108839884,-0.031089783,0.37903595,-0.5564368,0.052070618,0.103149414,1.576917,-0.40111542,-0.4388504,-0.11142731,-0.3004074,0.8709831,-1.2754874,-0.25730133,-5.7965965,1.7887168,-2.1293297,-5.519493,-0.09738922,-0.45009613,0.6768913,-1.2749364,-0.5489731,-5.1081085,1.9104742,-0.29331207,-12.075989,0.0,0.0,0.0,0.0,0.0,0.0,0.0,0.0,0.0,0.0,0.0,0.0,-2.0,2.0,-2.0,-2.0,2.0,-2.0,-2.0,-2.0,-2.0,-2.0,-2.0,-2.0,0.0,0.0,0.0,0.0
2025-06-10 16:47:18.914,-1.145001,-9.11161,2.652079,0.6311404,0.42263812,0.8054277,1.758349,-0.345075,5.663343,-0.05191146,0.3041458,-2.219883,-0.90311646,0.2249527,12.024719,1.5120418,0.12607574,1.2127876,-0.108076945,0.027427673,0.29724503,-0.55292726,0.20870209,-0.128788,1.5708898,-0.24845123,-0.29602432,-0.11425018,-0.056877136,0.68299484,-1.2859397,-0.5147934,-4.801708,1.7485099,-1.8722153,-4.273136,-0.107307434,-0.34030914,0.9002838,-1.2845495,-0.21083832,-5.2729073,1.9042181,-0.12813568,-11.902649,0.0,0.0,0.0,0.0,0.0,0.0,0.0,0.0,0.0,0.0,0.0,0.0,-2.0,2.0,-2.0,-2.0,2.0,-2.0,-2.0,-2.0,-2.0,-2.0,-2.0,-2.0,0.0,0.0,0.0,0.0
2025-06-10 16:47:18.934,-0.602376,-8.529408,3.536121,0.58631617,0.593449,0.73102295,1.423933,-0.450387,6.799175,-0.04359542,0.4289627,-2.5226212,-0.8999121,0.074272156,12.028381,1.5210445,0.6054306,0.24475479,-0.108458415,0.00919342,0.3680458,-0.5523932,-0.01613617,0.03845215,1.5674566,-0.07953644,-0.363163,-0.110588074,0.3069687,0.22400284,-1.309133,-1.4245224,-2.9962616,1.7059379,-2.1128502,-2.3334084,-0.11676788,-0.4279709,1.3458443,-1.2912633,-0.28377533,-5.2680244,1.8991827,-0.20015717,-11.819637,0.0,0.0,0.0,0.0,0.0,0.0,0.0,0.0,0.0,0.0,0.0,0.0,-2.0,2.0,-2.0,-2.0,2.0,-2.0,-2.0,-2.0,-2.0,-2.0,-2.0,-2.0,0.0,0.0,0.0,0.0
2025-06-10 16:47:18.956,-0.060502,-7.766947,4.356343,0.5980343,0.739995,0.6907937,0.564323,-0.397018,6.974277,-0.03650008,0.31711578,-2.5140762,-0.89953065,0.01712799,12.146793,1.5353878,0.5121231,-0.06286621,-0.1086873,-0.041770935,0.3680458,-0.5521643,-0.019569397,-0.00793457,1.5657018,-0.069999695,-0.34241104,-0.10120392,0.3876114,-0.44861603,-1.3434653,-1.9018173,-1.1773872,1.6600089,-2.2522392,-0.7452507,-0.12752533,-0.53546906,1.9293518,-1.2934759,-0.10082245,-5.3913193,1.8965124,-0.12699127,-11.808651,0.0,0.0,0.0,0.0,0.0,0.0,0.0,0.0,0.0,0.0,0.0,0.0,-2.0,2.0,-2.0,-2.0,2.0,-2.0,-2.0,-2.0,-2.0,-2.0,-2.0,-2.0,0.0,0.0,0.0,0.0
2025-06-10 16:47:18.977,0.47461,-6.789522,5.159671,0.50456107,0.93881303,0.70182043,0.168109,-0.200838,6.797198,-0.03238021,0.21640778,-2.4933243,-0.898844,0.056266785,12.046692,1.5576656,1.3788986,-2.1210022,-0.10571183,0.34938812,-0.10559082,-0.5513251,-0.041007996,0.022583008,1.5721868,1.2437057,-2.765545,-0.091667175,0.29071808,-0.64881516,-1.3810782,-1.6717148,-0.16418839,1.6144614,-1.9115067,0.20203018,-0.14064789,-0.56438446,2.5128555,-1.2924078,0.043678284,-5.4560165,1.894605,-0.070762634,-11.866024,0.0,0.0,0.0,0.0,0.0,0.0,0.0,0.0,0.0,0.0,0.0,0.0,-2.0,2.0,-2.0,-2.0,2.0,-2.0,-2.0,-2.0,-2.0,-2.0,-2.0,-2.0,0.0,0.0,0.0,0.0
2025-06-10 16:47:18.998,0.935464,-5.643488,6.017439,0.38053006,0.877067,0.7477612,-1.65977,-0.456423,13.007225,-0.0312358,-0.052223206,-2.2906837,-0.8977759,0.13027191,11.891663,1.5825374,0.9687424,-2.3932266,-0.09953202,0.035591125,-0.15930557,-0.5610907,-0.49625397,1.1065826,1.6057562,1.2426376,-3.388115,-0.090675354,0.041160583,-0.22156143,-1.4126639,-1.3596725,0.61585236,1.5869193,-1.1249161,0.13855362,-0.15857697,-1.0834885,3.2098885,-1.2921789,0.02002716,-5.470665,1.8923925,-0.14400482,-11.629208,0.0,0.0,0.0,0.0,0.0,0.0,0.0,0.0,0.0,0.0,0.0,0.0,-2.0,2.0,-2.0,-2.0,2.0,-2.0,-2.0,-2.0,-2.0,-2.0,-2.0,-2.0,0.0,0.0,0.0,0.0
2025-06-10 16:47:19.019,1.070501,-4.54597,7.10488,0.16767277,0.54333335,0.69331247,-1.817383,-0.144149,12.773828,-0.0312358,-0.029716492,-2.3443947,-0.8912909,0.34503937,11.28252,1.596194,0.3081131,-1.9098206,-0.0973195,0.1305008,-0.22400284,-0.57047486,-0.3659439,1.1468697,1.6305517,0.9383774,-3.6554527,-0.088157654,0.31879425,-0.604866,-1.431356,-0.5411911,0.14587784,1.5734153,-0.3245163,-0.19104385,-0.17688751,-0.8055496,4.0424194,-1.2915685,-0.05695343,-5.5255966,1.8896459,-0.012779236,-11.752499,0.0,0.0,0.0,0.0,0.0,0.0,0.0,0.0,0.0,0.0,0.0,0.0,-2.0,2.0,-2.0,-2.0,2.0,-2.0,-2.0,-2.0,-2.0,-2.0,-2.0,-2.0,0.0,0.0,0.0,0.0
2025-06-10 16:47:19.040,1.260296,-3.953714,7.911112,0.22804235,0.34104955,0.66925395,-1.947909,0.015015,12.693268,-0.031388387,-0.036735535,-2.3285255,-0.8800757,0.761528,10.67094,1.598788,-0.036125183,-1.5924301,-0.09525956,0.08434296,-0.18494034,-0.575968,-0.11508942,1.1358833,1.6425298,0.22853851,-3.6347008,-0.08457184,0.1026535,-0.57190704,-1.4385276,-0.25691986,-0.11657715,1.5650992,-0.3384018,-0.006713867,-0.19657135,-0.867424,4.6601067,-1.2920263,-0.031166077,-5.4230576,1.8890356,-0.037117004,-11.70245,0.0,0.0,0.0,0.0,0.0,0.0,0.0,0.0,0.0,0.0,0.0,0.0,-2.0,2.0,-2.0,-2.0,2.0,-2.0,-2.0,-2.0,-2.0,-2.0,-2.0,-2.0,0.0,0.0,0.0,0.0
2025-06-10 16:47:19.061,1.432026,-3.611158,8.647024,0.21320575,0.16776933,0.58752733,-1.162945,-0.122732,11.218299,-0.031388387,-0.102500916,-2.2931252,-0.8675635,0.429039,10.202183,1.5966518,-0.16277313,-1.2750435,-0.093581095,-0.009346008,-0.21423721,-0.5778754,0.026054382,0.9808502,1.6469549,0.06778717,-3.363697,-0.08274078,0.20458221,-0.6939812,-1.4367728,0.15293121,-0.60730743,1.5617423,-0.035438538,-0.25574112,-0.21343231,-0.6921005,4.9762726,-1.2914922,0.005760193,-5.5426865,1.888883,-0.0052261353,-11.750057,0.0,0.0,0.0,0.0,0.0,0.0,0.0,0.0,0.0,0.0,0.0,0.0,-2.0,2.0,-2.0,-2.0,2.0,-2.0,-2.0,-2.0,-2.0,-2.0,-2.0,-2.0,0.0,0.0,0.0,0.0
2025-06-10 16:47:19.082,1.617092,-3.428959,9.255087,0.18015997,0.059599172,0.47207633,-1.113313,0.301657,10.14177,-0.03238021,-0.065345764,-2.2418556,-0.8548224,0.7465744,9.7895775,1.5903957,-0.47405243,-0.90882874,-0.09327592,0.02117157,-0.20203018,-0.577265,0.05214691,0.8282585,1.6471838,0.014533997,-3.2904549,-0.07961273,0.17818451,-0.83558273,-1.4363151,0.04207611,-0.4779129,1.5606742,-0.038871765,-0.252079,-0.22510529,-0.6772995,5.248493,-1.28989,0.16582489,-5.6940575,1.8887304,-0.025138855,-11.77203,0.0,0.0,0.0,0.0,0.0,0.0,0.0,0.0,0.0,0.0,0.0,0.0,-2.0,2.0,-2.0,-2.0,2.0,-2.0,-2.0,-2.0,-2.0,-2.0,-2.0,-2.0,0.0,0.0,0.0,0.0
2025-06-10 16:47:19.103,1.909291,-3.348912,9.859623,0.24374834,0.022411441,0.35197568,-0.457741,0.711238,9.601674,-0.033143148,-0.07648468,-2.2162209,-0.84017396,0.7165146,9.138935,1.5831478,-0.25341034,-0.72816086,-0.09342851,-0.02658844,-0.1324501,-0.5734503,0.14385223,0.52918243,1.6471838,0.025138855,-3.269703,-0.07633209,0.09487152,-0.8563347,-1.4356284,0.07015228,-0.5047684,1.5602927,-0.0017166138,-0.2911415,-0.23677826,-0.6593704,5.545128,-1.2855413,0.39852142,-6.0053406,1.8892645,-0.0002670288,-11.770809,0.0,0.0,0.0,0.0,0.0,0.0,0.0,0.0,0.0,0.0,0.0,0.0,-2.0,2.0,-2.0,-2.0,2.0,-2.0,-2.0,-2.0,-2.0,-2.0,-2.0,-2.0,0.0,0.0,0.0,0.0
2025-06-10 16:47:19.124,2.153754,-3.279583,10.213251,0.18485108,0.08900858,0.2613769,0.063845,0.873425,9.295732,-0.034974203,-0.12722015,-2.1246643,-0.8256781,0.56560516,8.63966,1.578265,-0.193367,-0.6573601,-0.09426774,-0.12760162,-0.08850098,-0.5665076,0.49884796,0.14465714,1.6471838,-0.044059753,-3.3173103,-0.07480621,0.10082245,-0.8514519,-1.4354758,0.00034332275,-0.5059891,1.5602164,0.0037002563,-0.29968643,-0.24623871,-0.46459198,5.687954,-1.2770727,0.56331635,-6.5998306,1.889417,0.02773285,-11.80743,0.0,0.0,0.0,0.0,0.0,0.0,0.0,0.0,0.0,0.0,0.0,0.0,-2.0,2.0,-2.0,-2.0,2.0,-2.0,-2.0,-2.0,-2.0,-2.0,-2.0,-2.0,0.0,0.0,0.0,0.0
2025-06-10 16:47:19.145,2.36351,-3.148292,10.46789,0.15897544,0.13175638,0.18574873,0.300657,1.125615,9.276969,-0.036347494,-0.03429413,-2.0697327,-0.8117163,0.6825638,8.263676,1.5745265,-0.21373749,-0.5865555,-0.095488444,0.02193451,-0.055541992,-0.5600989,0.38043976,-0.103149414,1.6474127,-0.016822815,-3.2965584,-0.07442474,0.014381409,-0.7928581,-1.4353995,-0.03162384,-0.47058868,1.5600638,0.021095276,-0.2887001,-0.25333405,-0.18054962,5.8503075,-1.2674596,0.6064224,-6.83543,1.8902563,0.10257721,-11.964905,0.0,0.0,0.0,0.0,0.0,0.0,0.0,0.0,0.0,0.0,0.0,0.0,-2.0,2.0,-2.0,-2.0,2.0,-2.0,-2.0,-2.0,-2.0,-2.0,-2.0,-2.0,0.0,0.0,0.0,0.0
2025-06-10 16:47:19.166,2.581568,-3.008294,10.650187,0.17483108,0.106275156,0.1330641,0.538106,1.301458,9.557014,-0.037186727,-0.031089783,-2.1100159,-0.79859376,0.6637955,7.742428,1.5712459,-0.13355255,-0.4779129,-0.09617509,-0.008964539,-0.03967285,-0.5523169,0.30124664,-0.43152618,1.6477178,0.07022858,-3.3490486,-0.07480621,-0.052452087,-0.7794304,-1.4360862,-0.022010803,-0.41931915,1.559835,0.0020980835,-0.2825966,-0.2589035,-0.17520905,5.8979187,-1.2595251,0.37960052,-7.041733,1.8935369,0.12767792,-12.255436,0.0,0.0,0.0,0.0,0.0,0.0,0.0,0.0,0.0,0.0,0.0,0.0,-2.0,2.0,-2.0,-2.0,2.0,-2.0,-2.0,-2.0,-2.0,-2.0,-2.0,-2.0,0.0,0.0,0.0,0.0
2025-06-10 16:47:19.187,2.817584,-2.925052,10.783492,0.18701951,0.046941504,0.0951787,0.594565,1.232721,9.316735,-0.037339315,0.008811951,-2.1197815,-0.7870734,0.38082123,7.503166,1.5678127,-0.16254425,-0.3985672,-0.09617509,0.026359558,-0.07141113,-0.54438233,0.2678299,-0.68665695,1.6479467,-0.014152527,-3.327076,-0.0749588,-0.06061554,-0.7513542,-1.4366965,-0.030479431,-0.3961258,1.559835,-0.029563904,-0.27771378,-0.26195526,-0.107688904,5.9687195,-1.2551763,0.048484802,-6.8342094,1.9001745,0.4465866,-12.633862,0.0,0.0,0.0,0.0,0.0,0.0,0.0,0.0,0.0,0.0,0.0,0.0,-2.0,2.0,-2.0,-2.0,2.0,-2.0,-2.0,-2.0,-2.0,-2.0,-2.0,-2.0,0.0,0.0,0.0,0.0
2025-06-10 16:47:19.208,3.114362,-2.944055,10.892365,0.1759807,-0.059778765,0.055979915,0.667609,1.23547,9.260715,-0.03703414,-0.025291443,-2.1393166,-0.77959657,0.44116974,7.570305,1.565295,-0.12813568,-0.33630753,-0.09586991,0.09983063,-0.09460449,-0.5382025,0.30475616,-0.776989,1.648023,0.047187805,-3.3075447,-0.07518768,-0.033073425,-0.7391472,-1.4368491,0.01613617,-0.4412918,1.5595298,-0.02193451,-0.2825966,-0.26378632,-0.044822693,5.9162292,-1.2543371,0.045585632,-6.746319,1.9091009,0.3911972,-12.95369,0.0,0.0,0.0,0.0,0.0,0.0,0.0,0.0,0.0,0.0,0.0,0.0,-2.0,2.0,-2.0,-2.0,2.0,-2.0,-2.0,-2.0,-2.0,-2.0,-2.0,-2.0,0.0,0.0,0.0,0.0
2025-06-10 16:47:19.230,3.275498,-3.019411,10.920761,0.14265834,-0.10074309,0.022241289,0.64824,1.254732,9.182943,-0.03741561,-0.053977966,-2.080719,-0.77463746,0.22396088,7.4726486,1.5640743,0.013542175,-0.3973465,-0.096480265,-0.09700775,-0.005493164,-0.53408265,0.2928543,-0.9662018,1.648023,-0.026664734,-3.3441658,-0.07518768,0.017662048,-0.776989,-1.436544,0.048332214,-0.4766922,1.5595298,-0.03643036,-0.2825966,-0.2639389,-0.011177063,5.864956,-1.254566,-0.013847351,-6.7438774,1.9148229,0.22167206,-12.985428,0.0,0.0,0.0,0.0,0.0,0.0,0.0,0.0,0.0,0.0,0.0,0.0,-2.0,2.0,-2.0,-2.0,2.0,-2.0,-2.0,-2.0,-2.0,-2.0,-2.0,-2.0,0.0,0.0,0.0,0.0
2025-06-10 16:47:19.251,3.416235,-3.168271,10.903021,-0.026170356,-0.06666299,-0.027345732,1.071078,1.532954,9.86806,-0.039857015,-0.092659,-1.9647522,-0.770365,0.088386536,7.401848,1.5648372,0.04383087,-0.48767853,-0.09884538,0.0009536743,0.08728027,-0.52759767,0.2652359,-1.2579536,1.648023,0.07167816,-3.3502693,-0.07434845,0.029182434,-0.789196,-1.4358573,-0.013084412,-0.49744415,1.5597587,0.0283432,-0.27771378,-0.26569366,-0.053520203,5.9638367,-1.2534978,0.0371933,-6.807354,1.9239019,0.4240036,-13.413902,0.0,0.0,0.0,0.0,0.0,0.0,0.0,0.0,0.0,0.0,0.0,0.0,-2.0,2.0,-2.0,-2.0,2.0,-2.0,-2.0,-2.0,-2.0,-2.0,-2.0,-2.0,0.0,0.0,0.0,0.0
2025-06-10 16:47:19.272,3.424688,-3.264632,10.85123,0.0044480064,-0.085702784,-0.055676352,0.95945,1.282759,9.831972,-0.04054366,0.041389465,-1.9977112,-0.7679236,0.07610321,7.4287033,1.5656765,0.095329285,-0.5597,-0.09922685,-0.064964294,0.056762695,-0.52294374,0.12859344,-1.1932564,1.6479467,-0.013008118,-3.285572,-0.074043274,-0.019798279,-0.79529953,-1.435781,-0.068855286,-0.49134064,1.5594535,0.041160583,-0.27283096,-0.2652359,0.03803253,5.814907,-1.2536504,-0.0030899048,-6.76585,1.9319128,0.37647247,-13.80209,0.0,0.0,0.0,0.0,0.0,0.0,0.0,0.0,0.0,0.0,0.0,0.0,-2.0,2.0,-2.0,-2.0,2.0,-2.0,-2.0,-2.0,-2.0,-2.0,-2.0,-2.0,0.0,0.0,0.0,0.0
2025-06-10 16:47:19.293,3.490596,-3.397238,10.744771,0.021924214,-0.07481488,-0.09043509,1.019414,1.217503,9.616928,-0.040848836,-0.030632019,-2.0160217,-0.7663214,0.091362,7.409172,1.5677364,0.11264801,-0.6964226,-0.099379435,-0.018882751,0.060424805,-0.5181372,0.19405365,-1.3617134,1.6478704,0.01247406,-3.2587166,-0.073890686,-0.008811951,-0.7928581,-1.4356284,0.0038528442,-0.48279572,1.5594535,-0.02735138,-0.28137589,-0.26309967,0.2072525,5.654995,-1.2537267,-0.033302307,-6.8171196,1.9399236,0.26966095,-13.975433,0.0,0.0,0.0,0.0,0.0,0.0,0.0,0.0,0.0,0.0,0.0,0.0,-2.0,2.0,-2.0,-2.0,2.0,-2.0,-2.0,-2.0,-2.0,-2.0,-2.0,-2.0,0.0,0.0,0.0,0.0
2025-06-10 16:47:19.316,3.522971,-3.465046,10.656676,-0.010001644,-0.06733728,-0.10425352,1.049661,1.190009,9.745462,-0.04107772,-0.06328583,-1.945221,-0.76578736,0.0346756,7.4738693,1.5704067,0.104255676,-0.8233757,-0.099760905,0.0008773804,0.07019043,-0.5145514,0.16933441,-1.4361801,1.6477941,-0.0022506714,-3.3075447,-0.07411957,-0.0636673,-0.79529953,-1.4355521,-0.0011062622,-0.48401642,1.5594535,-0.03276825,-0.27161026,-0.26103973,0.14034271,5.5317,-1.2534215,0.010719299,-6.8085747,1.9445013,0.15956879,-13.959564,0.0,0.0,0.0,0.0,0.0,0.0,0.0,0.0,0.0,0.0,0.0,0.0,-2.0,2.0,-2.0,-2.0,2.0,-2.0,-2.0,-2.0,-2.0,-2.0,-2.0,-2.0,0.0,0.0,0.0,0.0
2025-06-10 16:47:19.339,3.486774,-3.560778,10.495276,-0.09743972,-0.039218612,-0.10865111,1.425596,1.247,10.121646,-0.041993245,0.032539368,-1.9684143,-0.7663977,-0.07808685,7.5605392,1.5750606,0.21015167,-1.0882721,-0.101286784,-0.06328583,0.15320206,-0.50997376,0.28491974,-1.6229477,1.6475652,-0.02773285,-3.3282967,-0.07396698,-0.047416687,-0.8172722,-1.4355521,0.0030899048,-0.4742508,1.5595298,0.02254486,-0.27893448,-0.25844574,0.13271332,5.474327,-1.2528875,0.04383087,-6.828106,1.9500707,0.23403168,-14.193943,0.0,0.0,0.0,0.0,0.0,0.0,0.0,0.0,0.0,0.0,0.0,0.0,-2.0,2.0,-2.0,-2.0,2.0,-2.0,-2.0,-2.0,-2.0,-2.0,-2.0,-2.0,0.0,0.0,0.0,0.0
2025-06-10 16:47:19.362,3.385611,-3.64497,10.351288,-0.0747206,-0.041996602,-0.084566265,1.326459,1.11893,9.80373,-0.041230306,0.032691956,-2.0453186,-0.767771,-0.020103455,7.5922775,1.5797908,0.16498566,-1.1969185,-0.101286784,0.012626648,0.072631836,-0.5073798,0.041007996,-1.6559105,1.6468786,-0.024681091,-3.2599373,-0.07396698,0.029716492,-0.7830925,-1.4355521,-0.002708435,-0.49011993,1.5593772,-0.031166077,-0.27893448,-0.25447845,0.1958847,5.3058662,-1.2529638,0.028495789,-6.8183403,1.954801,0.2324295,-14.329441,0.0,0.0,0.0,0.0,0.0,0.0,0.0,0.0,0.0,0.0,0.0,0.0,-2.0,2.0,-2.0,-2.0,2.0,-2.0,-2.0,-2.0,-2.0,-2.0,-2.0,-2.0,0.0,0.0,0.0,0.0
2025-06-10 16:47:19.385,3.309195,-3.726735,10.239146,-0.08661753,-0.034165673,-0.07096092,1.249107,0.885747,9.840877,-0.04092513,-0.00049591064,-2.044098,-0.76998353,-0.06832123,7.7436485,1.5841396,0.2437973,-1.3836899,-0.10067643,-0.028190613,0.07141113,-0.505625,0.14766693,-1.6864281,1.6464208,-0.038719177,-3.2465096,-0.07419586,-0.07274628,-0.80018234,-1.4355521,0.04070282,-0.48279572,1.5591483,-0.056037903,-0.27649307,-0.24951935,0.17658234,5.027542,-1.2531164,0.01964569,-6.8293266,1.9567846,0.053367615,-14.213474,0.0,0.0,0.0,0.0,0.0,0.0,0.0,0.0,0.0,0.0,0.0,0.0,-2.0,2.0,-2.0,-2.0,2.0,-2.0,-2.0,-2.0,-2.0,-2.0,-2.0,-2.0,0.0,0.0,0.0,0.0
2025-06-10 16:47:19.408,3.199025,-3.769803,10.156937,-0.124527566,-0.025572093,-0.06552437,1.178147,0.734308,10.076733,-0.04016219,-0.037117004,-2.0868225,-0.77334046,-0.23937225,7.94751,1.5890224,0.16384125,-1.5094223,-0.10044755,0.13202667,0.040893555,-0.5047095,0.03627777,-1.6546898,1.6452764,-0.016822815,-3.0939178,-0.073890686,-0.019187927,-0.79896164,-1.4355521,0.018424988,-0.48767853,1.5593772,-0.016365051,-0.27405167,-0.24532318,0.1291275,4.9396515,-1.2531927,0.0020980835,-6.7878227,1.9581579,0.030097961,-14.197605,0.0,0.0,0.0,0.0,0.0,0.0,0.0,0.0,0.0,0.0,0.0,0.0,-2.0,2.0,-2.0,-2.0,2.0,-2.0,-2.0,-2.0,-2.0,-2.0,-2.0,-2.0,0.0,0.0,0.0,0.0
2025-06-10 16:47:19.430,3.028778,-3.825909,10.059905,-0.1302548,-0.026126426,-0.06507434,0.969947,0.613506,9.981523,-0.039322957,0.011329651,-2.084381,-0.7766974,-0.1517868,8.032959,1.593066,0.1341629,-1.588768,-0.09991349,0.065193176,0.026245117,-0.5041754,0.013542175,-1.6803246,1.6432928,-0.15644073,-3.019455,-0.073890686,-0.038719177,-0.80140305,-1.4355521,0.018501282,-0.4730301,1.5593009,0.001335144,-0.26550674,-0.24166107,0.14247894,4.843212,-1.2530401,-0.02658844,-6.8293266,1.9582342,0.009346008,-14.190281,0.0,0.0,0.0,0.0,0.0,0.0,0.0,0.0,0.0,0.0,0.0,0.0,-2.0,2.0,-2.0,-2.0,2.0,-2.0,-2.0,-2.0,-2.0,-2.0,-2.0,-2.0,0.0,0.0,0.0,0.0
2025-06-10 16:47:19.451,2.870465,-3.862964,9.983801,-0.14351909,-0.03137353,-0.06533092,0.86391,0.403362,10.061436,-0.038941488,0.019111633,-2.1002502,-0.7805884,-0.1128006,8.211185,1.5965755,0.22319794,-1.8438988,-0.09968461,-0.013999939,0.015258789,-0.50387025,0.035743713,-1.6705589,1.6403936,-0.2274704,-2.8766327,-0.074043274,0.01285553,-0.7782097,-1.4355521,-0.0004196167,-0.48401642,1.5592246,0.008049011,-0.26916885,-0.23792267,0.20442963,4.6234818,-1.253269,-0.016288757,-6.7939262,1.9580816,-0.007896423,-14.158543,0.0,0.0,0.0,0.0,0.0,0.0,0.0,0.0,0.0,0.0,0.0,0.0,-2.0,2.0,-2.0,-2.0,2.0,-2.0,-2.0,-2.0,-2.0,-2.0,-2.0,-2.0,0.0,0.0,0.0,0.0
2025-06-10 16:47:19.472,2.710099,-3.911356,9.901161,-0.13618566,-0.058232788,-0.07407137,0.652423,0.255638,9.894915,-0.038254842,-0.026741028,-2.1429787,-0.7840216,-0.13072968,8.391853,1.5988643,0.19046783,-1.8133812,-0.09915055,0.037956238,-0.015258789,-0.50387025,0.001411438,-1.6571312,1.6369604,-0.11920929,-2.6984062,-0.07411957,-0.06565094,-0.7867546,-1.4353995,0.0308609,-0.4803543,1.5593009,-0.017967224,-0.26062393,-0.2338028,0.15094757,4.479439,-1.2542608,-0.03551483,-6.6742973,1.9580053,-0.029563904,-14.13657,0.0,0.0,0.0,0.0,0.0,0.0,0.0,0.0,0.0,0.0,0.0,0.0,-2.0,2.0,-2.0,-2.0,2.0,-2.0,-2.0,-2.0,-2.0,-2.0,-2.0,-2.0,0.0,0.0,0.0,0.0
2025-06-10 16:47:19.494,2.507845,-3.994896,9.784605,-0.1374268,-0.07380451,-0.08648408,0.487581,0.160132,9.825267,-0.037873372,0.028877258,-2.150303,-0.7880652,-0.2742386,8.496834,1.600085,-0.004005432,-1.7755394,-0.098616496,0.070381165,-0.00793457,-0.50364137,0.009803772,-1.6473656,1.6328405,-0.18878937,-2.5299454,-0.07381439,-0.10181427,-0.79529953,-1.4356284,0.03200531,-0.46814728,1.5593772,-0.046806335,-0.26306534,-0.23105621,0.13858795,4.573433,-1.2557867,-0.084495544,-6.6169205,1.957929,-0.0075912476,-14.167088,0.0,0.0,0.0,0.0,0.0,0.0,0.0,0.0,0.0,0.0,0.0,0.0,-2.0,2.0,-2.0,-2.0,2.0,-2.0,-2.0,-2.0,-2.0,-2.0,-2.0,-2.0,0.0,0.0,0.0,0.0
2025-06-10 16:47:19.515,2.34939,-4.073844,9.682998,-0.13104281,-0.086914204,-0.085205294,0.443714,0.063306,9.862823,-0.03802596,-0.0077438354,-2.0941467,-0.7918036,-0.14865875,8.56031,1.6010768,0.0598526,-1.7438011,-0.09884538,0.033073425,0.005493164,-0.50379395,0.09868622,-1.6607933,1.6290258,-0.21274567,-2.4469376,-0.07396698,0.019569397,-0.8111687,-1.4355521,-0.017204285,-0.48645782,1.5593009,-0.020942688,-0.27405167,-0.22762299,0.13477325,4.392769,-1.2575414,-0.06649017,-6.569313,1.957929,0.0061416626,-14.211033,0.0,0.0,0.0,0.0,0.0,0.0,0.0,0.0,0.0,0.0,0.0,0.0,-2.0,2.0,-2.0,-2.0,2.0,-2.0,-2.0,-2.0,-2.0,-2.0,-2.0,-2.0,0.0,0.0,0.0,0.0
2025-06-10 16:47:19.536,2.191938,-4.168317,9.581034,-0.13542189,-0.10003651,-0.086051576,0.514162,0.070653,9.892925,-0.03779708,0.08052826,-2.1185608,-0.79516053,-0.11539459,8.710461,1.6016109,-0.016746521,-1.7865257,-0.09869279,0.012931824,0.026245117,-0.503031,0.084877014,-1.6815453,1.6245245,-0.2843094,-2.157627,-0.07381439,0.005378723,-0.8184929,-1.4355521,0.022315979,-0.48767853,1.5593009,0.0051498413,-0.27893448,-0.22457123,0.19062042,4.24506,-1.2592199,-0.007133484,-6.5229263,1.957929,-0.023536682,-14.174412,0.0,0.0,0.0,0.0,0.0,0.0,0.0,0.0,0.0,0.0,0.0,0.0,-2.0,2.0,-2.0,-2.0,2.0,-2.0,-2.0,-2.0,-2.0,-2.0,-2.0,-2.0,0.0,0.0,0.0,0.0
2025-06-10 16:47:19.557,2.038457,-4.271898,9.483625,-0.11877454,-0.09570535,-0.079416476,0.550896,0.073119,9.701037,-0.037949666,-0.12386322,-2.11734,-0.7979834,-0.15460968,8.787365,1.6020687,0.024375916,-1.7926292,-0.09922685,-0.0371933,0.05065918,-0.5028784,-0.02155304,-1.70718,1.6207098,-0.16422272,-2.1490822,-0.07381439,0.007820129,-0.80262375,-1.4353995,-0.018348694,-0.48523712,1.5593009,-0.03353119,-0.26550674,-0.22159576,0.07862091,4.2230873,-1.2605169,0.018577576,-6.471657,1.9578527,0.0032424927,-14.182957,0.0,0.0,0.0,0.0,0.0,0.0,0.0,0.0,0.0,0.0,0.0,0.0,-2.0,2.0,-2.0,-2.0,2.0,-2.0,-2.0,-2.0,-2.0,-2.0,-2.0,-2.0,0.0,0.0,0.0,0.0
2025-06-10 16:47:19.579,1.906635,-4.370935,9.398724,-0.10895521,-0.08252096,-0.0642344,0.636778,0.075015,9.667231,-0.038102254,-0.088768005,-2.1380959,-0.80011964,-0.1984787,8.839855,1.6025264,0.06275177,-1.8023949,-0.09945573,0.071525574,0.049438477,-0.50257325,0.042152405,-1.6668968,1.6179632,-0.069618225,-2.1637306,-0.07419586,0.018043518,-0.8111687,-1.4354758,0.011100769,-0.4791336,1.5593009,-0.013313293,-0.27771378,-0.21892548,0.18131256,4.138859,-1.2612035,-0.00995636,-6.5058365,1.9580816,0.001411438,-14.195164,0.0,0.0,0.0,0.0,0.0,0.0,0.0,0.0,0.0,0.0,0.0,0.0,-2.0,2.0,-2.0,-2.0,2.0,-2.0,-2.0,-2.0,-2.0,-2.0,-2.0,-2.0,0.0,0.0,0.0,0.0
2025-06-10 16:47:19.600,1.754762,-4.460896,9.313274,-0.09359651,-0.049909435,-0.052251354,0.707988,0.067774,9.522574,-0.037873372,-0.00034332275,-2.1197815,-0.8015692,-0.006980896,8.861828,1.6038997,0.05130768,-1.9281311,-0.099379435,0.014381409,0.037231445,-0.50272584,-0.027809143,-1.6888695,1.6157507,-0.14003754,-2.051422,-0.07411957,0.021095276,-0.8184929,-1.4354758,0.012550354,-0.4766922,1.5593009,-0.0050735474,-0.27405167,-0.21747589,0.14629364,4.109558,-1.2613561,-0.019111633,-6.5253677,1.9580053,0.00667572,-14.160984,0.0,0.0,0.0,0.0,0.0,0.0,0.0,0.0,0.0,0.0,0.0,0.0,-2.0,2.0,-2.0,-2.0,2.0,-2.0,-2.0,-2.0,-2.0,-2.0,-2.0,-2.0,0.0,0.0,0.0,0.0
2025-06-10 16:47:19.621,1.649226,-4.506985,9.263317,-0.08260182,-0.0288693,-0.03493924,0.758968,0.029816,9.567626,-0.037720785,0.09555817,-2.1124573,-0.8029425,-0.07556915,8.816662,1.6058834,0.12599945,-2.0587463,-0.09953202,-0.044898987,0.033569336,-0.5021918,0.0012588501,-1.7547874,1.6142248,-0.04207611,-2.0343323,-0.07396698,-0.015220642,-0.7928581,-1.4353995,0.00064849854,-0.49134064,1.5593009,-0.008583069,-0.27038956,-0.21587372,0.02696991,4.088806,-1.2609746,-0.028038025,-6.5339127,1.957929,0.037727356,-14.202488,0.0,0.0,0.0,0.0,0.0,0.0,0.0,0.0,0.0,0.0,0.0,0.0,-2.0,2.0,-2.0,-2.0,2.0,-2.0,-2.0,-2.0,-2.0,-2.0,-2.0,-2.0,0.0,0.0,0.0,0.0
2025-06-10 16:47:19.642,1.547604,-4.53377,9.231497,-0.07660194,-0.017940728,-0.0218858,0.804318,0.039199,9.611685,-0.03764449,-0.07900238,-2.1612892,-0.8043921,-0.067863464,8.932632,1.6081722,0.09700775,-2.0917053,-0.09945573,-0.031089783,0.016479492,-0.50112367,0.04169464,-1.8438988,1.6127752,-0.05191803,-2.0172424,-0.07381439,0.028419495,-0.7916374,-1.4355521,-0.0024795532,-0.46936798,1.5593009,-0.013618469,-0.27527237,-0.21495819,0.13576508,4.085144,-1.2612035,-0.015525818,-6.540016,1.9580816,0.0016403198,-14.191502,0.0,0.0,0.0,0.0,0.0,0.0,0.0,0.0,0.0,0.0,0.0,0.0,-2.0,2.0,-2.0,-2.0,2.0,-2.0,-2.0,-2.0,-2.0,-2.0,-2.0,-2.0,0.0,0.0,0.0,0.0
2025-06-10 16:47:19.663,1.451185,-4.554288,9.221753,-0.0822783,-0.01612117,0.00019729201,0.78712,0.092997,9.735495,-0.037949666,-0.013847351,-2.1234436,-0.80507874,-0.045433044,8.915543,1.6099269,0.04032135,-2.1771584,-0.09945573,-0.048713684,0.025024414,-0.5008185,0.0018692017,-1.7645531,1.6116308,-0.03200531,-1.9977112,-0.07381439,0.08205414,-0.80750656,-1.4355521,0.015907288,-0.4779129,1.5593009,0.020713806,-0.27038956,-0.21495819,0.011024475,4.1449623,-1.2610509,0.0062179565,-6.5180435,1.957929,0.0025558472,-14.176853,0.0,0.0,0.0,0.0,0.0,0.0,0.0,0.0,0.0,0.0,0.0,0.0,-2.0,2.0,-2.0,-2.0,2.0,-2.0,-2.0,-2.0,-2.0,-2.0,-2.0,-2.0,0.0,0.0,0.0,0.0
2025-06-10 16:47:19.684,1.323005,-4.575498,9.240214,-0.06695659,-0.008043176,0.024549294,0.781654,0.022739,9.905351,-0.03779708,0.012016296,-2.14542,-0.80607057,-0.061073303,8.920425,1.6116054,0.04840851,-2.1356544,-0.09930314,-0.03429413,0.0018310547,-0.5005896,-0.00034332275,-1.7682152,1.6107916,-0.06687164,-1.9610901,-0.073890686,-0.059928894,-0.789196,-1.4355521,0.010566711,-0.48645782,1.5594535,-0.03551483,-0.26916885,-0.21495819,-0.114860535,4.1437416,-1.2610509,0.071144104,-6.5302505,1.9580053,-0.020561218,-14.209812,0.0,0.0,0.0,0.0,0.0,0.0,0.0,0.0,0.0,0.0,0.0,0.0,-2.0,2.0,-2.0,-2.0,2.0,-2.0,-2.0,-2.0,-2.0,-2.0,-2.0,-2.0,0.0,0.0,0.0,0.0
2025-06-10 16:47:19.706,1.247912,-4.58772,9.274584,-0.04119668,-0.0074801496,0.030011268,0.828136,-0.073523,9.921144,-0.037339315,-0.0017929077,-2.1832619,-0.8058417,0.052070618,8.887466,1.6127498,0.052223206,-2.1832619,-0.09831132,0.014076233,-0.032348633,-0.5005896,0.0031661987,-1.7547874,1.6101049,-0.019340515,-1.9671936,-0.073890686,0.0063705444,-0.75867844,-1.4355521,-0.006752014,-0.4766922,1.5595298,-0.0011062622,-0.28137589,-0.21503448,-0.047416687,4.1437416,-1.2610509,0.0333786,-6.515602,1.957929,0.017356873,-14.1878395,0.0,0.0,0.0,0.0,0.0,0.0,0.0,0.0,0.0,0.0,0.0,0.0,-2.0,2.0,-2.0,-2.0,2.0,-2.0,-2.0,-2.0,-2.0,-2.0,-2.0,-2.0,0.0,0.0,0.0,0.0
2025-06-10 16:47:19.728,1.198036,-4.596423,9.305735,-0.01739732,-0.004339918,0.020079682,0.816486,-0.147557,9.841244,-0.036957845,0.07228851,-2.1564064,-0.80629945,-0.060768127,8.906998,1.6132839,0.079307556,-2.16251,-0.09785356,-0.0024795532,-0.056762695,-0.5005133,-0.022621155,-1.7462425,1.6094183,0.02117157,-1.9671936,-0.07411957,0.005760193,-0.7940788,-1.4353995,0.018119812,-0.49011993,1.5593772,0.011634827,-0.27649307,-0.21526337,-0.05619049,4.1437416,-1.2609746,0.016365051,-6.532692,1.957929,0.0045394897,-14.164646,0.0,0.0,0.0,0.0,0.0,0.0,0.0,0.0,0.0,0.0,0.0,0.0,-2.0,2.0,-2.0,-2.0,2.0,-2.0,-2.0,-2.0,-2.0,-2.0,-2.0,-2.0,0.0,0.0,0.0,0.0
2025-06-10 16:47:19.749,1.166147,-4.607667,9.32947,-0.0032423155,-0.0026653446,0.0058975373,0.826058,-0.134464,9.725794,-0.036805257,0.026130676,-2.1490822,-0.80629945,-0.007286072,8.880142,1.6132076,-0.00919342,-2.1771584,-0.09785356,-0.028038025,-0.03112793,-0.5005896,0.03314972,-1.7694359,1.6091894,-0.0031661987,-1.9403381,-0.07419586,0.017280579,-0.7721062,-1.4355521,0.005683899,-0.48401642,1.5593009,-0.009880066,-0.27038956,-0.21533966,-0.087623596,4.129093,-1.2611272,0.014228821,-6.5143814,1.9580053,-0.018119812,-14.179295,0.0,0.0,0.0,0.0,0.0,0.0,0.0,0.0,0.0,0.0,0.0,0.0,-2.0,2.0,-2.0,-2.0,2.0,-2.0,-2.0,-2.0,-2.0,-2.0,-2.0,-2.0,0.0,0.0,0.0,0.0
2025-06-10 16:47:19.770,1.149961,-4.611924,9.334701,0.0005473527,6.857399e-05,0.0007836703,0.799597,-0.099788,9.704593,-0.036805257,-0.011482239,-2.1258888,-0.80637574,-0.044136047,8.883804,1.6133602,0.015525818,-2.1246643,-0.09777726,0.028190613,-0.033569336,-0.5005133,0.005760193,-1.7560081,1.6091894,-0.001411438,-1.9537659,-0.074272156,0.0030136108,-0.7867546,-1.4355521,-0.031089783,-0.48279572,1.5592246,-0.0022506714,-0.26428604,-0.2148819,0.046195984,4.1156616,-1.2610509,-0.024223328,-6.5094986,1.9580816,0.0233078,-14.137791,0.0,0.0,0.0,0.0,0.0,0.0,0.0,0.0,0.0,0.0,0.0,0.0,-2.0,2.0,-2.0,-2.0,2.0,-2.0,-2.0,-2.0,-2.0,-2.0,-2.0,-2.0,0.0,0.0,0.0,0.0
2025-06-10 16:47:19.792,1.145495,-4.609384,9.33167,0.008579148,0.0050154827,-0.0085377665,0.751431,-0.038007,9.715035,-0.037110433,-0.028038025,-2.1429787,-0.805918,-0.0118637085,8.872814,1.6132839,-0.014457703,-2.1527443,-0.09785356,0.021781921,-0.016479492,-0.5005133,0.009117126,-1.7596703,1.6091131,0.033836365,-1.9378967,-0.07419586,0.026893616,-0.8123894,-1.4354758,0.0065231323,-0.4718094,1.5593772,0.02368927,-0.27649307,-0.21518707,-0.018119812,4.1449623,-1.2609746,-0.015449524,-6.52903,1.9580053,-0.002861023,-14.137791,0.0,0.0,0.0,0.0,0.0,0.0,0.0,0.0,0.0,0.0,0.0,0.0,-2.0,2.0,-2.0,-2.0,2.0,-2.0,-2.0,-2.0,-2.0,-2.0,-2.0,-2.0,0.0,0.0,0.0,0.0
2025-06-10 16:47:19.813,1.15081,-4.604156,9.323412,0.012216153,0.0055098296,-0.008606602,0.755165,0.096132,9.77342,-0.036957845,0.024147034,-2.129551,-0.80622315,-0.040473938,8.887466,1.6132839,0.005531311,-2.1148987,-0.09808244,-0.026817322,-0.00061035156,-0.5005133,0.02193451,-1.752346,1.6091131,-0.0333786,-1.9732971,-0.07411957,0.053138733,-0.789196,-1.4356284,-0.008125305,-0.4779129,1.5593772,0.011634827,-0.28015518,-0.21511078,-0.016212463,4.151066,-1.2610509,-0.037345886,-6.5253677,1.9581579,-0.0059890747,-14.149998,0.0,0.0,0.0,0.0,0.0,0.0,0.0,0.0,0.0,0.0,0.0,0.0,-2.0,2.0,-2.0,-2.0,2.0,-2.0,-2.0,-2.0,-2.0,-2.0,-2.0,-2.0,0.0,0.0,0.0,0.0
2025-06-10 16:47:19.833,1.167863,-4.596453,9.3129,0.012599532,0.003643113,-0.0062138084,0.722739,0.231002,9.757574,-0.037186727,0.004081726,-2.1356544,-0.80622315,-0.0030136108,8.885025,1.6131313,-0.052070618,-2.1466408,-0.098235026,-0.0888443,-0.0030517578,-0.500437,-0.014152527,-1.7450218,1.6091894,-0.057411194,-2.0074768,-0.07419586,-0.0002670288,-0.7855339,-1.4355521,-0.006752014,-0.49134064,1.5593772,0.029258728,-0.26916885,-0.21556854,0.027961731,4.1437416,-1.2612035,-0.025062561,-6.5009537,1.9580816,-0.0034713745,-14.180515,0.0,0.0,0.0,0.0,0.0,0.0,0.0,0.0,0.0,0.0,0.0,0.0,-2.0,2.0,-2.0,-2.0,2.0,-2.0,-2.0,-2.0,-2.0,-2.0,-2.0,-2.0,0.0,0.0,0.0,0.0
2025-06-10 16:47:19.855,1.185395,-4.589158,9.310204,0.010616052,0.005327076,0.0008944289,0.724663,0.319833,9.763225,-0.037339315,0.019798279,-2.1283302,-0.8056128,-0.039405823,8.858166,1.6129787,-0.013313293,-2.1637306,-0.098235026,-0.01903534,-0.010375977,-0.5005896,-0.013542175,-1.7682152,1.6094183,0.013465881,-1.9855042,-0.07434845,0.021018982,-0.79774094,-1.4355521,-0.025215149,-0.48767853,1.5593772,0.029411316,-0.27283096,-0.21556854,0.036582947,4.170597,-1.2609746,-0.037498474,-6.5217056,1.957929,-0.0048446655,-14.179295,0.0,0.0,0.0,0.0,0.0,0.0,0.0,0.0,0.0,0.0,0.0,0.0,-2.0,2.0,-2.0,-2.0,2.0,-2.0,-2.0,-2.0,-2.0,-2.0,-2.0,-2.0,0.0,0.0,0.0,0.0
2025-06-10 16:47:19.877,1.201817,-4.580198,9.313414,0.004486561,0.0031572483,0.0047967406,0.725502,0.362496,9.806737,-0.037339315,0.013084412,-2.14542,-0.8053839,-0.03551483,8.849621,1.6131313,0.017204285,-2.1490822,-0.09831132,0.0062942505,-0.009155273,-0.50028443,0.0004196167,-1.7669945,1.6092657,-0.004463196,-1.9476624,-0.074272156,0.016822815,-0.7818718,-1.4354758,0.012626648,-0.48279572,1.5593009,-0.029182434,-0.27283096,-0.21564484,0.024986267,4.149845,-1.2611272,0.022697449,-6.548561,1.957929,-0.041923523,-14.173191,0.0,0.0,0.0,0.0,0.0,0.0,0.0,0.0,0.0,0.0,0.0,0.0,-2.0,2.0,-2.0,-2.0,2.0,-2.0,-2.0,-2.0,-2.0,-2.0,-2.0,-2.0,0.0,0.0,0.0,0.0
2025-06-10 16:47:19.898,1.21251,-4.572204,9.320702,-0.0015596262,-0.001172163,0.0058785654,0.691462,0.352403,9.744576,-0.03726302,-0.014228821,-2.11734,-0.8054602,-0.032081604,8.858166,1.6132076,0.022773743,-2.1112366,-0.09831132,-0.03665924,-0.0030517578,-0.5005896,-0.010795593,-1.752346,1.6094183,-0.013771057,-1.9916077,-0.07434845,0.03627777,-0.7867546,-1.4356284,-0.0015640259,-0.48889923,1.5593772,0.035972595,-0.27527237,-0.21564484,-0.009269714,4.1596107,-1.2610509,0.008125305,-6.49485,1.957929,0.008659363,-14.185398,0.0,0.0,0.0,0.0,0.0,0.0,0.0,0.0,0.0,0.0,0.0,0.0,-2.0,2.0,-2.0,-2.0,2.0,-2.0,-2.0,-2.0,-2.0,-2.0,-2.0,-2.0,0.0,0.0,0.0,0.0
2025-06-10 16:47:19.919,1.213616,-4.568565,9.328418,-0.0032532238,0.0027559272,0.0034568165,0.71217,0.295331,9.783888,-0.03726302,0.0004196167,-2.1393166,-0.8056128,0.122795105,8.871593,1.6132076,0.002937317,-2.1307716,-0.098616496,-0.09273529,-0.015258789,-0.5005896,-0.026741028,-1.7694359,1.609342,-0.0409317,-1.990387,-0.074272156,0.01651764,-0.7879753,-1.4355521,-0.008583069,-0.4779129,1.5594535,0.02002716,-0.27161026,-0.21556854,0.021629333,4.1596107,-1.2612035,-0.007820129,-6.524147,1.9580053,0.014305115,-14.154881,0.0,0.0,0.0,0.0,0.0,0.0,0.0,0.0,0.0,0.0,0.0,0.0,-2.0,2.0,-2.0,-2.0,2.0,-2.0,-2.0,-2.0,-2.0,-2.0,-2.0,-2.0,0.0,0.0,0.0,0.0
2025-06-10 16:47:19.940,1.208261,-4.567065,9.33111,-0.011354204,-0.0026569671,0.0027134283,0.739802,0.253457,9.744077,-0.037186727,0.025672913,-2.1527443,-0.8055365,-0.055885315,8.866711,1.6132076,0.013542175,-2.1649513,-0.09808244,0.0157547,-0.0018310547,-0.5005133,0.057487488,-1.7657738,1.6092657,-0.002708435,-1.9794006,-0.07434845,-0.0065994263,-0.7940788,-1.4356284,0.0020980835,-0.481575,1.5593772,0.031318665,-0.26916885,-0.21587372,0.034828186,4.1596107,-1.2609746,0.013771057,-6.5387955,1.957929,0.011787415,-14.163425,0.0,0.0,0.0,0.0,0.0,0.0,0.0,0.0,0.0,0.0,0.0,0.0,-2.0,2.0,-2.0,-2.0,2.0,-2.0,-2.0,-2.0,-2.0,-2.0,-2.0,-2.0,0.0,0.0,0.0,0.0
2025-06-10 16:47:19.961,1.196727,-4.565349,9.331072,-0.010991892,0.00054913294,-0.0015172496,0.736826,0.179382,9.764949,-0.03741561,0.04299164,-2.1405373,-0.8056128,-0.143013,8.874035,1.6129787,-0.0048446655,-2.16251,-0.09808244,-0.015068054,-0.01159668,-0.5005896,-0.0020217896,-1.7816429,1.6092657,-0.025901794,-1.969635,-0.07411957,0.0034713745,-0.7904167,-1.4355521,0.013084412,-0.481575,1.5592246,-0.017356873,-0.26550674,-0.21579742,0.015296936,4.1571693,-1.2609746,0.0712204,-6.5253677,1.957929,0.04184723,-14.190281,0.0,0.0,0.0,0.0,0.0,0.0,0.0,0.0,0.0,0.0,0.0,0.0,-2.0,2.0,-2.0,-2.0,2.0,-2.0,-2.0,-2.0,-2.0,-2.0,-2.0,-2.0,0.0,0.0,0.0,0.0
2025-06-10 16:47:19.983,1.182561,-4.567739,9.332501,-0.006221139,-0.00017247343,0.0016442572,0.744471,0.129904,9.741899,-0.037186727,0.001335144,-2.150303,-0.8057654,0.015296936,8.816662,1.613055,0.005836487,-2.1368752,-0.09815873,-0.014839172,-0.016479492,-0.5005133,-0.028190613,-1.7584496,1.6092657,0.028877258,-1.9867249,-0.07419586,-0.0045394897,-0.7879753,-1.4355521,0.013618469,-0.48645782,1.5593772,0.018424988,-0.26550674,-0.21579742,-0.021324158,4.1767006,-1.2612035,-3.8146973e-05,-6.503395,1.9577764,-0.00011444092,-14.168308,0.0,0.0,0.0,0.0,0.0,0.0,0.0,0.0,0.0,0.0,0.0,0.0,-2.0,2.0,-2.0,-2.0,2.0,-2.0,-2.0,-2.0,-2.0,-2.0,-2.0,-2.0,0.0,0.0,0.0,0.0
2025-06-10 16:47:20.006,1.168103,-4.571525,9.335803,-0.0034641295,-0.0040893937,0.0030309039,0.745126,0.062166,9.770166,-0.03741561,0.018882751,-2.157627,-0.8054602,0.015907288,8.8789215,1.6132839,-0.010108948,-2.1466408,-0.098006144,0.04245758,-0.022583008,-0.500437,0.027503967,-1.7315941,1.609342,0.019264221,-1.9647522,-0.07434845,-0.03490448,-0.7879753,-1.4355521,0.016365051,-0.4791336,1.5592246,-0.026359558,-0.27893448,-0.21556854,0.028266907,4.1449623,-1.2611272,0.03276825,-6.5424576,1.9580053,0.0038528442,-14.164646,0.0,0.0,0.0,0.0,0.0,0.0,0.0,0.0,0.0,0.0,0.0,0.0,-2.0,2.0,-2.0,-2.0,2.0,-2.0,-2.0,-2.0,-2.0,-2.0,-2.0,-2.0,0.0,0.0,0.0,0.0
2025-06-10 16:47:20.028,1.157623,-4.572884,9.339417,0.0017815098,0.0007707025,0.0015062714,0.746513,0.04918,9.740741,-0.037186727,0.0050735474,-2.122223,-0.8056128,0.033226013,8.797131,1.6133602,0.01750946,-2.153965,-0.09808244,0.019721985,-0.026245117,-0.500437,0.035209656,-1.7438011,1.6092657,0.026664734,-1.9659729,-0.074272156,0.0049209595,-0.7855339,-1.4355521,-0.0077438354,-0.4754715,1.5592246,-0.043296814,-0.27771378,-0.21556854,-0.031700134,4.171818,-1.2612035,0.016670227,-6.5253677,1.957929,-0.0017166138,-14.163425,0.0,0.0,0.0,0.0,0.0,0.0,0.0,0.0,0.0,0.0,0.0,0.0,-2.0,2.0,-2.0,-2.0,2.0,-2.0,-2.0,-2.0,-2.0,-2.0,-2.0,-2.0,0.0,0.0,0.0,0.0
2025-06-10 16:47:20.051,1.158386,-4.572691,9.340075,0.005088996,0.00044004986,0.000984226,0.751094,0.102759,9.76827,-0.037339315,-0.029335022,-2.1246643,-0.8056128,0.08678436,8.853283,1.6132076,-0.009727478,-2.1307716,-0.098006144,0.023460388,-0.006713867,-0.5005133,-0.0059890747,-1.7535667,1.609342,-0.022468567,-1.9647522,-0.07434845,-0.013542175,-0.7843132,-1.4355521,-0.0049209595,-0.4791336,1.5594535,0.008811951,-0.27161026,-0.21549225,0.022773743,4.166935,-1.2612798,-0.028190613,-6.504616,1.957929,-0.017585754,-14.157322,0.0,0.0,0.0,0.0,0.0,0.0,0.0,0.0,0.0,0.0,0.0,0.0,-2.0,2.0,-2.0,-2.0,2.0,-2.0,-2.0,-2.0,-2.0,-2.0,-2.0,-2.0,0.0,0.0,0.0,0.0
2025-06-10 16:47:20.072,1.160522,-4.57246,9.338825,0.005020073,0.0016339249,-0.006102631,0.730824,0.137831,9.752219,-0.037339315,-0.025749207,-2.1405373,-0.8056128,0.042152405,8.86549,1.6132076,-0.023612976,-2.1356544,-0.09808244,-0.0011062622,-0.00061035156,-0.5005896,0.013465881,-1.7547874,1.609342,0.00034332275,-1.9842834,-0.074272156,-0.027427673,-0.79529953,-1.4355521,0.009117126,-0.4766922,1.5593009,-0.04070282,-0.28137589,-0.21572113,0.0371933,4.170597,-1.2612035,-0.03353119,-6.5546646,1.9580816,0.035209656,-14.139011,0.0,0.0,0.0,0.0,0.0,0.0,0.0,0.0,0.0,0.0,0.0,0.0,-2.0,2.0,-2.0,-2.0,2.0,-2.0,-2.0,-2.0,-2.0,-2.0,-2.0,-2.0,0.0,0.0,0.0,0.0
2025-06-10 16:47:20.094,1.165607,-4.56909,9.334853,0.008555429,0.0036028656,-0.00022629938,0.757199,0.194475,9.772202,-0.03726302,0.045204163,-2.1344337,-0.8053839,-0.06908417,8.91066,1.6132076,-0.025138855,-2.16251,-0.09831132,-0.044136047,-0.0018310547,-0.5005133,-0.03261566,-1.7669945,1.6091894,-0.052604675,-2.0038147,-0.074272156,-0.014839172,-0.76844406,-1.4355521,0.007209778,-0.48523712,1.5594535,-0.0065231323,-0.27893448,-0.21556854,0.020942688,4.146183,-1.2612035,-0.022621155,-6.5107193,1.9580816,0.014839172,-14.179295,0.0,0.0,0.0,0.0,0.0,0.0,0.0,0.0,0.0,0.0,0.0,0.0,-2.0,2.0,-2.0,-2.0,2.0,-2.0,-2.0,-2.0,-2.0,-2.0,-2.0,-2.0,0.0,0.0,0.0,0.0
2025-06-10 16:47:20.116,1.172993,-4.563389,9.33292,0.005492883,0.0034229571,-0.0011243585,0.714475,0.242083,9.763826,-0.03741561,0.02254486,-2.1148987,-0.8053076,0.09525299,8.861828,1.6132076,0.013542175,-2.1515236,-0.09846391,0.03932953,-0.0030517578,-0.500437,-0.00019073486,-1.7450218,1.6094183,0.01537323,-2.0038147,-0.07411957,0.013542175,-0.7843132,-1.4356284,-0.0048446655,-0.48523712,1.5594535,0.03742218,-0.26672745,-0.21549225,0.019340515,4.153507,-1.2611272,-0.04169464,-6.5131607,1.9580053,0.018043518,-14.175632,0.0,0.0,0.0,0.0,0.0,0.0,0.0,0.0,0.0,0.0,0.0,0.0,-2.0,2.0,-2.0,-2.0,2.0,-2.0,-2.0,-2.0,-2.0,-2.0,-2.0,-2.0,0.0,0.0,0.0,0.0
2025-06-10 16:47:20.138,1.179359,-4.560393,9.333695,-0.0012428664,-0.00015873769,0.0006933669,0.754818,0.26739,9.737494,-0.03741561,0.0064468384,-2.1283302,-0.80523133,0.04169464,8.863049,1.6132076,-0.0064468384,-2.1441994,-0.09846391,-0.034370422,-0.004272461,-0.5005896,-0.021858215,-1.7706566,1.609342,-0.024147034,-1.9598694,-0.07419586,0.03429413,-0.7916374,-1.4354758,0.029640198,-0.48889923,1.5593009,-0.016288757,-0.26428604,-0.21549225,0.039100647,4.130314,-1.2612035,-0.05847931,-6.5253677,1.9580053,0.013618469,-14.180515,0.0,0.0,0.0,0.0,0.0,0.0,0.0,0.0,0.0,0.0,0.0,0.0,-2.0,2.0,-2.0,-2.0,2.0,-2.0,-2.0,-2.0,-2.0,-2.0,-2.0,-2.0,0.0,0.0,0.0,0.0
2025-06-10 16:47:20.159,1.182773,-4.557901,9.33407,-0.0026997626,0.00089997903,0.000996007,0.714167,0.241222,9.784337,-0.037491903,0.040245056,-2.1441994,-0.80523133,0.11386871,8.860607,1.6132076,-0.03376007,-2.1588478,-0.098387614,0.027656555,-0.009155273,-0.500437,-0.010261536,-1.7682152,1.6094946,0.044670105,-1.9647522,-0.07434845,0.006904602,-0.7733269,-1.4354758,0.011329651,-0.481575,1.5593009,0.03429413,-0.28137589,-0.21556854,-0.008277893,4.1278725,-1.2611272,-0.049171448,-6.537575,1.957929,-0.017662048,-14.168308,0.0,0.0,0.0,0.0,0.0,0.0,0.0,0.0,0.0,0.0,0.0,0.0,-2.0,2.0,-2.0,-2.0,2.0,-2.0,-2.0,-2.0,-2.0,-2.0,-2.0,-2.0,0.0,0.0,0.0,0.0
2025-06-10 16:47:20.179,1.179426,-4.557018,9.334724,-0.0051555457,-0.0016284445,-0.0010792417,0.747405,0.224157,9.742593,-0.037491903,-0.07602692,-2.0978088,-0.8054602,-0.040779114,8.845959,1.6132839,-0.014915466,-2.1515236,-0.09846391,0.02735138,0.004272461,-0.5005133,0.015068054,-1.740139,1.609342,0.013923645,-1.9989319,-0.074272156,0.012321472,-0.789196,-1.4355521,0.02986908,-0.4742508,1.5593772,0.028190613,-0.27771378,-0.21572113,-0.07091522,4.15839,-1.2610509,-0.030326843,-6.5351334,1.957929,-0.042686462,-14.158543,0.0,0.0,0.0,0.0,0.0,0.0,0.0,0.0,0.0,0.0,0.0,0.0,-2.0,2.0,-2.0,-2.0,2.0,-2.0,-2.0,-2.0,-2.0,-2.0,-2.0,-2.0,0.0,0.0,0.0,0.0
2025-06-10 16:47:20.201,1.173069,-4.559743,9.335,-0.0068349186,-0.0048274933,0.0011386703,0.724912,0.184196,9.772882,-0.03726302,-0.015068054,-2.1246643,-0.8055365,-0.021476746,8.854504,1.6131313,-0.0674057,-2.1649513,-0.09831132,0.011329651,-0.010375977,-0.5005133,-0.03261566,-1.7779808,1.609342,0.020866394,-1.9769592,-0.074272156,0.010643005,-0.7916374,-1.4355521,0.016593933,-0.4730301,1.5593772,0.010871887,-0.27161026,-0.21564484,-0.02002716,4.1486244,-1.2610509,0.024147034,-6.5021744,1.957929,-0.001411438,-14.165867,0.0,0.0,0.0,0.0,0.0,0.0,0.0,0.0,0.0,0.0,0.0,0.0,-2.0,2.0,-2.0,-2.0,2.0,-2.0,-2.0,-2.0,-2.0,-2.0,-2.0,-2.0,0.0,0.0,0.0,0.0
2025-06-10 16:47:20.222,1.163778,-4.560868,9.336787,-0.003266279,-0.00015453144,0.0017197776,0.746206,0.126842,9.752376,-0.037186727,0.023612976,-2.1246643,-0.8054602,0.011100769,8.855724,1.613055,0.045051575,-2.1112366,-0.098387614,0.03780365,-0.014038086,-0.5006659,-0.00919342,-1.7535667,1.609342,-0.045890808,-1.9598694,-0.074272156,-0.0063705444,-0.7782097,-1.4355521,-0.0037765503,-0.48889923,1.5594535,0.043296814,-0.27649307,-0.21572113,-0.00049591064,4.1437416,-1.2611272,-0.011787415,-6.5314713,1.9580053,0.012931824,-14.195164,0.0,0.0,0.0,0.0,0.0,0.0,0.0,0.0,0.0,0.0,0.0,0.0,-2.0,2.0,-2.0,-2.0,2.0,-2.0,-2.0,-2.0,-2.0,-2.0,-2.0,-2.0,0.0,0.0,0.0,0.0
2025-06-10 16:47:20.244,1.152743,-4.561397,9.340789,-0.004364597,-0.0012359375,0.00032712705,0.745993,0.101057,9.759912,-0.03741561,-0.067481995,-2.153965,-0.8054602,0.031471252,8.83131,1.6132839,-0.049705505,-2.157627,-0.09808244,-0.01613617,-0.014038086,-0.5005133,-0.0497818,-1.760891,1.609342,0.029258728,-1.9855042,-0.07396698,-0.013847351,-0.7843132,-1.4355521,0.023994446,-0.4766922,1.5593009,0.037727356,-0.27771378,-0.21564484,-0.06916046,4.1315346,-1.2612035,-0.047950745,-6.5339127,1.9580053,0.02773285,-14.192722,0.0,0.0,0.0,0.0,0.0,0.0,0.0,0.0,0.0,0.0,0.0,0.0,-2.0,2.0,-2.0,-2.0,2.0,-2.0,-2.0,-2.0,-2.0,-2.0,-2.0,-2.0,0.0,0.0,0.0,0.0
2025-06-10 16:47:20.266,1.145233,-4.561177,9.342484,0.001167154,0.00094424054,0.0016591449,0.75244,0.096474,9.765805,-0.037339315,-0.040473938,-2.1161194,-0.8054602,-0.07671356,8.903336,1.6132076,0.00705719,-2.157627,-0.09785356,0.015602112,-0.014038086,-0.5005896,-0.036506653,-1.7682152,1.6092657,-0.007286072,-1.9867249,-0.07434845,-0.0049972534,-0.80384445,-1.4355521,-0.02117157,-0.48401642,1.5593009,0.011634827,-0.27038956,-0.21564484,-0.068626404,4.162052,-1.2610509,-0.011329651,-6.532692,1.9580816,-0.01865387,-14.162205,0.0,0.0,0.0,0.0,0.0,0.0,0.0,0.0,0.0,0.0,0.0,0.0,-2.0,2.0,-2.0,-2.0,2.0,-2.0,-2.0,-2.0,-2.0,-2.0,-2.0,-2.0,0.0,0.0,0.0,0.0
2025-06-10 16:47:20.287,1.141418,-4.559929,9.342998,-0.001906074,-0.0014938621,-0.0023986583,0.749366,0.123193,9.775266,-0.03741561,0.029411316,-2.1271095,-0.80523133,-0.016670227,8.856945,1.6132076,-0.04184723,-2.1466408,-0.09815873,0.057792664,-0.01159668,-0.500437,0.0076675415,-1.7547874,1.6092657,0.008811951,-1.948883,-0.07434845,-0.0038528442,-0.7940788,-1.4355521,0.026893616,-0.48523712,1.5593009,0.023155212,-0.27893448,-0.21541595,0.10593414,4.163273,-1.2611272,0.016288757,-6.5180435,1.957929,0.02002716,-14.175632,0.0,0.0,0.0,0.0,0.0,0.0,0.0,0.0,0.0,0.0,0.0,0.0,-2.0,2.0,-2.0,-2.0,2.0,-2.0,-2.0,-2.0,-2.0,-2.0,-2.0,-2.0,0.0,0.0,0.0,0.0
2025-06-10 16:47:20.308,1.140058,-4.561002,9.342211,0.0013989861,0.0005671971,-0.00012810716,0.746242,0.137569,9.752359,-0.037568197,-0.065574646,-2.1441994,-0.8054602,-0.0065994263,8.841076,1.613055,-0.0025558472,-2.14542,-0.09808244,-0.054893494,-0.015258789,-0.5005133,0.004234314,-1.7596703,1.609342,0.008735657,-1.9562073,-0.07411957,0.009422302,-0.80506516,-1.4354758,0.028800964,-0.47058868,1.5593772,0.024528503,-0.27038956,-0.21556854,-0.03551483,4.133976,-1.2610509,-0.023536682,-6.5229263,1.9580053,-0.009422302,-14.160984,0.0,0.0,0.0,0.0,0.0,0.0,0.0,0.0,0.0,0.0,0.0,0.0,-2.0,2.0,-2.0,-2.0,2.0,-2.0,-2.0,-2.0,-2.0,-2.0,-2.0,-2.0,0.0,0.0,0.0,0.0
2025-06-10 16:47:20.329,1.143353,-4.55726,9.342299,0.004337859,0.0015881623,7.883652e-05,0.767701,0.174762,9.748301,-0.037491903,0.00957489,-2.1356544,-0.8054602,-0.0812912,8.859386,1.6132839,-0.018501282,-2.1319923,-0.098387614,-0.0049972534,-0.0018310547,-0.5005896,0.0033187866,-1.7755394,1.6095709,0.039634705,-1.9647522,-0.074272156,0.012016296,-0.7916374,-1.4355521,-0.018119812,-0.48645782,1.5593772,0.0005722046,-0.27771378,-0.21564484,-0.06427765,4.1681557,-1.2612035,-0.0422287,-6.552223,1.9580053,0.015830994,-14.174412,0.0,0.0,0.0,0.0,0.0,0.0,0.0,0.0,0.0,0.0,0.0,0.0,-2.0,2.0,-2.0,-2.0,2.0,-2.0,-2.0,-2.0,-2.0,-2.0,-2.0,-2.0,0.0,0.0,0.0,0.0
2025-06-10 16:47:20.351,1.150515,-4.552207,9.340769,0.0010375808,-0.0014024244,0.0006211801,0.727455,0.221388,9.743947,-0.03741561,-0.012931824,-2.1234436,-0.8053076,-0.011634827,8.833752,1.6132076,-0.0050735474,-2.1564064,-0.098616496,-0.01499176,-0.00793457,-0.5003607,0.0020217896,-1.7755394,1.609342,0.0024795532,-1.969635,-0.07434845,-0.0023269653,-0.7782097,-1.4354758,0.03917694,-0.48523712,1.5593772,-0.042762756,-0.27161026,-0.21533966,-0.030174255,4.1327553,-1.2609746,0.055503845,-6.5094986,1.9580053,0.020256042,-14.190281,0.0,0.0,0.0,0.0,0.0,0.0,0.0,0.0,0.0,0.0,0.0,0.0,-2.0,2.0,-2.0,-2.0,2.0,-2.0,-2.0,-2.0,-2.0,-2.0,-2.0,-2.0,0.0,0.0,0.0,0.0
2025-06-10 16:47:20.372,1.152971,-4.550496,9.339528,0.0014357253,0.0018989706,-0.0012136844,0.765355,0.230812,9.761902,-0.03741561,0.011558533,-2.1307716,-0.80500245,-0.037651062,8.8508415,1.6132076,-0.049552917,-2.1600685,-0.09831132,0.068855286,-0.004272461,-0.500437,0.028495789,-1.760891,1.6092657,-0.012779236,-1.9855042,-0.07434845,-0.0005722046,-0.7928581,-1.4355521,0.013465881,-0.49011993,1.5593772,-0.010871887,-0.27649307,-0.21556854,0.029716492,4.1364174,-1.2611272,-0.016899109,-6.520485,1.9580053,-0.0002670288,-14.159763,0.0,0.0,0.0,0.0,0.0,0.0,0.0,0.0,0.0,0.0,0.0,0.0,-2.0,2.0,-2.0,-2.0,2.0,-2.0,-2.0,-2.0,-2.0,-2.0,-2.0,-2.0,0.0,0.0,0.0,0.0
2025-06-10 16:47:20.393,1.154428,-4.546975,9.339902,-0.0016939642,0.0010890506,-0.00035451128,0.734993,0.232962,9.757833,-0.037568197,0.013618469,-2.1283302,-0.80523133,-0.064964294,8.887466,1.6132839,0.0017929077,-2.1466408,-0.098387614,0.01964569,0.004272461,-0.5005133,0.02910614,-1.7499046,1.6092657,-0.039634705,-1.981842,-0.07434845,0.016670227,-0.7904167,-1.4355521,-0.016288757,-0.48645782,1.5593772,0.0007247925,-0.27161026,-0.21564484,-0.025520325,4.1571693,-1.2611272,-0.024528503,-6.5107193,1.957929,-0.011787415,-14.174412,0.0,0.0,0.0,0.0,0.0,0.0,0.0,0.0,0.0,0.0,0.0,0.0,-2.0,2.0,-2.0,-2.0,2.0,-2.0,-2.0,-2.0,-2.0,-2.0,-2.0,-2.0,0.0,0.0,0.0,0.0
2025-06-10 16:47:20.414,1.151728,-4.543653,9.341863,-0.0031274555,0.0011573802,0.0010853504,0.737543,0.212389,9.762746,-0.03764449,-0.061683655,-2.1258888,-0.8053839,-0.072135925,8.852062,1.6133602,0.008049011,-2.1344337,-0.09846391,0.016593933,-0.004272461,-0.5005133,0.021858215,-1.7511253,1.6094946,0.036125183,-1.9635315,-0.074272156,0.011711121,-0.79774094,-1.4355521,0.00667572,-0.48645782,1.5594535,0.038871765,-0.27527237,-0.21556854,-0.045661926,4.1644936,-1.2611272,-0.032539368,-6.52903,1.9580053,0.027275085,-14.15366,0.0,0.0,0.0,0.0,0.0,0.0,0.0,0.0,0.0,0.0,0.0,0.0,-2.0,2.0,-2.0,-2.0,2.0,-2.0,-2.0,-2.0,-2.0,-2.0,-2.0,-2.0,0.0,0.0,0.0,0.0
2025-06-10 16:47:20.435,1.15134,-4.540703,9.342365,-0.0014658148,0.0004365592,0.0008216661,0.737691,0.187969,9.745779,-0.037568197,0.031318665,-2.1380959,-0.80500245,0.034446716,8.827648,1.6131313,-0.07411957,-2.1161194,-0.09808244,0.010261536,-0.01159668,-0.5005896,0.013389587,-1.7462425,1.6094183,-0.02445221,-1.9720764,-0.074272156,-0.010108948,-0.80384445,-1.4354758,0.04611969,-0.48401642,1.5594535,0.061912537,-0.27527237,-0.21572113,-0.010185242,4.1413,-1.2612798,-0.030937195,-6.51194,1.957929,-0.043754578,-14.178074,0.0,0.0,0.0,0.0,0.0,0.0,0.0,0.0,0.0,0.0,0.0,0.0,-2.0,2.0,-2.0,-2.0,2.0,-2.0,-2.0,-2.0,-2.0,-2.0,-2.0,-2.0,0.0,0.0,0.0,0.0
2025-06-10 16:47:20.456,1.146277,-4.539673,9.34513,-0.0006636963,0.0019026706,-0.0012497779,0.744794,0.157947,9.777345,-0.037491903,0.031013489,-2.1441994,-0.80523133,-0.08686066,8.845959,1.6132839,-0.0017929077,-2.1490822,-0.09815873,-0.0074386597,-0.014038086,-0.5005896,-0.011787415,-1.7572289,1.6094946,-0.015068054,-1.9769592,-0.074272156,0.017814636,-0.79896164,-1.4353995,-0.002708435,-0.49011993,1.5593009,-0.08403778,-0.27161026,-0.21549225,0.026283264,4.15839,-1.2612035,-0.025901794,-6.5180435,1.957929,0.01865387,-14.159763,0.0,0.0,0.0,0.0,0.0,0.0,0.0,0.0,0.0,0.0,0.0,0.0,-2.0,2.0,-2.0,-2.0,2.0,-2.0,-2.0,-2.0,-2.0,-2.0,-2.0,-2.0,0.0,0.0,0.0,0.0
2025-06-10 16:47:20.478,1.140451,-4.538141,9.345613,-0.015665812,-0.006490094,-0.0049262964,0.660126,0.190047,9.594644,-0.03741561,-0.12561798,-1.9989319,-0.8054602,0.107154846,8.823986,1.6137416,-0.018424988,-2.1930275,-0.098006144,-0.018501282,-0.021362305,-0.5003607,0.015296936,-1.8023949,1.609342,-0.027809143,-1.9891663,-0.07434845,-0.008735657,-0.79652023,-1.4356284,-0.034751892,-0.40955353,1.5596824,0.057411194,-0.27771378,-0.21579742,0.09601593,4.0582886,-1.2618902,-0.08014679,-6.393532,1.9589971,0.0104904175,-14.192722,0.0,0.0,0.0,0.0,0.0,0.0,0.0,0.0,0.0,0.0,0.0,0.0,-2.0,2.0,-2.0,-2.0,2.0,-2.0,-2.0,-2.0,-2.0,-2.0,-2.0,-2.0,0.0,0.0,0.0,0.0
2025-06-10 16:47:20.499,1.142107,-4.542372,9.335392,-0.0069095315,-0.010320637,-0.0040690084,0.784637,0.190366,9.986043,-0.037949666,-0.0258255,-2.1075745,-0.8057654,-0.07297516,8.897232,1.6139705,0.009117126,-2.186924,-0.09815873,0.03993988,-0.012817383,-0.50005555,0.05947113,-1.7877464,1.6094946,-0.03566742,-2.0013733,-0.07419586,0.009651184,-0.7818718,-1.4359336,0.017738342,-0.4779129,1.5593772,0.0015640259,-0.28137589,-0.21556854,-0.036125183,4.1559486,-1.261585,0.023918152,-6.5107193,1.9590734,0.0207901,-14.184177,0.0,0.0,0.0,0.0,0.0,0.0,0.0,0.0,0.0,0.0,0.0,0.0,-2.0,2.0,-2.0,-2.0,2.0,-2.0,-2.0,-2.0,-2.0,-2.0,-2.0,-2.0,0.0,0.0,0.0,0.0
2025-06-10 16:47:20.521,1.127927,-4.543129,9.333233,-0.009328034,-0.004700311,-0.0071091447,0.637322,0.254467,10.112336,-0.03764449,-0.0020217896,-2.1771584,-0.80523133,0.0233078,8.872814,1.6138942,0.0024032593,-2.1808205,-0.09846391,-0.009727478,0.014038086,-0.50013185,0.04711151,-1.7743187,1.609342,-0.03528595,-1.9586487,-0.074272156,0.008811951,-0.7928581,-1.4359336,-0.03856659,-0.48767853,1.5593772,-0.07091522,-0.26550674,-0.21541595,0.017662048,4.149845,-1.2615087,0.08365631,-6.499733,1.9589971,-0.013771057,-14.201267,0.0,0.0,0.0,0.0,0.0,0.0,0.0,0.0,0.0,0.0,0.0,0.0,-2.0,2.0,-2.0,-2.0,2.0,-2.0,-2.0,-2.0,-2.0,-2.0,-2.0,-2.0,0.0,0.0,0.0,0.0
2025-06-10 16:47:20.541,1.131392,-4.551198,9.335715,0.012095516,0.004209891,0.00063873816,0.817983,0.199942,9.596912,-0.03741561,0.05924225,-2.1466408,-0.80492616,0.0062942505,8.841076,1.6138942,0.04032135,-2.1551857,-0.09831132,-0.01941681,-0.009155273,-0.49982664,0.028495789,-1.7779808,1.6094183,0.017738342,-1.9842834,-0.07434845,0.014076233,-0.7916374,-1.4355521,0.027580261,-0.48523712,1.5591483,-0.015449524,-0.28137589,-0.21572113,-0.024757385,4.186466,-1.2615087,-0.040168762,-6.5229263,1.9589971,-0.009346008,-14.212254,0.0,0.0,0.0,0.0,0.0,0.0,0.0,0.0,0.0,0.0,0.0,0.0,-2.0,2.0,-2.0,-2.0,2.0,-2.0,-2.0,-2.0,-2.0,-2.0,-2.0,-2.0,0.0,0.0,0.0,0.0
2025-06-10 16:47:20.563,1.134972,-4.551808,9.340534,0.0054726545,0.002098165,0.010545977,0.8967,0.152916,9.544094,-0.03741561,-0.006752014,-2.1148987,-0.80507874,-0.03742218,8.819103,1.6138179,-0.008277893,-2.1210022,-0.098235026,-0.07732391,-0.00793457,-0.50028443,0.0065994263,-1.7584496,1.609342,-0.04261017,-1.9232483,-0.07434845,0.008125305,-0.79529953,-1.4356284,0.0146102905,-0.4718094,1.5593772,0.02544403,-0.26672745,-0.21564484,-0.044059753,4.166935,-1.261585,0.02445221,-6.4936295,1.9590734,0.044288635,-14.215916,0.0,0.0,0.0,0.0,0.0,0.0,0.0,0.0,0.0,0.0,0.0,0.0,-2.0,2.0,-2.0,-2.0,2.0,-2.0,-2.0,-2.0,-2.0,-2.0,-2.0,-2.0,0.0,0.0,0.0,0.0
2025-06-10 16:47:20.584,1.127871,-4.556497,9.348391,-0.006255958,-0.0027306897,0.004514364,0.780239,0.123592,9.869551,-0.037491903,0.0024795532,-2.089264,-0.80515504,0.052452087,8.83009,1.6139705,-0.0233078,-2.1820412,-0.09815873,-0.08312225,-0.01159668,-0.50028443,-0.035438538,-1.7865257,1.6092657,0.028114319,-2.011139,-0.07434845,-0.020484924,-0.7867546,-1.4355521,0.0090408325,-0.48401642,1.5593772,0.010643005,-0.27283096,-0.21541595,0.020256042,4.1474037,-1.261585,0.008201599,-6.5009537,1.9590734,0.05657196,-14.226902,0.0,0.0,0.0,0.0,0.0,0.0,0.0,0.0,0.0,0.0,0.0,0.0,-2.0,2.0,-2.0,-2.0,2.0,-2.0,-2.0,-2.0,-2.0,-2.0,-2.0,-2.0,0.0,0.0,0.0,0.0
2025-06-10 16:47:20.606,1.123179,-4.555304,9.349566,0.0054032947,0.0029581585,-0.0037976967,0.765441,0.157614,9.882802,-0.037568197,-0.07808685,-2.1210022,-0.8054602,-0.096321106,8.872814,1.6138942,0.018730164,-2.1808205,-0.098235026,0.02193451,-0.006713867,-0.50028443,-0.038261414,-1.7767601,1.6092657,0.010108948,-1.945221,-0.07434845,0.004234314,-0.7879753,-1.4356284,-0.05268097,-0.4779129,1.5594535,0.008735657,-0.27649307,-0.21564484,-0.058403015,4.162052,-1.2618139,0.007209778,-6.51194,1.9589971,-0.0030899048,-14.226902,0.0,0.0,0.0,0.0,0.0,0.0,0.0,0.0,0.0,0.0,0.0,0.0,-2.0,2.0,-2.0,-2.0,2.0,-2.0,-2.0,-2.0,-2.0,-2.0,-2.0,-2.0,0.0,0.0,0.0,0.0
2025-06-10 16:47:20.627,1.127814,-4.545989,9.344592,0.0017460798,0.0044817436,-0.0054619554,0.717999,0.18815,9.701222,-0.037720785,-0.045585632,-2.1344337,-0.8053839,0.013008118,8.886246,1.6139705,-0.015296936,-2.178379,-0.098235026,0.010108948,0.00061035156,-0.50013185,-0.011940002,-1.7474632,1.6092657,0.030326843,-2.0099182,-0.074272156,0.022239685,-0.7794304,-1.4357047,0.016899109,-0.48523712,1.5594535,0.043296814,-0.27283096,-0.21579742,-0.010719299,4.1486244,-1.2619665,-0.0031661987,-6.524147,1.9589971,-0.00019073486,-14.228123,0.0,0.0,0.0,0.0,0.0,0.0,0.0,0.0,0.0,0.0,0.0,0.0,-2.0,2.0,-2.0,-2.0,2.0,-2.0,-2.0,-2.0,-2.0,-2.0,-2.0,-2.0,0.0,0.0,0.0,0.0
2025-06-10 16:47:20.648,1.130051,-4.540367,9.33962,0.0016975771,0.0038309803,-0.0037117917,0.6692,0.202908,9.616553,-0.03764449,0.0623703,-2.1063538,-0.80523133,-0.03200531,8.843517,1.6138179,0.018043518,-2.174717,-0.09831132,0.027961731,-0.00793457,-0.500437,0.0118637085,-1.7816429,1.609342,-0.039787292,-1.9610901,-0.07434845,0.0049972534,-0.7904167,-1.4357047,-0.0049209595,-0.45838165,1.5593009,-0.012702942,-0.27161026,-0.21556854,0.016365051,4.1571693,-1.2617376,-0.07785797,-6.487526,1.9589971,-0.0283432,-14.233006,0.0,0.0,0.0,0.0,0.0,0.0,0.0,0.0,0.0,0.0,0.0,0.0,-2.0,2.0,-2.0,-2.0,2.0,-2.0,-2.0,-2.0,-2.0,-2.0,-2.0,-2.0,0.0,0.0,0.0,0.0
2025-06-10 16:47:20.669,1.127342,-4.534228,9.34251,-0.0023715533,-0.00027668703,0.0030722506,0.677561,0.151471,9.822621,-0.037568197,0.025596619,-2.1307716,-0.80523133,0.027961731,8.773937,1.6138942,-0.008735657,-2.157627,-0.098387614,0.021095276,-0.0018310547,-0.50028443,-3.8146973e-05,-1.7633324,1.609342,-0.032463074,-1.9879456,-0.07442474,-0.0011825562,-0.7928581,-1.4359336,-0.024375916,-0.4742508,1.5594535,0.0014877319,-0.27649307,-0.21572113,-0.033226013,4.1608315,-1.261585,0.013542175,-6.524147,1.9589971,0.022163391,-14.217136,0.0,0.0,0.0,0.0,0.0,0.0,0.0,0.0,0.0,0.0,0.0,0.0,-2.0,2.0,-2.0,-2.0,2.0,-2.0,-2.0,-2.0,-2.0,-2.0,-2.0,-2.0,0.0,0.0,0.0,0.0
2025-06-10 16:47:20.690,1.124858,-4.535745,9.34557,-0.0001219636,-0.0041188025,0.0017291501,0.724516,0.16764,9.826978,-0.037491903,0.037574768,-2.1210022,-0.80507874,-0.07335663,8.8386345,1.6137416,0.0059890747,-2.1808205,-0.098387614,-0.022621155,0.006713867,-0.50005555,0.0333786,-1.7474632,1.609342,0.033454895,-1.9659729,-0.07434845,-0.012550354,-0.789196,-1.4357047,-0.008277893,-0.4766922,1.5593772,-0.020637512,-0.26062393,-0.21549225,0.00034332275,4.1413,-1.2617376,-0.022468567,-6.5094986,1.9589971,0.02445221,-14.200047,0.0,0.0,0.0,0.0,0.0,0.0,0.0,0.0,0.0,0.0,0.0,0.0,-2.0,2.0,-2.0,-2.0,2.0,-2.0,-2.0,-2.0,-2.0,-2.0,-2.0,-2.0,0.0,0.0,0.0,0.0
2025-06-10 16:47:20.712,1.126043,-4.537746,9.347509,0.0026276978,-0.0010091319,-0.00038002798,0.78125,0.177282,9.703388,-0.037339315,0.03200531,-2.105133,-0.80477357,0.015678406,8.859386,1.6138179,-0.04322052,-2.1698341,-0.098235026,0.036582947,-0.017700195,-0.50028443,-0.0025558472,-1.7560081,1.6094946,0.022010803,-1.9855042,-0.07434845,-0.014533997,-0.7782097,-1.435781,-0.03627777,-0.4791336,1.5594535,-0.022773743,-0.285038,-0.21541595,0.020103455,4.1779213,-1.261585,0.04550934,-6.5143814,1.9589208,-0.0037002563,-14.219578,0.0,0.0,0.0,0.0,0.0,0.0,0.0,0.0,0.0,0.0,0.0,0.0,-2.0,2.0,-2.0,-2.0,2.0,-2.0,-2.0,-2.0,-2.0,-2.0,-2.0,-2.0,0.0,0.0,0.0,0.0
2025-06-10 16:47:20.733,1.123448,-4.538895,9.347364,-0.0033806853,-0.0034446516,-0.00029082422,0.788194,0.177632,9.781763,-0.037568197,0.0032424927,-2.1075745,-0.80507874,-0.05519867,8.844738,1.6139705,-0.037651062,-2.1551857,-0.09815873,-0.032844543,-0.01159668,-0.50028443,0.074653625,-1.7840843,1.6094183,-0.034980774,-1.957428,-0.07434845,-0.021858215,-0.789196,-1.4356284,0.0050735474,-0.4791336,1.5595298,0.016899109,-0.27771378,-0.21549225,0.016746521,4.0912476,-1.261585,0.031547546,-6.5217056,1.9589971,-0.010948181,-14.20615,0.0,0.0,0.0,0.0,0.0,0.0,0.0,0.0,0.0,0.0,0.0,0.0,-2.0,2.0,-2.0,-2.0,2.0,-2.0,-2.0,-2.0,-2.0,-2.0,-2.0,-2.0,0.0,0.0,0.0,0.0
2025-06-10 16:47:20.754,1.119782,-4.542251,9.346752,-0.00083051494,-0.0019742989,-0.00017654005,0.790329,0.16218,9.815313,-0.037720785,-0.04573822,-2.11734,-0.80484986,-0.020179749,8.821545,1.6137416,0.038719177,-2.1551857,-0.09831132,-0.024757385,-0.0030517578,-0.50005555,0.0024032593,-1.7767601,1.6095709,0.0046920776,-1.9598694,-0.07434845,0.0010299683,-0.789196,-1.435781,0.05870819,-0.481575,1.5594535,-0.008964539,-0.27405167,-0.21541595,0.004081726,4.15839,-1.261585,-0.057640076,-6.5009537,1.9589208,0.0008773804,-14.215916,0.0,0.0,0.0,0.0,0.0,0.0,0.0,0.0,0.0,0.0,0.0,0.0,-2.0,2.0,-2.0,-2.0,2.0,-2.0,-2.0,-2.0,-2.0,-2.0,-2.0,-2.0,0.0,0.0,0.0,0.0
2025-06-10 16:47:20.775,1.119099,-4.54123,9.345408,0.0016668767,0.002972854,-0.0022133568,0.759795,0.160998,9.789365,-0.03779708,-0.017356873,-2.129551,-0.8053076,-0.0021743774,8.804455,1.6138942,0.037269592,-2.1722755,-0.09846391,-0.035820007,-0.00061035156,-0.50013185,-0.026435852,-1.7596703,1.6092657,0.0076675415,-2.006256,-0.074272156,-0.013694763,-0.7855339,-1.435781,0.039711,-0.481575,1.5593772,0.0472641,-0.27771378,-0.21549225,-0.022621155,4.142521,-1.2615087,-0.018119812,-6.5180435,1.9588445,0.027961731,-14.207371,0.0,0.0,0.0,0.0,0.0,0.0,0.0,0.0,0.0,0.0,0.0,0.0,-2.0,2.0,-2.0,-2.0,2.0,-2.0,-2.0,-2.0,-2.0,-2.0,-2.0,-2.0,0.0,0.0,0.0,0.0
2025-06-10 16:47:20.796,1.117225,-4.538285,9.34653,-0.0014038207,0.0048078583,0.0037897904,0.723402,0.1379,9.719973,-0.037568197,0.042762756,-2.1405373,-0.80523133,0.009117126,8.845959,1.6137416,0.033302307,-2.1832619,-0.09831132,-0.022392273,-0.005493164,-0.50020814,0.03894806,-1.7682152,1.6094183,0.0434494,-1.9989319,-0.074272156,0.002861023,-0.80262375,-1.4357047,-0.043907166,-0.4791336,1.5593009,-0.04245758,-0.27405167,-0.21556854,0.043525696,4.179142,-1.2616613,-0.023765564,-6.5131607,1.9589971,-0.023536682,-14.215916,0.0,0.0,0.0,0.0,0.0,0.0,0.0,0.0,0.0,0.0,0.0,0.0,-2.0,2.0,-2.0,-2.0,2.0,-2.0,-2.0,-2.0,-2.0,-2.0,-2.0,-2.0,0.0,0.0,0.0,0.0
2025-06-10 16:47:20.817,1.116355,-4.531998,9.34998,-0.0007089178,0.0031759755,0.0014117793,0.696707,0.174904,9.753433,-0.03764449,-0.016288757,-2.113678,-0.80523133,0.038490295,8.874035,1.6138942,-0.023155212,-2.150303,-0.09846391,0.0017929077,-0.012817383,-0.50028443,0.026817322,-1.760891,1.609342,-0.05016327,-1.9659729,-0.07434845,-0.027809143,-0.79529953,-1.4357047,-0.041389465,-0.49011993,1.5593772,0.0045394897,-0.27527237,-0.21549225,0.0025558472,4.133976,-1.2617376,-0.002632141,-6.4972916,1.9590734,0.06664276,-14.184177,0.0,0.0,0.0,0.0,0.0,0.0,0.0,0.0,0.0,0.0,0.0,0.0,-2.0,2.0,-2.0,-2.0,2.0,-2.0,-2.0,-2.0,-2.0,-2.0,-2.0,-2.0,0.0,0.0,0.0,0.0
2025-06-10 16:47:20.839,1.114235,-4.529637,9.351714,0.0020406912,-0.0032874148,-0.001788404,0.697688,0.143272,9.796671,-0.03741561,0.0065231323,-2.1002502,-0.80507874,-0.031852722,8.8789215,1.6139705,-0.0074386597,-2.1942482,-0.098235026,-0.02368927,-0.00061035156,-0.500437,0.019874573,-1.752346,1.6092657,-0.04940033,-1.9623108,-0.074272156,-0.0025558472,-0.7879753,-1.435781,-0.048561096,-0.48401642,1.5593009,0.021476746,-0.27893448,-0.21564484,-0.039024353,4.163273,-1.2616613,-0.021324158,-6.5265884,1.9591497,0.0333786,-14.218357,0.0,0.0,0.0,0.0,0.0,0.0,0.0,0.0,0.0,0.0,0.0,0.0,-2.0,2.0,-2.0,-2.0,2.0,-2.0,-2.0,-2.0,-2.0,-2.0,-2.0,-2.0,0.0,0.0,0.0,0.0
2025-06-10 16:47:20.860,1.111397,-4.530597,9.35131,-0.0009868615,-0.0021884334,-0.0012473693,0.724249,0.144588,9.744226,-0.037491903,0.059165955,-2.1588478,-0.80500245,0.0020217896,8.845959,1.6137416,-0.03681183,-2.1490822,-0.098235026,-0.08327484,-0.006713867,-0.50013185,-0.022773743,-1.7511253,1.6094183,0.018348694,-1.9415588,-0.07434845,-0.017814636,-0.79529953,-1.435781,-0.01712799,-0.46936798,1.5593772,0.022315979,-0.26550674,-0.21572113,-0.009117126,4.1559486,-1.2616613,0.031547546,-6.5009537,1.9589208,-0.020637512,-14.198826,0.0,0.0,0.0,0.0,0.0,0.0,0.0,0.0,0.0,0.0,0.0,0.0,-2.0,2.0,-2.0,-2.0,2.0,-2.0,-2.0,-2.0,-2.0,-2.0,-2.0,-2.0,0.0,0.0,0.0,0.0
2025-06-10 16:47:20.881,1.110366,-4.532413,9.35043,0.0011133455,0.00021717131,0.0015829961,0.771088,0.160457,9.709371,-0.037491903,0.04962921,-2.1466408,-0.8053839,-0.048484802,8.861828,1.6138179,0.068244934,-2.1771584,-0.09831132,0.06969452,-0.006713867,-0.50028443,0.033302307,-1.7669945,1.6094183,-0.028114319,-1.9867249,-0.07434845,-0.013084412,-0.7904167,-1.4356284,0.008735657,-0.4791336,1.5593009,0.002861023,-0.27893448,-0.21541595,0.0522995,4.154728,-1.2618139,0.018119812,-6.5229263,1.9589971,-0.004310608,-14.18906,0.0,0.0,0.0,0.0,0.0,0.0,0.0,0.0,0.0,0.0,0.0,0.0,-2.0,2.0,-2.0,-2.0,2.0,-2.0,-2.0,-2.0,-2.0,-2.0,-2.0,-2.0,0.0,0.0,0.0,0.0
2025-06-10 16:47:20.902,1.107318,-4.533611,9.352064,-0.00036913712,0.0023586554,0.0010195865,0.780709,0.176712,9.77391,-0.037720785,-0.06816864,-2.1405373,-0.80507874,0.029716492,8.833752,1.6137416,-0.015449524,-2.1771584,-0.09831132,0.04611969,-0.015258789,-0.50013185,0.021324158,-1.7743187,1.6094183,-0.028648376,-1.9708557,-0.07434845,-0.0017929077,-0.7916374,-1.4356284,0.024604797,-0.48889923,1.5593009,-0.033836365,-0.27527237,-0.21541595,-0.07183075,4.1693764,-1.2616613,-0.002784729,-6.5021744,1.9588445,0.008354187,-14.207371,0.0,0.0,0.0,0.0,0.0,0.0,0.0,0.0,0.0,0.0,0.0,0.0,-2.0,2.0,-2.0,-2.0,2.0,-2.0,-2.0,-2.0,-2.0,-2.0,-2.0,-2.0,0.0,0.0,0.0,0.0
2025-06-10 16:47:20.924,1.106249,-4.533108,9.35485,9.838421e-05,8.901179e-06,-0.0011202744,0.74328,0.186652,9.776709,-0.037873372,-0.005378723,-2.1588478,-0.80500245,-0.029640198,8.828869,1.6138942,0.0064468384,-2.1368752,-0.098235026,0.0059127808,-0.014038086,-0.5005133,0.008125305,-1.7438011,1.6094183,-0.0009536743,-1.9720764,-0.074272156,0.011253357,-0.7940788,-1.4356284,0.011100769,-0.45594025,1.5594535,0.031166077,-0.27161026,-0.21572113,0.023231506,4.151066,-1.2618139,0.02872467,-6.5131607,1.9589208,0.0031661987,-14.178074,0.0,0.0,0.0,0.0,0.0,0.0,0.0,0.0,0.0,0.0,0.0,0.0,-2.0,2.0,-2.0,-2.0,2.0,-2.0,-2.0,-2.0,-2.0,-2.0,-2.0,-2.0,0.0,0.0,0.0,0.0
2025-06-10 16:47:20.944,1.107014,-4.531435,9.354218,0.00088990846,0.002991564,0.0002658311,0.750438,0.17423,9.729456,-0.037491903,0.027961731,-2.129551,-0.80507874,0.0035476685,8.847179,1.6138942,0.014533997,-2.186924,-0.098387614,-0.006752014,-0.00793457,-0.50013185,0.01865387,-1.7877464,1.6094946,0.06443024,-1.9562073,-0.07434845,-0.00705719,-0.79652023,-1.4356284,0.017204285,-0.4742508,1.5593009,0.037117004,-0.27649307,-0.21556854,-0.008354187,4.1559486,-1.261585,-0.005760193,-6.503395,1.9589971,0.022163391,-14.192722,0.0,0.0,0.0,0.0,0.0,0.0,0.0,0.0,0.0,0.0,0.0,0.0,-2.0,2.0,-2.0,-2.0,2.0,-2.0,-2.0,-2.0,-2.0,-2.0,-2.0,-2.0,0.0,0.0,0.0,0.0
2025-06-10 16:47:20.966,1.106854,-4.527389,9.35445,-0.0021793228,0.00015236724,-0.0009243787,0.721112,0.173751,9.758235,-0.037873372,-0.027656555,-2.129551,-0.80500245,0.058784485,8.882584,1.6138942,0.011329651,-2.1649513,-0.09815873,-0.03665924,0.00061035156,-0.5003607,-0.0434494,-1.7804222,1.6094183,0.05115509,-1.9647522,-0.074272156,0.01537323,-0.7904167,-1.4356284,-0.024299622,-0.481575,1.5595298,-0.014457703,-0.27893448,-0.21556854,-0.03376007,4.1644936,-1.2617376,-0.007286072,-6.5107193,1.9589208,-0.0046920776,-14.168308,0.0,0.0,0.0,0.0,0.0,0.0,0.0,0.0,0.0,0.0,0.0,0.0,-2.0,2.0,-2.0,-2.0,2.0,-2.0,-2.0,-2.0,-2.0,-2.0,-2.0,-2.0,0.0,0.0,0.0,0.0
2025-06-10 16:47:20.987,1.103831,-4.525605,9.353786,-0.0035982928,-1.5777776e-05,0.0014711554,0.709935,0.18041,9.77451,-0.037568197,0.08853912,-2.1258888,-0.80492616,0.061912537,8.83009,1.6138179,0.025291443,-2.1564064,-0.098235026,0.019187927,-0.0030517578,-0.50028443,0.027580261,-1.7547874,1.6094946,0.019874573,-1.9781799,-0.07434845,-0.004234314,-0.789196,-1.4356284,0.00957489,-0.4742508,1.5593772,-0.05771637,-0.2825966,-0.21556854,0.025367737,4.179142,-1.2617376,-0.054969788,-6.4972916,1.9589971,-0.020637512,-14.162205,0.0,0.0,0.0,0.0,0.0,0.0,0.0,0.0,0.0,0.0,0.0,0.0,-2.0,2.0,-2.0,-2.0,2.0,-2.0,-2.0,-2.0,-2.0,-2.0,-2.0,-2.0,0.0,0.0,0.0,0.0
2025-06-10 16:47:21.008,1.102852,-4.522708,9.353508,-0.0006192428,0.0003745651,0.00068401196,0.723672,0.162582,9.778803,-0.037720785,-0.062217712,-2.1002502,-0.80492616,0.083732605,8.845959,1.6137416,0.00957489,-2.1820412,-0.09831132,0.06404877,-0.004272461,-0.50013185,0.008888245,-1.7584496,1.6094183,0.012397766,-1.9757385,-0.07434845,-0.0075912476,-0.7916374,-1.4356284,-0.016212463,-0.48401642,1.5593772,-0.005760193,-0.27649307,-0.21556854,0.0146102905,4.166935,-1.2618139,0.009117126,-6.520485,1.9589971,0.025291443,-14.213474,0.0,0.0,0.0,0.0,0.0,0.0,0.0,0.0,0.0,0.0,0.0,0.0,-2.0,2.0,-2.0,-2.0,2.0,-2.0,-2.0,-2.0,-2.0,-2.0,-2.0,-2.0,0.0,0.0,0.0,0.0
2025-06-10 16:47:21.028,1.101727,-4.521669,9.354185,-0.0010576695,0.000616555,0.0022700275,0.763587,0.174736,9.720178,-0.03764449,0.037269592,-2.1307716,-0.80515504,-0.004386902,8.832531,1.6138942,0.0030899048,-2.1612892,-0.098387614,0.012321472,-0.01159668,-0.50013185,0.03299713,-1.7535667,1.6094183,-0.0048446655,-1.9855042,-0.07434845,0.013160706,-0.80262375,-1.4356284,0.009880066,-0.4779129,1.5596061,0.019264221,-0.27283096,-0.21572113,0.013389587,4.162052,-1.2618139,-0.046653748,-6.5217056,1.9590734,-0.0157547,-14.22324,0.0,0.0,0.0,0.0,0.0,0.0,0.0,0.0,0.0,0.0,0.0,0.0,-2.0,2.0,-2.0,-2.0,2.0,-2.0,-2.0,-2.0,-2.0,-2.0,-2.0,-2.0,0.0,0.0,0.0,0.0
2025-06-10 16:47:21.050,1.100061,-4.521693,9.35522,0.0016984323,0.0021310295,-0.0004926715,0.740915,0.170525,9.802655,-0.037720785,0.05756378,-2.1112366,-0.80492616,-0.029563904,8.859386,1.6140468,-0.035972595,-2.178379,-0.098235026,0.015449524,-0.017700195,-0.5003607,-0.02620697,-1.7828636,1.6094183,0.0045394897,-2.0160217,-0.074272156,-0.0146102905,-0.7806511,-1.4356284,-0.004005432,-0.4779129,1.5594535,-0.0182724,-0.27161026,-0.21564484,0.023078918,4.171818,-1.2616613,0.029640198,-6.49485,1.9590734,0.024757385,-14.217136,0.0,0.0,0.0,0.0,0.0,0.0,0.0,0.0,0.0,0.0,0.0,0.0,-2.0,2.0,-2.0,-2.0,2.0,-2.0,-2.0,-2.0,-2.0,-2.0,-2.0,-2.0,0.0,0.0,0.0,0.0
2025-06-10 16:47:21.071,1.098414,-4.520331,9.355806,-0.0011668573,0.00021977186,4.899139e-05,0.740485,0.162479,9.777186,-0.037720785,-0.047340393,-2.1271095,-0.80500245,0.013389587,8.825207,1.6138942,-0.0346756,-2.190586,-0.09831132,0.02910614,-0.0018310547,-0.5003607,0.027503967,-1.7694359,1.609342,0.056648254,-1.9745178,-0.07434845,-0.002937317,-0.80140305,-1.435781,-0.013542175,-0.47058868,1.5594535,-0.03299713,-0.27893448,-0.21556854,0.065956116,4.1644936,-1.2616613,-0.00011444092,-6.5009537,1.9589971,0.0065994263,-14.22324,0.0,0.0,0.0,0.0,0.0,0.0,0.0,0.0,0.0,0.0,0.0,0.0,-2.0,2.0,-2.0,-2.0,2.0,-2.0,-2.0,-2.0,-2.0,-2.0,-2.0,-2.0,0.0,0.0,0.0,0.0
2025-06-10 16:47:21.092,1.098117,-4.518014,9.355991,-0.0023932653,0.0006558249,-0.00032571334,0.756066,0.164607,9.755649,-0.037720785,0.018348694,-2.141758,-0.80507874,0.0036239624,8.837414,1.6138942,-0.018348694,-2.1600685,-0.098616496,-0.016059875,-0.017700195,-0.50020814,0.07343292,-1.752346,1.6094183,-0.018730164,-1.9745178,-0.07434845,-0.009880066,-0.7940788,-1.435781,3.8146973e-05,-0.47058868,1.5593009,-0.014305115,-0.26794815,-0.21556854,-0.018424988,4.17548,-1.261585,0.03993988,-6.519264,1.9589971,-0.0019454956,-14.245213,0.0,0.0,0.0,0.0,0.0,0.0,0.0,0.0,0.0,0.0,0.0,0.0,-2.0,2.0,-2.0,-2.0,2.0,-2.0,-2.0,-2.0,-2.0,-2.0,-2.0,-2.0,0.0,0.0,0.0,0.0
2025-06-10 16:47:21.113,1.097874,-4.517281,9.355371,0.0023183383,0.0029108427,0.000815348,0.730473,0.167087,9.724146,-0.037873372,-0.012016296,-2.1307716,-0.80507874,-0.06603241,8.843517,1.6138942,0.017433167,-2.1710548,-0.098387614,-0.049171448,-0.0030517578,-0.5003607,-0.029029846,-1.7413597,1.609342,0.0016403198,-1.9659729,-0.07434845,-0.013999939,-0.79774094,-1.4358573,-0.037269592,-0.48279572,1.5593772,-0.0002670288,-0.27893448,-0.21572113,-0.0048446655,4.137638,-1.261585,-0.0052261353,-6.4899673,1.9590734,-0.00415802,-14.226902,0.0,0.0,0.0,0.0,0.0,0.0,0.0,0.0,0.0,0.0,0.0,0.0,-2.0,2.0,-2.0,-2.0,2.0,-2.0,-2.0,-2.0,-2.0,-2.0,-2.0,-2.0,0.0,0.0,0.0,0.0
2025-06-10 16:47:21.134,1.098713,-4.515714,9.356635,0.00035744344,0.00050710543,-0.00030478684,0.724232,0.188547,9.776642,-0.037568197,-0.0047683716,-2.1429787,-0.80477357,0.022239685,8.853283,1.6137416,-0.038337708,-2.1918068,-0.09846391,0.054512024,0.0030517578,-0.500437,-0.05672455,-1.8036156,1.6094946,-0.0104904175,-1.9708557,-0.07434845,-0.0059890747,-0.7904167,-1.4357047,0.0036239624,-0.48401642,1.5593009,-0.0065231323,-0.28015518,-0.21556854,-0.0207901,4.154728,-1.2616613,-0.11425018,-6.503395,1.9589208,-0.009880066,-14.181736,0.0,0.0,0.0,0.0,0.0,0.0,0.0,0.0,0.0,0.0,0.0,0.0,-2.0,2.0,-2.0,-2.0,2.0,-2.0,-2.0,-2.0,-2.0,-2.0,-2.0,-2.0,0.0,0.0,0.0,0.0
2025-06-10 16:47:21.155,1.098448,-4.511888,9.357331,0.0009914517,0.004307979,-0.0005574407,0.74146,0.147554,9.709571,-0.03764449,0.030708313,-2.129551,-0.80507874,-0.0030136108,8.842297,1.6137416,-0.038108826,-2.1844826,-0.09831132,-0.04535675,0.00061035156,-0.50020814,-0.02193451,-1.7499046,1.609342,0.023612976,-1.9476624,-0.074272156,-0.0062942505,-0.7867546,-1.4357047,-0.010948181,-0.481575,1.5594535,0.0358963,-0.27893448,-0.21556854,-0.009651184,4.1596107,-1.2615087,0.0076675415,-6.4985123,1.9589971,0.02117157,-14.20615,0.0,0.0,0.0,0.0,0.0,0.0,0.0,0.0,0.0,0.0,0.0,0.0,-2.0,2.0,-2.0,-2.0,2.0,-2.0,-2.0,-2.0,-2.0,-2.0,-2.0,-2.0,0.0,0.0,0.0,0.0
2025-06-10 16:47:21.177,1.097639,-4.511943,9.358082,0.0004908738,-0.0008684933,0.0008137074,0.74539,0.156698,9.745589,-0.03764449,-0.023384094,-2.1380959,-0.80507874,0.0011062622,8.858166,1.6139705,-0.007286072,-2.1588478,-0.09846391,-0.027580261,0.010375977,-0.50028443,-0.022773743,-1.7633324,1.6094946,0.004386902,-1.9427795,-0.07434845,0.023002625,-0.789196,-1.4356284,0.0020980835,-0.46814728,1.5596061,-0.015220642,-0.2838173,-0.21564484,-0.0062179565,4.126652,-1.2616613,0.03353119,-6.504616,1.9589208,-0.018730164,-14.224461,0.0,0.0,0.0,0.0,0.0,0.0,0.0,0.0,0.0,0.0,0.0,0.0,-2.0,2.0,-2.0,-2.0,2.0,-2.0,-2.0,-2.0,-2.0,-2.0,-2.0,-2.0,0.0,0.0,0.0,0.0
2025-06-10 16:47:21.198,1.095516,-4.511051,9.358509,-0.0029890335,0.0022307925,-0.0011793713,0.756905,0.173917,9.750654,-0.037491903,-0.04245758,-2.1246643,-0.80507874,0.0146865845,8.839855,1.6138179,0.014076233,-2.1759377,-0.098387614,0.014076233,-0.006713867,-0.50020814,-0.013084412,-1.752346,1.6092657,0.05504608,-1.9684143,-0.07442474,0.016212463,-0.7904167,-1.4357047,0.047187805,-0.4803543,1.5593772,-0.02155304,-0.28015518,-0.21564484,0.011711121,4.166935,-1.2618139,-0.0074386597,-6.5229263,1.9589971,-0.00705719,-14.247654,0.0,0.0,0.0,0.0,0.0,0.0,0.0,0.0,0.0,0.0,0.0,0.0,-2.0,2.0,-2.0,-2.0,2.0,-2.0,-2.0,-2.0,-2.0,-2.0,-2.0,-2.0,0.0,0.0,0.0,0.0
2025-06-10 16:47:21.221,1.094603,-4.511313,9.357545,-0.000865247,-0.00049363147,0.0019446632,0.744983,0.153951,9.79055,-0.03779708,-0.027961731,-2.092926,-0.80484986,0.026054382,8.804455,1.6138179,0.0051498413,-2.1734962,-0.09846391,-0.057868958,0.0030517578,-0.50028443,-0.0073623657,-1.752346,1.6094183,0.026741028,-1.9757385,-0.07434845,-0.021095276,-0.7794304,-1.4356284,0.04108429,-0.4779129,1.5593772,-0.022239685,-0.27527237,-0.21549225,-3.8146973e-05,4.1437416,-1.2617376,-0.02483368,-6.4814224,1.9589971,-0.032920837,-14.18906,0.0,0.0,0.0,0.0,0.0,0.0,0.0,0.0,0.0,0.0,0.0,0.0,-2.0,2.0,-2.0,-2.0,2.0,-2.0,-2.0,-2.0,-2.0,-2.0,-2.0,-2.0,0.0,0.0,0.0,0.0
2025-06-10 16:47:21.244,1.0935,-4.511803,9.357158,0.0015740251,-0.0014694101,-0.0043612113,0.758063,0.168745,9.737015,-0.03764449,-0.030555725,-2.1124573,-0.80507874,-0.016059875,8.819103,1.6139705,-0.009651184,-2.190586,-0.098235026,-0.0371933,-0.0018310547,-0.500437,0.03238678,-1.7511253,1.6092657,0.0019454956,-1.948883,-0.074272156,0.028190613,-0.79529953,-1.4355521,0.035591125,-0.4754715,1.5594535,-0.044670105,-0.26672745,-0.21549225,-0.0118637085,4.174259,-1.261585,0.072517395,-6.4924088,1.9589971,0.008811951,-14.165867,0.0,0.0,0.0,0.0,0.0,0.0,0.0,0.0,0.0,0.0,0.0,0.0,-2.0,2.0,-2.0,-2.0,2.0,-2.0,-2.0,-2.0,-2.0,-2.0,-2.0,-2.0,0.0,0.0,0.0,0.0
2025-06-10 16:47:21.268,1.091285,-4.511767,9.356493,0.00032236232,0.0012374035,0.0033033323,0.743684,0.148759,9.767881,-0.03779708,-0.048332214,-2.1429787,-0.8053839,-0.09677887,8.853283,1.6138942,0.020332336,-2.1808205,-0.09846391,-0.008201599,-0.010375977,-0.50020814,0.06694794,-1.7779808,1.6094946,-0.0002670288,-1.9794006,-0.07434845,-0.032234192,-0.79529953,-1.4356284,-0.0037002563,-0.4754715,1.5593009,-0.021095276,-0.28015518,-0.21556854,0.019187927,4.15839,-1.2619665,0.013847351,-6.475319,1.9591497,0.00957489,-14.202488,0.0,0.0,0.0,0.0,0.0,0.0,0.0,0.0,0.0,0.0,0.0,0.0,-2.0,2.0,-2.0,-2.0,2.0,-2.0,-2.0,-2.0,-2.0,-2.0,-2.0,-2.0,0.0,0.0,0.0,0.0
2025-06-10 16:47:21.290,1.090632,-4.508153,9.359636,0.0017679313,0.0003864508,0.00042338195,0.714004,0.152503,9.770906,-0.037949666,0.016288757,-2.1026917,-0.80492616,-0.0060653687,8.856945,1.6138179,0.034751892,-2.1893654,-0.09815873,-0.0005722046,-0.0030517578,-0.50020814,0.021629333,-1.7743187,1.6092657,-0.0074386597,-1.9208069,-0.07434845,-0.017433167,-0.7940788,-1.4358573,-0.023231506,-0.48523712,1.5593009,0.0012588501,-0.26916885,-0.21533966,-0.0007247925,4.163273,-1.2618139,0.034370422,-6.4850845,1.9589208,-0.030479431,-14.203709,0.0,0.0,0.0,0.0,0.0,0.0,0.0,0.0,0.0,0.0,0.0,0.0,-2.0,2.0,-2.0,-2.0,2.0,-2.0,-2.0,-2.0,-2.0,-2.0,-2.0,-2.0,0.0,0.0,0.0,0.0
2025-06-10 16:47:21.313,1.091549,-4.505014,9.362385,-0.0012008388,-0.00035541883,0.0014170503,0.724915,0.181854,9.746599,-0.037720785,0.04184723,-2.0990295,-0.8046973,0.056800842,8.847179,1.6138179,0.035438538,-2.1637306,-0.09831132,0.0045394897,-0.010375977,-0.50013185,0.00667572,-1.7718773,1.6094183,-0.06832123,-1.9781799,-0.07434845,0.0016403198,-0.7867546,-1.4356284,0.04421234,-0.481575,1.5593772,0.05542755,-0.27771378,-0.21572113,0.029716492,4.162052,-1.2618902,-0.031547546,-6.503395,1.9589971,-0.013923645,-14.229343,0.0,0.0,0.0,0.0,0.0,0.0,0.0,0.0,0.0,0.0,0.0,0.0,-2.0,2.0,-2.0,-2.0,2.0,-2.0,-2.0,-2.0,-2.0,-2.0,-2.0,-2.0,0.0,0.0,0.0,0.0
2025-06-10 16:47:21.336,1.090366,-4.502818,9.363145,0.0008165174,0.003577122,0.0030014776,0.754197,0.159186,9.762299,-0.037949666,-0.044288635,-2.1002502,-0.80507874,-0.0002670288,8.872814,1.6138942,0.008354187,-2.1283302,-0.09831132,-0.014533997,-0.018920898,-0.50028443,-0.035209656,-1.7547874,1.609342,-0.033073425,-1.9806213,-0.07434845,0.03025055,-0.7879753,-1.435781,-0.0132369995,-0.4730301,1.5593772,0.008888245,-0.27405167,-0.21549225,0.02872467,4.154728,-1.261585,0.04711151,-6.482643,1.9589208,0.008506775,-14.213474,0.0,0.0,0.0,0.0,0.0,0.0,0.0,0.0,0.0,0.0,0.0,0.0,-2.0,2.0,-2.0,-2.0,2.0,-2.0,-2.0,-2.0,-2.0,-2.0,-2.0,-2.0,0.0,0.0,0.0,0.0
2025-06-10 16:47:21.357,1.089024,-4.500497,9.362773,-0.0025498038,0.0012951914,-0.0005287126,0.740639,0.16778,9.776677,-0.037491903,0.079460144,-2.113678,-0.80507874,0.039482117,8.83009,1.6138942,-0.0090408325,-2.1722755,-0.0985402,-0.09815216,0.010375977,-0.50020814,-0.024986267,-1.7694359,1.609342,-0.012016296,-2.0013733,-0.07434845,-0.010871887,-0.789196,-1.4356284,-0.007209778,-0.48645782,1.5593772,-0.0020217896,-0.27893448,-0.21541595,0.039634705,4.1571693,-1.2617376,-0.042533875,-6.4899673,1.9590734,-0.005683899,-14.190281,0.0,0.0,0.0,0.0,0.0,0.0,0.0,0.0,0.0,0.0,0.0,0.0,-2.0,2.0,-2.0,-2.0,2.0,-2.0,-2.0,-2.0,-2.0,-2.0,-2.0,-2.0,0.0,0.0,0.0,0.0
2025-06-10 16:47:21.380,1.087856,-4.500114,9.364235,0.0007667929,0.0013407095,0.0022959982,0.768628,0.194331,9.746323,-0.037949666,0.03452301,-2.1246643,-0.80507874,-0.06290436,8.813,1.6139705,0.004081726,-2.186924,-0.09831132,0.101737976,-0.005493164,-0.50028443,0.05367279,-1.7560081,1.609342,0.043067932,-1.9757385,-0.07434845,0.017662048,-0.7904167,-1.4357047,0.045280457,-0.481575,1.5593009,-0.0063705444,-0.27527237,-0.21564484,0.0016403198,4.171818,-1.2616613,-0.016059875,-6.504616,1.9589208,-0.03299713,-14.184177,0.0,0.0,0.0,0.0,0.0,0.0,0.0,0.0,0.0,0.0,0.0,0.0,-2.0,2.0,-2.0,-2.0,2.0,-2.0,-2.0,-2.0,-2.0,-2.0,-2.0,-2.0,0.0,0.0,0.0,0.0
2025-06-10 16:47:21.403,1.089237,-4.497351,9.363985,0.0010773743,0.0008002858,-0.00045252897,0.763855,0.163151,9.750292,-0.037873372,-0.024681091,-2.0941467,-0.80477357,0.09555817,8.881363,1.6138942,0.009422302,-2.16251,-0.098235026,0.08029938,0.0030517578,-0.5003607,-0.026817322,-1.8109398,1.6094183,-0.013771057,-1.957428,-0.07434845,-0.0062179565,-0.7818718,-1.4356284,0.0017929077,-0.48889923,1.5593772,0.041999817,-0.27649307,-0.21549225,0.019798279,4.1400795,-1.2617376,0.016899109,-6.4936295,1.9589971,0.018882751,-14.191502,0.0,0.0,0.0,0.0,0.0,0.0,0.0,0.0,0.0,0.0,0.0,0.0,-2.0,2.0,-2.0,-2.0,2.0,-2.0,-2.0,-2.0,-2.0,-2.0,-2.0,-2.0,0.0,0.0,0.0,0.0
2025-06-10 16:47:21.424,1.087228,-4.498008,9.366197,-0.0020225921,-0.0014047283,-4.218461e-05,0.737921,0.176063,9.778495,-0.037873372,-0.06900787,-2.1246643,-0.80492616,0.08106232,8.870373,1.6139705,-0.0008010864,-2.1649513,-0.098387614,0.013923645,0.00061035156,-0.5003607,3.8146973e-05,-1.7804222,1.6094183,0.024147034,-1.9610901,-0.07434845,-0.013313293,-0.79529953,-1.4357047,0.00019073486,-0.48279572,1.5592246,-0.007209778,-0.27405167,-0.21556854,-0.00034332275,4.1571693,-1.2616613,0.046195984,-6.4802017,1.9589208,-0.0104904175,-14.209812,0.0,0.0,0.0,0.0,0.0,0.0,0.0,0.0,0.0,0.0,0.0,0.0,-2.0,2.0,-2.0,-2.0,2.0,-2.0,-2.0,-2.0,-2.0,-2.0,-2.0,-2.0,0.0,0.0,0.0,0.0
2025-06-10 16:47:21.447,1.087108,-4.495855,9.366826,0.00074178237,0.0021916449,0.00018076375,0.732065,0.201713,9.748451,-0.03779708,0.0048446655,-2.1161194,-0.80477357,-0.0033187866,8.843517,1.6138179,0.012626648,-2.157627,-0.09846391,0.06717682,-0.004272461,-0.50005555,0.038337708,-1.7621117,1.6094946,0.041236877,-1.9794006,-0.074272156,-0.021781921,-0.79529953,-1.4357047,0.0034713745,-0.4803543,1.5595298,0.052375793,-0.27771378,-0.21564484,0.0409317,4.1693764,-1.2617376,0.013084412,-6.516823,1.9591497,-0.010185242,-14.229343,0.0,0.0,0.0,0.0,0.0,0.0,0.0,0.0,0.0,0.0,0.0,0.0,-2.0,2.0,-2.0,-2.0,2.0,-2.0,-2.0,-2.0,-2.0,-2.0,-2.0,-2.0,0.0,0.0,0.0,0.0
2025-06-10 16:47:21.468,1.08842,-4.492856,9.36753,0.0008274082,0.0014509446,-0.00090120075,0.760934,0.172142,9.750663,-0.03779708,0.022392273,-2.0794983,-0.80492616,0.0059127808,8.852062,1.6137416,-0.079841614,-2.1881447,-0.09846391,-0.034599304,0.006713867,-0.50028443,-0.0522995,-1.7645531,1.6095709,0.01750946,-1.9781799,-0.07434845,0.025367737,-0.80384445,-1.4356284,0.013847351,-0.4754715,1.5593772,-0.04146576,-0.27527237,-0.21556854,0.013923645,4.137638,-1.2616613,0.0146102905,-6.508278,1.9589971,-0.0010299683,-14.228123,0.0,0.0,0.0,0.0,0.0,0.0,0.0,0.0,0.0,0.0,0.0,0.0,-2.0,2.0,-2.0,-2.0,2.0,-2.0,-2.0,-2.0,-2.0,-2.0,-2.0,-2.0,0.0,0.0,0.0,0.0
2025-06-10 16:47:21.490,1.086375,-4.490269,9.367964,-0.002116037,0.0020131848,-0.0013779548,0.722118,0.156588,9.768051,-0.037720785,0.032234192,-2.1283302,-0.80484986,0.006904602,8.813,1.6138942,-0.02155304,-2.1612892,-0.09831132,0.023765564,-0.00061035156,-0.50028443,0.016899109,-1.7926292,1.6094946,-0.011634827,-1.9659729,-0.07434845,0.0060653687,-0.7757683,-1.435781,0.0233078,-0.4742508,1.5593772,0.004005432,-0.28015518,-0.21556854,-0.017204285,4.1400795,-1.2617376,-0.021018982,-6.4985123,1.9587682,-0.039787292,-14.160984,0.0,0.0,0.0,0.0,0.0,0.0,0.0,0.0,0.0,0.0,0.0,0.0,-2.0,2.0,-2.0,-2.0,2.0,-2.0,-2.0,-2.0,-2.0,-2.0,-2.0,-2.0,0.0,0.0,0.0,0.0
2025-06-10 16:47:21.512,1.085224,-4.48875,9.369803,0.00060370937,0.0011497356,0.0019812454,0.746842,0.150185,9.732881,-0.037949666,0.00667572,-2.122223,-0.80492616,-0.0009536743,8.803234,1.6137416,0.008201599,-2.1515236,-0.09831132,-0.034751892,-0.014038086,-0.500437,0.020637512,-1.7755394,1.609342,-0.04299164,-1.9342346,-0.07434845,0.0002670288,-0.789196,-1.4357047,-0.013008118,-0.48645782,1.5594535,-0.0017929077,-0.27527237,-0.21533966,-0.019721985,4.1474037,-1.2620428,-0.033836365,-6.4765396,1.9589971,0.014152527,-14.203709,0.0,0.0,0.0,0.0,0.0,0.0,0.0,0.0,0.0,0.0,0.0,0.0,-2.0,2.0,-2.0,-2.0,2.0,-2.0,-2.0,-2.0,-2.0,-2.0,-2.0,-2.0,0.0,0.0,0.0,0.0
2025-06-10 16:47:21.534,1.086235,-4.487452,9.370648,0.00046853363,-5.2307518e-05,0.000495307,0.761316,0.191047,9.755011,-0.037873372,0.017967224,-2.1246643,-0.80492616,0.02948761,8.841076,1.6138942,-0.016365051,-2.1771584,-0.09831132,0.007133484,-0.012817383,-0.50020814,0.026893616,-1.7767601,1.6095709,0.041770935,-1.990387,-0.074272156,-0.011405945,-0.76478195,-1.4356284,0.0062942505,-0.4766922,1.5595298,0.054359436,-0.26550674,-0.21564484,-0.11440277,4.1559486,-1.2618139,0.036354065,-6.504616,1.9589971,-0.019874573,-14.218357,0.0,0.0,0.0,0.0,0.0,0.0,0.0,0.0,0.0,0.0,0.0,0.0,-2.0,2.0,-2.0,-2.0,2.0,-2.0,-2.0,-2.0,-2.0,-2.0,-2.0,-2.0,0.0,0.0,0.0,0.0
2025-06-10 16:47:21.557,1.082514,-4.488594,9.372781,-0.0013772742,-0.00014112733,-0.00094640476,0.719999,0.16556,9.773665,-0.037949666,0.0090408325,-2.1100159,-0.80484986,0.025291443,8.844738,1.6139705,-0.041618347,-2.1515236,-0.09846391,-0.051078796,-0.00793457,-0.50028443,0.037269592,-1.7560081,1.6094183,-0.02155304,-1.9745178,-0.07442474,-0.01712799,-0.7843132,-1.4356284,0.04070282,-0.46570587,1.5593009,0.05420685,-0.2825966,-0.21541595,-0.006904602,4.1681557,-1.2618139,0.012397766,-6.5253677,1.9590734,-0.022773743,-14.225681,0.0,0.0,0.0,0.0,0.0,0.0,0.0,0.0,0.0,0.0,0.0,0.0,-2.0,2.0,-2.0,-2.0,2.0,-2.0,-2.0,-2.0,-2.0,-2.0,-2.0,-2.0,0.0,0.0,0.0,0.0
2025-06-10 16:47:21.578,1.08223,-4.488321,9.373449,-0.0006382669,-0.0013436067,0.0008476366,0.737427,0.158805,9.784717,-0.037949666,-0.027580261,-2.1429787,-0.80492616,0.03299713,8.822765,1.6136653,-0.06023407,-2.1466408,-0.098387614,-0.08426666,0.0030517578,-0.5003607,0.037956238,-1.7682152,1.609342,0.0076675415,-1.9842834,-0.074272156,-0.004081726,-0.7843132,-1.435781,-0.0052261353,-0.4791336,1.5593009,-0.0047683716,-0.27649307,-0.21564484,-0.069236755,4.129093,-1.2617376,0.0073623657,-6.5021744,1.9588445,0.04070282,-14.190281,0.0,0.0,0.0,0.0,0.0,0.0,0.0,0.0,0.0,0.0,0.0,0.0,-2.0,2.0,-2.0,-2.0,2.0,-2.0,-2.0,-2.0,-2.0,-2.0,-2.0,-2.0,0.0,0.0,0.0,0.0
2025-06-10 16:47:21.602,1.082548,-4.484741,9.374168,0.0020079839,-0.00016292649,-0.0021426708,0.752999,0.172442,9.729148,-0.03779708,0.03879547,-2.0990295,-0.80492616,0.0258255,8.841076,1.6138942,0.013008118,-2.1490822,-0.09815873,-0.013465881,0.00061035156,-0.50020814,-0.03490448,-1.7584496,1.6094183,-0.030174255,-1.9977112,-0.07434845,0.0118637085,-0.7830925,-1.4356284,0.001335144,-0.48279572,1.5595298,-0.024528503,-0.27771378,-0.21549225,0.028648376,4.1474037,-1.2619665,0.02254486,-6.4777603,1.9589971,0.019569397,-14.229343,0.0,0.0,0.0,0.0,0.0,0.0,0.0,0.0,0.0,0.0,0.0,0.0,-2.0,2.0,-2.0,-2.0,2.0,-2.0,-2.0,-2.0,-2.0,-2.0,-2.0,-2.0,0.0,0.0,0.0,0.0
2025-06-10 16:47:21.626,1.079783,-4.483367,9.373872,-0.0036453644,-0.0010166892,-0.00014353587,0.726627,0.137552,9.773757,-0.03779708,-0.050315857,-2.1087952,-0.80500245,0.052833557,8.858166,1.6139705,0.005302429,-2.1564064,-0.09831132,0.027961731,-0.012817383,-0.5003607,-0.037574768,-1.7718773,1.6094946,-0.012779236,-1.9781799,-0.07434845,0.0032424927,-0.7904167,-1.4356284,0.0146102905,-0.46936798,1.5593772,-0.0046157837,-0.2838173,-0.21564484,-0.005302429,4.174259,-1.2617376,-0.011711121,-6.499733,1.9590734,-0.03643036,-14.173191,0.0,0.0,0.0,0.0,0.0,0.0,0.0,0.0,0.0,0.0,0.0,0.0,-2.0,2.0,-2.0,-2.0,2.0,-2.0,-2.0,-2.0,-2.0,-2.0,-2.0,-2.0,0.0,0.0,0.0,0.0
2025-06-10 16:47:21.649,1.079939,-4.481376,9.373712,9.951867e-05,-0.0012501095,0.0007062649,0.741135,0.156086,9.78961,-0.03779708,-0.040397644,-2.1393166,-0.80492616,-0.01537323,8.860607,1.6138179,0.031929016,-2.14542,-0.09831132,0.0005722046,-0.010375977,-0.49997923,-0.0010299683,-1.7547874,1.6094183,0.03818512,-2.006256,-0.07434845,-0.011329651,-0.7806511,-1.4357047,0.06084442,-0.46814728,1.5595298,0.023765564,-0.27527237,-0.21549225,0.015525818,4.1486244,-1.2618139,-0.023384094,-6.5094986,1.9589208,0.033226013,-14.229343,0.0,0.0,0.0,0.0,0.0,0.0,0.0,0.0,0.0,0.0,0.0,0.0,-2.0,2.0,-2.0,-2.0,2.0,-2.0,-2.0,-2.0,-2.0,-2.0,-2.0,-2.0,0.0,0.0,0.0,0.0
2025-06-10 16:47:21.672,1.078438,-4.480317,9.374183,0.0020026257,-0.0004238183,-0.00048275807,0.737461,0.163201,9.757569,-0.03764449,-0.011405945,-2.1124573,-0.80477357,0.07534027,8.822765,1.6139705,-0.017433167,-2.1771584,-0.09831132,-0.033073425,0.0030517578,-0.50013185,-0.05695343,-1.7547874,1.6094946,-0.007133484,-1.9684143,-0.07434845,-0.019950867,-0.80506516,-1.4356284,-0.039253235,-0.4803543,1.5594535,0.017356873,-0.2838173,-0.21572113,-0.021324158,4.1693764,-1.2617376,0.0008773804,-6.4972916,1.9589208,-0.007972717,-14.251316,0.0,0.0,0.0,0.0,0.0,0.0,0.0,0.0,0.0,0.0,0.0,0.0,-2.0,2.0,-2.0,-2.0,2.0,-2.0,-2.0,-2.0,-2.0,-2.0,-2.0,-2.0,0.0,0.0,0.0,0.0
2025-06-10 16:47:21.695,1.078317,-4.479567,9.372426,-0.0015228172,-0.0017969735,-0.00022111576,0.746955,0.179302,9.744278,-0.037949666,-0.055274963,-2.101471,-0.80500245,-0.0022506714,8.833752,1.6138942,0.03917694,-2.1478615,-0.098387614,-0.08670807,-0.005493164,-0.500437,-0.027503967,-1.785305,1.6094183,-0.032920837,-1.9757385,-0.07434845,-0.017662048,-0.7928581,-1.435781,0.030097961,-0.4730301,1.5594535,-0.0047683716,-0.2825966,-0.21541595,-0.009498596,4.137638,-1.2618139,0.039634705,-6.504616,1.9589971,0.011940002,-14.203709,0.0,0.0,0.0,0.0,0.0,0.0,0.0,0.0,0.0,0.0,0.0,0.0,-2.0,2.0,-2.0,-2.0,2.0,-2.0,-2.0,-2.0,-2.0,-2.0,-2.0,-2.0,0.0,0.0,0.0,0.0
2025-06-10 16:47:21.719,1.078072,-4.477896,9.374004,0.0007943866,0.0007298094,0.0015041596,0.771815,0.180702,9.786516,-0.037720785,0.03353119,-2.1393166,-0.80484986,0.030097961,8.841076,1.6137416,0.030784607,-2.1466408,-0.09846391,0.049552917,0.00061035156,-0.50020814,-0.035362244,-1.7865257,1.609342,0.02292633,-1.9916077,-0.07434845,-0.021629333,-0.79896164,-1.4357047,-0.01285553,-0.48523712,1.5593009,0.022773743,-0.26428604,-0.21564484,-0.06450653,4.162052,-1.2619665,-0.021095276,-6.515602,1.9588445,0.0422287,-14.212254,0.0,0.0,0.0,0.0,0.0,0.0,0.0,0.0,0.0,0.0,0.0,0.0,-2.0,2.0,-2.0,-2.0,2.0,-2.0,-2.0,-2.0,-2.0,-2.0,-2.0,-2.0,0.0,0.0,0.0,0.0
2025-06-10 16:47:21.743,1.078091,-4.478332,9.373549,0.0010975153,0.0010497108,0.00086062186,0.740884,0.161496,9.760849,-0.037720785,0.037574768,-2.1271095,-0.80477357,0.03566742,8.861828,1.6139705,0.002784729,-2.16251,-0.09808244,0.03353119,0.004272461,-0.5005133,-0.019721985,-1.7792015,1.6094183,-0.018882751,-1.9586487,-0.07434845,0.028190613,-0.7916374,-1.4357047,-0.012779236,-0.4766922,1.5593009,0.00957489,-0.27771378,-0.21556854,0.0034713745,4.163273,-1.2617376,-0.027656555,-6.5058365,1.9589208,-0.009727478,-14.218357,0.0,0.0,0.0,0.0,0.0,0.0,0.0,0.0,0.0,0.0,0.0,0.0,-2.0,2.0,-2.0,-2.0,2.0,-2.0,-2.0,-2.0,-2.0,-2.0,-2.0,-2.0,0.0,0.0,0.0,0.0
2025-06-10 16:47:21.765,1.07782,-4.476355,9.37462,0.0022372503,0.0009568942,-0.0008737467,0.729201,0.155423,9.726707,-0.037568197,-0.016365051,-2.1087952,-0.80477357,0.0157547,8.842297,1.6138942,-0.008430481,-2.153965,-0.098235026,-0.012931824,-0.0018310547,-0.5003607,-0.027809143,-1.7694359,1.6094183,-0.002861023,-2.0001526,-0.07434845,-0.007133484,-0.80262375,-1.435781,0.018959045,-0.4803543,1.5594535,-0.010643005,-0.26550674,-0.21564484,0.004463196,4.1693764,-1.2619665,-0.04207611,-6.519264,1.9590734,-0.020332336,-14.18906,0.0,0.0,0.0,0.0,0.0,0.0,0.0,0.0,0.0,0.0,0.0,0.0,-2.0,2.0,-2.0,-2.0,2.0,-2.0,-2.0,-2.0,-2.0,-2.0,-2.0,-2.0,0.0,0.0,0.0,0.0
2025-06-10 16:47:21.787,1.07952,-4.476262,9.373679,0.0023609244,-0.0026482753,-0.00069781754,0.730679,0.166667,9.789898,-0.03779708,-0.011329651,-2.1185608,-0.80507874,-0.061683655,8.83131,1.6139705,0.045280457,-2.1795998,-0.09869279,-0.07083893,-0.0018310547,-0.5005133,-0.004463196,-1.7718773,1.6092657,-0.015296936,-1.9684143,-0.07442474,-0.00049591064,-0.80506516,-1.4356284,0.0065994263,-0.46692657,1.5593772,-0.013618469,-0.28137589,-0.21572113,0.002784729,4.1449623,-1.2618139,-0.00011444092,-6.499733,1.9588445,-0.042686462,-14.182957,0.0,0.0,0.0,0.0,0.0,0.0,0.0,0.0,0.0,0.0,0.0,0.0,-2.0,2.0,-2.0,-2.0,2.0,-2.0,-2.0,-2.0,-2.0,-2.0,-2.0,-2.0,0.0,0.0,0.0,0.0
2025-06-10 16:47:21.810,1.078024,-4.47639,9.37276,-0.002358725,-0.0005693962,-0.0032958274,0.749846,0.160141,9.730866,-0.037949666,-0.052833557,-2.11734,-0.80477357,0.04283905,8.820324,1.6138179,0.03643036,-2.1881447,-0.09831132,0.038414,-0.00793457,-0.50013185,0.04383087,-1.7657738,1.6094183,-0.003929138,-1.9952698,-0.07434845,-0.016822815,-0.79529953,-1.435781,-0.014228821,-0.481575,1.5594535,-0.046043396,-0.27405167,-0.21541595,-0.007209778,4.162052,-1.2620428,0.014381409,-6.4777603,1.9589971,-0.026359558,-14.212254,0.0,0.0,0.0,0.0,0.0,0.0,0.0,0.0,0.0,0.0,0.0,0.0,-2.0,2.0,-2.0,-2.0,2.0,-2.0,-2.0,-2.0,-2.0,-2.0,-2.0,-2.0,0.0,0.0,0.0,0.0
2025-06-10 16:47:21.831,1.077441,-4.47467,9.372743,-0.00028651324,0.0015557341,-0.00075167837,0.748462,0.166221,9.756824,-0.037720785,0.06938934,-2.1356544,-0.80484986,-0.057258606,8.855724,1.6138942,0.046272278,-2.1759377,-0.09831132,-0.0062942505,-0.005493164,-0.50020814,0.051383972,-1.7792015,1.6094946,-0.0104904175,-1.9598694,-0.074272156,0.004234314,-0.7940788,-1.435781,0.031471252,-0.46204376,1.5593772,0.08419037,-0.27527237,-0.21556854,0.013618469,4.105896,-1.2618902,0.0016403198,-6.49485,1.9587682,-0.07862091,-14.181736,0.0,0.0,0.0,0.0,0.0,0.0,0.0,0.0,0.0,0.0,0.0,0.0,-2.0,2.0,-2.0,-2.0,2.0,-2.0,-2.0,-2.0,-2.0,-2.0,-2.0,-2.0,0.0,0.0,0.0,0.0
2025-06-10 16:47:21.854,1.080013,-4.473604,9.371622,0.0018184935,-0.0003003537,-0.00031834806,0.740834,0.170066,9.738955,-0.03802596,0.038414,-2.1551857,-0.80477357,-0.011253357,8.810558,1.6139705,0.03162384,-2.157627,-0.09831132,0.008430481,-0.0030517578,-0.50013185,-0.013618469,-1.7840843,1.609342,0.005378723,-1.9549866,-0.07434845,0.026359558,-0.79529953,-1.4357047,-0.016365051,-0.4730301,1.5593009,-0.040626526,-0.27771378,-0.21541595,-0.11478424,4.1559486,-1.2618139,-0.030403137,-6.5339127,1.9589208,0.022621155,-14.222019,0.0,0.0,0.0,0.0,0.0,0.0,0.0,0.0,0.0,0.0,0.0,0.0,-2.0,2.0,-2.0,-2.0,2.0,-2.0,-2.0,-2.0,-2.0,-2.0,-2.0,-2.0,0.0,0.0,0.0,0.0
2025-06-10 16:47:21.876,1.07901,-4.471713,9.372709,0.00026520278,0.0011333644,-0.0005469862,0.743365,0.17395,9.75902,-0.03779708,0.051231384,-2.092926,-0.80507874,0.008964539,8.834972,1.6140468,0.03780365,-2.1673927,-0.09846391,-0.08769989,0.006713867,-0.500437,-0.045585632,-1.7303734,1.6094946,0.0059890747,-1.9855042,-0.07434845,-0.021781921,-0.7806511,-1.435781,-0.017967224,-0.4791336,1.5595298,0.02620697,-0.2825966,-0.21541595,-0.03261566,4.1327553,-1.2616613,0.048789978,-6.503395,1.9589971,0.07381439,-14.208591,0.0,0.0,0.0,0.0,0.0,0.0,0.0,0.0,0.0,0.0,0.0,0.0,-2.0,2.0,-2.0,-2.0,2.0,-2.0,-2.0,-2.0,-2.0,-2.0,-2.0,-2.0,0.0,0.0,0.0,0.0
2025-06-10 16:47:21.898,1.079382,-4.469147,9.371525,-0.0021347995,0.0027864878,-0.001517459,0.722191,0.160265,9.745079,-0.03764449,0.02155304,-2.1307716,-0.80477357,0.052223206,8.8484,1.6139705,0.0233078,-2.1710548,-0.09831132,0.019187927,-0.00793457,-0.5003607,0.021476746,-1.7535667,1.6094183,-0.008583069,-1.9671936,-0.07434845,0.016441345,-0.789196,-1.4356284,0.016212463,-0.4791336,1.5594535,0.0233078,-0.28137589,-0.21564484,-0.030174255,4.138859,-1.2618139,-0.11768341,-6.4692154,1.9589208,-0.035209656,-14.22324,0.0,0.0,0.0,0.0,0.0,0.0,0.0,0.0,0.0,0.0,0.0,0.0,-2.0,2.0,-2.0,-2.0,2.0,-2.0,-2.0,-2.0,-2.0,-2.0,-2.0,-2.0,0.0,0.0,0.0,0.0
2025-06-10 16:47:21.921,1.077748,-4.46934,9.371846,-0.00085355324,-0.0037007786,-0.0017176309,0.748909,0.14998,9.799842,-0.03802596,0.04207611,-2.0709534,-0.80477357,0.022239685,8.860607,1.6138942,0.005760193,-2.1771584,-0.09846391,-0.14949799,-0.01159668,-0.5003607,0.04146576,-1.773098,1.6094183,-0.018424988,-1.9598694,-0.07434845,-0.0035476685,-0.7904167,-1.4357047,0.008964539,-0.4803543,1.5594535,-0.0017929077,-0.27649307,-0.21549225,0.023002625,4.154728,-1.2617376,-0.027503967,-6.5009537,1.9589971,-0.025901794,-14.193943,0.0,0.0,0.0,0.0,0.0,0.0,0.0,0.0,0.0,0.0,0.0,0.0,-2.0,2.0,-2.0,-2.0,2.0,-2.0,-2.0,-2.0,-2.0,-2.0,-2.0,-2.0,0.0,0.0,0.0,0.0
