openverse-orca/OrcaGym/envs/legged_gym/legged_real_env/logs/robot_log_20250604_184818.csv
timestamp,imu_angle_roll,imu_angle_pitch,imu_angle_yaw,imu_angular_velocity_roll,imu_angular_velocity_pitch,imu_angular_velocity_yaw,imu_acc_x,imu_acc_y,imu_acc_z,fl_joint1_pos,fl_joint1_vel,fl_joint1_torque,fl_joint2_pos,fl_joint2_vel,fl_joint2_torque,fl_joint3_pos,fl_joint3_vel,fl_joint3_torque,fr_joint1_pos,fr_joint1_vel,fr_joint1_torque,fr_joint2_pos,fr_joint2_vel,fr_joint2_torque,fr_joint3_pos,fr_joint3_vel,fr_joint3_torque,hl_joint1_pos,hl_joint1_vel,hl_joint1_torque,hl_joint2_pos,hl_joint2_vel,hl_joint2_torque,hl_joint3_pos,hl_joint3_vel,hl_joint3_torque,hr_joint1_pos,hr_joint1_vel,hr_joint1_torque,hr_joint2_pos,hr_joint2_vel,hr_joint2_torque,hr_joint3_pos,hr_joint3_vel,hr_joint3_torque,fl_force_x,fl_force_y,fl_force_z,fr_force_x,fr_force_y,fr_force_z,hl_force_x,hl_force_y,hl_force_z,hr_force_x,hr_force_y,hr_force_z,fl_hip_action,fl_thigh_action,fl_calf_action,fr_hip_action,fr_thigh_action,fr_calf_action,hl_hip_action,hl_thigh_action,hl_calf_action,hr_hip_action,hr_thigh_action,hr_calf_action
2025-06-04 18:48:38.888,-0.749088,-1.065997,-0.009853,-0.003626218,-0.0012016417,0.0015728907,0.172598,-0.130888,9.783513,-0.012543783,0.029335022,0.5511551,-0.9845221,0.06641388,-0.49134064,1.9050319,0.03627777,-4.8712883,0.0082844645,-0.02544403,-0.3997879,-0.9829133,0.03704071,-0.49500275,1.904447,0.015525818,-4.7589836,-0.009117126,-0.0008010864,0.45227814,-0.9754997,0.020561218,-0.8929596,1.9321494,-0.045967102,-6.070038,0.016670227,0.002708435,-0.72816086,-0.9799313,-0.030555725,-0.6231766,1.9306158,-0.008506775,-5.9687195,0.0,0.0,0.0,0.0,0.0,0.0,0.0,0.0,0.0,0.0,0.0,0.0,0.044880774,0.30062306,0.053830426,-0.03429777,0.0033740222,0.77044785,-0.17716904,-0.7457257,-0.15432952,-0.75368184,-0.088372536,-0.71113276
2025-06-04 18:48:38.939,-1.010199,-1.212191,-0.173418,-0.2486055,-0.035986558,-0.23062181,1.950777,-1.054879,10.45193,-0.020096883,-0.2564621,2.089264,-0.97536683,-0.32100677,7.1564827,1.9031246,-0.1353836,-3.2086678,-0.0020152184,-0.23189545,0.68299484,-0.98627025,0.09815216,-0.2923622,1.9370245,0.7279587,0.38880157,-0.013465881,0.07785797,-0.18249893,-1.0289817,-0.9232712,-11.266651,1.9397025,0.09395599,-8.620127,0.008430481,-0.032234192,-4.0216675,-0.98290676,-0.06977081,-2.2833595,1.917188,-0.1454544,-13.101395,0.0,0.0,0.0,0.0,0.0,0.0,0.0,0.0,0.0,0.0,0.0,0.0,-0.2580449,0.029597681,-0.77235174,-0.5849925,-0.17998488,0.90869904,-0.17816092,-0.89532316,0.29407004,-0.79082525,-0.5510123,-0.9218287
2025-06-04 18:48:38.990,-1.465474,-2.067324,-1.090039,-0.07370859,-0.7162482,-0.29466695,1.362864,-1.062291,13.032131,-0.04557906,-0.12111664,2.7215996,-1.0135901,-0.6612015,4.618599,1.8522365,-1.2061691,-6.561989,-0.032914266,-0.50167084,1.1285591,-1.0181612,-0.19145966,-1.387352,1.9689916,0.61985016,0.68055344,-0.013465881,-0.048103333,0.14221573,-1.1171012,-1.898613,-6.040741,1.9635825,0.2830124,-5.213093,0.009651184,-0.12653351,-3.7872887,-1.0324979,-1.3162613,-5.2680244,1.9126104,-0.028495789,-15.996948,0.0,0.0,0.0,0.0,0.0,0.0,0.0,0.0,0.0,0.0,0.0,0.0,-0.56192565,-0.041496366,-0.92805403,-0.84683985,-0.07953825,0.9781124,-0.8907776,-0.9113716,0.9345694,-0.07625004,-0.55527705,-0.964405
2025-06-04 18:48:39.041,-2.503525,-4.417872,-1.965148,-0.40965107,-0.58808786,-0.23399322,0.564982,0.938363,8.440009,-0.07228194,0.13019562,1.9183655,-1.0554755,-0.56056976,4.2926674,1.7815883,-1.1626053,-4.995804,-0.05908309,-0.27980804,0.0018310547,-1.0265535,-0.018196106,-0.4803543,1.999967,0.30284882,0.67933273,-0.03238678,-0.5158615,-1.1541939,-1.2308555,-1.979866,-0.4766922,1.996923,0.39180756,0.3985672,0.010566711,-0.016746521,-0.9051666,-1.0902524,-1.0914993,-4.085144,1.8976568,-0.4416275,-14.10849,0.0,0.0,0.0,0.0,0.0,0.0,0.0,0.0,0.0,0.0,0.0,0.0,-0.46336323,0.08715748,-0.81183124,-0.89724904,0.19375378,0.9505573,-0.9798356,-0.81449175,0.9632805,0.61386734,-0.51384366,-0.96473783
2025-06-04 18:48:39.092,-2.924358,-5.329675,-2.503879,0.062398363,-0.09092174,-0.14814728,0.544924,-0.080118,8.619489,-0.07457076,0.3030777,0.29846573,-1.0759985,-0.0976944,6.9904633,1.7439754,-0.59207916,-4.6088333,-0.07396041,-0.08831024,0.27649307,-0.98398143,0.9318161,-0.38147736,2.0153785,0.2374649,0.5242996,-0.0497818,-0.002708435,-1.1395454,-1.2931876,-1.0946274,-0.48889923,2.0141654,0.31597137,0.39124298,0.029182434,0.4288864,0.026245117,-1.1172605,-0.31879425,-4.2584877,1.8710302,-0.4454422,-12.41291,0.0,0.0,0.0,0.0,0.0,0.0,0.0,0.0,0.0,0.0,0.0,0.0,-0.4086634,0.09575069,-0.61380327,-0.8980299,0.47697344,0.68632305,-0.98854655,-0.74136555,0.9132461,0.9076555,-0.4747306,-0.9461513
2025-06-04 18:48:39.143,-2.375329,-5.086769,-2.766707,0.20279518,0.20933546,-0.03593694,0.421141,-0.227118,8.405051,-0.059388265,0.32611847,-0.64271164,-1.0934699,-0.22220612,7.3591194,1.7374141,-0.04207611,-4.527046,-0.08700667,-0.19321442,0.64881516,-0.90288097,1.3927841,-0.46326447,2.0066047,-0.22960663,-0.048217773,-0.064201355,-0.031089783,-1.0150299,-1.3162284,-0.29010773,-0.52918243,2.0216422,0.05420685,0.57556915,0.055351257,0.5602646,-0.42542267,-1.1231351,-0.13019562,-4.1974525,1.8471502,-0.49900055,-11.775692,0.0,0.0,0.0,0.0,0.0,0.0,0.0,0.0,0.0,0.0,0.0,0.0,-0.55651116,-0.14104928,-0.41796386,-0.8875422,0.6810919,-0.15301724,-0.9829237,-0.678211,0.7672125,0.96817833,-0.58176905,-0.8867033
2025-06-04 18:48:39.194,-1.986391,-4.557118,-2.782314,-0.009183398,0.08469584,0.010510966,1.356335,-0.290939,7.94704,-0.04748641,-0.026664734,-0.8306999,-1.1277258,-0.926857,5.662319,1.7535121,0.3081894,-4.6161575,-0.09776412,-0.06900787,0.52796173,-0.81224376,1.5979385,-0.15686417,1.9213079,-1.2455368,-1.1993599,-0.07350922,-0.21137238,-0.65003586,-1.3192801,0.11501312,-0.6732292,2.0170646,-0.08098602,-0.25940323,0.07457733,0.36800385,-0.07507324,-1.1395383,-0.50548553,-4.49897,1.837232,-0.018730164,-12.180973,0.0,0.0,0.0,0.0,0.0,0.0,0.0,0.0,0.0,0.0,0.0,0.0,-0.8077862,-0.49737287,0.056036435,-0.78846264,0.8387742,-0.82168365,-0.8738561,-0.8247334,0.012771157,0.9776933,-0.87214375,-0.6076806
2025-06-04 18:48:39.245,-2.570775,-4.762281,-2.925083,-0.45505053,-0.1195509,-0.08271314,2.055928,0.619983,5.979299,-0.05214034,-0.2527237,-0.3619423,-1.200968,-1.6333389,4.5966263,1.798373,0.979805,-3.5407028,-0.09906112,-0.10456085,0.61585236,-0.7275575,1.4947128,-0.0018310547,1.795194,-2.0055046,-1.2469673,-0.07572174,0.024147034,-1.0113678,-1.345983,-0.39546967,-0.037231445,1.9419913,-1.3885117,-0.005493164,0.07823944,0.11180878,0.77088547,-1.1936307,-0.8560562,-5.253376,1.8555425,0.43132782,-11.461967,0.0,0.0,0.0,0.0,0.0,0.0,0.0,0.0,0.0,0.0,0.0,0.0,-0.9080099,-0.5727556,0.22797735,-0.52059454,0.92584956,-0.9160025,-0.2287282,-0.9479835,-0.72821856,0.97360426,-0.96265155,-0.16013059
2025-06-04 18:48:39.296,-3.384121,-4.475659,-3.142792,-0.37037775,0.22951882,-0.15931202,-1.086065,-1.537935,18.780052,-0.053971395,0.11943817,-2.2052345,-1.2658942,-0.7553482,3.0499725,1.8419368,0.11096954,-0.2923622,-0.08189498,0.1266098,0.867321,-0.71260387,-0.24173737,8.646982,1.7653631,-0.1492691,-8.889908,-0.06771088,0.3220749,1.3080025,-1.3784842,-0.44712067,-0.8172722,1.9133048,-0.27629852,-12.36286,0.07709503,-0.029411316,1.1712837,-1.25314,-1.6593552,-3.0792694,1.8761419,-0.69561005,-2.0038147,0.0,0.0,0.0,0.0,0.0,0.0,0.0,0.0,0.0,0.0,0.0,0.0,-0.88462865,-0.25807804,0.039498184,-0.38013843,0.9077066,-0.9438815,0.44301593,-0.95316243,-0.8632664,0.9693231,-0.9451555,0.14368697
2025-06-04 18:48:39.347,-3.721332,-3.49936,-3.669603,0.045375314,0.26411003,-0.30776265,-1.637475,-1.116675,11.240132,-0.048707113,-0.3674698,-1.6144028,-1.2563574,-0.12340546,4.6198196,1.8291957,-0.4894638,0.9845123,-0.07838546,0.24936676,0.9308014,-0.7093995,0.2765274,5.3424873,1.7520117,-0.39592743,-6.701153,-0.03551483,0.2965927,1.2518501,-1.3771873,0.5855942,-5.0458527,1.8786674,-0.67913055,-10.878462,0.08106232,0.3105545,0.38391876,-1.3310361,-1.3458633,-0.22278214,1.8582891,-0.051078796,-0.23010635,0.0,0.0,0.0,0.0,0.0,0.0,0.0,0.0,0.0,0.0,0.0,0.0,-0.8341176,-0.024442349,-0.27800676,-0.34342414,0.8721438,-0.93484944,0.68973064,-0.9470492,-0.89940405,0.9563977,-0.9185832,-0.052029785
2025-06-04 18:48:39.398,-3.363907,-3.08227,-4.79831,0.35758865,0.02278042,-0.40648848,-1.128847,-1.727588,9.783795,-0.039475545,-0.009651184,-3.228199,-1.2275183,0.7275009,7.639889,1.7859371,-0.7934189,0.5633621,-0.07632552,-0.08182526,1.5094223,-0.6893342,0.7123947,2.8253593,1.727445,-0.536232,-5.528038,0.0060653687,0.92250824,-0.41199493,-1.3674979,0.15407562,-4.811474,1.8500571,-0.45459747,-11.234913,0.08365631,0.0038528442,0.8233757,-1.3728452,-0.5183792,-0.5169754,1.8348669,-0.4378128,-0.18005753,0.0,0.0,0.0,0.0,0.0,0.0,0.0,0.0,0.0,0.0,0.0,0.0,-0.80306715,0.09050651,-0.5223498,-0.45272475,0.84947133,-0.9026289,0.7329125,-0.9539925,-0.89933807,0.95608056,-0.9073977,-0.29530948
2025-06-04 18:48:39.449,-2.50975,-3.214589,-5.927132,0.41939178,-0.15663025,-0.3555472,-0.510886,-2.112179,9.372761,-0.03085433,0.08930206,-2.962082,-1.200434,0.27980804,8.996109,1.7380245,-0.9328842,0.03845215,-0.075638875,-0.20557404,1.2579536,-0.66751415,0.46779633,1.8902893,1.7050909,-0.38280487,-4.695507,0.040245056,0.7053757,-0.6317253,-1.362081,0.067863464,-4.8285637,1.8356376,-0.21289825,-11.479057,0.08426666,-0.052757263,0.7721062,-1.3945127,-0.2842331,-0.5206375,1.7958044,-0.69820404,-0.24231339,0.0,0.0,0.0,0.0,0.0,0.0,0.0,0.0,0.0,0.0,0.0,0.0,-0.8089793,0.09411655,-0.59515405,-0.62590224,0.84312016,-0.86050206,0.7064747,-0.96513796,-0.89928085,0.9578144,-0.90924525,-0.43036008
2025-06-04 18:48:39.500,-1.20863,-3.868537,-6.844904,0.55602574,-0.27931675,-0.24484055,0.11546,-2.020849,8.954172,-0.026276693,0.06649017,-2.7985039,-1.1724341,0.54805756,7.495842,1.6988857,-0.7104111,0.29358292,-0.07937728,0.13027191,0.5133133,-0.6515687,0.14087677,1.5716782,1.6934942,-0.07572174,-5.0702667,0.059776306,0.29453278,-0.48889923,-1.3600211,0.020179749,-4.679638,1.8306022,0.0059127808,-12.022278,0.084877014,-0.059394836,0.6561394,-1.4071774,-0.067481995,-0.41443634,1.7555212,-0.61244965,-0.3314247,0.0,0.0,0.0,0.0,0.0,0.0,0.0,0.0,0.0,0.0,0.0,0.0,-0.8216804,0.07935419,-0.6035302,-0.72226834,0.84723556,-0.8516698,0.6997012,-0.9717117,-0.9064218,0.95975703,-0.9130263,-0.4515174
2025-06-04 18:48:39.552,0.236147,-4.595599,-7.444017,0.3157448,-0.0375491,-0.16212569,2.345456,0.441199,10.235313,-0.032075033,-0.2679062,-1.5289536,-1.143595,0.54683685,5.383995,1.6690547,-0.5952072,0.80628586,-0.091508016,-0.15758514,1.8646507,-0.63867503,0.17597198,1.1285591,1.693189,-0.0037002563,-5.3620186,0.06275177,-0.15743256,0.8880768,-1.3538413,0.36052704,-6.7634087,1.8279319,-0.20137787,-11.093309,0.0888443,0.047569275,0.45716095,-1.4108396,-0.043373108,-1.0614166,1.7628454,0.46016693,-5.4438095,0.0,0.0,0.0,0.0,0.0,0.0,0.0,0.0,0.0,0.0,0.0,0.0,-0.8391061,0.04575242,-0.5989015,-0.7623551,0.8574447,-0.8495308,0.6962484,-0.9749703,-0.91333723,0.95694655,-0.9169399,-0.49055
2025-06-04 18:48:39.603,1.401861,-4.946058,-8.05716,0.27017123,-0.056217857,-0.2636852,2.174361,1.962808,9.065154,-0.04267989,-0.2578354,-1.1004791,-1.1197913,0.5842209,3.78973,1.6441066,-0.34427643,1.4264145,-0.108292684,-0.32596588,2.6129532,-0.62837535,0.15727997,1.3250923,1.6934179,0.019950867,-5.3949814,0.061912537,-0.0409317,0.42908478,-1.3449149,0.11188507,-5.9516296,1.8141227,-0.25737762,-10.463417,0.090675354,0.016975403,0.25574112,-1.4147305,0.017204285,-0.7354851,1.7823004,0.23830414,-6.179905,0.0,0.0,0.0,0.0,0.0,0.0,0.0,0.0,0.0,0.0,0.0,0.0,-0.8460407,0.034131885,-0.61249006,-0.7899699,0.8681124,-0.8519526,0.7110118,-0.9767047,-0.91853154,0.9564619,-0.9179025,-0.50472194
2025-06-04 18:48:39.654,2.251097,-5.273305,-8.864356,0.08764916,-0.071203426,-0.27325517,2.164437,2.175649,9.5188,-0.055878744,-0.22830963,-0.8880768,-1.0766089,0.87444305,0.38391876,1.6383083,-0.009269714,0.11657715,-0.122025594,-0.49144745,2.7801933,-0.62738353,-0.08365631,2.2418556,1.6942571,0.008125305,-5.3705635,0.06565094,0.1430893,-0.044555664,-1.3491111,-0.17093658,-4.831005,1.8038993,-0.16849518,-10.522011,0.09479523,0.10066986,-0.051879883,-1.418469,-0.05504608,-0.7794304,1.7884039,-0.033683777,-5.397423,0.0,0.0,0.0,0.0,0.0,0.0,0.0,0.0,0.0,0.0,0.0,0.0,-0.8443856,0.055946007,-0.6320714,-0.80305755,0.8632081,-0.8427553,0.73404443,-0.97800684,-0.9234681,0.95545006,-0.9129665,-0.51351124
2025-06-04 18:48:39.705,2.430802,-5.391725,-9.556314,-0.0925381,0.035009872,-0.11176748,1.199141,1.523991,9.480475,-0.0639659,-0.013084412,-0.47058868,-1.048075,0.06916046,2.977951,1.6341884,-0.14209747,0.35583878,-0.13110457,0.0434494,2.1564064,-0.63493663,-0.19458771,2.9803925,1.6970037,0.09914398,-5.7599754,0.070762634,0.06649017,-0.07141113,-1.3606315,-0.27996063,-4.06073,1.7971091,-0.0636673,-10.628214,0.09906769,0.024299622,-0.11657715,-1.4187741,0.019798279,-0.7855339,1.7797064,-0.39913177,-3.9838257,0.0,0.0,0.0,0.0,0.0,0.0,0.0,0.0,0.0,0.0,0.0,0.0,-0.8510492,0.07306631,-0.6521025,-0.83416903,0.8549036,-0.8167309,0.76459575,-0.9793291,-0.92756057,0.9557076,-0.90133303,-0.4996574
2025-06-04 18:48:39.756,2.282292,-5.214275,-9.546974,-0.068155944,0.033405706,0.074726954,0.154851,0.373938,10.046113,-0.06602584,-0.10120392,-1.1151276,-1.0497534,-0.1695633,4.105896,1.63045,0.0002670288,-0.029907227,-0.1307994,0.14247894,1.5985336,-0.64470226,-0.20145416,3.2758064,1.7013525,0.006752014,-5.224079,0.07305145,-0.038337708,0.3314247,-1.3653617,-0.064888,-4.5062943,1.79215,-0.108299255,-10.5232315,0.09983063,0.091667175,-0.04699707,-1.4180875,0.021247864,-0.6744499,1.7667364,-0.28217316,-3.4686813,0.0,0.0,0.0,0.0,0.0,0.0,0.0,0.0,0.0,0.0,0.0,0.0,-0.8638612,0.06519172,-0.65827334,-0.85521567,0.8502015,-0.7970401,0.77239525,-0.9802118,-0.92992735,0.9550996,-0.89728314,-0.5019866
2025-06-04 18:48:39.807,2.036052,-5.127032,-9.349083,-0.038015313,0.011689639,0.041519586,0.415796,-0.149826,9.438569,-0.065186605,-0.0018692017,-1.2762642,-1.0528815,-0.065727234,3.875183,1.6294582,-0.0104904175,-0.119018555,-0.12812911,-0.141716,1.9684143,-0.6501191,0.054969788,2.944992,1.7011999,-0.010261536,-4.9591827,0.07320404,0.0064468384,0.38269806,-1.367269,-0.0863266,-4.625927,1.7897849,-0.016441345,-10.570841,0.1001358,-0.05596161,-0.010375977,-1.4174771,0.046195984,-0.6231766,1.7580389,-0.0976944,-3.613945,0.0,0.0,0.0,0.0,0.0,0.0,0.0,0.0,0.0,0.0,0.0,0.0,-0.86789453,0.06328856,-0.6613426,-0.85993975,0.8492619,-0.79237187,0.767251,-0.9806867,-0.92909706,0.95475143,-0.89801216,-0.50793576
2025-06-04 18:48:39.858,1.906678,-5.070553,-9.339271,-0.011859216,-0.0067174407,-0.024402024,0.582277,-0.051043,9.782442,-0.06503402,0.037956238,-1.2103462,-1.0546362,0.043678284,3.9264526,1.6284664,-0.03604889,-0.12390137,-0.12767135,-0.03528595,1.7169456,-0.65210277,-0.06313324,2.6971855,1.7013525,-0.028419495,-4.9555206,0.0737381,-0.008354187,0.26062393,-1.3687949,0.0075912476,-4.491646,1.789022,-0.046653748,-10.657511,0.099983215,0.041160583,-0.012817383,-1.416409,0.07129669,-0.7830925,1.7549108,-0.03566742,-3.9423218,0.0,0.0,0.0,0.0,0.0,0.0,0.0,0.0,0.0,0.0,0.0,0.0,-0.86771786,0.06271157,-0.6594526,-0.85969716,0.84809047,-0.79295003,0.76544523,-0.98066056,-0.92861605,0.95504284,-0.8984174,-0.5052528
2025-06-04 18:48:39.909,1.886277,-5.060226,-9.405917,0.011256012,-0.004161144,-0.015956568,0.728587,0.26099,9.765688,-0.06541549,0.0073623657,-1.1419868,-1.0551703,0.04535675,3.7836266,1.6280086,0.029792786,-0.1300087,-0.12805282,-0.041618347,1.981842,-0.65210277,0.0020217896,2.7008476,1.7018102,-0.010871887,-5.02388,0.07442474,0.03879547,0.31555557,-1.3699393,0.002861023,-4.5551224,1.7889457,0.0051498413,-10.606241,0.09990692,-0.1454544,0.103149414,-1.4159513,0.064582825,-0.7513542,1.7549108,0.033073425,-3.925232,0.0,0.0,0.0,0.0,0.0,0.0,0.0,0.0,0.0,0.0,0.0,0.0,-0.86910033,0.06289178,-0.65771914,-0.8599447,0.8480595,-0.79196554,0.7665379,-0.9807565,-0.9290681,0.954858,-0.8980785,-0.50505364
2025-06-04 18:48:39.960,1.922406,-5.065716,-9.433345,0.0043829754,-0.0006723532,-0.007552912,0.948222,0.457028,9.738755,-0.06572066,0.01712799,-1.4691391,-1.0548651,0.06855011,3.7042809,1.6280086,0.04650116,-0.14099503,-0.12934981,0.030708313,1.5716782,-0.6520265,-0.022239685,2.9352264,1.7020391,0.013389587,-5.0177765,0.07419586,-0.039253235,0.3265419,-1.3697104,0.01750946,-4.614937,1.7889457,-0.007133484,-10.578165,0.10059357,-0.24211884,0.115356445,-1.4157224,-0.02254486,-0.6756706,1.7549871,-0.013084412,-3.9728394,0.0,0.0,0.0,0.0,0.0,0.0,0.0,0.0,0.0,0.0,0.0,0.0,-0.8683591,0.06565741,-0.65852135,-0.8603902,0.8472388,-0.79204714,0.76725197,-0.98064965,-0.929453,0.95488495,-0.89796835,-0.50499624
2025-06-04 18:48:40.011,1.935521,-5.064248,-9.464814,-0.002999296,0.0022208267,-0.009729913,0.844072,0.389334,9.750211,-0.066178426,-0.082359314,-1.190815,-1.0548651,0.036201477,3.5870895,1.627856,0.061531067,-0.14465714,-0.12973128,0.005607605,1.7706566,-0.6520265,-0.06778717,2.6678886,1.7023443,0.017204285,-5.016556,0.07442474,-0.029182434,0.27405167,-1.369863,-0.029029846,-4.5758743,1.7887168,0.013008118,-10.630655,0.10059357,-0.17383575,0.103149414,-1.4154935,-0.008125305,-0.69276047,1.7549108,0.0037002563,-3.970398,0.0,0.0,0.0,0.0,0.0,0.0,0.0,0.0,0.0,0.0,0.0,0.0,-0.8696144,0.064153984,-0.6577321,-0.86198103,0.8476487,-0.7906352,0.7693387,-0.9808485,-0.9301499,0.95501345,-0.89762205,-0.50337374
2025-06-04 18:48:40.062,1.932841,-5.05477,-9.470349,0.0030725126,0.0010960493,0.0034245104,0.799005,0.254039,9.745805,-0.0664836,-0.03604889,-1.0040436,-1.0548651,0.0014877319,3.8788452,1.627856,-0.029792786,-0.07019043,-0.12973128,-0.002861023,1.760891,-0.6519502,0.008964539,2.6861992,1.7024969,-0.009498596,-5.036087,0.07472992,-0.013160706,0.2838173,-1.3700156,0.0022506714,-4.60273,1.7887168,0.013923645,-10.597696,0.10066986,0.04840851,-0.103149414,-1.4153409,0.03139496,-0.6305046,1.7549108,0.0064468384,-3.847103,0.0,0.0,0.0,0.0,0.0,0.0,0.0,0.0,0.0,0.0,0.0,0.0,-0.87172246,0.058766317,-0.6598346,-0.864395,0.84978783,-0.7904404,0.77111596,-0.9809511,-0.93000174,0.9551368,-0.8973513,-0.5030464
2025-06-04 18:48:40.113,1.926839,-5.053742,-9.468034,0.005001869,0.0051506585,-0.006190543,0.871346,0.25753,9.78176,-0.066178426,0.12523651,-1.2542915,-1.055094,0.06702423,3.5516891,1.6276271,-0.021095276,-0.15564346,-0.12965499,0.0062179565,1.752346,-0.6517213,0.021629333,2.691082,1.7024969,-0.013465881,-5.0580597,0.07472992,-0.03993988,0.27649307,-1.369863,0.025291443,-4.528267,1.7887931,0.004005432,-10.606241,0.10089874,0.061531067,-0.15808487,-1.4152646,-0.048332214,-0.62073517,1.7549871,-0.0075912476,-3.9484253,0.0,0.0,0.0,0.0,0.0,0.0,0.0,0.0,0.0,0.0,0.0,0.0,-0.8717363,0.059062015,-0.6625836,-0.8643584,0.84983736,-0.7912643,0.7696817,-0.9807678,-0.9292772,0.9548963,-0.897479,-0.5062826
2025-06-04 18:48:40.164,1.932497,-5.051364,-9.483287,0.0031370549,0.0021450445,-0.001696076,0.873879,0.342162,9.741464,-0.06678878,-0.06374359,-1.0748444,-1.055094,-0.092811584,3.7384605,1.6273983,-0.0052261353,-0.15320206,-0.12988387,0.011711121,1.7486839,-0.6518739,-0.15926361,2.7045097,1.7024969,0.01285553,-5.0043488,0.07480621,-0.01537323,0.29602432,-1.3700156,0.009346008,-4.491646,1.7888694,-0.004081726,-10.606241,0.10105133,0.14980316,-0.037231445,-1.415112,-0.00705719,-0.6598015,1.7549871,0.0023269653,-4.0009155,0.0,0.0,0.0,0.0,0.0,0.0,0.0,0.0,0.0,0.0,0.0,0.0,-0.87283456,0.05653033,-0.66141367,-0.8663664,0.8501452,-0.78997666,0.7725457,-0.98100585,-0.9301045,0.95535046,-0.897065,-0.50195134
2025-06-04 18:48:40.215,1.938159,-5.049492,-9.490157,-0.0023268904,-0.0020756153,0.00073207833,0.83052,0.334769,9.742284,-0.06663619,-0.034828186,-1.2201118,-1.0552466,0.011024475,3.7067223,1.627322,0.005531311,-0.14221573,-0.12996016,-0.0064468384,1.7450218,-0.65217906,-0.059318542,2.7948418,1.7026495,-0.0011825562,-4.9811554,0.07480621,0.004005432,0.29602432,-1.3700156,0.054283142,-4.560005,1.7887931,-0.009346008,-10.626993,0.10082245,-0.07160187,0.012817383,-1.415112,0.019187927,-0.68909836,1.7548345,-0.023460388,-3.9520874,0.0,0.0,0.0,0.0,0.0,0.0,0.0,0.0,0.0,0.0,0.0,0.0,-0.8716545,0.06211636,-0.6615963,-0.86469424,0.8493241,-0.7904999,0.771981,-0.9809239,-0.9302732,0.95505875,-0.8972913,-0.50387865
2025-06-04 18:48:40.266,1.92944,-5.048695,-9.492782,0.00026785568,-0.0018255096,-0.003218073,0.848784,0.300317,9.745329,-0.066712484,0.032920837,-1.0992584,-1.055094,0.06664276,3.7482262,1.6272457,-0.01941681,-0.15198135,-0.12980758,0.034065247,1.6778831,-0.6519502,0.043373108,2.7289238,1.7026495,0.0023269653,-5.0434113,0.0749588,0.017204285,0.2911415,-1.3700919,-0.03665924,-4.6723137,1.7887931,-0.024299622,-10.663614,0.10089874,-0.016441345,0.015258789,-1.415112,-0.006980896,-0.6036453,1.7549108,-0.0076675415,-3.9789429,0.0,0.0,0.0,0.0,0.0,0.0,0.0,0.0,0.0,0.0,0.0,0.0,-0.87239677,0.059655085,-0.6612644,-0.8649056,0.84972674,-0.7898003,0.77069956,-0.98092204,-0.9297787,0.9550235,-0.89725196,-0.5046347
2025-06-04 18:48:40.317,1.928575,-5.048333,-9.495213,0.0010025345,-0.0012141034,-0.0027219804,0.844158,0.283219,9.734678,-0.0664836,0.022087097,-1.2384224,-1.0549414,0.026664734,3.678646,1.6268642,-0.010185242,-0.16174698,-0.12980758,0.0409317,1.7291527,-0.65210277,-0.05756378,2.6837578,1.7026495,-0.0004196167,-4.9933624,0.0749588,-0.020103455,0.30090714,-1.3703208,0.013389587,-4.519722,1.7887168,0.02040863,-10.640421,0.10097504,-0.0031661987,0.009155273,-1.4149594,0.008735657,-0.632946,1.7549871,0.017356873,-3.9728394,0.0,0.0,0.0,0.0,0.0,0.0,0.0,0.0,0.0,0.0,0.0,0.0,-0.87224245,0.060541812,-0.66110635,-0.86507314,0.84906167,-0.7894865,0.77183414,-0.9809263,-0.9300065,0.9549904,-0.8968514,-0.50326777
2025-06-04 18:48:40.368,1.928478,-5.042225,-9.500922,-0.00051694905,0.0018857061,-0.003455525,0.818611,0.32846,9.733727,-0.06663619,-0.065193176,-1.2140083,-1.055094,0.07236481,3.6615562,1.6267879,-0.0060653687,-0.1336708,-0.12996016,-0.013923645,1.7621117,-0.6517976,-0.0011825562,2.8046074,1.7028784,-0.0046157837,-5.04097,0.0749588,-0.033226013,0.29358292,-1.3703208,0.007133484,-4.544136,1.7886405,-0.015830994,-10.617228,0.10089874,-0.043907166,-0.005493164,-1.4152646,-0.027961731,-0.6036453,1.7549108,-0.01941681,-3.9032593,0.0,0.0,0.0,0.0,0.0,0.0,0.0,0.0,0.0,0.0,0.0,0.0,-0.8717083,0.060807206,-0.6611289,-0.864595,0.8494916,-0.7906262,0.7707038,-0.9809345,-0.9302086,0.9550738,-0.8977327,-0.5055416
2025-06-04 18:48:40.421,1.927579,-5.03752,-9.502171,-0.00014166837,0.005122262,0.0011631572,0.843572,0.326063,9.739791,-0.066712484,0.0046920776,-1.2091255,-1.0553229,0.0033950806,3.7433434,1.6269405,-0.019950867,-0.10559082,-0.12980758,0.065193176,1.719387,-0.6519502,-0.11638641,2.6776543,1.7027258,-0.007820129,-5.015335,0.0749588,-0.018043518,0.2911415,-1.3702445,0.021247864,-4.507515,1.7886405,0.021476746,-10.630655,0.10097504,-0.046424866,-0.005493164,-1.4151883,0.033683777,-0.64759445,1.7549108,0.0014877319,-3.9752808,0.0,0.0,0.0,0.0,0.0,0.0,0.0,0.0,0.0,0.0,0.0,0.0,-0.87170655,0.062234942,-0.6605724,-0.86491436,0.84873486,-0.7895207,0.77246493,-0.9809452,-0.93027246,0.955145,-0.896749,-0.5016032
2025-06-04 18:48:40.473,1.929766,-5.035834,-9.504023,-0.0005309815,-0.00112846,-0.0019676667,0.856597,0.325095,9.744226,-0.066559896,-0.02696991,-1.1956978,-1.0548651,0.07740021,3.7457848,1.6268642,-0.014839172,-0.14465714,-0.12988387,-0.015220642,1.7413597,-0.6518739,-0.021629333,2.7399101,1.703031,0.03513336,-5.064163,0.0749588,-0.03238678,0.29968643,-1.3703971,-0.096321106,-4.5587845,1.7885642,-0.0037765503,-10.608683,0.10105133,0.013084412,-0.02746582,-1.415112,-0.02368927,-0.64881516,1.7549108,0.0036239624,-3.9594116,0.0,0.0,0.0,0.0,0.0,0.0,0.0,0.0,0.0,0.0,0.0,0.0,-0.87219983,0.061558604,-0.6608835,-0.8653784,0.84972477,-0.7894639,0.77243865,-0.9810049,-0.9304778,0.9550515,-0.89706016,-0.50320524
2025-06-04 18:48:40.527,1.927831,-5.032091,-9.504183,0.0020489292,0.00063276914,0.0007006973,0.820596,0.301241,9.746634,-0.066712484,-0.052452087,-0.95887756,-1.0550177,-0.04207611,3.7604332,1.6267879,0.0724411,-0.14953995,-0.12988387,-0.0076675415,1.7450218,-0.651645,0.03200531,2.691082,1.7028784,-0.038261414,-5.036087,0.075035095,-0.0118637085,0.2899208,-1.3703208,0.04863739,-4.5673294,1.7886405,0.010948181,-10.646524,0.10089874,-0.07556915,0.010375977,-1.415112,0.0010299683,-0.6280632,1.7548345,-0.0020980835,-3.9093628,0.0,0.0,0.0,0.0,0.0,0.0,0.0,0.0,0.0,0.0,0.0,0.0,-0.8736002,0.056963,-0.6613592,-0.86617,0.84963673,-0.7889181,0.7713157,-0.98099685,-0.9301603,0.9548817,-0.8972167,-0.5064549
2025-06-04 18:48:40.579,1.926773,-5.032655,-9.507562,-0.0013267993,-0.00024195499,-0.002268422,0.866465,0.321749,9.728622,-0.06678878,0.016059875,-1.0772858,-1.0549414,-0.070991516,3.8324547,1.626559,0.0017929077,-0.08239746,-0.12973128,0.0077438354,1.7108421,-0.6517213,-0.0598526,2.699627,1.7028784,0.007820129,-4.9774933,0.07511139,-0.0060653687,0.26794815,-1.3703208,-0.030174255,-4.561226,1.7887168,0.0045394897,-10.602579,0.101127625,0.01285553,0.004272461,-1.4150357,0.053596497,-0.5828934,1.7548345,-0.0015640259,-3.994812,0.0,0.0,0.0,0.0,0.0,0.0,0.0,0.0,0.0,0.0,0.0,0.0,-0.87371045,0.05833305,-0.66194606,-0.8672756,0.85032976,-0.7888582,0.77339995,-0.9810977,-0.93026704,0.9552,-0.8966274,-0.5014906
2025-06-04 18:48:40.632,1.92568,-5.03365,-9.511348,0.0007585724,-0.000112800626,-0.00053403585,0.806937,0.315907,9.738053,-0.06686507,-0.034446716,-1.1920357,-1.0551703,-0.038261414,3.7018394,1.6266353,-0.0008010864,-0.15808487,-0.12980758,0.018043518,1.6913109,-0.6520265,-0.059700012,2.8082695,1.703031,0.026664734,-4.9762726,0.07518768,-0.0104904175,0.2825966,-1.3705497,0.030021667,-4.495308,1.7886405,0.018196106,-10.576944,0.101127625,-0.012245178,0.005493164,-1.4152646,-0.001411438,-0.6573601,1.7549871,-0.026435852,-3.9301147,0.0,0.0,0.0,0.0,0.0,0.0,0.0,0.0,0.0,0.0,0.0,0.0,-0.8729712,0.059886593,-0.6626053,-0.86679983,0.8497895,-0.78891444,0.77366793,-0.9809916,-0.9304657,0.95506346,-0.8966942,-0.50314957
2025-06-04 18:48:40.685,1.925774,-5.030348,-9.512226,0.0010628357,0.0018303267,-0.0010553307,0.848884,0.32151,9.743708,-0.06701766,-0.091285706,-1.1407661,-1.0553229,0.025291443,3.6578941,1.6267116,-0.027198792,-0.11291504,-0.13003646,-0.04360199,1.7657738,-0.65210277,-0.035743713,2.8375664,1.7032598,0.020637512,-5.0373077,0.07518768,0.0049209595,0.2887001,-1.3704734,0.025749207,-4.577095,1.7886405,-0.014533997,-10.612345,0.10105133,-0.02002716,-0.017700195,-1.415112,0.09159088,-0.6573601,1.7549108,0.032844543,-3.9154663,0.0,0.0,0.0,0.0,0.0,0.0,0.0,0.0,0.0,0.0,0.0,0.0,-0.87295,0.060008716,-0.6609262,-0.8661065,0.8501098,-0.789265,0.7730766,-0.9811525,-0.9307314,0.9551779,-0.8971576,-0.50303364
2025-06-04 18:48:40.739,1.925913,-5.026994,-9.5148,-0.00020348793,-0.0018994767,-0.00196367,0.838163,0.324207,9.695839,-0.06686507,0.03917694,-1.1981392,-1.0551703,0.07022858,3.777523,1.6268642,0.083732605,-0.12756729,-0.12980758,-0.005302429,1.7621117,-0.6517213,0.050849915,2.6678886,1.7031835,0.0048446655,-5.0043488,0.07511139,-0.041542053,0.27771378,-1.3703208,0.01499176,-4.6161575,1.7886405,0.00415802,-10.574503,0.101127625,-0.0074386597,-0.014038086,-1.415112,-0.0031661987,-0.64149094,1.7549108,-0.026054382,-3.945984,0.0,0.0,0.0,0.0,0.0,0.0,0.0,0.0,0.0,0.0,0.0,0.0,-0.87332934,0.05828281,-0.6619237,-0.8662511,0.84996617,-0.78937405,0.7718011,-0.9809667,-0.9301254,0.95487666,-0.8971046,-0.5054124
2025-06-04 18:48:40.792,1.924131,-5.024729,-9.516921,-0.0017477378,-0.0008936435,0.00011009537,0.829949,0.333957,9.781176,-0.06678878,-0.058250427,-1.1261177,-1.055094,-0.015449524,3.6725426,1.6267116,-0.0358963,-0.115356445,-0.12988387,0.021476746,1.7816429,-0.6517976,-0.03376007,2.6727715,1.703031,-0.035362244,-4.9518585,0.075035095,-0.011100769,0.2923622,-1.3705497,-0.011482239,-4.590523,1.7886405,0.019340515,-10.6379795,0.10105133,-0.0060653687,-0.0030517578,-1.415112,0.07488251,-0.67811203,1.7550634,-0.0005722046,-3.9508667,0.0,0.0,0.0,0.0,0.0,0.0,0.0,0.0,0.0,0.0,0.0,0.0,-0.8735573,0.059544362,-0.66112447,-0.86645603,0.849896,-0.7886049,0.77341753,-0.9811279,-0.93048096,0.95515865,-0.89675015,-0.5017845
2025-06-04 18:48:40.844,1.921101,-5.0223,-9.519485,0.00041725585,0.001491349,-2.5202555e-05,0.809187,0.295086,9.74247,-0.06686507,-0.04436493,-1.1395454,-1.0549414,0.019569397,3.7311363,1.6266353,-0.011024475,-0.14099503,-0.12996016,0.01537323,1.7084007,-0.6518739,-0.0021743774,2.7557793,1.7032598,0.0012588501,-5.028763,0.07526398,-0.008735657,0.2825966,-1.370626,-0.026741028,-4.6124954,1.7886405,0.011253357,-10.607462,0.10128021,0.008506775,-0.009155273,-1.4154172,-0.06893158,-0.6585808,1.7549871,0.025367737,-3.9362183,0.0,0.0,0.0,0.0,0.0,0.0,0.0,0.0,0.0,0.0,0.0,0.0,-0.87347317,0.058211453,-0.6619246,-0.8662886,0.85010475,-0.7895167,0.7721963,-0.98099846,-0.93031365,0.9550148,-0.8972366,-0.5055222
2025-06-04 18:48:40.897,1.919468,-5.016001,-9.519168,-0.0016324238,0.00026349234,0.0011065038,0.835329,0.313385,9.73605,-0.06678878,-0.04436493,-1.1273384,-1.055094,-0.025367737,3.6578941,1.6266353,-0.056800842,-0.13489151,-0.13003646,0.0434494,1.7108421,-0.6517976,0.063819885,2.7643242,1.7033361,0.020256042,-5.0788116,0.07518768,-0.0009536743,0.2887001,-1.3705497,-0.008964539,-4.5429153,1.7884879,0.0023269653,-10.596476,0.10120392,-0.0009536743,-0.004272461,-1.4152646,-0.018348694,-0.68909836,1.7548345,-0.036964417,-3.9142456,0.0,0.0,0.0,0.0,0.0,0.0,0.0,0.0,0.0,0.0,0.0,0.0,-0.8734267,0.057273645,-0.6628398,-0.8668952,0.8508937,-0.7898683,0.77216154,-0.9810317,-0.93003714,0.9553137,-0.897287,-0.50412416
2025-06-04 18:48:40.950,1.920816,-5.014551,-9.519567,0.0010551388,0.00079939567,-0.0005419422,0.839882,0.360329,9.738338,-0.066712484,0.024757385,-1.1517525,-1.0550177,0.01247406,3.7262535,1.6267879,-0.0014877319,-0.09460449,-0.12996016,-0.0033187866,1.7889671,-0.6519502,0.015830994,2.7948418,1.7031835,0.029411316,-5.0263214,0.075416565,-0.0030136108,0.27893448,-1.370626,0.00995636,-4.4599075,1.7885642,0.014305115,-10.640421,0.101127625,-0.008583069,-0.009155273,-1.415112,-0.0052261353,-0.6317253,1.7549108,0.005531311,-3.9472046,0.0,0.0,0.0,0.0,0.0,0.0,0.0,0.0,0.0,0.0,0.0,0.0,-0.8733439,0.058390506,-0.662742,-0.8664244,0.85034746,-0.7895526,0.7720727,-0.9810104,-0.9299804,0.9550592,-0.897035,-0.50484365
2025-06-04 18:48:41.004,1.921947,-5.010939,-9.519496,0.00060322066,0.0007977551,0.00065081584,0.816645,0.286992,9.74299,-0.06663619,0.05794525,-1.1895943,-1.0552466,-0.05519867,3.7189293,1.6267116,-0.01209259,-0.12145996,-0.12996016,-0.006980896,1.8683128,-0.6517976,-0.008277893,2.6898613,1.7031835,-0.037651062,-5.0702667,0.07511139,0.022621155,0.2825966,-1.3705497,0.021018982,-4.557564,1.7886405,0.011787415,-10.606241,0.101127625,-0.018196106,-0.00061035156,-1.4148831,-0.0104904175,-0.6292839,1.7548345,-0.025596619,-3.99115,0.0,0.0,0.0,0.0,0.0,0.0,0.0,0.0,0.0,0.0,0.0,0.0,-0.87384844,0.057094034,-0.663441,-0.8669085,0.8503189,-0.78888965,0.77153975,-0.98099506,-0.9296644,0.9550323,-0.8969557,-0.5052553
2025-06-04 18:48:41.059,1.92223,-5.008427,-9.52033,-0.0015868708,0.00063413044,-0.003716696,0.841428,0.299112,9.736466,-0.066941366,-0.024604797,-1.1590767,-1.0552466,-0.040473938,3.7433434,1.6264064,-0.014305115,-0.15930557,-0.12988387,-0.0025558472,1.7950706,-0.6518739,0.004005432,2.7142754,1.7032598,-0.025749207,-4.994583,0.07526398,0.008125305,0.28015518,-1.3709311,-0.03238678,-4.5624466,1.7886405,-0.008888245,-10.662394,0.10120392,0.0008773804,-0.010375977,-1.4150357,0.026741028,-0.72571945,1.7547582,-0.0017929077,-3.9667358,0.0,0.0,0.0,0.0,0.0,0.0,0.0,0.0,0.0,0.0,0.0,0.0,-0.874634,0.056701083,-0.66223717,-0.86742544,0.8506694,-0.78844774,0.7725922,-0.9811322,-0.93010575,0.9551529,-0.89693797,-0.5035074
2025-06-04 18:48:41.113,1.92096,-5.008081,-9.525317,0.0017604613,0.005539378,-0.00091669924,0.854414,0.301111,9.736757,-0.06686507,-0.024147034,-1.1590767,-1.0552466,0.02193451,3.5870895,1.6264064,0.03025055,-0.12023926,-0.13034163,-0.026817322,1.8731956,-0.6517976,-0.016593933,2.6739922,1.7033361,-0.02292633,-5.044632,0.075416565,0.049171448,0.25452042,-1.3709311,-0.118370056,-4.6039505,1.7885642,0.0061416626,-10.600138,0.10105133,-0.0012588501,0.0018310547,-1.415112,0.023384094,-0.68909836,1.7548345,0.015830994,-3.8910522,0.0,0.0,0.0,0.0,0.0,0.0,0.0,0.0,0.0,0.0,0.0,0.0,-0.8750741,0.05803724,-0.661512,-0.8675545,0.8509122,-0.78825957,0.7741072,-0.9812106,-0.93063515,0.95505846,-0.89675033,-0.5026521
2025-06-04 18:48:41.165,1.919013,-5.007771,-9.531899,4.298746e-05,-0.0015278787,-0.0021555864,0.862572,0.341829,9.732132,-0.06701766,-0.0048446655,-1.2262154,-1.0553229,0.012931824,3.6237106,1.6264064,-0.001411438,-0.12023926,-0.1307994,-0.3599167,1.6400414,-0.6517213,0.024299622,2.789959,1.7034124,-0.008049011,-5.003128,0.07549286,-0.019721985,0.2923622,-1.3707786,0.039024353,-4.5990677,1.7885642,0.079078674,-10.616007,0.101127625,-0.036506653,-0.012817383,-1.4149594,-0.0046920776,-0.5645828,1.7549108,-0.011940002,-3.9313354,0.0,0.0,0.0,0.0,0.0,0.0,0.0,0.0,0.0,0.0,0.0,0.0,-0.87337315,0.057801165,-0.66510046,-0.86709374,0.85173255,-0.7903935,0.771281,-0.98124355,-0.9303153,0.95502037,-0.8979212,-0.5096889
2025-06-04 18:48:41.217,1.922856,-5.00693,-9.537826,-0.0023241502,-0.00054426346,-0.004194899,0.873468,0.367603,9.756946,-0.06717025,0.043296814,-1.1163483,-1.0553229,-0.035591125,3.8214684,1.626025,0.0059127808,-0.14343643,-0.12973128,0.6883621,0.6231766,-0.651645,-0.17375946,2.9266815,1.7034124,0.013694763,-5.0128937,0.07549286,-0.002708435,0.27405167,-1.37116,0.11569977,-4.478218,1.7885642,0.017204285,-10.653849,0.10120392,0.02407074,0.022583008,-1.4151883,-0.07350922,-0.57801056,1.7548345,-0.0007247925,-3.9801636,0.0,0.0,0.0,0.0,0.0,0.0,0.0,0.0,0.0,0.0,0.0,0.0,-0.8739528,0.05913807,-0.6606319,-0.8673345,0.84688294,-0.7869363,0.7759111,-0.9805921,-0.9300781,0.955189,-0.8949392,-0.49703988
2025-06-04 18:48:41.270,1.926242,-5.004827,-9.542933,-0.0021873687,0.00064695865,-0.006144641,0.795442,0.327987,9.75837,-0.06717025,-0.0762558,-0.98573303,-1.0552466,-0.12004852,3.97406,1.6261775,-0.03856659,-0.122680664,-0.13003646,0.863533,1.924469,-0.6518739,-0.14431,2.5226212,1.7036413,0.036735535,-5.061722,0.07572174,0.021324158,0.26184464,-1.3714652,0.078315735,-4.2682533,1.7885642,-0.013618469,-10.625772,0.10135651,-0.05092621,0.053100586,-1.4149594,0.027656555,-0.7867546,1.7549108,-0.0074386597,-3.819027,0.0,0.0,0.0,0.0,0.0,0.0,0.0,0.0,0.0,0.0,0.0,0.0,-0.8754613,0.06281162,-0.6591643,-0.86966395,0.84613186,-0.7825581,0.78254426,-0.98063844,-0.9316173,0.9550557,-0.89288664,-0.48927823
2025-06-04 18:48:41.322,1.927771,-4.997925,-9.563437,0.0009079028,0.0020473236,-0.0056830887,0.840574,0.316449,9.73842,-0.06717025,0.19451141,-1.326313,-1.0556281,0.06893158,3.7067223,1.6261775,0.016746521,-0.076293945,-0.13026534,0.13736725,0.44373322,-0.6519502,-0.14827728,3.1073456,1.7037939,-0.0020217896,-5.0299835,0.07587433,-0.12767792,0.30456924,-1.3716178,0.06046295,-4.6930656,1.7885642,-0.002937317,-10.598917,0.10158539,0.051460266,-0.0982666,-1.4147305,-0.14186859,-0.44983673,1.7549871,-0.028038025,-3.7213707,0.0,0.0,0.0,0.0,0.0,0.0,0.0,0.0,0.0,0.0,0.0,0.0,-0.87377834,0.06366942,-0.6657858,-0.86927235,0.8477732,-0.78528535,0.77673423,-0.9806889,-0.9309366,0.95439243,-0.89502317,-0.5038401
2025-06-04 18:48:41.375,1.932357,-4.995047,-9.579253,0.0007711039,-0.0009630901,-0.0023856906,0.865252,0.338269,9.783267,-0.067322835,0.25814056,-1.0992584,-1.055094,0.141716,3.958191,1.626025,0.008964539,-0.11291504,-0.13064681,0.37899017,1.0577545,-0.65210277,-0.15651703,2.8412285,1.7037939,-0.0035476685,-4.950638,0.076179504,0.050621033,0.26550674,-1.3716941,0.047721863,-4.5429153,1.7885642,-0.012779236,-10.597696,0.10135651,0.062675476,-0.022583008,-1.414578,-0.12699127,-0.5206375,1.7549108,0.02155304,-3.9557495,0.0,0.0,0.0,0.0,0.0,0.0,0.0,0.0,0.0,0.0,0.0,0.0,-0.8742893,0.06034815,-0.6640895,-0.8682589,0.8473016,-0.78523177,0.7738975,-0.9806732,-0.9297317,0.9546375,-0.8951482,-0.5030132
2025-06-04 18:48:41.428,1.938907,-4.995558,-9.588491,-0.004353916,0.0009225287,-0.002107101,0.880306,0.381036,9.750651,-0.06800948,0.107688904,-0.48645782,-1.0553992,-0.081214905,4.326847,1.6257961,-0.0146865845,-0.17761612,-0.13148604,-0.023918152,1.7511253,-0.6518739,-0.08136749,2.6923027,1.7039465,0.012321472,-5.0751495,0.07610321,-0.021781921,0.25452042,-1.3717704,-0.048484802,-4.4110794,1.7885642,0.0009536743,-10.598917,0.10166168,0.042915344,-0.055541992,-1.4143491,-0.047187805,-0.7147331,1.7549108,0.020179749,-3.9118042,0.0,0.0,0.0,0.0,0.0,0.0,0.0,0.0,0.0,0.0,0.0,0.0,-0.87667495,0.055115208,-0.6651808,-0.87129915,0.8508102,-0.78508496,0.77494866,-0.98119485,-0.93036056,0.9550393,-0.89573866,-0.5031994
2025-06-04 18:48:41.481,1.935535,-4.993817,-9.593328,-0.00063772587,-0.0005388704,-0.0018805399,0.852493,0.337588,9.699183,-0.067322835,0.49808502,-1.1602974,-1.055857,0.15743256,3.687191,1.6257198,-0.010414124,-0.1312294,-0.13171493,-0.029182434,1.760891,-0.651645,0.021858215,2.6752129,1.7039465,0.0182724,-5.028763,0.076179504,0.074043274,0.1715126,-1.3718467,0.045967102,-4.5001907,1.7884879,0.005607605,-10.6392,0.10158539,0.073280334,-0.04333496,-1.4148068,-0.013923645,-0.80994797,1.7549871,-0.017204285,-3.8690758,0.0,0.0,0.0,0.0,0.0,0.0,0.0,0.0,0.0,0.0,0.0,0.0,-0.8757883,0.056387972,-0.6686224,-0.86997247,0.8517193,-0.7874174,0.7726927,-0.9809445,-0.92891717,0.9546197,-0.89595854,-0.50665575
2025-06-04 18:48:41.533,1.929495,-4.993145,-9.596788,0.00074083987,0.0008990889,0.001786484,0.808288,0.311173,9.73967,-0.06854354,-0.5980301,-0.8599968,-1.0556281,-0.10623932,3.7055016,1.6253383,-0.03414154,-0.1300087,-0.13156234,-0.021705627,1.8866272,-0.6518739,-0.027046204,2.7875175,1.7039465,0.018730164,-5.049515,0.07610321,0.006752014,0.21301651,-1.3720756,0.043907166,-4.5062943,1.7885642,0.00995636,-10.629435,0.10158539,0.059547424,-0.005493164,-1.4145017,0.06252289,-0.61707306,1.7549871,-0.0036239624,-3.9545288,0.0,0.0,0.0,0.0,0.0,0.0,0.0,0.0,0.0,0.0,0.0,0.0,-0.8772642,0.05180875,-0.6608881,-0.87088335,0.8521826,-0.78713405,0.7776752,-0.9816349,-0.9323484,0.9558558,-0.89735985,-0.5017788
2025-06-04 18:48:41.587,1.927377,-4.994384,-9.599218,0.0003191858,-0.00019963075,-0.0057576317,0.871062,0.316879,9.744317,-0.06793319,-0.14217377,-1.8316917,-1.0557044,0.12012482,3.2660408,1.6256435,0.015830994,-0.10437012,-0.13179122,-0.0077438354,1.7560081,-0.6518739,-0.06511688,2.8339043,1.7040228,0.01903534,-4.9970245,0.07633209,0.071144104,0.27893448,-1.3721519,0.03314972,-4.5453568,1.7885642,0.007820129,-10.685587,0.10158539,-0.0207901,-0.025024414,-1.4147305,0.00011444092,-0.50110626,1.7550634,0.002937317,-3.9191284,0.0,0.0,0.0,0.0,0.0,0.0,0.0,0.0,0.0,0.0,0.0,0.0,-0.8744781,0.06055623,-0.66291606,-0.86828244,0.8518204,-0.7908084,0.7775553,-0.9812804,-0.9319868,0.95548326,-0.8972443,-0.50284404
2025-06-04 18:48:41.640,1.931315,-4.989436,-9.609017,0.0009586744,-0.0037261557,0.0012335288,0.804258,0.362508,9.771436,-0.06839095,0.21816254,-0.5169754,-1.0561621,-0.013542175,4.1571693,1.6257961,-0.007286072,-0.053100586,-0.13179122,-0.040855408,1.7816429,-0.6515687,-0.05558014,2.7862968,1.7038702,-0.015296936,-5.084915,0.076408386,0.036735535,0.2911415,-1.3721519,0.028495789,-4.486763,1.7885642,-0.0011825562,-10.699017,0.101737976,0.0014877319,-0.017700195,-1.4142728,0.1317215,-0.8709831,1.7549871,-0.007972717,-3.9020386,0.0,0.0,0.0,0.0,0.0,0.0,0.0,0.0,0.0,0.0,0.0,0.0,-0.87635636,0.057779618,-0.6652932,-0.87077576,0.8517908,-0.78646237,0.7778294,-0.98128897,-0.93088794,0.95523584,-0.8952668,-0.50080764
2025-06-04 18:48:41.695,1.933074,-4.993883,-9.605124,-0.0008058883,-0.0019359716,-0.004100302,0.898382,0.313028,9.767905,-0.06755172,0.46764374,-1.8280296,-1.0557806,0.18398285,3.3014412,1.6254146,-0.043525696,-0.10803223,-0.13186751,-0.0062942505,1.7413597,-0.6517213,-0.0076675415,2.8082695,1.7038702,0.011405945,-5.0299835,0.07648468,0.008430481,0.285038,-1.3721519,0.008430481,-4.560005,1.7885642,0.009117126,-10.650187,0.101737976,-0.008735657,-0.0030517578,-1.414578,0.022773743,-0.7354851,1.754682,-0.005836487,-3.8666344,0.0,0.0,0.0,0.0,0.0,0.0,0.0,0.0,0.0,0.0,0.0,0.0,-0.87542444,0.061304696,-0.6678973,-0.86976516,0.8506431,-0.78615904,0.77508515,-0.9809941,-0.92976177,0.954613,-0.8951787,-0.50469166
2025-06-04 18:48:41.751,1.934351,-4.992143,-9.6116,0.0037986042,0.0016205556,0.0009965481,0.843446,0.341229,9.723674,-0.06793319,0.46916962,-0.8136101,-1.0556281,0.18299103,4.0875854,1.6254146,0.018119812,-0.18127823,-0.13179122,-0.00415802,1.7645531,-0.6517213,-0.00705719,2.7069511,1.7040228,-0.011024475,-4.994583,0.07610321,-0.041923523,0.29724503,-1.3721519,0.01789093,-4.4269485,1.7885642,-0.005760193,-10.598917,0.10158539,0.07419586,-0.07019043,-1.4142728,-0.017814636,-0.72694016,1.7549871,0.040168762,-3.8971558,0.0,0.0,0.0,0.0,0.0,0.0,0.0,0.0,0.0,0.0,0.0,0.0,-0.87649554,0.056218978,-0.66701186,-0.8700605,0.8500651,-0.78491056,0.77218884,-0.9809848,-0.92906785,0.9544308,-0.895452,-0.5071044
2025-06-04 18:48:41.804,1.935512,-4.994747,-9.609524,-0.0060160626,-0.0013471149,-0.0017244376,0.889714,0.35342,9.722742,-0.068848714,-0.2905655,-0.37903595,-1.0561621,-0.19763947,4.105896,1.6253383,0.07534027,-0.07873535,-0.13171493,0.027503967,1.7779808,-0.6518739,-0.0064468384,2.7130547,1.7038702,0.0046157837,-5.0043488,0.07633209,-0.081596375,0.25452042,-1.3723044,-0.00011444092,-4.437935,1.7886405,-0.0046920776,-10.596476,0.101737976,-0.030937195,-0.042114258,-1.4145017,0.054512024,-0.72083664,1.7549871,0.007133484,-3.958191,0.0,0.0,0.0,0.0,0.0,0.0,0.0,0.0,0.0,0.0,0.0,0.0,-0.8794462,0.0501805,-0.6623839,-0.87345016,0.851447,-0.7837471,0.77762103,-0.9815489,-0.9316887,0.95542216,-0.895977,-0.50093764
2025-06-04 18:48:41.855,1.930268,-4.997706,-9.610892,0.001213475,0.0007612428,-0.006779714,0.89055,0.313043,9.741763,-0.06892501,-0.36823273,-0.72571945,-1.055857,-0.18772125,3.5162888,1.6254146,0.03238678,-0.03479004,-0.13186751,-0.041618347,1.8841858,-0.6517213,-0.028114319,2.7386894,1.7039465,-0.008659363,-4.9921417,0.076408386,-0.0132369995,0.25452042,-1.3723044,-0.0047683716,-4.5136185,1.7885642,0.017585754,-10.596476,0.101890564,0.066185,-0.03845215,-1.4145017,0.015983582,-0.5914383,1.7548345,-0.028495789,-3.9093628,0.0,0.0,0.0,0.0,0.0,0.0,0.0,0.0,0.0,0.0,0.0,0.0,-0.8791546,0.05169701,-0.6640215,-0.87389576,0.85331154,-0.7865515,0.78094596,-0.98162055,-0.9326768,0.95567495,-0.8964032,-0.50080115
2025-06-04 18:48:41.906,1.927539,-4.992332,-9.620707,-0.0038886808,-0.00014329153,-0.00077117374,0.786817,0.329154,9.742381,-0.06869613,0.035743713,-1.2616158,-1.0564673,0.016593933,3.502861,1.6251857,-0.059776306,-0.07385254,-0.1319438,-0.036964417,1.7926292,-0.6519502,-0.047187805,2.8448906,1.7039465,0.012016296,-4.995804,0.076408386,-0.021705627,0.29602432,-1.3726859,-0.022621155,-4.4647903,1.7885642,-0.006828308,-10.696575,0.10181427,-0.005455017,-0.018920898,-1.414578,-0.059700012,-0.5499344,1.7549108,0.01865387,-3.872738,0.0,0.0,0.0,0.0,0.0,0.0,0.0,0.0,0.0,0.0,0.0,0.0,-0.8766295,0.058413763,-0.6665732,-0.8712257,0.8522253,-0.78829396,0.777671,-0.98130316,-0.9314493,0.9553715,-0.89638275,-0.50424963
2025-06-04 18:48:41.957,1.932136,-4.987875,-9.611223,-0.0005583657,-0.0021852918,0.003633828,0.857105,0.342681,9.772246,-0.06869613,0.040550232,-0.9832916,-1.0561621,0.07320404,3.8055992,1.6255672,0.004386902,-0.08728027,-0.1320201,0.040779114,1.7352562,-0.6517213,0.04146576,2.760662,1.704099,0.002861023,-5.0128937,0.07648468,0.059013367,0.285038,-1.3723807,0.023612976,-4.4403763,1.7885642,0.004463196,-10.595255,0.10196686,0.10257721,-0.044555664,-1.414578,0.05420685,-0.61951447,1.7549108,0.0047683716,-4.0265503,0.0,0.0,0.0,0.0,0.0,0.0,0.0,0.0,0.0,0.0,0.0,0.0,-0.8780494,0.05318992,-0.6650111,-0.8717555,0.85233355,-0.786078,0.7774019,-0.9813573,-0.9309691,0.9552753,-0.8958738,-0.50276357
2025-06-04 18:48:42.008,1.930255,-4.990085,-9.608394,-0.0010907085,0.0009477836,-0.0027302883,0.857107,0.319162,9.757413,-0.06854354,0.09601593,-1.0479889,-1.055857,0.087394714,3.6517906,1.6254146,0.06473541,-0.11047363,-0.1319438,-0.010795593,1.7511253,-0.6517976,-0.10509491,2.793621,1.7039465,-0.030021667,-5.09346,0.076408386,0.01209259,0.26184464,-1.3723044,0.036735535,-4.4843216,1.7884116,0.01712799,-10.633097,0.101890564,0.008964539,-0.028686523,-1.4141965,0.08419037,-0.7501335,1.7549871,-0.011482239,-3.851986,0.0,0.0,0.0,0.0,0.0,0.0,0.0,0.0,0.0,0.0,0.0,0.0,-0.87696826,0.058950808,-0.665004,-0.8710736,0.85092807,-0.78591394,0.7786306,-0.981311,-0.9313975,0.95502514,-0.8954338,-0.50126857
2025-06-04 18:48:42.059,1.932308,-4.988394,-9.605309,-0.0022218216,0.00072221726,0.003803526,0.810385,0.347883,9.747603,-0.068848714,0.005302429,-1.0565338,-1.0560095,-0.032157898,3.8239098,1.6253383,0.0014877319,-0.1312294,-0.1320201,-0.039482117,1.7438011,-0.651645,-0.016288757,2.8131523,1.7040228,-0.0075912476,-5.0226593,0.076560974,0.044898987,0.2838173,-1.372457,-0.05344391,-4.4892044,1.7885642,0.015602112,-10.626993,0.10166168,0.041923523,-0.049438477,-1.4140439,0.06336212,-0.7525749,1.7549871,0.017433167,-3.8580894,0.0,0.0,0.0,0.0,0.0,0.0,0.0,0.0,0.0,0.0,0.0,0.0,-0.8787596,0.054472476,-0.6652272,-0.87296915,0.8521644,-0.7842186,0.77915984,-0.9814718,-0.93152404,0.95516646,-0.89526325,-0.5016447
2025-06-04 18:48:42.110,1.929584,-4.989609,-9.596145,-0.00022996457,-0.0021878923,-0.0038363559,0.855912,0.309622,9.771121,-0.06861983,0.11127472,-1.1163483,-1.0561621,-0.0059127808,3.6578941,1.6251857,0.023841858,-0.11291504,-0.1320201,-0.020637512,1.7901878,-0.651645,-0.029411316,2.7753105,1.7040228,0.0010299683,-4.9433136,0.076560974,-0.012931824,0.2887001,-1.372457,-0.018882751,-4.491646,1.7884879,-0.0024032593,-10.598917,0.10181427,-0.059547424,-0.07141113,-1.4144254,0.036735535,-0.73182297,1.7548345,0.017356873,-3.8849487,0.0,0.0,0.0,0.0,0.0,0.0,0.0,0.0,0.0,0.0,0.0,0.0,-0.87807864,0.056974232,-0.6663277,-0.8725898,0.85152406,-0.78492844,0.77809405,-0.9813477,-0.9312646,0.95500064,-0.89542127,-0.5031526
2025-06-04 18:48:42.161,1.926056,-4.988325,-9.599972,-0.001452271,0.0013453172,0.00024649285,0.847089,0.329453,9.745883,-0.06877242,0.04184723,-1.0870514,-1.0560858,0.043296814,3.6603355,1.625262,0.0016403198,-0.15198135,-0.1320201,0.007896423,1.7901878,-0.6517213,0.013923645,2.6752129,1.7039465,-0.0031661987,-5.0214386,0.076408386,0.011711121,0.25940323,-1.3723807,0.02040863,-4.4354935,1.7884879,0.014533997,-10.646524,0.10158539,-0.17230988,0.0030517578,-1.414578,0.010719299,-0.5938797,1.7549108,-0.007133484,-3.9215698,0.0,0.0,0.0,0.0,0.0,0.0,0.0,0.0,0.0,0.0,0.0,0.0,-0.8767493,0.05895654,-0.66560405,-0.8709524,0.85054934,-0.78537726,0.7761229,-0.9812785,-0.9310631,0.9549886,-0.89594674,-0.50481284
2025-06-04 18:48:42.212,1.924286,-4.985818,-9.591839,-0.0006476044,-0.00043984043,0.00014826572,0.809021,0.314143,9.770693,-0.068467245,0.06275177,-1.1358833,-1.0561621,-0.024757385,3.6652184,1.6254909,-0.011253357,-0.12023926,-0.1320964,-0.03818512,1.7486839,-0.6517213,0.0447464,2.744793,1.7040228,0.022087097,-5.0421906,0.07633209,-0.06137848,0.27527237,-1.372457,-0.036201477,-4.4757767,1.7884879,0.027275085,-10.629435,0.10196686,0.14820099,-0.033569336,-1.4145017,0.06649017,-0.67811203,1.7548345,-0.022010803,-3.97406,0.0,0.0,0.0,0.0,0.0,0.0,0.0,0.0,0.0,0.0,0.0,0.0,-0.8787759,0.052093767,-0.6662355,-0.87374234,0.85261744,-0.78428245,0.7779633,-0.98145807,-0.93098265,0.955286,-0.8954028,-0.501504
2025-06-04 18:48:42.263,1.922058,-4.986441,-9.595659,0.000891008,0.0010397624,-0.0023937016,0.860508,0.321537,9.734393,-0.06861983,0.096702576,-1.0601959,-1.0563147,-0.0062942505,3.6701012,1.6254146,0.08068085,-0.08850098,-0.1320201,-0.014305115,1.727932,-0.651645,-0.027961731,2.760662,1.7040228,0.013618469,-4.9762726,0.076560974,0.0025558472,0.26428604,-1.3725333,0.032463074,-4.479439,1.7884879,-0.005378723,-10.618448,0.10196686,0.013160706,-0.028686523,-1.4144254,0.11997223,-0.7074089,1.7549871,-0.013389587,-3.9276733,0.0,0.0,0.0,0.0,0.0,0.0,0.0,0.0,0.0,0.0,0.0,0.0,-0.8788776,0.05508933,-0.66626287,-0.87349886,0.85208434,-0.78432566,0.77948827,-0.98140895,-0.9313687,0.9550143,-0.8951016,-0.50108516
2025-06-04 18:48:42.314,1.9205,-4.979794,-9.593426,-0.00042421973,0.0016583072,0.00036821212,0.819016,0.316469,9.741577,-0.06854354,-0.022392273,-1.0455475,-1.0559332,-0.015449524,3.6041794,1.6253383,0.0064468384,-0.1300087,-0.13186751,0.021629333,1.7181664,-0.6515687,0.035362244,2.736248,1.7040228,0.001335144,-4.983597,0.07663727,-0.05657196,0.285038,-1.3723807,-0.015830994,-4.4513626,1.7885642,0.02696991,-10.626993,0.10181427,-0.11753082,0.004272461,-1.4142728,-0.007896423,-0.60730743,1.7549871,0.02155304,-3.916687,0.0,0.0,0.0,0.0,0.0,0.0,0.0,0.0,0.0,0.0,0.0,0.0,-0.8782567,0.05719653,-0.66591394,-0.87245065,0.8508757,-0.78414214,0.7778393,-0.98135376,-0.9314629,0.9549374,-0.8954977,-0.5044736
2025-06-04 18:48:42.365,1.921304,-4.983648,-9.590255,-0.0006760882,0.0010258172,-0.0034731005,0.837347,0.3343,9.763005,-0.068467245,0.01537323,-1.030899,-1.0561621,0.030784607,3.6517906,1.6251857,-0.05924225,-0.08483887,-0.1319438,-0.024223328,1.7560081,-0.6517976,-0.013160706,2.757,1.704099,0.0024032593,-4.9652863,0.076560974,0.06198883,0.2496376,-1.3725333,0.061149597,-4.425728,1.7885642,0.028877258,-10.608683,0.10196686,0.049934387,-0.029907227,-1.4144254,0.04962921,-0.7525749,1.7549108,0.0049209595,-3.9972534,0.0,0.0,0.0,0.0,0.0,0.0,0.0,0.0,0.0,0.0,0.0,0.0,-0.8773572,0.054851767,-0.66629505,-0.87202525,0.8520839,-0.7860358,0.7770965,-0.98138124,-0.93103886,0.95528,-0.896082,-0.50356174
2025-06-04 18:48:42.416,1.91693,-4.984474,-9.588645,0.00045848053,0.0030677128,4.436627e-05,0.835362,0.324876,9.737688,-0.06877242,0.0059127808,-1.030899,-1.0562384,-0.038108826,3.678646,1.6254909,-0.018806458,-0.07507324,-0.1320201,-0.032844543,1.7645531,-0.6518739,0.012550354,2.822918,1.7040228,-0.029945374,-4.994583,0.076560974,-0.017738342,0.26794815,-1.3723044,-0.04611969,-4.462349,1.7884879,0.017204285,-10.596476,0.102119446,0.04673004,-0.012817383,-1.4145017,-0.024375916,-0.64149094,1.7548345,0.002861023,-3.928894,0.0,0.0,0.0,0.0,0.0,0.0,0.0,0.0,0.0,0.0,0.0,0.0,-0.8788064,0.053163204,-0.66625005,-0.8728158,0.8523755,-0.7853955,0.7772206,-0.98140967,-0.93102247,0.9552577,-0.895927,-0.5039719
2025-06-04 18:48:42.467,1.916869,-4.981832,-9.586426,-0.0009458812,0.0029656459,0.000679509,0.834886,0.288773,9.756004,-0.06861983,0.08396149,-1.1432076,-1.0561621,0.022087097,3.6310387,1.6253383,-0.011100769,-0.12023926,-0.1319438,-0.012931824,1.7962914,-0.6517213,0.049934387,2.8009453,1.704099,0.022621155,-5.0373077,0.07663727,-0.03391266,0.285038,-1.372457,0.019569397,-4.511177,1.7885642,0.042304993,-10.624552,0.10181427,-0.08144379,-0.006713867,-1.4142728,-0.00034332275,-0.6219559,1.7548345,-0.040397644,-4.0143433,0.0,0.0,0.0,0.0,0.0,0.0,0.0,0.0,0.0,0.0,0.0,0.0,-0.87737143,0.05725092,-0.6672611,-0.8720993,0.85158044,-0.7856811,0.7769788,-0.9812965,-0.93088233,0.9551203,-0.895747,-0.50409096
2025-06-04 18:48:42.518,1.913583,-4.982691,-9.580842,0.00043341762,0.0015877609,-0.0015857014,0.848171,0.318879,9.774031,-0.06831466,0.068626404,-1.0785065,-1.0559332,-0.039787292,3.819027,1.6253383,-0.074653625,-0.12756729,-0.1319438,-0.006980896,1.8084984,-0.651645,0.008049011,2.7252617,1.7040228,0.0030899048,-5.0824738,0.07648468,-0.008201599,0.27405167,-1.372457,0.008735657,-4.3854446,1.7885642,-0.003929138,-10.6379795,0.10166168,-0.051994324,-0.061645508,-1.4144254,0.12966156,-0.6744499,1.7548345,-0.0077438354,-3.9801636,0.0,0.0,0.0,0.0,0.0,0.0,0.0,0.0,0.0,0.0,0.0,0.0,-0.9434503,0.092916906,-0.7234956,-0.7860692,0.46582833,-0.83684623,0.9430963,-0.971255,-0.97437173,0.9690743,-0.6956953,-0.74010015
2025-06-04 18:48:42.569,1.920902,-5.042833,-9.519882,-0.062302947,0.042220667,0.07249078,2.831625,0.933242,10.264956,-0.069230184,0.0030899048,-1.4544907,-1.0557806,0.056037903,4.6942863,1.6203029,-0.09227753,-0.27649307,-0.13095199,0.05619049,1.9977112,-0.6730073,-0.17902374,-3.9520874,1.7049383,0.019950867,-5.8869324,0.078315735,0.0030899048,0.95155334,-1.3720756,0.0497818,-4.3573647,1.785131,-0.39859772,-10.066683,0.10570526,0.02910614,-0.19348526,-1.3961148,0.124549866,2.1075745,1.7423986,-0.3558731,-4.8578606,0.0,0.0,0.0,0.0,0.0,0.0,0.0,0.0,0.0,0.0,0.0,0.0,-0.93768305,0.1572537,-0.7498235,-0.8054792,0.21656601,-0.69654584,0.93200123,-0.9676269,-0.9626201,0.97787267,-0.68176883,-0.63682264
2025-06-04 18:48:42.620,1.935794,-5.073072,-9.365756,0.046111982,0.0056455988,0.06435158,2.130642,0.249864,9.194183,-0.06724654,0.25714874,-1.7242699,-1.0605109,-0.14324188,6.798809,1.6139705,-0.036888123,-0.18127823,-0.12728988,0.029029846,1.2396431,-0.70527965,-0.48122406,-5.9760437,1.7149328,0.21976471,-5.3778915,0.0799942,-0.02544403,0.5597,-1.3742881,-0.011787415,-3.9215698,1.7696433,-0.33740997,-8.460213,0.107536316,-0.094947815,-0.22278214,-1.3949704,-0.18772125,3.4271774,1.724851,-0.39073944,-2.4505997,0.0,0.0,0.0,0.0,0.0,0.0,0.0,0.0,0.0,0.0,0.0,0.0,-0.9362751,0.082539216,-0.8025999,-0.80200493,0.029027019,-0.37679636,0.90780145,-0.95915776,-0.92711437,0.976814,-0.6589204,-0.59505105
2025-06-04 18:48:42.671,1.956625,-4.964755,-9.109352,0.12359973,0.16677025,0.054921582,1.562512,-0.542459,7.685354,-0.06419478,0.16231537,-1.6864281,-1.080271,-0.593071,7.8669395,1.6080959,0.058631897,-1.0760651,-0.122254476,0.028419495,1.420311,-0.75311595,-0.9699631,-7.05394,1.7488073,0.6592941,-5.282673,0.08090973,0.03856659,0.53650665,-1.3785605,-0.09685516,-3.3905563,1.7497306,-0.30879974,-7.094223,0.107917786,0.111198425,-0.3668251,-1.3996243,-0.24837494,4.364689,1.704862,-0.43003082,-1.145649,0.0,0.0,0.0,0.0,0.0,0.0,0.0,0.0,0.0,0.0,0.0,0.0,-0.9425789,-0.25627908,-0.8930981,-0.78054094,-0.12432881,0.22687377,0.82549936,-0.9323429,-0.7547645,0.9772487,-0.65428007,-0.63867533
2025-06-04 18:48:42.722,2.153061,-4.536691,-9.10149,0.17141573,0.308377,-0.1250075,1.960764,-0.928529,6.883285,-0.06541549,0.073280334,-1.2579536,-1.121012,-0.8739853,3.4760056,1.614886,0.36197662,-3.572441,-0.12278853,-0.1190567,2.190586,-0.8178895,-1.0918045,-6.105438,1.8180059,1.4377975,-4.031433,0.08319855,0.11722565,-0.1727333,-1.3887076,-0.0077438354,-1.7340355,1.732183,-0.38715363,-4.4403763,0.1128006,0.2665329,-1.0174713,-1.4087033,-0.218544,5.1935616,1.6873907,-0.32634735,-1.2506294,0.0,0.0,0.0,0.0,0.0,0.0,0.0,0.0,0.0,0.0,0.0,0.0,-0.9465525,-0.7662265,-0.9674131,-0.7211833,-0.19252457,0.78440577,0.40426946,-0.79444695,0.30135065,0.9762642,-0.7120927,-0.7998584
2025-06-04 18:48:42.773,2.38294,-3.590949,-9.734991,0.017182905,0.4373216,-0.26641408,1.850911,-0.04133,7.341737,-0.07479964,-0.52524567,0.061645508,-1.2020361,-1.2165451,-1.3226509,1.6389186,0.7114029,-7.0600433,-0.13125716,-0.008354187,3.5541306,-0.8921235,-1.2778091,-2.7643242,1.9123052,1.8535233,-3.5345993,0.0762558,-0.1782608,-0.7476921,-1.3951163,-0.17383575,0.68665695,1.7737632,0.9051132,0.91859436,0.12172699,0.46634674,-2.4188614,-1.426022,-0.2161026,5.781948,1.6716741,-0.13118744,-3.01091,0.0,0.0,0.0,0.0,0.0,0.0,0.0,0.0,0.0,0.0,0.0,0.0,-0.81498235,-0.947069,-0.99010295,-0.6220919,0.0445027,0.9255168,-0.84868544,0.28551644,0.9875154,0.97363776,-0.71978,-0.94493663
2025-06-04 18:48:42.824,2.668975,-2.122972,-10.762413,0.027162157,0.63364863,-0.43969303,0.146358,1.42297,10.519178,-0.08273421,-0.00415802,0.03112793,-1.2771094,-1.3660812,-2.6605644,1.6719539,0.42301178,-8.117189,-0.1433879,-0.18131256,4.6723137,-0.9449952,-1.3474655,3.8849487,2.0069861,1.8259048,-5.8002586,0.02040863,-1.0292435,0.15808487,-1.2365775,4.02882,-0.053100586,1.8597465,2.020916,0.5621414,0.13584137,0.46634674,-3.375908,-1.4331174,0.040473938,3.314869,1.6497778,-0.48549652,-2.14542,0.0,0.0,0.0,0.0,0.0,0.0,0.0,0.0,0.0,0.0,0.0,0.0,-0.03940975,-0.9370942,-0.89193785,-0.03576265,0.9008304,0.63326454,-0.99672663,0.9012651,0.98520744,0.9863554,-0.81218445,-0.99338263
2025-06-04 18:48:42.875,3.020901,-0.42753,-12.006117,-0.3113036,0.25860345,-0.5922046,-5.614238,2.003837,13.324543,-0.07586776,0.23677826,2.9181366,-1.3303626,-0.6019974,-1.4239731,1.686755,0.011482239,-5.683071,-0.14193831,-0.64022064,6.1933327,-0.9438508,-0.3016281,18.631266,2.0416236,0.26935577,-4.2511635,-0.020866394,-0.7103348,-0.6622429,-0.97343975,4.4683495,-1.1688423,1.9368033,1.1224747,0.5487137,0.15094757,0.33420563,-3.5626755,-1.4309812,0.044822693,1.2066841,1.6204046,-0.4528427,-1.8988342,0.0,0.0,0.0,0.0,0.0,0.0,0.0,0.0,0.0,0.0,0.0,0.0,0.4747891,-0.9692987,0.18540293,0.86224174,0.97985107,-0.71002877,-0.99905676,0.86901337,0.6538018,0.99510396,-0.9375392,-0.9960428
2025-06-04 18:48:42.926,2.576805,0.057835,-13.401226,-1.0591594,-0.47374907,-0.15982795,-5.434039,6.8601,13.121746,-0.047181234,0.12905121,2.4640274,-1.3796484,-0.4771042,-0.5597,1.7464931,1.0391617,0.18860245,-0.12591659,0.2513504,8.714123,-0.92081004,0.9240341,14.64805,1.9801306,-1.3311386,-10.24979,-0.049934387,0.08312225,-2.1979103,-0.80597454,2.412304,-0.8282585,1.9539695,0.001411438,0.50110626,0.16407013,0.00995636,-3.0243378,-1.4308286,0.01941681,-0.7342644,1.6074346,-0.20709991,-2.5238419,0.0,0.0,0.0,0.0,0.0,0.0,0.0,0.0,0.0,0.0,0.0,0.0,-0.7350168,-0.84984213,0.99880815,0.8679627,0.7694457,-0.99807465,-0.9979424,-0.82901585,-0.9947868,0.9994975,-0.95879626,0.29839817
2025-06-04 18:48:42.977,0.472443,-2.162785,-12.742414,-0.64101416,-1.3083428,0.5052591,-2.746449,-0.688055,12.132423,-0.04573165,-0.20236969,-0.48767853,-1.3878882,-0.011253357,-0.95155334,1.8575771,2.0232048,0.04333496,-0.09875594,0.527153,6.085907,-0.8913606,1.1125565,7.8510704,1.8685888,-2.3836937,-4.688183,-0.06839752,0.25547028,-3.4442673,-0.8758598,-0.5185318,-20.39643,1.9344382,0.93479156,-21.468224,0.1644516,0.14087677,-2.7850761,-1.4663815,-0.833168,3.7921715,1.6826605,1.1536026,3.3807907,0.0,0.0,0.0,0.0,0.0,0.0,0.0,0.0,0.0,0.0,0.0,0.0,-0.997481,-0.10311361,0.99915224,0.01749619,0.17610131,-0.99727714,-0.8902626,-0.9941161,-0.99956036,0.99900734,-0.9456895,0.96217805
2025-06-04 18:48:43.028,-1.686769,-6.608485,-12.190633,-0.28116676,-1.519245,-0.08480162,5.188234,-5.700755,6.8782,-0.06350814,0.11844635,-0.3253212,-1.2671912,2.729992,-0.80018234,1.9348629,1.1870193,0.4376297,-0.07991134,0.3066635,1.0589752,-0.88907176,-0.06061554,-0.91249084,1.7522405,-2.056469,-0.63904953,-0.047798157,0.22281647,-3.4381638,-0.92827374,-1.3051224,-19.07805,1.982656,1.1771011,-25.042496,0.16078949,-0.39402008,-1.1444283,-1.4949155,-0.1947403,2.8973846,1.7966436,2.1676292,2.310215,0.0,0.0,0.0,0.0,0.0,0.0,0.0,0.0,0.0,0.0,0.0,0.0,-0.99739295,0.41207048,0.9981918,-0.413828,-0.21406929,-0.989786,-0.63734543,-0.9940326,-0.9983925,0.9967142,-0.7740697,0.98770726
2025-06-04 18:48:43.079,-3.389917,-10.093696,-12.584524,-0.057741042,-0.69960725,-0.42438126,4.165982,-5.995682,6.800199,-0.075638875,-0.08365631,-0.49378204,-1.0873663,3.265499,-0.6939812,1.9814022,0.61244965,0.4803543,-0.06869613,0.20938873,0.43152618,-0.95842296,-0.8738327,-2.8986053,1.6745733,-1.009407,-1.7999535,-0.028953552,0.2235794,-2.4005508,-0.98602825,-1.1996078,-16.530403,2.0139365,0.43186188,-23.577631,0.15171051,-0.2602005,-1.1639595,-1.4773679,0.4176712,2.2308693,1.880567,1.4725113,1.9525452,0.0,0.0,0.0,0.0,0.0,0.0,0.0,0.0,0.0,0.0,0.0,0.0,-0.99584526,0.7023927,0.99096024,-0.47272554,-0.6373497,-0.99148613,-0.20745885,-0.99318755,-0.9922834,0.99550515,-0.30197603,0.9959281
2025-06-04 18:48:43.130,-3.604074,-11.8578,-14.045183,0.05307513,0.03138088,-0.7744906,5.086375,-3.397509,8.696075,-0.082810506,0.051765442,-1.5277328,-0.9211981,2.390255,-0.1312294,2.0084865,0.31589508,0.5963211,-0.073884115,-0.1254654,2.2418556,-1.0455507,-1.083107,-6.331272,1.6540502,0.019721985,-5.237507,-0.012931824,0.01964569,-0.8917389,-1.0436301,-1.1342239,-13.894865,2.0196586,0.0036239624,-21.681849,0.15216827,0.13271332,-2.5714493,-1.4091611,1.0187912,6.8744926,1.9253515,0.5412674,3.5248337,0.0,0.0,0.0,0.0,0.0,0.0,0.0,0.0,0.0,0.0,0.0,0.0,-0.9937048,0.8715552,0.9517307,-0.4739951,-0.8298166,-0.9874176,0.5549116,-0.9927923,-0.9716728,0.99215233,0.23259094,0.99857056
2025-06-04 18:48:43.181,-2.654649,-12.168899,-16.65022,0.5210608,0.2434454,-1.0858488,4.689487,-2.210826,8.851797,-0.084336385,0.17261505,-1.6241684,-0.786463,1.9020462,-0.036010742,2.0207698,0.07839203,0.6732292,-0.09852706,-0.32985687,3.8666344,-1.095447,-0.9833908,-9.888458,1.6751837,0.59993744,-9.187763,0.010566711,0.17940521,0.8136101,-1.1066489,-1.2121964,-11.000534,2.0056968,-0.61878204,-18.415197,0.16529083,0.08533478,-3.4772263,-1.2980008,2.2100487,8.314947,1.9463323,0.6708145,3.1635017,0.0,0.0,0.0,0.0,0.0,0.0,0.0,0.0,0.0,0.0,0.0,0.0,-0.9883164,0.9420038,0.73616284,-0.3001291,-0.8366937,-0.97804207,0.93628687,-0.99407506,-0.9681326,0.9761671,0.2445156,0.99834794
2025-06-04 18:48:43.232,-0.389391,-11.844401,-19.956429,0.6954843,0.24216837,-1.1219394,3.903636,-0.099971,9.271152,-0.083954915,0.1468277,-1.3641548,-0.689646,1.6232681,-0.04333496,2.0126064,-0.12676239,-0.111694336,-0.11630355,-0.37776947,5.216755,-1.1419863,-1.2386703,-6.729229,1.7025732,0.4403305,-9.319599,0.044059753,0.68187714,-0.31433487,-1.1798911,-1.3375473,-7.455559,1.9690757,-0.8738327,-14.980087,0.17467499,-0.02040863,-3.0463104,-1.2042356,2.001995,6.2177467,1.9692205,0.4479599,1.9269104,0.0,0.0,0.0,0.0,0.0,0.0,0.0,0.0,0.0,0.0,0.0,0.0,-0.9774132,0.9624904,-0.104980715,0.1564623,-0.8204632,-0.94504017,0.97214884,-0.99490285,-0.93881065,0.9443577,0.18507986,0.9913158
2025-06-04 18:48:43.283,2.862515,-11.40393,-23.016294,0.82708716,0.11722411,-0.8004808,2.67849,0.68018,8.482089,-0.085480794,-0.010261536,-0.5450516,-0.627619,0.86460114,0.032348633,1.9297512,-1.6116714,0.06530762,-0.11897384,-0.11608124,6.684063,-1.1985201,-1.1440659,-4.379341,1.7135595,0.045585632,-7.7387657,0.077171326,0.55713654,-1.5448227,-1.2474113,-1.0578537,-5.27779,1.9160514,-1.1951065,-11.645075,0.17620087,-0.23670197,-2.6300468,-1.1514401,1.0448837,6.9074554,1.9857,0.28232574,2.3785782,0.0,0.0,0.0,0.0,0.0,0.0,0.0,0.0,0.0,0.0,0.0,0.0,-0.9452526,0.9757171,-0.9523125,0.68707454,-0.82836527,-0.15426254,0.9532657,-0.99605894,-0.56100094,0.8015028,-0.10387345,0.61850125
2025-06-04 18:48:43.334,5.566088,-10.570651,-24.895979,0.5108998,0.70582175,-0.5942409,0.526263,1.695072,3.672407,-0.08960067,0.11478424,-0.34607315,-0.5873358,0.6280899,-0.22156143,1.7902858,-2.7069511,-0.08605957,-0.1182109,-0.24578094,9.091324,-1.2651247,-1.1357498,-0.6378288,1.755216,1.0674667,-4.3366127,0.104255676,0.116996765,-1.1078033,-1.2980704,-0.67546844,-4.9237823,1.8683677,-1.0508347,-5.6049423,0.17993927,0.22159576,-5.5634384,-1.1636472,-0.1240921,6.4802017,1.9799017,-0.25554657,-0.012817383,0.0,0.0,0.0,0.0,0.0,0.0,0.0,0.0,0.0,0.0,0.0,0.0,-0.5378561,0.86042845,-0.99642897,0.84832186,-0.8562179,0.98769385,0.5821192,-0.9921593,0.8281871,0.16648127,-0.7142962,-0.9477994
2025-06-04 18:48:43.385,6.567077,-7.366351,-26.192574,-0.6896834,1.5243698,-0.18925437,3.125053,5.25342,5.095845,-0.07922469,0.104408264,0.2496376,-0.58207154,-0.0888443,0.033569336,1.6899593,-1.4522171,-0.4010086,-0.110657796,0.6129837,5.827114,-1.3340181,-1.3298416,1.6791039,1.8723272,1.9248581,0.22522354,0.094184875,-0.2048111,-0.22400284,-1.3609366,-1.218605,-0.21301651,1.9119315,1.0557175,0.46570587,0.1618576,-0.6355667,-3.3221931,-1.1986661,0.07282257,-6.5595474,1.9319891,-0.8968735,-13.990082,0.0,0.0,0.0,0.0,0.0,0.0,0.0,0.0,0.0,0.0,0.0,0.0,0.8324539,-0.44833434,-0.9958777,0.7216883,-0.66920924,0.99936134,-0.7766355,-0.929057,0.9945903,-0.71745026,-0.9133677,-0.9943674
2025-06-04 18:48:43.436,4.231683,-2.950261,-25.580618,-0.6914045,1.1025116,0.39056116,-4.891448,4.968835,19.536173,-0.045655355,0.8587265,3.412529,-0.74350953,-2.7428093,-10.801556,1.718188,1.6917801,-15.785763,-0.10188399,0.16521454,6.537575,-1.4071077,-1.9522476,12.211491,1.9429754,0.701561,2.7716484,0.03803253,-1.2605667,-0.22278214,-1.3959556,-0.527153,-1.326313,1.9645743,1.0163498,0.21667862,0.11379242,-0.024681091,-9.604027,-1.2455106,-2.2336998,-0.15076065,1.9128393,0.013313293,-16.870983,0.0,0.0,0.0,0.0,0.0,0.0,0.0,0.0,0.0,0.0,0.0,0.0,0.98710406,-0.62670743,-0.9818399,0.85328436,0.5637686,0.9993415,-0.9577713,-0.6239042,0.99501586,-0.9552411,-0.96789634,-0.99640816
2025-06-04 18:48:43.487,3.450334,-2.193995,-24.794397,-0.7429416,-0.097522855,-0.1380573,-3.162368,-0.724791,15.218656,-0.031693563,-0.015830994,5.8173485,-0.8689368,-2.2650566,-9.007095,1.7758663,0.0951767,-11.139696,-0.05854903,1.8498611,0.64637375,-1.3078493,4.56448,7.057602,1.9434332,0.3635025,3.5944138,-0.011177063,-0.80387115,0.14465714,-1.364141,0.794487,-0.0982666,1.9992881,0.63739777,0.5889969,0.095329285,-0.20755768,-8.12207,-1.3189054,-1.3294601,-1.190815,1.8612646,-1.4339828,-7.975586,0.0,0.0,0.0,0.0,0.0,0.0,0.0,0.0,0.0,0.0,0.0,0.0,0.9735078,-0.83797836,-0.94936275,0.914145,0.74618316,0.9946351,-0.96103615,0.08761462,0.982011,-0.93611443,-0.96404064,-0.9966528
2025-06-04 18:48:43.538,0.826317,-4.714314,-25.093307,-1.0230739,-0.9743947,0.1709113,2.88883,1.730228,5.682415,-0.04016219,-0.54187775,7.602043,-1.0126746,-2.739605,-5.2301826,1.7702205,-0.018424988,-10.017853,-0.0062113856,0.78144073,0.6976433,-1.036014,4.05476,-0.7537956,1.9850897,0.7388687,0.57556915,-0.04550934,-0.24494171,-0.20569229,-1.2166648,2.980465,-1.444725,2.019506,0.35152435,0.15808487,0.08846283,-0.13957977,-7.2443733,-1.4022183,-1.9458389,5.9894714,1.795194,-1.2307358,-6.3373756,0.0,0.0,0.0,0.0,0.0,0.0,0.0,0.0,0.0,0.0,0.0,0.0,0.95932984,-0.9284605,-0.87413275,0.9661701,0.952766,0.9298293,-0.9885962,0.68161595,0.94568974,-0.6283095,-0.9678872,-0.9986524
2025-06-04 18:48:43.590,-1.786415,-6.615058,-24.596151,-0.35018575,0.110835806,0.38380235,0.06461,1.134884,4.991198,-0.042222127,0.98415375,2.814373,-1.1432135,-1.4125443,-7.589836,1.7864711,0.6480789,-12.649729,0.041319743,0.61763763,-0.5133133,-0.83108836,2.4926414,-0.07751465,2.0083594,0.28766632,0.18860245,-0.0623703,-0.17520905,-0.14221573,-1.0649161,3.699459,2.814373,2.0204215,0.095329285,1.0199127,0.07808685,-0.2652359,-4.895706,-1.475308,-0.27202606,2.268711,1.7184423,-1.8225479,-0.71961594,0.0,0.0,0.0,0.0,0.0,0.0,0.0,0.0,0.0,0.0,0.0,0.0,0.93541056,-0.963864,-0.1847823,0.9866383,0.9834197,0.030119374,-0.99625856,0.7377937,0.6038271,0.38759628,-0.973586,-0.99852026
2025-06-04 18:48:43.641,-1.536427,-5.676639,-23.03076,-0.19108266,0.16091105,0.4289914,0.251389,-1.31042,5.448573,-0.0018626306,0.38539886,2.5458145,-1.2516272,-2.1263542,-0.04333496,1.8387325,1.0396957,-8.535896,0.055663005,0.61008453,-0.06896973,-0.7060426,1.9251633,-0.21667862,1.943128,-1.0158157,-1.5069809,-0.073890686,-0.3384781,-0.98939514,-0.89012676,3.0482903,-1.7779808,2.003408,-0.37441254,-0.19592667,0.09189606,0.01209259,-2.814373,-1.5174985,-0.9205246,6.2934303,1.6423773,-1.3750839,0.99183655,0.0,0.0,0.0,0.0,0.0,0.0,0.0,0.0,0.0,0.0,0.0,0.0,0.551474,-0.8858411,0.9954757,0.98291165,0.93988365,-0.9952809,-0.99792343,-0.4910958,-0.9826567,0.9843955,-0.99011356,-0.90504664
2025-06-04 18:48:43.692,-1.602626,-4.480267,-22.36763,1.0256238,1.4697046,0.1311116,0.116785,-4.195176,6.167546,0.021712199,0.29369354,-0.61585236,-1.3614905,-1.5584946,4.474556,1.931277,1.4654922,-0.76844406,0.08152665,0.86673737,-4.695507,-0.6404298,-0.25615692,4.773632,1.8215917,1.1980057,-17.823147,-0.07549286,0.16040802,-2.407875,-0.93430096,-0.5723953,-11.642633,1.9689231,-0.4730606,-17.486229,0.10890961,-0.28194427,0.17761612,-1.5390897,0.28186798,0.72449875,1.5937017,-0.34008026,0.35095596,0.0,0.0,0.0,0.0,0.0,0.0,0.0,0.0,0.0,0.0,0.0,0.0,-0.9841946,-0.25598997,0.9993124,0.8329982,0.16100472,-0.9999623,-0.99316496,-0.9905536,-0.99940395,0.99972934,-0.9792468,0.96955323
2025-06-04 18:48:43.743,-1.621412,-1.232111,-22.126745,-0.1486763,-0.3427327,0.161314,-4.046993,1.493677,15.314117,-0.017655477,-0.48870087,-0.6219559,-1.3521826,3.553051,-1.8268089,1.9651515,1.0060501,0.31311417,0.086790934,-0.17810822,0.6695671,-0.74815685,-2.217907,0.41565704,1.8485998,-0.691185,-11.073776,-0.09334564,-0.08426666,0.68787766,-1.0314994,-2.3688164,-10.597696,1.9618278,-0.25493622,-17.681543,0.10234833,0.10204315,-0.14465714,-1.5143704,0.19382477,0.30212784,1.750028,3.1949272,0.1324501,0.0,0.0,0.0,0.0,0.0,0.0,0.0,0.0,0.0,0.0,0.0,0.0,-0.9965617,0.29247537,0.99818844,0.3538559,-0.14916395,-0.9966777,-0.90003026,-0.99050206,-0.99727285,0.99742556,-0.8262835,0.98126674
2025-06-04 18:48:43.794,-0.906706,-4.439765,-21.2038,0.6310281,-1.2622327,0.25804484,2.119115,-2.36862,8.348218,-0.044358358,-0.60985565,-0.31067276,-1.1607611,3.2397118,-0.6707878,1.9991024,0.383873,0.5181961,0.08145036,0.17673492,-2.7423515,-0.8797639,-2.01466,1.3580513,1.7842077,-1.1112595,-5.860073,-0.098838806,-0.48381805,1.0370026,-1.1570029,-2.3686638,-3.408867,1.9399314,-0.6121445,-16.150759,0.10204315,0.42339325,-2.5677872,-1.4881253,-0.93883514,7.848629,1.8582128,1.5301895,3.4930954,0.0,0.0,0.0,0.0,0.0,0.0,0.0,0.0,0.0,0.0,0.0,0.0,-0.9952991,0.5887333,0.98936784,0.25170633,-0.56017196,-0.99627423,-0.7515636,-0.98733056,-0.983902,0.9963407,-0.40688932,0.99235797
2025-06-04 18:48:43.845,-0.243051,-6.629082,-20.59755,0.08044669,-0.2129352,0.020161938,1.273059,0.847175,7.341445,-0.06465255,-0.38784027,-0.80994797,-0.98795533,3.158764,-0.26550674,2.0195491,0.113105774,0.9344635,0.07420243,-0.037574768,-1.3836899,-0.99115306,-2.0018425,-3.801937,1.7486547,-0.39165497,-7.9682617,-0.10486603,-0.32932281,2.50309,-1.2428336,-1.6109848,-3.6237106,1.8988853,-1.0310745,-12.121157,0.10280609,0.12950897,0.4791336,-1.4253354,0.17940521,8.361334,1.908872,0.1796341,6.183567,0.0,0.0,0.0,0.0,0.0,0.0,0.0,0.0,0.0,0.0,0.0,0.0,-0.9940872,0.81619143,0.9451542,0.18321386,-0.81339705,-0.9946222,-0.30959016,-0.9865785,-0.9192773,0.99521244,0.28691015,0.99779886
2025-06-04 18:48:43.896,0.109973,-6.666741,-21.01365,-0.49640498,0.66707116,-0.5202765,3.211212,3.140351,10.932128,-0.07540999,0.031700134,-3.2025642,-0.83635926,2.2707787,0.38391876,2.0282466,-0.30864716,1.18227,0.052763835,-0.3523636,0.5108719,-1.0843843,-2.014965,-5.875946,1.7560552,0.16407013,-10.733196,-0.1052475,-0.17536163,3.314869,-1.3069968,-1.2494278,-1.8609886,1.8434196,-0.99422455,-8.401617,0.11257172,0.11798859,-0.25818253,-1.2805295,2.7572289,4.9188995,1.9386266,0.67432404,2.5445938,0.0,0.0,0.0,0.0,0.0,0.0,0.0,0.0,0.0,0.0,0.0,0.0,-0.99335724,0.93068236,0.72211385,0.15630224,-0.87563366,-0.98787296,0.6614005,-0.9927212,-0.80713886,0.9886254,0.6180583,0.9988522
2025-06-04 18:48:43.947,0.30667,-5.872663,-22.262474,-0.051584374,0.5290808,-0.57144237,4.542149,1.797188,11.522873,-0.07838546,-0.18016815,-1.3275337,-0.7248938,1.1558151,1.6205063,2.0165737,-0.20183563,-0.16418839,0.034758464,-0.4870224,0.46326447,-1.170215,-1.7703629,-3.7384605,1.7716955,0.03490448,-10.491493,-0.080451965,0.24745941,5.175251,-1.3730674,-1.6101456,1.6339378,1.795507,-0.7290268,-5.891815,0.118370056,-0.013771057,0.1702919,-1.1062741,4.33041,-1.1029205,1.9658636,1.0686874,0.18616104,0.0,0.0,0.0,0.0,0.0,0.0,0.0,0.0,0.0,0.0,0.0,0.0,-0.9784745,0.9722933,-0.55611706,0.59012043,-0.87484306,-0.9502713,0.9513426,-0.99617594,-0.64237726,0.9496491,0.4061043,0.9911879
2025-06-04 18:48:43.999,1.921634,-6.288714,-23.214798,0.2582865,0.25744238,-0.268657,-0.632694,0.703832,4.663316,-0.08944808,-0.06984711,0.46082306,-0.6407416,0.703392,-0.03112793,1.8893154,-2.3428764,-1.3324165,0.057570353,0.10875702,-0.57434845,-1.2713808,-1.1881638,-1.4386215,1.7719244,0.112342834,-10.431679,-0.043144226,0.8423233,2.4908829,-1.4564567,-0.86681366,2.0318909,1.7518668,-1.1836624,-0.7745476,0.11768341,-0.5730057,-0.04333496,-1.0146451,2.146038,1.3568306,1.9963049,0.5514908,0.9063873,0.0,0.0,0.0,0.0,0.0,0.0,0.0,0.0,0.0,0.0,0.0,0.0,-0.776341,0.9826826,-0.9958823,0.8833442,-0.9016672,0.80985653,0.83382034,-0.9973295,0.7362275,0.67744386,-0.47517216,-0.38625044
2025-06-04 18:48:44.050,1.645338,-4.600714,-23.534176,-0.24456415,0.64758474,-0.005170887,-1.974445,0.585152,0.015185,-0.08754073,0.035820007,0.7037468,-0.5951941,0.88603973,-1.3971176,1.7612941,-2.342266,-0.7025261,0.06344499,-0.07015228,0.6366081,-1.347751,-1.6122055,3.023117,1.8480657,1.3101578,1.5399399,-0.010185242,0.7910538,0.73060226,-1.493917,-0.5686569,2.4762344,1.8084006,1.8304062,0.8245964,0.113716125,-0.10684967,-1.7096214,-1.045239,-0.8918381,-3.9264526,1.9588445,-0.2588272,-11.050583,0.0,0.0,0.0,0.0,0.0,0.0,0.0,0.0,0.0,0.0,0.0,0.0,0.8919307,0.29276648,-0.9980169,0.7988316,-0.8416706,0.9994785,-0.70271826,-0.9580931,0.99664646,-0.6147091,-0.92721653,-0.9956741
2025-06-04 18:48:44.102,0.64411,-1.218965,-23.157955,-0.09047795,-0.012593999,0.38833967,-5.009648,-2.719279,24.030584,-0.07441817,0.6456375,4.7931633,-0.68644166,-2.0491447,0.91493225,1.8407161,0.6774521,-16.983292,0.0671071,-0.7504654,2.3358498,-1.4106172,0.58582306,-1.851223,1.9136785,1.4049149,0.8209343,-0.022392273,-0.36449432,-0.3314247,-1.4840751,-0.015602112,0.14465714,1.903997,1.5781021,0.16662979,0.110588074,-0.10066986,-7.299305,-1.1388516,-2.184185,-4.721142,1.9524359,-0.099372864,-18.223545,0.0,0.0,0.0,0.0,0.0,0.0,0.0,0.0,0.0,0.0,0.0,0.0,0.9911791,-0.30091614,-0.9834675,0.8285346,0.216111,0.999794,-0.93446267,-0.7923999,0.9946653,-0.973585,-0.9745947,-0.9969598
2025-06-04 18:48:44.153,-1.09278,-3.381786,-22.065517,-1.0131596,-1.2852238,0.41861278,1.649285,1.381285,10.581031,-0.052292928,-0.047187805,5.133747,-0.8145392,-2.1144524,-7.1076508,1.8291194,-0.68904877,-10.058136,0.06802262,0.39333344,-0.15564346,-1.2246126,3.5999718,-1.5997543,1.9690679,0.98400116,0.34729385,-0.052070618,-0.4481125,0.8941803,-1.4727073,0.28217316,3.9203491,1.9482474,0.64998627,2.5629044,0.07854462,-0.6232834,-5.0373077,-1.2572598,-2.1763268,-0.6683464,1.92497,-0.74985504,-14.110931,0.0,0.0,0.0,0.0,0.0,0.0,0.0,0.0,0.0,0.0,0.0,0.0,0.9792165,-0.74793434,-0.9529894,0.87536156,0.6036258,0.9981653,-0.9418482,-0.27566943,0.9859625,-0.9767645,-0.9729286,-0.99696106
2025-06-04 18:48:44.204,-2.832584,-5.713775,-20.486753,-0.49754664,-0.5070083,0.55113065,3.248174,0.84131,6.236456,-0.02681075,0.87558746,3.2440681,-0.92203736,-1.8567276,-11.685358,1.8114955,-0.20931244,-11.099413,0.07107438,0.007972717,0.7025261,-1.021747,3.3463707,-1.0528717,2.0024848,0.46985626,0.5084305,-0.076560974,-0.14583588,0.3253212,-1.4047294,1.1814499,6.8183403,1.963201,0.14095306,3.4918747,0.050849915,-0.27362823,-5.4108505,-1.3391995,-1.184578,-0.22034073,1.861112,-1.4548874,-8.332035,0.0,0.0,0.0,0.0,0.0,0.0,0.0,0.0,0.0,0.0,0.0,0.0,0.96745133,-0.8536581,-0.92207646,0.92966515,0.8684822,0.9830827,-0.97237027,0.32861748,0.96920687,-0.910535,-0.9689749,-0.9979306
2025-06-04 18:48:44.255,-3.595518,-6.067195,-18.635773,0.073893175,0.093483165,0.77565104,3.159391,-1.276992,8.614363,0.009428874,0.8749771,0.7489128,-1.0067236,-1.495018,-11.698788,1.8145473,0.12096405,-12.180971,0.075804606,-0.19351959,1.4288559,-0.8458131,2.3498192,-0.03967285,2.0214057,0.19512177,0.5633621,-0.09815216,-0.2450943,1.0284576,-1.2709098,2.9069176,6.0590515,1.9673972,0.34534454,2.2272072,0.035743713,-0.20275116,-5.2631416,-1.3955808,-1.1362839,1.4837875,1.783521,-1.4936447,-4.6820793,0.0,0.0,0.0,0.0,0.0,0.0,0.0,0.0,0.0,0.0,0.0,0.0,0.95463264,-0.9145517,-0.78542733,0.9726932,0.95857865,0.8384088,-0.9850939,0.6511573,0.899786,-0.70643246,-0.975947,-0.9988519
2025-06-04 18:48:44.306,-3.668294,-5.966905,-16.554094,0.111205414,0.13017094,0.6557575,1.212694,-1.941824,7.740269,0.04627885,0.5196762,-0.42420197,-1.097666,-1.7635727,-8.10132,1.8311794,0.38082123,-12.265202,0.07855119,-0.12645721,0.8184929,-0.72053844,1.7859268,-0.040893555,2.022016,-0.026435852,0.11657715,-0.11013031,-0.1643753,0.43030548,-1.103826,3.4383812,3.8141441,1.9770103,0.32802582,1.3519478,0.024681091,-0.35526276,-3.294117,-1.4521909,-0.82546234,3.6578941,1.7101263,-1.5040207,-1.7450218,0.0,0.0,0.0,0.0,0.0,0.0,0.0,0.0,0.0,0.0,0.0,0.0,0.94170266,-0.9421271,0.037128657,0.9862907,0.9793433,-0.107938565,-0.9923137,0.6045087,0.34850645,-0.13121922,-0.98496497,-0.9985109
2025-06-04 18:48:44.357,-3.726909,-5.661666,-15.260278,-0.10050423,0.3134291,0.2668844,-0.293324,0.431274,1.617711,0.067641154,0.60245514,-0.42542267,-1.2012732,-1.411171,-4.457466,1.8831356,1.4765549,-9.645533,0.088927165,0.7959366,-1.3202095,-0.6389802,1.3518143,-0.64027023,1.9409918,-1.6703415,-0.56946564,-0.11516571,0.075416565,0.69031906,-1.0068564,0.20618439,12.110168,1.9548087,-0.648613,-0.092163086,0.0233078,-0.22937775,-1.1468697,-1.4949155,-0.04650116,1.4471664,1.6487097,-1.243248,-0.12634659,0.0,0.0,0.0,0.0,0.0,0.0,0.0,0.0,0.0,0.0,0.0,0.0,0.13356125,-0.8575089,0.9964183,0.98010325,0.89217246,-0.99745154,-0.99454635,-0.75536543,-0.9908801,0.9502908,-0.98692137,-0.7315285
2025-06-04 18:48:44.408,-1.834183,-2.071747,-14.097126,1.0568656,1.0824397,0.26425526,3.567226,-4.39164,5.121574,0.08610429,0.05596161,-3.37957,-1.2779486,-1.9801712,2.7631035,1.9833095,1.4424515,-2.5323868,0.09159745,0.8262253,-4.2059975,-0.61708385,-0.8849716,5.6818504,1.8141912,0.7793808,-15.600212,-0.10974884,-0.20503998,0.08728027,-1.0788016,-1.1005783,-7.8950195,1.8971305,-0.15613556,-15.473259,0.046806335,0.043296814,1.2872505,-1.4925504,-0.41179657,2.4090958,1.627271,-0.34862518,-0.014038086,0.0,0.0,0.0,0.0,0.0,0.0,0.0,0.0,0.0,0.0,0.0,0.0,-0.98042053,-0.14313248,0.99722713,0.81107163,0.06629913,-0.999918,-0.9808906,-0.9800428,-0.99860364,0.9994666,-0.97453433,0.9184845
2025-06-04 18:48:44.459,-1.134201,-0.340492,-14.555928,0.41384646,-0.5773684,-0.03184664,-3.890323,3.600384,17.882215,0.034834757,-1.2960434,-0.26184464,-1.2893164,2.5944939,-0.07019043,2.0045955,0.46962738,0.8697624,0.08114518,-0.48542023,2.6471367,-0.74312145,-2.1905174,-0.5194168,1.8593572,-0.21053314,-13.682461,-0.12691498,-0.24593353,2.235752,-1.1727195,-1.6051102,-6.164036,1.8855338,-0.5811691,-13.347982,0.06580353,0.606575,0.14465714,-1.4886594,0.34389496,-0.64393234,1.7650579,2.9344597,0.15808487,0.0,0.0,0.0,0.0,0.0,0.0,0.0,0.0,0.0,0.0,0.0,0.0,-0.9938081,0.33133206,0.9946051,0.37276116,-0.23785551,-0.99626625,-0.8606356,-0.98374087,-0.9937854,0.99715805,-0.7962525,0.97173005
2025-06-04 18:48:44.510,0.822764,-3.608133,-13.710001,0.2628457,-0.6653187,0.20871392,-0.400001,0.120733,8.008472,-0.019028768,-0.8736038,-0.092163086,-1.1113226,3.188137,-1.4349594,2.0259578,0.39318085,0.26794815,0.07488908,-0.2890396,-0.045776367,-0.8632844,-1.4621353,-4.9518585,1.8205236,-0.76992035,-9.839626,-0.1278305,0.070991516,1.555809,-1.2606101,-1.3151169,-4.0143433,1.853643,-0.6933212,-11.095751,0.08594513,0.2047348,-1.2957954,-1.5100217,0.9949875,2.617836,1.8431829,2.0824852,0.4022293,0.0,0.0,0.0,0.0,0.0,0.0,0.0,0.0,0.0,0.0,0.0,0.0,-0.99206525,0.59333944,0.9791319,0.22407486,-0.5809399,-0.9947491,-0.662411,-0.9836783,-0.9728871,0.9960753,-0.3907323,0.9888801
2025-06-04 18:48:44.562,1.244911,-5.274826,-13.654433,0.3439563,-0.373115,-0.101164065,1.475748,-0.493577,7.194265,-0.047562703,0.010643005,-2.0941467,-0.95385194,2.1973076,-0.26062393,2.0350368,-0.009727478,0.3704872,0.06298722,-0.18749237,-1.1847115,-0.9554475,-1.6111374,-6.7731743,1.7992376,-0.24532318,-11.16045,-0.12935638,0.057411194,2.4872208,-1.3217978,-0.97301483,-1.8780823,1.8130546,-0.86071014,-8.284428,0.0989151,1.2322617,0.48645782,-1.4627957,-0.31467438,12.556953,1.8874334,-0.11089325,8.433355,0.0,0.0,0.0,0.0,0.0,0.0,0.0,0.0,0.0,0.0,0.0,0.0,-0.98916763,0.79990655,0.9070545,0.07373368,-0.8049677,-0.9911176,-0.14039549,-0.980993,-0.90171754,0.99475837,0.10720706,0.9957078
2025-06-04 18:48:44.613,1.255628,-5.438875,-14.354974,-0.5822856,0.47441423,-0.4904012,3.994727,4.790892,11.539107,-0.06434737,-0.5849838,-1.1322212,-0.8223975,2.1731224,0.037231445,2.0349605,-0.3207779,0.9417877,0.04048051,-0.3394699,0.3985672,-1.0314363,-1.141243,-10.72221,1.805036,0.4920578,-13.238117,-0.12401581,0.12569427,4.7968254,-1.3742881,-1.2892532,0.5072098,1.7741446,-0.63892365,-7.012436,0.118370056,0.7361984,-3.3344002,-1.3653684,1.9974899,11.80621,1.91406,1.0900497,2.8131523,0.0,0.0,0.0,0.0,0.0,0.0,0.0,0.0,0.0,0.0,0.0,0.0,-0.98477316,0.91316307,0.61049235,0.033833,-0.8629099,-0.9793211,0.6741866,-0.98899543,-0.7921325,0.9882793,0.39795732,0.99699557
2025-06-04 18:48:44.664,0.752486,-5.069959,-15.375026,-0.70119506,0.5804871,-0.27850407,0.603985,6.558685,12.376869,-0.07129012,-0.18039703,-1.411766,-0.7197058,1.4390945,-0.13733292,2.0105464,-0.49396515,-0.1324501,0.028426066,0.09944916,-1.6559105,-1.1038393,-1.4241409,-7.1577034,1.8139623,0.27248383,-13.29549,-0.099601746,0.15842438,6.200657,-1.4297538,-1.2623978,3.6530113,1.7388968,-0.63694,-3.9594116,0.12729645,0.47245026,-3.0267792,-1.2165952,1.5903091,11.559624,1.9422125,0.112953186,5.122757,0.0,0.0,0.0,0.0,0.0,0.0,0.0,0.0,0.0,0.0,0.0,0.0,-0.94421303,0.9635565,-0.7146307,0.50792325,-0.8931064,-0.9039618,0.92766875,-0.9920229,-0.48767966,0.9527875,0.1121705,0.9760051
2025-06-04 18:48:44.716,0.786018,-4.812924,-16.08529,-0.13639167,-0.09275058,0.027196785,-1.097167,1.056799,4.469974,-0.07991134,-0.38288116,0.43030548,-0.64119935,1.0738754,-0.5535965,1.8662746,-2.1774712,-1.26894,0.046736613,0.21167755,-0.8966217,-1.1882204,-1.3173294,-5.1239777,1.8205999,0.17307281,-12.853588,-0.065345764,0.6246567,4.174259,-1.4989524,-1.0593796,5.7257957,1.7160087,-0.41584015,-0.25696182,0.12775421,-0.39302826,-0.21667862,-1.1386228,1.3445663,4.17548,1.9719671,0.43354034,2.2601662,0.0,0.0,0.0,0.0,0.0,0.0,0.0,0.0,0.0,0.0,0.0,0.0,-0.5247561,0.9677852,-0.9960263,0.82545435,-0.89219475,0.9428494,0.69487774,-0.9956867,0.8415388,0.63723487,-0.66199815,-0.7015804
2025-06-04 18:48:44.767,0.173946,-3.448649,-15.829062,-0.90872407,0.96877307,0.3039418,-2.224247,1.039266,1.459751,-0.08014022,-0.15102386,2.0575256,-0.6114447,-0.5247879,6.0309753,1.7947109,2.122692,-20.450142,0.06519975,0.23937225,-0.74403,-1.2749666,-1.6250229,0.012817383,1.9099401,1.4647293,0.2923622,-0.031013489,0.7305527,0.46692657,-1.536489,-0.08464813,2.986496,1.794744,1.5038681,3.4796677,0.13080597,0.16551971,-3.72015,-1.1621213,-0.76625824,-3.421074,1.9251226,-0.3382492,-12.033264,0.0,0.0,0.0,0.0,0.0,0.0,0.0,0.0,0.0,0.0,0.0,0.0,0.9497506,-0.1957352,-0.9967436,0.7119756,-0.7057635,0.99962324,-0.8628061,-0.91160727,0.9976467,-0.660408,-0.94059527,-0.9970265
2025-06-04 18:48:44.818,-0.98514,-1.861505,-14.498385,-0.73087555,-0.8939223,0.4497317,-0.693773,-2.636618,19.60619,-0.037949666,0.61763763,4.065613,-0.73595643,-1.7876816,-7.8876953,1.8651302,0.2578354,-16.231327,0.061919108,-0.10486603,0.7452507,-1.3044161,0.15171051,-1.89151,1.9615911,1.2388229,-0.0579834,-0.05252838,-0.782814,2.0282288,-1.5350394,-0.66661835,8.240482,1.8722587,0.77632904,5.7099266,0.118522644,-0.17398834,-6.908676,-1.2480283,-1.8764114,-0.22034073,1.9108557,-0.2853012,-15.25597,0.0,0.0,0.0,0.0,0.0,0.0,0.0,0.0,0.0,0.0,0.0,0.0,0.9922346,-0.42036185,-0.977142,0.79022014,0.46081316,0.99957263,-0.95546544,-0.6413441,0.99508524,-0.96173847,-0.97097903,-0.9972233
2025-06-04 18:48:44.869,-2.866943,-3.850889,-13.385773,-0.4944144,-0.59203786,0.434003,3.074257,-1.043201,11.942676,-0.014832601,0.47084808,3.3368416,-0.8254492,-1.5285873,-10.581827,1.8509395,-0.71331024,-11.144579,0.0658101,0.18238068,0.25818253,-1.1303896,3.7348595,-0.3253212,1.9958471,0.5144119,0.8709831,-0.08090973,-0.4695511,2.1832619,-1.5220695,0.5509567,7.376213,1.9040732,1.1548996,2.5799942,0.08182526,-0.8143234,-5.5585556,-1.3229489,-1.581459,0.033569336,1.8624853,-1.1106491,-9.9409485,0.0,0.0,0.0,0.0,0.0,0.0,0.0,0.0,0.0,0.0,0.0,0.0,0.9700285,-0.77999926,-0.95221037,0.86910385,0.6495874,0.9961434,-0.9493888,-0.064617,0.9856724,-0.9631741,-0.96794486,-0.99693507
2025-06-04 18:48:44.920,-3.710855,-5.274983,-11.522919,-0.007665643,-0.023121633,0.84092575,4.750819,-0.741109,7.061703,0.015379801,0.67539215,1.486229,-0.91326356,-2.1006432,-12.542305,1.8386562,-0.057258606,-12.6179905,0.06916703,-0.47611237,2.2467384,-0.94964916,2.3442497,0.07141113,2.0188117,0.10677338,0.80872726,-0.10234833,0.2550888,-0.37170792,-1.4204459,0.78105927,12.497139,1.9275718,-0.3157425,7.38842,0.055274963,-0.52433014,-5.122757,-1.3802457,-0.95500946,0.076293945,1.7979406,-1.4732742,-5.7441063,0.0,0.0,0.0,0.0,0.0,0.0,0.0,0.0,0.0,0.0,0.0,0.0,0.96512544,-0.84853494,-0.9157248,0.93484044,0.89527947,0.9736122,-0.97718793,0.4266106,0.9686988,-0.886777,-0.9680573,-0.9983123
2025-06-04 18:48:44.971,-3.670409,-5.271613,-9.535642,0.81375796,0.5590764,0.7304424,3.449735,-6.340801,11.027122,0.04978837,0.26248932,-0.092163086,-0.99032044,-1.9486618,-10.967575,1.8407924,-0.03932953,-12.947586,0.071913615,-0.6209183,3.08049,-0.80209666,2.6240196,0.3314247,2.0314002,0.18009186,0.40833282,-0.12020111,-0.27370453,0.29968643,-1.2628226,1.5084457,11.951477,1.9461112,-0.15041351,5.5671005,0.036506653,-0.15254974,-4.149845,-1.4302945,-1.2444687,3.8007164,1.7306494,-1.45298,-2.7423515,0.0,0.0,0.0,0.0,0.0,0.0,0.0,0.0,0.0,0.0,0.0,0.0,0.9547534,-0.90388775,-0.7702566,0.9735173,0.9639757,0.791219,-0.9865507,0.67076385,0.89710486,-0.6908761,-0.9765554,-0.99901
2025-06-04 18:48:45.023,-3.160876,-5.146368,-7.99195,0.4346129,0.015254963,0.30205604,1.474887,-2.74215,5.448203,0.073668376,0.4920578,-0.3314247,-1.0768378,-1.6360092,-9.086443,1.8528469,0.34038544,-12.961014,0.07878007,0.08846283,0.38269806,-0.6907075,1.5306473,-0.48645782,2.0254493,-0.16124725,-0.06530762,-0.12615204,-0.2804947,0.6036453,-1.1019187,3.5345879,3.895935,1.9551902,0.4818344,2.157627,0.025367737,-0.22731781,-2.9791718,-1.4822507,-0.83438873,4.286564,1.6701483,-1.122551,-0.9454498,0.0,0.0,0.0,0.0,0.0,0.0,0.0,0.0,0.0,0.0,0.0,0.0,0.9472615,-0.93017167,0.050838444,0.9864332,0.97798204,-0.1331394,-0.99149585,0.61857784,0.34524715,-0.23000197,-0.9872628,-0.9985687
2025-06-04 18:48:45.074,-2.548082,-4.657782,-7.347156,0.28592622,0.72379285,0.12587674,-1.342235,-0.370358,1.640916,0.08282365,0.34633636,-0.07507324,-1.1767066,-1.3329697,-5.8747215,1.904269,1.300621,-9.6418705,0.08915605,0.7301712,-1.8500023,-0.62128,1.2067795,-0.30945206,1.9408392,-1.8498611,-0.5499344,-0.12714386,0.12004852,0.8685417,-1.0047965,0.17536163,12.295719,1.9345908,-1.0963821,1.2787056,0.021018982,-0.3621292,-0.61829376,-1.5226102,0.08312225,1.6559105,1.6188024,-0.8899307,-0.12512589,0.0,0.0,0.0,0.0,0.0,0.0,0.0,0.0,0.0,0.0,0.0,0.0,0.21453552,-0.85849816,0.99598324,0.98150814,0.8894545,-0.997383,-0.99400514,-0.7248924,-0.9900394,0.9311008,-0.9881994,-0.76853466
2025-06-04 18:48:45.125,0.006202,-1.07385,-6.968763,1.1190062,0.9898529,-0.13568455,-0.035603,-2.925641,9.093644,0.087401286,-0.49533844,-1.4459457,-1.257807,-2.2963371,2.597084,2.0013149,1.371727,-3.1305428,0.097624674,0.44193268,-2.4835587,-0.62074596,-1.6393661,8.362555,1.8568395,1.8024063,-21.713589,-0.12622833,-0.6322098,3.3295174,-1.0829978,-1.7483139,-4.249943,1.871038,-0.023078918,-15.105822,0.0447464,0.028953552,1.8048363,-1.5252805,-0.35556793,4.146183,1.598966,-0.57971954,2.4347305,0.0,0.0,0.0,0.0,0.0,0.0,0.0,0.0,0.0,0.0,0.0,0.0,-0.9699126,-0.21913546,0.99705464,0.90792304,-0.031478703,-0.99995697,-0.98971224,-0.96479946,-0.9983958,0.9995112,-0.97958946,0.89509356
2025-06-04 18:48:45.176,0.687675,-0.368667,-8.270207,0.35798264,-0.989717,-0.07663332,-1.672907,4.339171,15.162562,0.028349772,-1.5996933,-0.25574112,-1.2413275,2.1922722,-2.691082,2.0193202,0.74741364,-0.10925293,0.07313432,-0.16475677,2.6764336,-0.74060374,-2.4989738,-2.6752129,1.8890356,-0.48297882,-14.412453,-0.13332367,0.08686066,1.2518501,-1.1824088,-1.8982315,-4.0582886,1.8625693,-0.15605927,-13.75082,0.07068634,0.38410187,-1.1126862,-1.5380216,-0.6167221,6.143284,1.7266821,1.9174576,4.8822784,0.0,0.0,0.0,0.0,0.0,0.0,0.0,0.0,0.0,0.0,0.0,0.0,-0.9891918,0.29509914,0.9916553,0.5754336,-0.32238534,-0.99783415,-0.9231852,-0.9686841,-0.9895028,0.9974558,-0.840431,0.9591435
2025-06-04 18:48:45.227,2.423536,-3.379616,-7.964795,0.13066986,-0.67260826,0.118129835,2.737566,2.093817,10.401443,-0.02139388,-0.9170151,-0.35095596,-1.0986578,2.442669,-0.35217667,2.0319088,0.3496933,0.4803543,0.0670308,-0.16147614,0.06896973,-0.84154063,-1.4234543,-7.589836,1.8513464,-0.62625885,-11.328907,-0.12714386,0.023002625,1.4886703,-1.2583976,-1.3003159,-3.240406,1.8364005,-0.5851364,-10.79179,0.08983612,0.5421066,-1.5716782,-1.5689206,0.3321457,6.680401,1.7971014,2.3250237,2.0001526,0.0,0.0,0.0,0.0,0.0,0.0,0.0,0.0,0.0,0.0,0.0,0.0,-0.9863892,0.49323782,0.9746335,0.47876164,-0.5726972,-0.99649394,-0.847438,-0.9674394,-0.9599963,0.9964915,-0.5927856,0.979954
2025-06-04 18:48:45.278,2.667121,-5.139186,-7.793844,0.069486685,-0.27994588,-0.061527237,3.253815,1.052661,8.618649,-0.047944173,-0.22975922,-1.4020004,-0.9656775,1.6783524,0.7147331,2.0387752,-0.00415802,0.42298126,0.060088053,-0.34183502,-0.18249893,-0.9266084,-1.5446854,-8.952164,1.8247198,-0.29727936,-11.801327,-0.1305008,-0.42842865,3.0475311,-1.3161521,-1.1209488,-2.023346,1.8029838,-0.68813324,-8.798351,0.103263855,0.91487885,-4.5209427,-1.5499234,0.21442413,11.995422,1.8440984,1.1291122,5.860073,0.0,0.0,0.0,0.0,0.0,0.0,0.0,0.0,0.0,0.0,0.0,0.0,-0.98716676,0.7335871,0.9341966,0.11352984,-0.7376814,-0.98994875,-0.42409375,-0.978818,-0.91123605,0.99552846,-0.0773013,0.9918869
2025-06-04 18:48:45.329,2.332052,-5.424068,-7.957172,-0.24294291,0.16489159,-0.032763932,-0.943269,0.729854,8.434401,-0.06793319,-0.09906769,-1.7120628,-0.84131837,2.0979729,-1.2115669,2.039767,-0.02002716,0.26062393,0.040633097,-0.28743744,0.37781525,-0.9972566,-1.5340042,-10.498817,1.8280767,-0.0674057,-12.976883,-0.12943268,0.020561218,4.163273,-1.3624625,-0.6736374,-1.7022972,1.7706351,-0.7868576,-6.32761,0.11386871,-1.1332321,1.4068832,-1.4522672,1.7441177,8.345465,1.881864,0.010795593,7.49218,0.0,0.0,0.0,0.0,0.0,0.0,0.0,0.0,0.0,0.0,0.0,0.0,-0.9838564,0.88513863,0.7280338,-0.025303353,-0.8569596,-0.98226595,0.4044237,-0.98536265,-0.80065376,0.99225783,0.2740027,0.9965406
2025-06-04 18:48:45.380,1.193334,-4.818301,-8.704322,-0.9803456,0.6577108,-0.41987938,3.226768,6.523064,11.903957,-0.07327376,-0.2161026,-1.9098206,-0.73679566,1.2029648,1.629055,2.0224483,-0.42552948,0.1678505,0.023314372,0.23983002,-0.46814728,-1.068973,-1.6102219,-8.177006,1.8337225,0.0032424927,-13.317463,-0.11432648,0.121421814,5.6610985,-1.416326,-1.1909103,2.4994278,1.7407279,-0.65166473,-3.786068,0.1303482,0.58971405,-3.5211716,-1.3063169,1.5573502,12.384832,1.9148992,0.063056946,6.4020767,0.0,0.0,0.0,0.0,0.0,0.0,0.0,0.0,0.0,0.0,0.0,0.0,-0.9505184,0.94798595,-0.36340794,0.25315234,-0.8901753,-0.9301502,0.88987017,-0.9895416,-0.5709166,0.9723428,0.14350244,0.9877276
2025-06-04 18:48:45.431,0.439388,-4.525804,-9.208738,-0.51007324,0.17666782,0.010894729,1.820684,4.090323,6.375185,-0.07899581,0.0838089,-0.547493,-0.65744996,1.2473679,-0.33386612,1.910754,-2.2675743,-0.056762695,0.03491105,0.2625656,-2.0856018,-1.1443514,-1.568718,-5.840542,1.8338751,-0.021476746,-12.553291,-0.085258484,0.8397293,5.0458527,-1.4801841,-1.0801315,4.6942863,1.7202048,-0.62137604,-0.75989914,0.13134003,-0.23441315,0.056762695,-1.1950803,2.5673332,0.8538933,1.9506811,0.7904434,1.2310982,0.0,0.0,0.0,0.0,0.0,0.0,0.0,0.0,0.0,0.0,0.0,0.0,-0.6652175,0.96722585,-0.99151665,0.7620379,-0.90154994,0.7794024,0.78706217,-0.9949047,0.6986041,0.78281546,-0.5218351,-0.24655887
2025-06-04 18:48:45.483,-0.114856,-3.592413,-8.947397,-0.4869199,0.98515826,0.20958072,0.104698,0.79286,-0.676182,-0.085480794,-0.3699875,3.1610603,-0.6104529,-0.13874054,3.3331795,1.8114192,1.701088,-20.152285,0.06260575,0.7931137,-2.0367737,-1.2423128,-1.740303,-0.80994797,1.9078802,1.3068771,-1.432518,-0.044441223,1.3496017,0.895401,-1.5306907,-0.14141083,3.4955368,1.7800193,1.387291,3.0829315,0.1366806,0.27225494,-3.8739586,-1.1987424,-0.81264496,-0.38880157,1.916654,-0.51158905,-5.6659813,0.0,0.0,0.0,0.0,0.0,0.0,0.0,0.0,0.0,0.0,0.0,0.0,0.9616596,0.15649013,-0.9971922,0.8014399,-0.76857984,0.99957883,-0.8362883,-0.9089174,0.9976458,-0.7209893,-0.9601952,-0.99770176
2025-06-04 18:48:45.534,-1.348197,-1.60691,-7.746395,-0.7166338,-0.7031604,0.46608323,-2.776348,-2.427638,19.699057,-0.04824935,0.56346893,3.224537,-0.7088721,-1.1420822,-4.076599,1.884814,0.044670105,-16.060425,0.072295085,0.042381287,0.33996964,-1.295566,-0.27668,-2.0221252,1.964414,1.1142349,0.31677628,-0.058631897,-0.4681015,1.8255882,-1.532598,-0.29026031,6.4228287,1.8588309,0.9772873,5.114212,0.12653351,-0.24044037,-7.3823166,-1.2796903,-1.6102219,-0.7916374,1.889417,-0.36205292,-14.092621,0.0,0.0,0.0,0.0,0.0,0.0,0.0,0.0,0.0,0.0,0.0,0.0,0.9945355,-0.21137816,-0.9703283,0.8341981,0.31293505,0.99973845,-0.93601507,-0.6878841,0.99271464,-0.98495644,-0.9832229,-0.99774855
2025-06-04 18:48:45.585,-2.867743,-3.458814,-6.112884,-0.43165702,-0.8018712,0.5549189,2.415121,0.595717,9.270967,-0.015519246,0.35053253,3.002365,-0.7792151,-0.90450287,-9.678492,1.8647487,-0.8675766,-10.907759,0.07282914,0.026817322,0.21545792,-1.138553,3.195385,-1.117569,1.9987463,0.6120682,0.34973526,-0.0863266,-0.47031403,1.5533676,-1.515203,0.22647858,7.183338,1.8984275,0.6215286,5.0470734,0.08518219,-0.8372879,-4.883499,-1.3481259,-0.98407745,0.025024414,1.8523382,-0.8589554,-10.930954,0.0,0.0,0.0,0.0,0.0,0.0,0.0,0.0,0.0,0.0,0.0,0.0,0.9839025,-0.5991786,-0.9075713,0.88129735,0.5650238,0.99782234,-0.9223765,-0.3077493,0.974421,-0.9891103,-0.9834753,-0.99752223
2025-06-04 18:48:45.636,-3.627777,-5.04101,-4.263643,-0.07497341,-0.29154265,0.6886937,3.442282,-1.043366,7.832994,0.013472453,0.7995224,1.5448227,-0.8544409,-1.4500046,-13.127031,1.8468959,-0.09906769,-12.556953,0.073286906,-0.22769928,1.5399399,-0.97482616,2.605175,-0.35339737,2.0195746,0.24059296,0.8209343,-0.10623932,-0.5334854,2.346836,-1.4592032,0.3107071,11.818417,1.9117789,-0.054130554,6.8207817,0.053520203,-0.32154083,-4.708935,-1.4013028,-1.0956192,1.2396431,1.8005346,-1.0860825,-7.3908615,0.0,0.0,0.0,0.0,0.0,0.0,0.0,0.0,0.0,0.0,0.0,0.0,0.9813221,-0.71221495,-0.8529076,0.9287924,0.8151778,0.9873608,-0.95679384,0.0998862,0.9503518,-0.97552276,-0.9850798,-0.9982386
2025-06-04 18:48:45.687,-3.894985,-5.286995,-2.414529,0.3653587,0.12246059,0.56309384,-0.009455,-3.215378,11.381434,0.045821086,0.88817596,-1.3629341,-0.9155524,-1.0984421,-14.518654,1.8510158,0.24951935,-13.744717,0.0771779,0.18917084,0.18127823,-0.8322328,3.055233,-0.57801056,2.0320106,0.42476654,0.20569229,-0.12233734,-0.21663666,2.223545,-1.3618522,2.7337303,7.429924,1.9272666,1.0655594,0.7794304,0.030326843,-0.40340424,-4.114441,-1.4429593,-0.7288742,2.9816132,1.743009,-1.0781479,-5.0666046,0.0,0.0,0.0,0.0,0.0,0.0,0.0,0.0,0.0,0.0,0.0,0.0,0.9770624,-0.7840117,-0.7007077,0.96461654,0.91688615,0.919561,-0.96797866,0.37429625,0.8605091,-0.94692814,-0.9889494,-0.9988407
2025-06-04 18:48:45.738,-3.390442,-5.044433,-0.767368,0.034207895,0.10649603,0.48864922,-0.897494,0.351104,6.905947,0.07565202,0.6999588,-2.1344337,-0.98406434,-1.2509537,-12.793774,1.8712337,0.33740997,-13.211262,0.08053483,0.24669647,-0.021362305,-0.72046214,1.8002701,-0.6744499,2.0365882,0.2412796,-0.23376846,-0.13004303,-0.041542053,1.2396431,-1.233602,3.9902916,2.1759377,1.9346671,0.41225433,1.9562073,0.013847351,0.105018616,-4.1901283,-1.4809537,-0.5957413,2.334629,1.6858648,-1.1149979,-2.150303,0.0,0.0,0.0,0.0,0.0,0.0,0.0,0.0,0.0,0.0,0.0,0.0,0.9726433,-0.8303833,-0.16326648,0.98167604,0.95258963,0.45320186,-0.9726283,0.41015315,0.4115846,-0.8752267,-0.992745,-0.99883425
2025-06-04 18:48:45.789,-2.449432,-3.984603,0.50711,0.55685693,0.9986728,0.4290688,1.469965,-1.659155,7.04756,0.09701432,0.31543732,-1.9085999,-1.0605872,-1.2948227,-9.876249,1.9200618,1.3048172,-12.716869,0.084731,-0.27446747,0.6036453,-0.64493114,0.9683609,0.15442276,2.0002723,-0.72330475,-0.37781525,-0.13332367,0.14652252,1.018692,-1.1441092,2.345089,4.540474,1.9067435,-0.3370285,1.576561,-0.0046157837,-0.44834137,-2.4884415,-1.5096402,-0.13713837,2.3932266,1.6355108,-0.9685898,-0.28015518,0.0,0.0,0.0,0.0,0.0,0.0,0.0,0.0,0.0,0.0,0.0,0.0,0.874835,-0.8589877,0.9632751,0.98436594,0.94136375,-0.9618889,-0.9749254,-0.40852252,-0.95047545,-0.2644333,-0.994628,-0.98441935
2025-06-04 18:48:45.840,-0.723202,-1.961391,1.070555,0.8581006,1.203765,-0.058169484,3.299674,-2.076468,4.314089,0.11089982,0.44986725,-1.7718773,-1.1525977,-1.7068863,-3.1964607,2.0149715,1.9215012,-6.192112,0.08732499,0.09525299,0.03967285,-0.6028169,0.3609848,0.00793457,1.8433355,-2.8667107,-0.40345,-0.13477325,0.2890396,0.57801056,-1.150289,-0.13446808,-1.0565338,1.834188,-1.0660934,-8.1208515,-0.00064849854,-0.05695343,-1.3226509,-1.528027,-0.051841736,2.4347305,1.6016363,-0.619545,-0.1336708,0.0,0.0,0.0,0.0,0.0,0.0,0.0,0.0,0.0,0.0,0.0,0.0,-0.85270804,-0.50465226,0.99692416,0.9691816,0.32340977,-0.9999609,-0.99057513,-0.9258907,-0.9981079,0.99344,-0.98214185,0.7471154
2025-06-04 18:48:45.891,0.043109,0.201386,0.208381,-0.16669215,-0.54217,-0.43158078,-5.776569,4.811267,19.00458,0.054137126,-0.94631195,-2.8912811,-1.2195075,-0.5160904,3.0658417,2.0518215,-0.05809784,1.5985336,0.08625688,-0.58322906,2.3248634,-0.69406444,-2.07333,1.4276352,1.8901037,0.24562836,-17.333637,-0.1506424,-0.023994446,2.2882423,-1.2351279,-1.8559647,-1.6205063,1.8061881,-0.5437851,-9.79446,0.032310486,0.5213547,-0.26062393,-1.5334439,-0.3069687,4.4281693,1.7092108,2.306179,2.5885391,0.0,0.0,0.0,0.0,0.0,0.0,0.0,0.0,0.0,0.0,0.0,0.0,-0.98548156,0.15838712,0.9892402,0.6801475,-0.2147582,-0.9986417,-0.9303458,-0.95558,-0.99205905,0.99778485,-0.9067206,0.91714036
2025-06-04 18:48:45.942,1.848056,-1.856793,-0.115542,0.5117235,-0.9767324,0.083519764,1.709422,2.829887,10.311247,-0.0030833336,-0.8927536,-1.0174713,-1.1237586,2.1981468,-0.3265419,2.0526607,0.023078918,0.29480362,0.07145585,-0.18009186,0.1336708,-0.8015626,-1.5649796,-6.4435806,1.8718694,-0.7590866,-11.783016,-0.14369965,-0.0060653687,2.068512,-1.3062339,-1.4286423,-1.1627388,1.7792563,-0.3886032,-9.029068,0.06351471,1.0457993,-1.8866272,-1.5621305,-0.6532669,9.126726,1.7889379,1.7512131,4.352482,0.0,0.0,0.0,0.0,0.0,0.0,0.0,0.0,0.0,0.0,0.0,0.0,-0.9806152,0.41968027,0.9666219,0.5251401,-0.5187311,-0.9963451,-0.8420329,-0.9496633,-0.9631801,0.99655056,-0.72607803,0.9603556
2025-06-04 18:48:45.993,2.586974,-4.024987,0.179323,0.12297988,-0.4551741,0.112977415,2.415949,0.882513,7.547621,-0.039246663,-0.08014679,-2.1564064,-0.99520326,1.578331,0.1312294,2.053271,-0.017280579,0.13977432,0.071150675,-0.020561218,-0.9723053,-0.887317,-1.4364243,-9.835964,1.8421911,-0.3924179,-11.999084,-0.14194489,-0.18535614,3.1976814,-1.3597922,-1.1551285,-0.0018310547,1.7544608,-0.46756744,-7.40551,0.08441925,1.1862564,-2.5860977,-1.5602994,-0.05504608,10.885786,1.8411993,0.95653534,6.2555885,0.0,0.0,0.0,0.0,0.0,0.0,0.0,0.0,0.0,0.0,0.0,0.0,-0.9739996,0.6384212,0.89556605,0.4151728,-0.7373253,-0.9933349,-0.6636362,-0.9514801,-0.8751345,0.99575895,-0.39676932,0.9818283
2025-06-04 18:48:46.044,2.139279,-4.88076,0.585264,-0.048351623,-0.03474888,0.115636595,2.354057,0.562613,8.043876,-0.0614482,0.034446716,-0.53528595,-0.874964,2.098812,-0.9808502,2.047549,-0.07518768,-0.10437012,0.06893815,0.15354156,-1.4422836,-0.96239024,-1.6280746,-11.121384,1.8373083,-0.13698578,-13.096512,-0.14888763,-0.16750336,4.4354935,-1.400991,-0.98789215,0.07751465,1.7332511,-0.50914764,-5.310749,0.09838104,-1.3466263,3.2184334,-1.501782,0.38043976,9.041275,1.8849157,-0.1355362,7.6899376,0.0,0.0,0.0,0.0,0.0,0.0,0.0,0.0,0.0,0.0,0.0,0.0,-0.96234757,0.8160521,0.54544806,0.4331728,-0.86239886,-0.9873046,-0.3075484,-0.9505078,-0.58919716,0.9936641,-0.050704464,0.98821163
2025-06-04 18:48:46.095,1.0243,-4.594822,0.856484,-0.9957679,0.5126115,0.011514216,2.522033,5.133995,10.946393,-0.07037459,0.13896942,-0.4351883,-0.76990724,1.9046402,-0.11779785,2.0113094,-0.94646454,0.18616104,0.06733598,-0.21076202,-0.6720085,-1.0358614,-1.241951,-11.256886,1.8421911,0.2249527,-14.728619,-0.1517868,0.0358963,5.7965965,-1.4466147,-0.83293915,3.9447632,1.7208152,-0.40485382,-2.0001526,0.116615295,0.20641327,-3.2794685,-1.4077878,1.5378189,12.574045,1.9133734,1.0226059,3.297779,0.0,0.0,0.0,0.0,0.0,0.0,0.0,0.0,0.0,0.0,0.0,0.0,-0.922119,0.9215826,-0.46941343,0.34199506,-0.87805784,-0.83758485,0.52304125,-0.97792935,0.12804018,0.97574604,0.14309414,0.966836
2025-06-04 18:48:46.146,-0.581697,-3.692689,1.258663,-1.0386388,0.6499186,0.25615898,-1.980249,3.946509,9.439506,-0.07647811,0.17635345,-0.49744415,-0.68529725,1.5340805,-0.42298126,1.8938167,-2.452282,0.26306534,0.07702531,0.1392746,-3.5016403,-1.1033052,-1.0530472,-8.827648,1.8549322,0.41103363,-13.833828,-0.13408661,0.55843353,6.6974907,-1.500936,-1.232338,6.847637,1.7434745,0.22289276,3.076828,0.12302399,0.19557953,-2.014801,-1.2833524,1.7282486,8.426031,1.9396185,0.6381607,3.5638962,0.0,0.0,0.0,0.0,0.0,0.0,0.0,0.0,0.0,0.0,0.0,0.0,-0.051771574,0.9219099,-0.9929936,0.7117671,-0.89153695,0.9655591,0.35805526,-0.98838466,0.9422148,0.61466146,-0.7494079,-0.6796851
