openverse-orca/OrcaGym/envs/legged_gym/legged_real_env/logs/robot_log_20250610_163744.csv
timestamp,imu_angle_roll,imu_angle_pitch,imu_angle_yaw,imu_angular_velocity_roll,imu_angular_velocity_pitch,imu_angular_velocity_yaw,imu_acc_x,imu_acc_y,imu_acc_z,fl_joint1_pos,fl_joint1_vel,fl_joint1_torque,fl_joint2_pos,fl_joint2_vel,fl_joint2_torque,fl_joint3_pos,fl_joint3_vel,fl_joint3_torque,fr_joint1_pos,fr_joint1_vel,fr_joint1_torque,fr_joint2_pos,fr_joint2_vel,fr_joint2_torque,fr_joint3_pos,fr_joint3_vel,fr_joint3_torque,hl_joint1_pos,hl_joint1_vel,hl_joint1_torque,hl_joint2_pos,hl_joint2_vel,hl_joint2_torque,hl_joint3_pos,hl_joint3_vel,hl_joint3_torque,hr_joint1_pos,hr_joint1_vel,hr_joint1_torque,hr_joint2_pos,hr_joint2_vel,hr_joint2_torque,hr_joint3_pos,hr_joint3_vel,hr_joint3_torque,fl_force_x,fl_force_y,fl_force_z,fr_force_x,fr_force_y,fr_force_z,hl_force_x,hl_force_y,hl_force_z,hr_force_x,hr_force_y,hr_force_z,fl_hip_action,fl_thigh_action,fl_calf_action,fr_hip_action,fr_thigh_action,fr_calf_action,hl_hip_action,hl_thigh_action,hl_calf_action,hr_hip_action,hr_thigh_action,hr_calf_action
2025-06-10 16:38:16.929,-0.518424,-1.324349,-0.157873,-0.0016079893,-0.0018024015,1.9495328e-05,0.22767,-0.080668,9.784687,-0.017204285,0.02620697,0.7464714,-0.9829765,0.04764557,-0.53406525,1.9109828,0.0036239624,-5.1044464,0.005607605,-0.00049591064,-0.27771378,-0.9804484,0.001411438,-0.5889969,1.9008611,-0.011711121,-4.645458,-0.00957489,-0.085258484,0.46204376,-0.9726005,-0.0033187866,-1.0113678,1.9299369,0.024375916,-5.9943542,0.019264221,0.0008773804,-0.8245964,-0.98037213,-0.010261536,-0.604866,1.9416021,-0.038490295,-6.4533463,0.0,0.0,0.0,0.0,0.0,0.0,0.0,0.0,0.0,0.0,0.0,0.0,-1.0192318,-0.32305327,-2.0,-2.0,0.67070067,1.1862246,1.5444355,-1.8246061,-2.0,-0.6264035,-0.14724968,-2.0
2025-06-10 16:38:16.982,-0.519815,-1.327963,-0.163098,-0.0015389441,-0.0017474759,0.00082374306,0.231019,-0.085178,9.790226,-0.01712799,-0.019493103,0.73060226,-0.9832817,0.064582825,-0.5133133,1.9109828,-0.011940002,-5.109329,0.005683899,0.005683899,-0.2911415,-0.9804484,0.012626648,-0.5828934,1.9007849,-0.01247406,-4.6234818,-0.009651184,0.020484924,0.47058868,-0.9726005,0.015144348,-1.0089264,1.9298606,-0.039100647,-5.9736023,0.01941681,0.008659363,-0.822155,-0.98029584,-0.0076675415,-0.5999832,1.9416021,-0.007896423,-6.4533463,0.0,0.0,0.0,0.0,0.0,0.0,0.0,0.0,0.0,0.0,0.0,0.0,-2.0,0.7299754,-2.0,-0.09867843,0.774181,2.0,-2.0,-2.0,0.6459254,-2.0,-1.5359821,-2.0
2025-06-10 16:38:17.033,-0.521457,-1.331207,-0.161866,-0.0012989787,-0.0030265579,0.0014807374,0.234826,-0.079818,9.762183,-0.017356873,0.008125305,0.7464714,-0.9832817,-0.07274628,-0.5230789,1.9109828,-0.017585754,-5.1276436,0.005607605,0.079460144,-0.27649307,-0.9808299,-0.074272156,-0.5938797,1.9007849,0.008735657,-4.6198196,-0.009803772,-0.039634705,0.46204376,-0.97244793,0.015449524,-1.0223541,1.9298606,0.025749207,-5.9858093,0.01941681,0.0051498413,-0.84656906,-0.98037213,-0.017814636,-0.60608673,1.9417547,-0.00667572,-6.450905,0.0,0.0,0.0,0.0,0.0,0.0,0.0,0.0,0.0,0.0,0.0,0.0,-2.0,2.0,-2.0,-0.010988556,1.6808279,2.0,-2.0,-2.0,2.0,-2.0,-2.0,-2.0
2025-06-10 16:38:17.084,-0.520817,-1.328372,-0.159927,0.0018576586,-0.00024717354,0.0027913225,0.229373,-0.092597,9.794583,-0.017356873,-0.005531311,0.7476921,-0.9832054,0.01712799,-0.53406525,1.9110591,-0.015678406,-5.1081085,0.005683899,0.062065125,-0.2887001,-0.980601,0.029640198,-0.57678986,1.9007849,-0.0010299683,-4.589302,-0.009651184,0.047340393,0.45227814,-0.9726005,0.048332214,-1.0247955,1.9299369,0.053749084,-6.000458,0.019340515,0.023460388,-0.83680344,-0.98037213,-0.033607483,-0.60608673,1.9417547,0.027427673,-6.449684,0.0,0.0,0.0,0.0,0.0,0.0,0.0,0.0,0.0,0.0,0.0,0.0,-2.0,2.0,-2.0,-2.0,2.0,0.38365567,-2.0,-2.0,2.0,-2.0,-2.0,-2.0
2025-06-10 16:38:17.135,-0.520592,-1.32985,-0.161759,-0.00076487305,-0.00090188143,0.00073200854,0.218228,-0.086103,9.774411,-0.017204285,-0.020179749,0.7391472,-0.9829002,-0.01537323,-0.53772736,1.9110591,0.018730164,-5.106888,0.005683899,0.012397766,-0.2874794,-0.9808299,-0.04421234,-0.5877762,1.9009374,0.006828308,-4.592964,-0.009651184,0.0016403198,0.47058868,-0.9727531,-0.0018692017,-1.0247955,1.9297843,0.031471252,-5.9638367,0.019264221,-0.011634827,-0.83436203,-0.98021954,-0.0233078,-0.604866,1.9416784,-0.0012588501,-6.4728775,0.0,0.0,0.0,0.0,0.0,0.0,0.0,0.0,0.0,0.0,0.0,0.0,-2.0,2.0,-2.0,-2.0,2.0,-2.0,-2.0,-2.0,2.0,-2.0,-2.0,-2.0
2025-06-10 16:38:17.186,-0.523481,-1.33368,-0.162705,-0.0013897358,0.00090146257,-0.00092985906,0.238741,-0.091988,9.793073,-0.017280579,0.06816864,0.7391472,-0.9831291,-0.10120392,-0.53528595,1.9109828,0.004310608,-5.086136,0.005760193,-0.0063705444,-0.29724503,-0.9806773,-0.02292633,-0.5841141,1.9007849,-0.0020217896,-4.617378,-0.009727478,-0.023536682,0.46692657,-0.9727531,0.04901886,-1.0150299,1.9300132,-0.029258728,-5.991913,0.01941681,-0.035972595,-0.84290695,-0.98021954,-0.025291443,-0.60608673,1.9417547,0.022697449,-6.441139,0.0,0.0,0.0,0.0,0.0,0.0,0.0,0.0,0.0,0.0,0.0,0.0,-2.0,2.0,-2.0,-2.0,2.0,-2.0,-2.0,-2.0,-2.0,-2.0,-2.0,-2.0
2025-06-10 16:38:17.237,-0.523569,-1.331724,-0.163639,-0.0030614645,-0.0010486287,-0.0015818268,0.225848,-0.077915,9.792318,-0.017280579,-0.06587982,0.7379265,-0.9832054,-0.09464264,-0.53284454,1.9110591,0.008888245,-5.1154327,0.005607605,-0.018806458,-0.2887001,-0.980601,0.023841858,-0.5828934,1.9008611,-0.0034713745,-4.622261,-0.00957489,0.02735138,0.46814728,-0.97244793,0.008659363,-1.0211334,1.9300132,-0.036888123,-6.0090027,0.019264221,-0.016059875,-0.84778976,-0.98021954,-0.0073623657,-0.6036453,1.9417547,-0.004005432,-6.44236,0.0,0.0,0.0,0.0,0.0,0.0,0.0,0.0,0.0,0.0,0.0,0.0,-2.0,2.0,-2.0,-2.0,2.0,-2.0,-2.0,-2.0,-2.0,-2.0,-2.0,-2.0
2025-06-10 16:38:17.288,-0.521014,-1.330923,-0.164744,-0.00058398716,-0.00408325,0.0012953659,0.216763,-0.098601,9.794508,-0.017280579,0.062294006,0.74403,-0.9829002,-0.033683777,-0.53406525,1.9110591,-0.02407074,-5.1166534,0.005531311,-0.016593933,-0.2899208,-0.9805247,0.0061416626,-0.5853348,1.9008611,0.022773743,-4.634472,-0.009727478,0.009727478,0.46204376,-0.9725242,0.028495789,-1.0247955,1.9299369,-0.027046204,-6.002899,0.01941681,-0.008125305,-0.84412766,-0.98029584,-0.028419495,-0.61096954,1.9415258,0.024604797,-6.44236,0.0,0.0,0.0,0.0,0.0,0.0,0.0,0.0,0.0,0.0,0.0,0.0,-2.0,2.0,-2.0,-2.0,2.0,-2.0,-2.0,-2.0,-2.0,-2.0,-2.0,-2.0
2025-06-10 16:38:17.341,-0.52212,-1.331684,-0.162014,0.00057629024,-0.0003594331,0.0015456286,0.213722,-0.079579,9.81518,-0.017433167,-0.012016296,0.7367058,-0.98335797,-0.04550934,-0.53772736,1.9110591,0.0075149536,-5.1239777,0.005683899,0.031929016,-0.2825966,-0.9807536,-0.044670105,-0.57923126,1.9008611,-0.010566711,-4.646679,-0.009651184,0.030708313,0.46570587,-0.9727531,-0.007896423,-1.0125885,1.9299369,-0.018501282,-5.982147,0.01941681,0.0032424927,-0.8245964,-0.98014325,-0.0146102905,-0.5889969,1.9417547,-0.022392273,-6.4557877,0.0,0.0,0.0,0.0,0.0,0.0,0.0,0.0,0.0,0.0,0.0,0.0,-2.0,2.0,-2.0,-2.0,2.0,-2.0,-2.0,-2.0,-2.0,-2.0,-2.0,-2.0
2025-06-10 16:38:17.393,-0.519982,-1.33186,-0.159483,-0.0020222955,-0.0020769418,7.953465e-05,0.23535,-0.085938,9.793086,-0.016899109,0.056877136,0.7476921,-0.98343426,-0.00957489,-0.5523758,1.9109828,3.8146973e-05,-5.125202,0.005683899,0.00049591064,-0.2862587,-0.98021954,0.033607483,-0.592659,1.9008611,0.035209656,-4.6198196,-0.00957489,0.08022308,0.46204376,-0.9727531,-0.027275085,-1.0101471,1.9300132,0.04711151,-5.945526,0.019111633,-0.004005432,-0.84046555,-0.98029584,-0.006752014,-0.60608673,1.9419073,0.00919342,-6.4570084,0.0,0.0,0.0,0.0,0.0,0.0,0.0,0.0,0.0,0.0,0.0,0.0,-2.0,2.0,-2.0,-2.0,2.0,-2.0,-2.0,-2.0,-2.0,-2.0,-2.0,-2.0
2025-06-10 16:38:17.444,-0.518631,-1.335936,-0.160105,-0.00083950337,-0.0018981502,-0.0020935922,0.224938,-0.093516,9.790835,-0.017280579,-0.040626526,0.72816086,-0.9830528,-0.0636673,-0.5450516,1.9109828,0.0065994263,-5.1117706,0.005531311,0.0037765503,-0.29358292,-0.9806773,0.06542206,-0.60608673,1.9008611,0.0020980835,-4.6271477,-0.009727478,-0.004310608,0.46082306,-0.9726768,-0.013160706,-1.0296783,1.9300132,0.036888123,-5.978485,0.019264221,-0.0233078,-0.84168625,-0.98021954,-0.014915466,-0.5975418,1.9417547,0.0030136108,-6.449684,0.0,0.0,0.0,0.0,0.0,0.0,0.0,0.0,0.0,0.0,0.0,0.0,-2.0,2.0,-2.0,-2.0,2.0,-2.0,-2.0,-2.0,-2.0,-2.0,-2.0,-2.0
2025-06-10 16:38:17.495,-0.5198,-1.334606,-0.162846,0.0014735466,0.0010890506,-0.00078766706,0.22199,-0.085355,9.789472,-0.017204285,-0.0207901,0.7513542,-0.9832817,-0.032844543,-0.5462723,1.9110591,-0.004386902,-5.1129913,0.005760193,0.028953552,-0.27649307,-0.9807536,-0.07450104,-0.5828934,1.9008611,0.007820129,-4.5844193,-0.009651184,-0.048103333,0.47058868,-0.9726768,-0.03414154,-1.0150299,1.9298606,0.00034332275,-5.9882507,0.019187927,-0.017738342,-0.84168625,-0.98029584,0.0030899048,-0.5963211,1.9416784,0.03177643,-6.461891,0.0,0.0,0.0,0.0,0.0,0.0,0.0,0.0,0.0,0.0,0.0,0.0,-2.0,2.0,-2.0,-2.0,2.0,-2.0,-2.0,-2.0,-2.0,-2.0,-2.0,-2.0
2025-06-10 16:38:17.546,-0.519667,-1.33944,-0.162748,-0.0028925515,-0.0013971186,-0.0011035193,0.209045,-0.110042,9.80178,-0.017051697,-0.031089783,0.7550163,-0.9832817,0.03353119,-0.54016876,1.9110591,0.015907288,-5.125202,0.005683899,-0.057106018,-0.2911415,-0.9805247,0.048866272,-0.5902176,1.9008611,0.015220642,-4.6124954,-0.009498596,-0.043373108,0.46326447,-0.9726005,-0.0059127808,-1.0101471,1.9297843,-0.011253357,-5.995575,0.019493103,-0.022773743,-0.84901047,-0.98029584,-0.008506775,-0.5975418,1.9416021,0.010719299,-6.413063,0.0,0.0,0.0,0.0,0.0,0.0,0.0,0.0,0.0,0.0,0.0,0.0,-2.0,2.0,-2.0,-2.0,2.0,-2.0,-2.0,-2.0,-2.0,-2.0,-2.0,-2.0
2025-06-10 16:38:17.599,-0.521023,-1.337895,-0.16195,-0.001418656,-0.00074837974,0.0032602923,0.222814,-0.103894,9.777139,-0.017204285,0.073661804,0.73182297,-0.9829002,0.075035095,-0.5462723,1.9111354,-0.0024032593,-5.1154327,0.005531311,-0.0010299683,-0.2825966,-0.9805247,-0.030021667,-0.5889969,1.9007849,0.00415802,-4.5990677,-0.009651184,-0.0004196167,0.46448517,-0.9726005,-0.02910614,-1.0028229,1.9299369,-0.026054382,-5.9601746,0.01941681,-0.028495789,-0.84290695,-0.98021954,0.020484924,-0.6012039,1.9416784,0.014152527,-6.4606705,0.0,0.0,0.0,0.0,0.0,0.0,0.0,0.0,0.0,0.0,0.0,0.0,-2.0,2.0,-2.0,-2.0,2.0,-2.0,-2.0,-2.0,-2.0,-2.0,-2.0,-2.0
2025-06-10 16:38:17.652,-0.520604,-1.340653,-0.160819,0.0026638436,0.00083852594,-0.0025254914,0.22195,-0.09312,9.777404,-0.017051697,0.023002625,0.75623703,-0.9832817,-0.10623932,-0.5438309,1.9109066,-0.017280579,-5.1081085,0.005836487,0.026283264,-0.285038,-0.9805247,0.06504059,-0.5853348,1.9009374,0.0146865845,-4.614937,-0.009651184,0.0023269653,0.46692657,-0.9725242,0.0035476685,-0.98817444,1.9299369,0.033454895,-5.9736023,0.019340515,0.051689148,-0.84901047,-0.98021954,0.0018692017,-0.60608673,1.9417547,-0.032691956,-6.471657,0.0,0.0,0.0,0.0,0.0,0.0,0.0,0.0,0.0,0.0,0.0,0.0,-2.0,2.0,-2.0,-2.0,2.0,-2.0,-2.0,-2.0,-2.0,-2.0,-2.0,-2.0
2025-06-10 16:38:17.704,-0.519232,-1.339183,-0.162524,-0.000684937,-0.0016743118,0.0010174222,0.212729,-0.097871,9.789558,-0.017204285,0.030403137,0.7464714,-0.9832054,0.025672913,-0.53772736,1.9109828,-0.0062942505,-5.081253,0.005683899,0.011482239,-0.2911415,-0.9806773,-0.052375793,-0.5828934,1.9008611,-0.01285553,-4.5966263,-0.00957489,-0.0046157837,0.45838165,-0.9727531,-0.07450104,-1.0223541,1.9299369,0.019187927,-5.9809265,0.01941681,-0.0047683716,-0.84534836,-0.98029584,-0.016975403,-0.592659,1.9416021,-0.0036239624,-6.438698,0.0,0.0,0.0,0.0,0.0,0.0,0.0,0.0,0.0,0.0,0.0,0.0,-2.0,2.0,-2.0,-2.0,2.0,-2.0,-2.0,-2.0,-2.0,-2.0,-2.0,-2.0
2025-06-10 16:38:17.755,-0.519689,-1.341038,-0.162142,-0.0011938575,-0.0025896498,-0.00054593896,0.232425,-0.109418,9.792751,-0.01712799,0.052452087,0.7367058,-0.9832054,0.01941681,-0.5523758,1.9111354,-0.010643005,-5.1154327,0.005760193,-0.015449524,-0.2899208,-0.9804484,0.045433044,-0.5951004,1.9008611,-0.008049011,-4.622261,-0.009651184,-0.021095276,0.46936798,-0.9728294,-0.03604889,-1.0199127,1.9300132,0.02254486,-5.9967957,0.01941681,-0.06336212,-0.8306999,-0.98029584,-0.0050735474,-0.6036453,1.9415258,-0.030708313,-6.4606705,0.0,0.0,0.0,0.0,0.0,0.0,0.0,0.0,0.0,0.0,0.0,0.0,-2.0,2.0,-2.0,-2.0,2.0,-2.0,-2.0,-2.0,-2.0,-2.0,-2.0,-2.0
2025-06-10 16:38:17.805,-0.526516,-1.306941,-0.154379,-0.013932893,0.011586403,0.0011909428,-1.116781,0.069389,4.175272,-0.019721985,-0.056648254,0.23376846,-0.990377,-0.25661469,0.789196,1.949969,1.3496017,-2.732586,0.006980896,0.02002716,-0.064086914,-0.9907481,-0.53318024,0.9015045,1.9381689,1.3788986,-2.736248,-0.010261536,0.043144226,0.042114258,-0.979467,-0.17147064,0.5206375,1.9681602,1.0316086,-1.9659729,0.01941681,0.07419586,-0.033569336,-0.987086,-0.3019333,0.49256134,1.9802831,1.0245895,-2.0184631,0.0,0.0,0.0,0.0,0.0,0.0,0.0,0.0,0.0,0.0,0.0,0.0,-2.0,2.0,-2.0,-2.0,2.0,-2.0,-2.0,-2.0,-2.0,-2.0,-2.0,-2.0
2025-06-10 16:38:17.857,-0.590948,-0.657276,-0.090668,0.009650711,0.21718884,0.023466125,-1.473331,-0.228432,8.811602,-0.02155304,-0.0104904175,0.053100586,-1.0081534,-0.20877838,0.5902176,2.0348842,1.9054031,-3.6200485,0.009803772,-0.005683899,-0.11047363,-1.0094401,-0.22815704,0.6219559,2.0219398,1.7335129,-3.4979782,-0.010795593,-0.051002502,0.045776367,-0.98595196,0.0636673,0.032348633,2.0336204,1.3844681,-2.694744,0.019798279,0.090675354,-0.029907227,-0.9945628,-0.07015228,0.12145996,2.044599,1.4670181,-2.990158,0.0,0.0,0.0,0.0,0.0,0.0,0.0,0.0,0.0,0.0,0.0,0.0,-2.0,2.0,-2.0,-2.0,2.0,-2.0,-2.0,-2.0,-2.0,-2.0,-2.0,-2.0
2025-06-10 16:38:17.908,-0.646525,-0.049291,-0.003416,-0.03132803,0.09746969,0.0297879,-1.350102,-0.068743,9.14248,-0.022315979,0.014762878,0.00793457,-1.0137992,0.0046157837,-0.005493164,2.1302516,1.9366837,-3.6774254,0.012245178,0.048942566,-0.1336708,-1.0180613,-0.032844543,0.14343643,2.115705,1.8394089,-3.7958336,-0.014076233,-0.008888245,0.08850098,-0.9853416,0.0623703,-0.03112793,2.1152549,1.745491,-3.314869,0.021018982,0.028953552,-0.010375977,-0.99524945,0.024604797,0.032348633,2.1257758,1.6588974,-3.5870895,0.0,0.0,0.0,0.0,0.0,0.0,0.0,0.0,0.0,0.0,0.0,0.0,-2.0,2.0,-2.0,-2.0,2.0,-2.0,-2.0,-2.0,-2.0,-2.0,-2.0,-2.0
2025-06-10 16:38:17.959,-0.705927,0.155932,0.071635,-0.012684424,-0.06712472,0.019567007,-1.057273,-0.102017,9.087179,-0.022163391,0.033302307,-0.0030517578,-1.0072379,0.52150726,-0.61707306,2.2280605,1.7442703,-3.577324,0.015296936,0.06549835,-0.13855362,-1.0124155,0.22205353,-0.5914383,2.2113776,1.7370987,-3.5065231,-0.016975403,-0.06473541,0.11657715,-0.976873,0.17101288,-0.37537384,2.213674,2.0444145,-4.0875854,0.023918152,0.07030487,-0.122680664,-0.98914593,0.25737762,-0.33752823,2.222898,1.921196,-3.9349976,0.0,0.0,0.0,0.0,0.0,0.0,0.0,0.0,0.0,0.0,0.0,0.0,-2.0,2.0,-2.0,-2.0,2.0,-2.0,-2.0,-2.0,-2.0,-2.0,-2.0,-2.0
2025-06-10 16:38:18.010,-0.770094,-0.359012,0.128497,-0.033195097,-0.32452613,0.0094505735,-0.607827,-0.110249,9.114247,-0.022468567,-0.00919342,0.006713867,-0.9857231,0.35900116,-1.0540924,2.316714,1.7451859,-3.4637985,0.017585754,0.06481171,-0.1702919,-0.99418133,0.6460953,-0.92103577,2.298963,1.6617966,-3.294117,-0.022163391,-0.05405426,0.22888565,-0.96214825,0.38600922,-0.7855339,2.3264365,2.4562492,-4.667431,0.029258728,0.11302948,-0.25452042,-0.9756419,0.29850006,-0.64759445,2.3333716,2.4441185,-4.7296867,0.0,0.0,0.0,0.0,0.0,0.0,0.0,0.0,0.0,0.0,0.0,0.0,-2.0,2.0,-2.0,-2.0,2.0,-2.0,-2.0,-2.0,-2.0,-2.0,-2.0,-2.0
2025-06-10 16:38:18.061,-0.848677,-1.68905,0.145291,-0.026583197,-0.6412525,-0.014551071,0.171966,-0.168151,9.027327,-0.023918152,0.033073425,0.076293945,-0.9512382,0.68294525,-1.694973,2.400027,1.5471268,-2.9388885,0.019264221,0.020561218,-0.01159668,-0.96366376,0.6303024,-1.3128853,2.3818946,1.4481735,-2.9022675,-0.030632019,-0.2073288,0.40467072,-0.9346824,0.65265656,-1.3116646,2.4568992,2.7039757,-5.3290596,0.0371933,0.16559601,-0.3643837,-0.9477183,0.73970795,-1.5240707,2.4620032,2.6520958,-5.3852158,0.0,0.0,0.0,0.0,0.0,0.0,0.0,0.0,0.0,0.0,0.0,0.0,-2.0,2.0,-2.0,-2.0,2.0,-2.0,-2.0,-2.0,-2.0,-2.0,-2.0,-2.0
2025-06-10 16:38:18.111,-0.697887,-2.15278,0.1019,0.34056276,0.7978532,-0.16289994,7.153497,-2.218101,17.38358,-0.047721863,-0.7941818,1.4337387,-0.93803936,-0.77739716,1.7572289,2.5003536,1.6207504,-3.3344002,0.041236877,0.42621613,-1.1749458,-0.944514,-1.1132431,2.0404358,2.4897742,1.7304611,-3.3807907,-0.06580353,-0.31970978,0.57556915,-0.9642082,-0.4820633,0.91981506,2.5285392,0.7759476,-1.5594711,0.08617401,0.303154,-0.84046555,-0.9691569,-0.18306732,0.61951447,2.5357032,0.78609467,-1.7181664,0.0,0.0,0.0,0.0,0.0,0.0,0.0,0.0,0.0,0.0,0.0,0.0,-2.0,2.0,-2.0,-2.0,2.0,-2.0,-2.0,-2.0,-2.0,-2.0,-2.0,-2.0
2025-06-10 16:38:18.163,-0.529867,-1.476524,-0.031994,0.012944618,0.25957128,-0.015756449,-1.1904,0.339031,8.401956,-0.06275177,-0.09693146,0.3607216,-0.9877067,-0.99170685,1.9281311,2.561694,1.2401199,-2.3785782,0.04802704,0.09952545,-0.15686417,-0.99410504,-1.0010147,2.178379,2.5538611,1.3149643,-2.6434746,-0.07205963,-0.15468597,0.20080948,-0.99236065,-0.66402435,1.1200104,2.5657706,0.6435776,-1.3861313,0.09044647,0.07762909,-0.13489151,-0.9986827,-0.46230316,1.0101471,2.5737739,0.8123398,-1.510643,0.0,0.0,0.0,0.0,0.0,0.0,0.0,0.0,0.0,0.0,0.0,0.0,-2.0,2.0,-2.0,-2.0,2.0,-2.0,-2.0,-2.0,-2.0,-2.0,-2.0,-2.0
2025-06-10 16:38:18.214,-0.54905,-0.735714,-0.00135,-0.01873918,0.17138577,0.030052422,-0.37254,-0.148891,10.128167,-0.07312775,-0.17658234,0.4327469,-1.0398917,-0.86338043,1.8866272,2.6260097,1.1955643,-2.1844826,0.057106018,0.17597198,-0.38636017,-1.0473582,-0.77732086,1.9855042,2.6190162,1.222496,-2.4188614,-0.07884979,-0.08716583,0.2081337,-1.0269217,-0.62236786,1.6461449,2.610021,0.9344101,-1.8902893,0.096702576,0.18672943,-0.34119034,-1.033549,-0.72437286,1.5118637,2.6176429,0.9207535,-1.6717796,0.0,0.0,0.0,0.0,0.0,0.0,0.0,0.0,0.0,0.0,0.0,0.0,-2.0,2.0,-2.0,-2.0,2.0,-2.0,-2.0,-2.0,-2.0,-2.0,-2.0,-2.0
2025-06-10 16:38:18.265,-0.570169,-0.300179,0.021249,-0.010917453,0.1396924,0.0058976593,-0.17947,-0.092192,9.494319,-0.08426666,-0.3107071,0.4742508,-1.089025,-0.9365463,1.945221,2.6837642,1.163063,-2.150303,0.06893158,0.10814667,-0.4742508,-1.0961863,-0.91854095,2.0172424,2.6759315,1.2150955,-2.3883438,-0.084724426,-0.11959076,0.22278214,-1.0666709,-0.7089615,1.4886703,2.6565604,0.970726,-1.969635,0.104637146,0.19603729,-0.33630753,-1.0719248,-0.95630646,1.6082993,2.662809,0.9025955,-1.9281311,0.0,0.0,0.0,0.0,0.0,0.0,0.0,0.0,0.0,0.0,0.0,0.0,-2.0,2.0,-2.0,-2.0,1.973768,-2.0,-2.0,-2.0,-2.0,-2.0,-2.0,-2.0
2025-06-10 16:38:18.316,-0.579004,0.159005,0.067031,-0.006900438,0.18358317,0.022250138,-0.207245,-0.064489,9.050708,-0.1027298,-1.0287094,1.7865257,-1.1367087,-0.5434036,1.4422836,2.7350338,-0.054588318,-0.33630753,0.085105896,0.3029251,-0.76356125,-1.1450182,-0.933342,2.1490822,2.7343726,1.1415482,-2.313877,-0.09334564,-0.068855286,0.3265419,-1.1039023,-0.78998566,1.4020004,2.7030997,1.0704422,-2.0221252,0.11226654,0.38341522,-0.53162384,-1.1086985,-0.8703232,1.4129868,2.7087379,1.036644,-1.7486839,0.0,0.0,0.0,0.0,0.0,0.0,0.0,0.0,0.0,0.0,0.0,0.0,-2.0,2.0,-2.0,-2.0,1.8505093,-2.0,-2.0,-2.0,-2.0,-2.0,-2.0,-2.0
2025-06-10 16:38:18.367,-0.209623,-0.116337,0.115716,-0.038402025,-0.42860335,-0.009135996,-1.577621,0.11174,11.626679,-0.13401031,-0.16048431,0.38758087,-1.1581473,-0.074272156,0.43152618,2.7355678,0.0020980835,-0.023803711,0.10883331,-0.004081726,-0.040893555,-1.1772143,-0.06481171,0.4718094,2.743299,-0.012016296,-0.01159668,-0.111198425,-0.61252594,1.1761665,-1.1487632,-0.21717072,0.7367058,2.7319388,0.002708435,-0.16296768,0.13996124,0.76465607,-1.2848091,-1.1614214,-0.18047333,0.76111984,2.7449775,0.081214905,-0.13611221,0.0,0.0,0.0,0.0,0.0,0.0,0.0,0.0,0.0,0.0,0.0,0.0,-2.0,2.0,-2.0,-2.0,1.6543866,-2.0,-2.0,-2.0,-2.0,-2.0,-2.0,-2.0
2025-06-10 16:38:18.417,-0.181108,-0.523025,0.109296,0.011743709,-0.079953514,-0.005634481,0.299094,0.096126,9.086044,-0.13401031,0.053901672,-0.08605957,-1.1610465,-0.11226654,0.09094238,2.7359493,-0.009117126,0.004272461,0.10883331,-0.018043518,-0.018920898,-1.179732,-0.008277893,0.05065918,2.7437568,0.06351471,0.00061035156,-0.12004852,-0.050697327,0.1324501,-1.1539512,-0.12981415,0.16296768,2.7329307,-0.008659363,-0.026245117,0.15110016,0.16155243,-0.30212784,-1.1664568,-0.028419495,0.12512589,2.7457404,-0.013771057,-0.006713867,0.0,0.0,0.0,0.0,0.0,0.0,0.0,0.0,0.0,0.0,0.0,0.0,-2.0,2.0,-2.0,-2.0,1.5668926,-2.0,-2.0,-2.0,-2.0,-2.0,-2.0,-2.0
2025-06-10 16:38:18.468,-0.118402,-0.616587,0.088929,0.015608567,-0.03137791,-0.0043720147,-0.163204,-0.171563,10.511078,-0.13408661,-0.016670227,-0.01159668,-1.1634116,-0.008964539,0.056762695,2.7361782,0.020942688,-0.006713867,0.11013031,0.0076675415,0.015258789,-1.1817156,-0.017585754,0.04333496,2.7439094,-0.045051575,-0.006713867,-0.123786926,-0.080451965,0.1336708,-1.1560111,-0.035438538,0.08483887,2.7333121,0.004463196,-0.012817383,0.15872955,0.13652802,-0.18738174,-1.168059,-0.016365051,0.09338379,2.7459693,0.011405945,-0.006713867,0.0,0.0,0.0,0.0,0.0,0.0,0.0,0.0,0.0,0.0,0.0,0.0,-2.0,2.0,-2.0,-2.0,1.5106386,-2.0,-2.0,-2.0,-2.0,-2.0,-2.0,-2.0
2025-06-10 16:38:18.519,-0.104921,-0.66795,0.093672,0.0021403495,-0.0075531215,-0.0024327098,0.240239,-0.013116,9.530519,-0.13355255,0.042381287,0.0018310547,-1.1639457,-0.09044647,0.03967285,2.7361782,-0.030097961,-0.018920898,0.11035919,-0.013694763,-0.044555664,-1.1820971,-0.040626526,0.03845215,2.744062,0.016899109,0.00793457,-0.12485504,-0.051460266,0.05432129,-1.156774,-0.027503967,0.006713867,2.7334647,-0.0031661987,-0.012817383,0.16101837,0.06473541,-0.12390137,-1.1690508,-0.008735657,0.053100586,2.7461982,-0.012168884,0.009155273,0.0,0.0,0.0,0.0,0.0,0.0,0.0,0.0,0.0,0.0,0.0,0.0,-2.0,2.0,-2.0,-2.0,1.4864359,-2.0,-2.0,-2.0,-2.0,-2.0,-2.0,-2.0
2025-06-10 16:38:18.571,-0.093168,-0.689026,0.08915,0.0014888007,-0.005200732,-0.00028647835,0.144124,-0.033584,9.718139,-0.13362885,-0.025978088,-0.016479492,-1.164556,0.0060653687,0.0018310547,2.7364833,0.02696991,-0.014038086,0.11066437,0.0118637085,-0.012817383,-1.1827074,-0.07472992,0.03479004,2.7441382,0.018730164,0.00061035156,-0.12638092,-0.060920715,0.0592041,-1.1569266,-0.030403137,-0.004272461,2.7334647,-0.01789093,-0.009155273,0.16246796,-0.007133484,-0.029907227,-1.1695849,-0.010185242,0.020141602,2.746427,-0.0472641,0.005493164,0.0,0.0,0.0,0.0,0.0,0.0,0.0,0.0,0.0,0.0,0.0,0.0,-2.0,2.0,-2.0,-2.0,1.473043,-2.0,-2.0,-2.0,-2.0,-2.0,-2.0,-2.0
2025-06-10 16:38:18.621,-0.096267,-0.705588,0.092641,-0.003638802,-0.0073925513,-0.0005877745,0.082978,-0.018017,9.818377,-0.13362885,-0.092811584,0.004272461,-1.1647086,0.016975403,0.005493164,2.7363307,0.009269714,-0.00061035156,0.11066437,-0.017585754,0.005493164,-1.1831652,0.012168884,0.017700195,2.7442145,-0.028800964,-0.0030517578,-0.12714386,-0.029563904,0.025024414,-1.1573844,-0.0346756,-0.012817383,2.7336173,0.034217834,-0.006713867,0.16330719,-0.090293884,-0.026245117,-1.1696612,0.0060653687,0.018920898,2.7463508,-0.0064468384,0.00793457,0.0,0.0,0.0,0.0,0.0,0.0,0.0,0.0,0.0,0.0,0.0,0.0,-2.0,2.0,-2.0,-2.0,1.4581783,-2.0,-2.0,-2.0,-2.0,-2.0,-2.0,-2.0
2025-06-10 16:38:18.672,-0.095996,-0.717176,0.092775,-0.0004333478,-0.00215611,0.0017485232,0.147069,-0.040063,9.795658,-0.13370514,0.03490448,-0.016479492,-1.1647849,-0.0059890747,-0.0018310547,2.736407,-0.016288757,-0.018920898,0.110816956,-0.0062179565,-0.01159668,-1.1832415,0.007972717,-0.0018310547,2.7441382,0.004081726,-0.00061035156,-0.12767792,0.045204163,0.017700195,-1.157537,-0.0118637085,0.012817383,2.7336936,0.024223328,-0.009155273,0.16391754,-0.012779236,-0.017700195,-1.1699663,-0.017662048,0.010375977,2.7465796,0.05580902,0.006713867,0.0,0.0,0.0,0.0,0.0,0.0,0.0,0.0,0.0,0.0,0.0,0.0,-2.0,2.0,-2.0,-2.0,1.4559135,-2.0,-2.0,-2.0,-2.0,-2.0,-2.0,-2.0
2025-06-10 16:38:18.724,-0.09289,-0.725843,0.093389,-0.0008953539,-0.004333426,-0.00011091567,0.153589,-0.025877,9.775522,-0.13393402,0.074653625,-0.0018310547,-1.1650138,0.032310486,-0.006713867,2.7365596,-0.0037765503,-0.0030517578,0.110816956,0.0076675415,0.0030517578,-1.1830889,0.015220642,0.010375977,2.7444434,-0.0048446655,0.0018310547,-0.12844086,-0.03391266,0.03845215,-1.1581473,-0.15239716,-0.012817383,2.73377,-0.016822815,-0.009155273,0.16422272,-0.011634827,-0.006713867,-1.1701952,-0.029563904,0.01159668,2.746656,0.00019073486,-0.0018310547,0.0,0.0,0.0,0.0,0.0,0.0,0.0,0.0,0.0,0.0,0.0,0.0,-2.0,2.0,-2.0,-2.0,1.4573078,-2.0,-2.0,-2.0,-2.0,-2.0,-2.0,-2.0
2025-06-10 16:38:18.775,-0.091193,-0.730032,0.090665,-0.0037625458,-0.0034222067,-6.7369706e-06,0.110228,-0.023888,9.794221,-0.13378143,0.013694763,0.005493164,-1.1650901,-0.012168884,-0.0030517578,2.7364833,-0.0065994263,0.0018310547,0.11089325,-0.016288757,-0.00793457,-1.1833178,-0.0024795532,0.006713867,2.7443671,-0.0062179565,0.015258789,-0.12889862,0.0012588501,0.023803711,-1.1582999,-0.04901886,-0.004272461,2.73377,-0.018730164,-0.010375977,0.16498566,0.009651184,-0.020141602,-1.1703478,0.015144348,0.004272461,2.746656,0.01613617,0.006713867,0.0,0.0,0.0,0.0,0.0,0.0,0.0,0.0,0.0,0.0,0.0,0.0,-2.0,2.0,-2.0,-2.0,1.4548309,-2.0,-2.0,-2.0,-2.0,-2.0,-2.0,-2.0
2025-06-10 16:38:18.825,-0.09955,-0.7408,0.091321,-0.0026871962,-0.002212362,-0.001032624,0.12261,-0.022633,9.770882,-0.13385773,-0.10334015,-0.00061035156,-1.1651664,-0.019569397,0.00061035156,2.7365596,0.0021743774,0.01159668,0.110816956,0.021095276,-0.004272461,-1.1834704,0.031700134,0.018920898,2.7444434,-0.011787415,0.004272461,-0.12943268,0.024681091,0.033569336,-1.1585288,0.054512024,0.004272461,2.73377,-0.041923523,-0.00061035156,0.16498566,-0.016822815,-0.012817383,-1.1704241,-0.0687027,0.004272461,2.746656,-0.0065994263,0.017700195,0.0,0.0,0.0,0.0,0.0,0.0,0.0,0.0,0.0,0.0,0.0,0.0,-2.0,2.0,-2.0,-2.0,1.4463494,-2.0,-2.0,-2.0,-2.0,-2.0,-2.0,-2.0
2025-06-10 16:38:18.876,-0.105331,-0.747871,0.090591,-0.0018206402,-0.0011982733,0.000499426,0.146246,-0.030794,9.819695,-0.13370514,-0.002861023,0.0018310547,-1.1652427,0.053367615,0.0018310547,2.736636,-0.01651764,0.0018310547,0.110816956,0.013542175,0.0018310547,-1.1834704,-0.034217834,0.012817383,2.7444434,-0.0059890747,0.004272461,-0.12996674,-0.061836243,0.045776367,-1.1586814,0.00049591064,-0.00061035156,2.7339225,0.028495789,-0.009155273,0.16582489,0.02445221,-0.015258789,-1.1707293,0.021781921,0.016479492,2.746656,-0.02948761,0.004272461,0.0,0.0,0.0,0.0,0.0,0.0,0.0,0.0,0.0,0.0,0.0,0.0,-2.0,2.0,-2.0,-2.0,1.44246,-2.0,-2.0,-2.0,-2.0,-2.0,-2.0,-2.0
2025-06-10 16:38:18.928,-0.110763,-0.755296,0.091391,-0.0020691226,-0.0041922634,0.0032152804,0.114627,-0.049603,9.796257,-0.13393402,0.030784607,-0.022583008,-1.1654716,0.016441345,-0.010375977,2.7367122,0.018730164,-0.00061035156,0.110816956,0.034751892,-0.005493164,-1.1838518,-0.03391266,0.012817383,2.7445197,0.008506775,0.004272461,-0.13072968,-0.013008118,0.040893555,-1.1586051,-0.003929138,-0.004272461,2.7339225,-0.03353119,-0.017700195,0.16590118,-0.012397766,0.012817383,-1.1710345,0.050697327,0.015258789,2.746656,-0.018730164,-0.0018310547,0.0,0.0,0.0,0.0,0.0,0.0,0.0,0.0,0.0,0.0,0.0,0.0,-2.0,2.0,-2.0,-2.0,1.4432769,-2.0,-2.0,-2.0,-2.0,-2.0,-2.0,-2.0
2025-06-10 16:38:18.978,-0.114987,-0.76294,0.094994,-0.0027810251,-0.0007412413,-0.0022633953,0.146966,-0.018669,9.794119,-0.13385773,-0.04459381,-0.0018310547,-1.1653953,0.032234192,0.0030517578,2.736636,-0.026130676,-0.006713867,0.11089325,0.001411438,-0.014038086,-1.1836993,0.011100769,0.0018310547,2.744596,-0.007286072,0.015258789,-0.13126373,-0.0346756,0.018920898,-1.1586814,0.019111633,-0.015258789,2.7339225,0.02948761,-0.014038086,0.16620636,0.036888123,-0.005493164,-1.1712633,0.026817322,0.017700195,2.7467322,0.024909973,0.00793457,0.0,0.0,0.0,0.0,0.0,0.0,0.0,0.0,0.0,0.0,0.0,0.0,-2.0,2.0,-2.0,-2.0,1.4364321,-2.0,-2.0,-2.0,-2.0,-2.0,-2.0,-2.0
2025-06-10 16:38:19.029,-0.118414,-0.76985,0.094065,0.0053317365,0.00043254494,-0.0012863949,0.140624,-0.046662,9.816344,-0.13385773,0.07015228,-0.020141602,-1.165853,-0.073661804,-0.017700195,2.7367122,0.0030899048,-0.01159668,0.11074066,-0.001411438,-0.009155273,-1.1838518,-0.03681183,0.00793457,2.7445197,0.00019073486,0.009155273,-0.13149261,0.0020217896,0.017700195,-1.158834,-0.020561218,-0.006713867,2.7339988,0.020484924,-0.004272461,0.16651154,0.037727356,-0.015258789,-1.171187,-0.045280457,0.006713867,2.7468085,0.009727478,0.006713867,0.0,0.0,0.0,0.0,0.0,0.0,0.0,0.0,0.0,0.0,0.0,0.0,-2.0,2.0,-2.0,-2.0,1.4421299,-2.0,-2.0,-2.0,-2.0,-2.0,-2.0,-2.0
2025-06-10 16:38:19.080,-0.11996,-0.775018,0.092703,-0.0007473325,-0.0017911092,-0.0028107131,0.146532,-0.02841,9.789103,-0.13355255,0.09120941,-0.010375977,-1.1659293,0.027046204,-0.006713867,2.7367885,0.0358963,-0.020141602,0.110816956,0.0024032593,-0.010375977,-1.1839281,0.03742218,-0.004272461,2.7444434,3.8146973e-05,0.00793457,-0.13187408,0.0104904175,0.01159668,-1.1587577,0.013694763,-0.00793457,2.734075,0.014228821,-0.016479492,0.16674042,-0.046195984,-0.018920898,-1.1711107,0.02193451,0.018920898,2.7468848,-0.015830994,0.0018310547,0.0,0.0,0.0,0.0,0.0,0.0,0.0,0.0,0.0,0.0,0.0,0.0,-2.0,2.0,-2.0,-2.0,1.4358037,-2.0,-2.0,-2.0,-2.0,-2.0,-2.0,-2.0
2025-06-10 16:38:19.131,-0.120782,-0.776827,0.091213,-0.00035276593,-0.00092488487,3.6163223e-05,0.13592,-0.040393,9.794513,-0.13393402,0.02735138,0.00793457,-1.1660819,-0.029563904,-0.009155273,2.7365596,-0.014839172,-0.0018310547,0.11089325,0.02193451,-0.010375977,-1.1839281,-0.0020217896,-0.012817383,2.7445197,-0.025291443,0.0018310547,-0.13187408,0.025978088,0.014038086,-1.158834,0.018882751,-0.00061035156,2.734075,0.03314972,-0.006713867,0.1669693,-0.039253235,-0.004272461,-1.1714159,0.0033950806,0.005493164,2.7468848,-0.02002716,0.0018310547,0.0,0.0,0.0,0.0,0.0,0.0,0.0,0.0,0.0,0.0,0.0,0.0,-2.0,2.0,-2.0,-2.0,1.4364458,-2.0,-2.0,-2.0,-2.0,-2.0,-2.0,-2.0
2025-06-10 16:38:19.182,-0.119651,-0.777441,0.092048,-0.0015401483,-0.002287865,-0.00204118,0.132765,-0.03545,9.793773,-0.13393402,-0.028419495,0.017700195,-1.1660056,-0.065956116,0.0018310547,2.7367122,-0.017051697,-0.006713867,0.110816956,-0.0074386597,-0.006713867,-1.1840807,0.07198334,0.016479492,2.7446723,0.0033950806,-0.00061035156,-0.13248444,-0.04787445,0.023803711,-1.158834,-0.022087097,-0.00793457,2.7341514,-0.0077438354,-0.00061035156,0.16742706,0.06122589,0.00793457,-1.1714159,-0.028038025,0.0030517578,2.7467322,-0.016441345,0.0030517578,0.0,0.0,0.0,0.0,0.0,0.0,0.0,0.0,0.0,0.0,0.0,0.0,-2.0,2.0,-2.0,-2.0,1.4292772,-2.0,-2.0,-2.0,-2.0,-2.0,-2.0,-2.0
2025-06-10 16:38:19.234,-0.116382,-0.780829,0.092086,0.0013273752,0.0004087561,-0.0005245936,0.136955,-0.013935,9.80092,-0.13355255,-0.017738342,-0.006713867,-1.1662345,0.03528595,-0.022583008,2.7367122,0.031547546,-0.015258789,0.11104584,0.0020217896,0.004272461,-1.1842333,0.05306244,0.016479492,2.7446723,-0.018196106,0.004272461,-0.13271332,0.01499176,0.021362305,-1.1589103,0.023002625,-0.00061035156,2.7339225,-0.021629333,-0.00793457,0.16750336,0.0049972534,-0.005493164,-1.1714922,-0.00919342,0.00061035156,2.7468848,0.0062179565,0.015258789,0.0,0.0,0.0,0.0,0.0,0.0,0.0,0.0,0.0,0.0,0.0,0.0,-2.0,2.0,-2.0,-2.0,1.4277391,-2.0,-2.0,-2.0,-2.0,-2.0,-2.0,-2.0
2025-06-10 16:38:19.285,-0.117678,-0.787227,0.090133,0.000566307,-0.0021198594,-0.0019044857,0.127303,-0.029939,9.78289,-0.13393402,-0.0034713745,-0.00061035156,-1.1663108,0.10219574,-0.0030517578,2.7367122,-0.0046920776,-0.00061035156,0.11089325,0.039787292,-0.012817383,-1.1843859,0.010719299,0.006713867,2.7446723,0.033454895,0.0018310547,-0.13309479,0.019187927,0.017700195,-1.1589103,0.048942566,-0.004272461,2.7341514,-0.0422287,-0.005493164,0.16780853,-0.016975403,0.017700195,-1.1715685,0.024375916,0.009155273,2.7468085,-3.8146973e-05,0.005493164,0.0,0.0,0.0,0.0,0.0,0.0,0.0,0.0,0.0,0.0,0.0,0.0,-2.0,2.0,-2.0,-2.0,1.4297504,-2.0,-2.0,-2.0,-2.0,-2.0,-2.0,-2.0
2025-06-10 16:38:19.335,-0.121028,-0.791255,0.088697,-0.0038009256,-0.00036196382,-0.00065109506,0.11954,-0.02996,9.769244,-0.13385773,-0.024757385,-0.0030517578,-1.166616,0.02544403,-0.0030517578,2.7368648,0.010948181,-0.00061035156,0.11104584,0.040016174,-0.006713867,-1.1843859,-0.046424866,0.005493164,2.744596,0.01499176,0.004272461,-0.13332367,0.0004196167,0.012817383,-1.1589866,-0.02773285,-0.005493164,2.7339988,0.012016296,-0.00061035156,0.16788483,0.0059127808,0.02746582,-1.1715685,-0.009422302,0.0018310547,2.7467322,0.0023269653,0.006713867,0.0,0.0,0.0,0.0,0.0,0.0,0.0,0.0,0.0,0.0,0.0,0.0,-2.0,2.0,-2.0,-2.0,1.4344676,-2.0,-2.0,-2.0,-2.0,-2.0,-2.0,-2.0
2025-06-10 16:38:19.387,-0.120768,-0.79399,0.088583,0.0013081767,-0.0026989945,0.00020343557,0.128284,-0.009959,9.807081,-0.13385773,0.036735535,-0.00793457,-1.1663108,-0.07434845,-0.015258789,2.7368648,0.02040863,-0.0030517578,0.11096954,-0.020561218,-0.004272461,-1.1846148,-0.08434296,-0.00061035156,2.744596,0.016975403,0.00061035156,-0.13339996,0.017738342,0.010375977,-1.1592155,-0.030326843,-0.0018310547,2.7342277,0.006980896,-0.009155273,0.16796112,-0.017662048,-0.00061035156,-1.1716448,-0.0017166138,0.010375977,2.7468085,-0.02368927,0.009155273,0.0,0.0,0.0,0.0,0.0,0.0,0.0,0.0,0.0,0.0,0.0,0.0,-2.0,2.0,-2.0,-2.0,1.441826,-2.0,-2.0,-2.0,-2.0,-2.0,-2.0,-2.0
2025-06-10 16:38:19.438,-0.119892,-0.798678,0.089237,0.0012025842,0.003491636,-0.0011847992,0.148791,-0.03501,9.793941,-0.13393402,-0.09197235,-0.00061035156,-1.1665397,0.01789093,-0.00061035156,2.7367885,0.006980896,-0.0030517578,0.11089325,0.024909973,-0.014038086,-1.1845385,0.028114319,0.009155273,2.7446723,0.0020217896,-0.00061035156,-0.13362885,0.0046920776,0.014038086,-1.1592917,-0.10318756,-0.00061035156,2.7341514,-0.008049011,0.0018310547,0.16834259,0.010185242,0.005493164,-1.1715685,-0.003929138,0.0018310547,2.7468848,0.017280579,0.010375977,0.0,0.0,0.0,0.0,0.0,0.0,0.0,0.0,0.0,0.0,0.0,0.0,-2.0,2.0,-2.0,-2.0,1.436938,-2.0,-2.0,-2.0,-2.0,-2.0,-2.0,-2.0
2025-06-10 16:38:19.488,-0.120737,-0.799833,0.090577,0.00020343557,-0.00078644534,-0.00011496484,0.137847,-0.032089,9.789579,-0.13378143,-0.05092621,0.006713867,-1.1663871,0.05016327,-0.00793457,2.7367885,-0.009880066,-0.018920898,0.11089325,0.014381409,0.006713867,-1.18492,-0.12805939,0.016479492,2.744596,-0.019111633,0.005493164,-0.13362885,0.017738342,0.005493164,-1.1595969,-0.00064849854,0.006713867,2.7341514,-0.015296936,-0.014038086,0.16872406,-0.019264221,-0.00061035156,-1.1717211,0.023536682,0.01159668,2.7468848,0.026512146,0.0018310547,0.0,0.0,0.0,0.0,0.0,0.0,0.0,0.0,0.0,0.0,0.0,0.0,-2.0,2.0,-2.0,-2.0,1.4429277,-2.0,-2.0,-2.0,-2.0,-2.0,-2.0,-2.0
2025-06-10 16:38:19.540,-0.123751,-0.803695,0.090539,-0.0017322393,-0.0003489786,0.0009988868,0.131284,-0.027811,9.793067,-0.13362885,-0.016212463,-0.004272461,-1.1667686,-0.012779236,-0.005493164,2.736941,-0.009269714,-0.006713867,0.11089325,-0.023460388,-0.009155273,-1.1849962,-0.03742218,-0.009155273,2.7447486,0.010108948,-0.005493164,-0.13385773,-0.018196106,0.020141602,-1.1592917,0.04184723,0.0030517578,2.7341514,0.010108948,-0.00061035156,0.16849518,-0.03879547,-0.006713867,-1.1716448,0.016365051,0.0030517578,2.7467322,-0.006904602,0.0030517578,0.0,0.0,0.0,0.0,0.0,0.0,0.0,0.0,0.0,0.0,0.0,0.0,-2.0,2.0,-2.0,-2.0,1.4347241,-2.0,-2.0,-2.0,-2.0,-2.0,-2.0,-2.0
2025-06-10 16:38:19.590,-0.126501,-0.804261,0.092119,-9.215339e-05,-0.000914378,-0.0007755894,0.160235,-0.041163,9.788142,-0.13355255,0.048713684,0.00061035156,-1.1668448,0.0075912476,0.00061035156,2.7367885,0.021095276,0.012817383,0.11096954,-0.032463074,-0.012817383,-1.1849962,-0.03200531,0.010375977,2.7446723,0.0075912476,0.00061035156,-0.1341629,0.0005722046,0.021362305,-1.1594443,-0.051231384,0.00793457,2.7342277,-0.02910614,-0.010375977,0.16887665,-0.036582947,-0.006713867,-1.1717974,0.00049591064,0.006713867,2.7468848,0.03452301,0.004272461,0.0,0.0,0.0,0.0,0.0,0.0,0.0,0.0,0.0,0.0,0.0,0.0,-2.0,2.0,-2.0,-2.0,1.4376523,-2.0,-2.0,-2.0,-2.0,-2.0,-2.0,-2.0
2025-06-10 16:38:19.641,-0.130974,-0.810763,0.093698,-0.0016784831,-0.0023091054,0.0013383883,0.130507,-0.020796,9.788844,-0.13378143,-0.07648468,-0.004272461,-1.1666923,-0.01941681,-0.006713867,2.7367885,-0.042381287,-0.012817383,0.11104584,0.019493103,0.0030517578,-1.18492,-0.004081726,0.009155273,2.744596,-0.001335144,0.0018310547,-0.13462067,-0.002937317,0.018920898,-1.1592917,0.08281708,-0.012817383,2.7342277,-0.012702942,-0.004272461,0.16925812,-0.0157547,0.0018310547,-1.1717211,-0.005531311,0.009155273,2.7468848,0.02986908,0.010375977,0.0,0.0,0.0,0.0,0.0,0.0,0.0,0.0,0.0,0.0,0.0,0.0,-2.0,2.0,-2.0,-2.0,1.4276171,-2.0,-2.0,-2.0,-2.0,-2.0,-2.0,-2.0
2025-06-10 16:38:19.692,-0.132602,-0.814632,0.095234,-1.4678219e-05,0.0023125962,0.0013748482,0.127084,-0.011092,9.787396,-0.13378143,0.027427673,-0.022583008,-1.1667686,0.03025055,0.0018310547,2.7368648,0.004386902,-0.00793457,0.11096954,-0.017433167,-0.010375977,-1.1847674,0.038719177,0.00061035156,2.7447486,0.006904602,0.00793457,-0.13507843,-0.03917694,0.022583008,-1.1596732,0.055351257,0.0018310547,2.7342277,-0.012168884,-0.004272461,0.16872406,-0.0075912476,0.021362305,-1.1717211,-0.05558014,0.01159668,2.7468848,-0.021858215,0.00793457,0.0,0.0,0.0,0.0,0.0,0.0,0.0,0.0,0.0,0.0,0.0,0.0,-2.0,2.0,-2.0,-2.0,1.4216616,-2.0,-2.0,-2.0,-2.0,-2.0,-2.0,-2.0
2025-06-10 16:38:19.744,-0.135408,-0.814752,0.095501,-0.0008526282,-0.0033059502,-0.0006360852,0.127998,-0.013331,9.795444,-0.13393402,0.015983582,0.005493164,-1.1666923,0.060691833,-0.00793457,2.7367885,-0.02002716,-0.009155273,0.11104584,-0.00415802,0.01159668,-1.1850725,0.02445221,-0.005493164,2.7446723,-0.046195984,0.012817383,-0.13492584,0.09410858,0.018920898,-1.159368,0.011558533,0.017700195,2.734075,0.014076233,-0.014038086,0.169487,-0.048484802,0.010375977,-1.1717974,0.01651764,0.015258789,2.7468848,0.019187927,0.006713867,0.0,0.0,0.0,0.0,0.0,0.0,0.0,0.0,0.0,0.0,0.0,0.0,-2.0,2.0,-2.0,-2.0,1.4260709,-2.0,-2.0,-2.0,-2.0,-2.0,-2.0,-2.0
2025-06-10 16:38:19.795,-0.137699,-0.820299,0.093328,-0.0012438089,0.001527739,0.0022721393,0.159092,-0.031103,9.814387,-0.13378143,-0.03299713,-0.005493164,-1.166616,0.003929138,-0.006713867,2.736941,0.01964569,-0.015258789,0.11089325,-0.05306244,-0.00793457,-1.1848437,-0.041160583,0.0030517578,2.7447486,0.018577576,0.006713867,-0.1354599,0.0020217896,0.01159668,-1.1599021,-0.052757263,-0.016479492,2.734304,0.00011444092,-0.0030517578,0.16925812,-0.06481171,-0.00793457,-1.1717974,-0.036582947,0.010375977,2.7468085,-0.020332336,0.0030517578,0.0,0.0,0.0,0.0,0.0,0.0,0.0,0.0,0.0,0.0,0.0,0.0,-2.0,2.0,-2.0,-2.0,1.4325643,-2.0,-2.0,-2.0,-2.0,-2.0,-2.0,-2.0
2025-06-10 16:38:19.846,-0.137596,-0.818313,0.094481,0.00039577085,0.0029639879,-0.0007245036,0.155324,-0.02435,9.779656,-0.13393402,0.0037765503,-0.009155273,-1.1668448,0.005836487,-0.005493164,2.7368648,0.017280579,-0.006713867,0.11096954,0.050086975,-0.009155273,-1.1851488,-0.028190613,-0.005493164,2.7447486,0.0033187866,-0.00793457,-0.1354599,-0.02544403,0.015258789,-1.1600547,0.02445221,0.032348633,2.7342277,0.021858215,-0.01159668,0.16963959,-0.025291443,0.004272461,-1.1717974,-0.005302429,0.005493164,2.7468848,-0.0010299683,0.0030517578,0.0,0.0,0.0,0.0,0.0,0.0,0.0,0.0,0.0,0.0,0.0,0.0,-2.0,2.0,-2.0,-2.0,1.4254897,-2.0,-2.0,-2.0,-2.0,-2.0,-2.0,-2.0
2025-06-10 16:38:19.897,-0.137479,-0.815793,0.09383,0.0016953256,0.0022653674,0.00026172958,0.13001,-0.010637,9.77793,-0.13378143,-0.08190155,-0.004272461,-1.1668448,-0.0346756,-0.004272461,2.7368648,0.048713684,0.005493164,0.11112213,0.04749298,-0.014038086,-1.1849962,-0.025062561,0.004272461,2.7446723,-0.010871887,0.00793457,-0.1355362,-0.006904602,0.00793457,-1.1598258,0.02445221,-0.028686523,2.734304,0.00064849854,-0.006713867,0.16963959,0.011024475,0.009155273,-1.17195,-0.045814514,0.00061035156,2.7468848,-0.03627777,-0.0018310547,0.0,0.0,0.0,0.0,0.0,0.0,0.0,0.0,0.0,0.0,0.0,0.0,-2.0,2.0,-2.0,-2.0,1.423032,-2.0,-2.0,-2.0,-2.0,-2.0,-2.0,-2.0
2025-06-10 16:38:19.948,-0.136445,-0.815458,0.09491,0.0037583048,-0.00081742497,4.3755404e-05,0.139622,-0.041004,9.805223,-0.13393402,-0.026893616,0.00061035156,-1.1669974,0.0060653687,-0.004272461,2.7367885,-0.012779236,-0.00793457,0.11104584,0.050086975,-0.015258789,-1.18492,0.045661926,-0.006713867,2.744825,0.018577576,0.01159668,-0.1355362,0.03025055,0.004272461,-1.1600547,0.025138855,0.020141602,2.7343802,0.00705719,-0.005493164,0.16971588,0.008277893,0.014038086,-1.1718737,0.0346756,0.00061035156,2.7468848,-0.0011062622,0.014038086,0.0,0.0,0.0,0.0,0.0,0.0,0.0,0.0,0.0,0.0,0.0,0.0,-2.0,2.0,-2.0,-2.0,1.4190944,-2.0,-2.0,-2.0,-2.0,-2.0,-2.0,-2.0
2025-06-10 16:38:19.999,-0.137815,-0.817792,0.097448,-0.00081438804,0.0017737956,-0.00015337953,0.141844,-0.02224,9.800964,-0.13393402,-0.08274078,0.00061035156,-1.1667686,0.002861023,-0.0030517578,2.736941,-0.00064849854,0.0030517578,0.11104584,0.0019454956,-0.018920898,-1.1851488,0.054130554,-0.004272461,2.744825,0.053367615,0.005493164,-0.13568878,0.023384094,0.015258789,-1.1600547,-0.03025055,0.010375977,2.734304,0.004310608,-0.010375977,0.16994476,0.03452301,-0.0018310547,-1.1718737,0.012016296,0.014038086,2.7468848,-0.008659363,0.010375977,0.0,0.0,0.0,0.0,0.0,0.0,0.0,0.0,0.0,0.0,0.0,0.0,-2.0,2.0,-2.0,-2.0,1.4181094,-2.0,-2.0,-2.0,-2.0,-2.0,-2.0,-2.0
2025-06-10 16:38:20.050,-0.138693,-0.821293,0.094502,0.0007019191,-0.0004233994,-0.00052375585,0.133494,-0.024404,9.785561,-0.13393402,0.060539246,-0.0018310547,-1.1668448,-0.054512024,-0.015258789,2.7367885,-0.016212463,-0.009155273,0.11104584,0.016899109,-0.010375977,-1.1853014,-0.069999695,0.00793457,2.7447486,0.02910614,0.004272461,-0.13591766,-0.03955841,0.020141602,-1.1600547,0.063438416,0.00061035156,2.734304,0.00019073486,-0.00061035156,0.16986847,-0.0015640259,0.00061035156,-1.1718737,-0.018043518,0.010375977,2.746961,0.013694763,0.00793457,0.0,0.0,0.0,0.0,0.0,0.0,0.0,0.0,0.0,0.0,0.0,0.0,-2.0,2.0,-2.0,-2.0,1.4217906,-2.0,-2.0,-2.0,-2.0,-2.0,-2.0,-2.0
