openverse-orca/OrcaGym/envs/legged_gym/legged_real_env/logs/robot_log_20250603_175446.csv
timestamp,imu_angle_roll,imu_angle_pitch,imu_angle_yaw,imu_angular_velocity_roll,imu_angular_velocity_pitch,imu_angular_velocity_yaw,imu_acc_x,imu_acc_y,imu_acc_z,fl_joint1_pos,fl_joint1_vel,fl_joint1_torque,fl_joint1_temp,fl_joint2_pos,fl_joint2_vel,fl_joint2_torque,fl_joint2_temp,fl_joint3_pos,fl_joint3_vel,fl_joint3_torque,fl_joint3_temp,fr_joint1_pos,fr_joint1_vel,fr_joint1_torque,fr_joint1_temp,fr_joint2_pos,fr_joint2_vel,fr_joint2_torque,fr_joint2_temp,fr_joint3_pos,fr_joint3_vel,fr_joint3_torque,fr_joint3_temp,hl_joint1_pos,hl_joint1_vel,hl_joint1_torque,hl_joint1_temp,hl_joint2_pos,hl_joint2_vel,hl_joint2_torque,hl_joint2_temp,hl_joint3_pos,hl_joint3_vel,hl_joint3_torque,hl_joint3_temp,hr_joint1_pos,hr_joint1_vel,hr_joint1_torque,hr_joint1_temp,hr_joint2_pos,hr_joint2_vel,hr_joint2_torque,hr_joint2_temp,hr_joint3_pos,hr_joint3_vel,hr_joint3_torque,hr_joint3_temp,fl_force_x,fl_force_y,fl_force_z,fr_force_x,fr_force_y,fr_force_z,hl_force_x,hl_force_y,hl_force_z,hr_force_x,hr_force_y,hr_force_z,action_1,action_2,action_3,action_4,action_5,action_6,action_7,action_8,action_9,action_10,action_11,action_12
2025-06-03 17:56:36.346,-0.770468,-1.11602,0.088653,7.459537e-05,0.0022181913,0.0004619363,0.192677,-0.144552,9.812311,-0.015525818,-0.023918152,0.6695671,-0.98846966,0.033226013,-0.30456924,1.902209,0.023612976,-4.7479973,0.017662048,0.06565094,-0.8575554,-0.9796092,0.008506775,-0.61341095,1.9073461,-0.011024475,-4.8896027,-0.030555725,0.0422287,1.4227524,-0.97206646,-0.07129669,-1.0455475,1.9355495,0.008811951,-6.2238503,0.028266907,0.045890808,-1.2262154,-0.9784648,0.023994446,-0.6756706,1.9306158,0.018806458,-5.962616,0.0,0.0,0.0,0.0,0.0,0.0,0.0,0.0,0.0,0.0,0.0,0.0,-1.0,1.0,-1.0,-1.0,1.0,1.0,1.0,-1.0,-1.0,1.0,1.0,-1.0
2025-06-03 17:56:36.398,-0.773145,-1.115222,0.092279,-0.0018065728,2.9967303e-05,-9.101892e-05,0.190311,-0.125975,9.778821,-0.015525818,-0.013465881,0.6720085,-0.9883171,-0.056648254,-0.30456924,1.9022853,0.020179749,-4.7431145,0.017967224,-0.045051575,-0.8306999,-0.9798381,-0.077552795,-0.60730743,1.9072698,0.04070282,-4.9115753,-0.030784607,0.011329651,1.3958969,-0.97214276,-0.0636673,-1.051651,1.9355495,0.008049011,-6.207981,0.027961731,-0.012321472,-1.2445259,-0.9784648,0.014152527,-0.6732292,1.9307684,-0.019340515,-5.9613953,0.0,0.0,0.0,0.0,0.0,0.0,0.0,0.0,0.0,0.0,0.0,0.0,-1.0,1.0,-1.0,1.0,1.0,1.0,-1.0,-1.0,-1.0,1.0,-1.0,-1.0
2025-06-03 17:56:36.449,-0.30376,-1.515616,0.02643,0.76829433,-0.71930295,0.022633605,2.527024,-3.212107,17.390802,-0.03261566,0.08785248,-3.744564,-0.9353691,0.27706146,17.586327,1.8250759,-2.378811,-2.7264824,0.035820007,0.40576935,3.363697,-0.8523509,4.246792,-2.736248,1.9486974,1.0979843,0.855114,-0.040168762,0.03162384,-3.0157928,-1.039968,-1.5087509,-14.091402,1.915179,-0.3281784,-16.198368,0.05847931,0.38677216,-0.0018310547,-1.0441538,-1.3260269,-13.446861,1.9224523,0.1871872,-18.31876,0.0,0.0,0.0,0.0,0.0,0.0,0.0,0.0,0.0,0.0,0.0,0.0,1.0,-1.0,-1.0,1.0,1.0,-1.0,-1.0,-1.0,-1.0,-1.0,-1.0,-1.0
2025-06-03 17:56:36.500,-0.328748,-5.752341,0.229323,-0.35762373,-1.4100832,0.01656342,6.652117,0.671288,9.155996,0.017204285,1.0491562,0.119018555,-1.1148124,-3.7311974,0.10925293,1.7230709,-1.9527054,-0.42908478,0.049934387,0.6003952,0.64393234,-0.7125804,2.2855797,-0.07019043,1.8160223,-2.997631,-0.24109268,-0.06832123,-0.4315567,1.1615181,-1.1328177,-1.9284439,-7.224842,1.898318,-0.6280899,-13.650721,0.012550354,-0.99544525,-0.8636589,-1.1457049,-1.5388107,-6.905014,1.9203161,-0.44872284,-15.194935,0.0,0.0,0.0,0.0,0.0,0.0,0.0,0.0,0.0,0.0,0.0,0.0,1.0,-1.0,-1.0,1.0,1.0,-1.0,-1.0,-1.0,-1.0,-1.0,-1.0,-1.0
2025-06-03 17:56:36.551,-0.436539,-6.170799,0.220011,-0.43294212,-1.2075387,-0.095523454,5.639539,0.109858,7.506888,0.02117157,0.98278046,-0.056762695,-1.129003,-3.5791435,0.018920898,1.7154415,-1.886406,-0.2484169,0.051994324,0.6254196,0.45838165,-0.70441693,1.9775009,-0.6768913,1.8040441,-2.7804222,-0.026245117,-0.07061005,-0.40332794,1.387352,-1.1402946,-1.7988205,-7.8059044,1.8956478,-0.6573105,-13.1429,0.008964539,-0.8512497,-1.063858,-1.1530291,-1.99543,-6.9160004,1.9181799,-0.52776337,-14.750591,0.0,0.0,0.0,0.0,0.0,0.0,0.0,0.0,0.0,0.0,0.0,0.0,1.0,-1.0,-1.0,1.0,1.0,-1.0,-1.0,-1.0,-1.0,-1.0,-1.0,-1.0
2025-06-03 17:56:36.602,-2.47497,-9.440023,-0.655113,-0.2818186,0.19820671,-0.1734301,3.605126,0.18699,3.936838,0.07686615,0.31780243,-0.10925293,-1.3481193,-1.1837387,-0.15320206,1.606036,-0.59719086,-0.40345,0.07884979,0.07236481,0.3216591,-0.5888316,0.69797516,0.17517471,1.6440557,-0.8811569,-0.9063873,-0.11096954,-0.23265839,1.2921333,-1.2946372,-1.0674667,-2.7289238,1.7993648,-1.150322,-7.1540413,-0.04673004,-0.40729523,-0.7818718,-1.2935625,-1.1125565,-3.2867928,1.8258642,-1.0416031,-8.773937,0.0,0.0,0.0,0.0,0.0,0.0,0.0,0.0,0.0,0.0,0.0,0.0,1.0,-1.0,1.0,1.0,1.0,-1.0,-1.0,-1.0,-1.0,-1.0,-1.0,-1.0
2025-06-03 17:56:36.653,-3.181876,-7.70257,-1.265539,-0.11284124,1.0534867,-0.13065204,2.889026,-0.180905,3.425209,0.089149475,0.21183014,-0.00793457,-1.4045768,-0.5338669,-0.8209343,1.7558773,3.1000938,0.11291504,0.087013245,0.25432587,0.25452042,-0.5595347,0.38448334,0.12756729,1.6043829,-0.6044388,-0.45838165,-0.12096405,-0.10494232,0.95399475,-1.3517814,-0.9630203,-1.5594711,1.7457302,-0.89954376,-5.650112,-0.06023407,-0.094947815,-1.6449242,-1.3426195,-0.8647537,-2.4127579,1.7770361,-0.8005905,-7.470207,0.0,0.0,0.0,0.0,0.0,0.0,0.0,0.0,0.0,0.0,0.0,0.0,-1.0,1.0,1.0,-1.0,1.0,-1.0,1.0,-1.0,-1.0,1.0,-1.0,-1.0
2025-06-03 17:56:36.704,-3.152193,-4.671118,-1.726144,0.5826508,1.6664791,-0.3235623,-1.542446,-0.892051,5.132376,0.030326843,-2.5258293,1.1480904,-1.1813407,1.8133926,10.222935,1.8542964,2.3202934,-0.4327469,0.06084442,0.07701874,-8.899672,-0.5599925,-1.8129349,9.308613,1.6222357,3.5162773,-19.162281,-0.08052826,1.0136795,5.5268173,-1.3845115,-1.2022781,-1.2408638,1.7068202,-0.84804535,-3.847103,-0.01941681,0.4288864,2.9645233,-1.3731371,-0.77632904,-1.510643,1.7375158,-0.95142365,-5.053177,0.0,0.0,0.0,0.0,0.0,0.0,0.0,0.0,0.0,0.0,0.0,0.0,-1.0,-1.0,1.0,-1.0,-1.0,-1.0,1.0,-1.0,-1.0,1.0,-1.0,-1.0
2025-06-03 17:56:36.755,-3.152193,-4.671118,-1.726144,0.5826508,1.6664791,-0.3235623,-1.542446,-0.892051,5.132376,0.030326843,-2.5258293,1.1480904,-1.1813407,1.8133926,10.222935,1.8542964,2.3202934,-0.4327469,0.06084442,0.07701874,-8.899672,-0.5599925,-1.8129349,9.308613,1.6222357,3.5162773,-19.162281,-0.08052826,1.0136795,5.5268173,-1.3845115,-1.2022781,-1.2408638,1.7068202,-0.84804535,-3.847103,-0.01941681,0.4288864,2.9645233,-1.3731371,-0.77632904,-1.510643,1.7375158,-0.95142365,-5.053177,0.0,0.0,0.0,0.0,0.0,0.0,0.0,0.0,0.0,0.0,0.0,0.0,-1.0,1.0,1.0,-1.0,-1.0,-1.0,1.0,-1.0,-1.0,1.0,-1.0,-1.0
2025-06-03 17:56:36.806,-4.20066,-3.552948,-3.713176,-0.29919395,-0.23646216,0.36806267,3.466428,-0.259707,7.346488,-0.060539246,-0.20404816,1.2420845,-1.3020377,7.6577454,2.1527443,1.9769771,0.13622284,3.4308395,0.04184723,0.88695526,-9.16823,-0.9350535,-2.6014366,-13.700771,1.7714666,0.6019974,-13.002518,-0.044898987,0.373497,5.0922394,-1.5691428,-1.2299728,7.5849533,1.61748,-1.4231491,0.9393463,0.054130554,0.23822784,2.1405373,-1.4640795,-0.8652115,1.8463402,1.5978979,-1.3415909,2.810711,0.0,0.0,0.0,0.0,0.0,0.0,0.0,0.0,0.0,0.0,0.0,0.0,-1.0,1.0,1.0,-1.0,-1.0,-1.0,1.0,-1.0,-1.0,1.0,-1.0,1.0
2025-06-03 17:56:36.857,-5.777968,-3.353356,-2.541596,-0.49078274,0.35366377,0.5689272,-3.932253,1.911929,7.870889,-0.07923126,-0.076408386,-0.021362305,-1.0990195,-1.6704941,23.147938,2.015124,0.8726883,-0.7135124,0.054512024,0.8786392,-10.395056,-1.0803171,-2.567562,-6.3288307,1.7831396,0.4455948,-13.203938,-0.047340393,0.3709793,5.9443054,-1.6233878,-0.28842926,7.885254,1.546603,-0.915184,3.3417244,0.06977081,-0.09464264,1.477684,-1.4673601,-0.0623703,-0.48767853,1.7524694,3.219036,-0.09460449,0.0,0.0,0.0,0.0,0.0,0.0,0.0,0.0,0.0,0.0,0.0,0.0,-1.0,1.0,1.0,-1.0,1.0,-1.0,1.0,-1.0,-1.0,1.0,-1.0,1.0
2025-06-03 17:56:36.908,-5.93873,-2.424551,-1.591489,-0.3576809,0.3821698,0.8564488,-7.150914,-1.011372,18.809975,-0.07808685,-0.08899689,-0.76722336,-1.1391501,-1.158638,22.820782,2.0369442,0.87085724,-3.0902557,0.07511139,0.17276764,-10.246128,-1.0585734,0.06977081,23.06737,1.7751287,-1.1774826,-5.8783875,-0.042533875,0.6158066,5.1398506,-1.6221671,0.3923416,5.2643623,1.5286739,-0.17024994,1.4605942,0.06435394,-0.031929016,2.7496758,-1.46057,0.8723831,-3.1818123,1.8257116,2.6335564,-0.0970459,0.0,0.0,0.0,0.0,0.0,0.0,0.0,0.0,0.0,0.0,0.0,0.0,-1.0,-1.0,1.0,-1.0,-1.0,-1.0,1.0,-1.0,-1.0,1.0,-1.0,1.0
2025-06-03 17:56:36.960,-5.93873,-2.424551,-1.591489,-0.3576809,0.3821698,0.8564488,-7.150914,-1.011372,18.809975,-0.07808685,-0.08899689,-0.76722336,-1.1391501,-1.158638,22.820782,2.0369442,0.87085724,-3.0902557,0.07511139,0.17276764,-10.246128,-1.0585734,0.06977081,23.06737,1.7751287,-1.1774826,-5.8783875,-0.042533875,0.6158066,5.1398506,-1.6221671,0.3923416,5.2643623,1.5286739,-0.17024994,1.4605942,0.06435394,-0.031929016,2.7496758,-1.46057,0.8723831,-3.1818123,1.8257116,2.6335564,-0.0970459,0.0,0.0,0.0,0.0,0.0,0.0,0.0,0.0,0.0,0.0,0.0,0.0,-1.0,1.0,1.0,-1.0,1.0,-1.0,1.0,-1.0,-1.0,1.0,-1.0,1.0
2025-06-03 17:56:37.013,-5.93873,-2.424551,-1.591489,-0.3576809,0.3821698,0.8564488,-7.150914,-1.011372,18.809975,-0.07808685,-0.08899689,-0.76722336,-1.1391501,-1.158638,22.820782,2.0369442,0.87085724,-3.0902557,0.07511139,0.17276764,-10.246128,-1.0585734,0.06977081,23.06737,1.7751287,-1.1774826,-5.8783875,-0.042533875,0.6158066,5.1398506,-1.6221671,0.3923416,5.2643623,1.5286739,-0.17024994,1.4605942,0.06435394,-0.031929016,2.7496758,-1.46057,0.8723831,-3.1818123,1.8257116,2.6335564,-0.0970459,0.0,0.0,0.0,0.0,0.0,0.0,0.0,0.0,0.0,0.0,0.0,0.0,-1.0,-1.0,1.0,-1.0,-1.0,-1.0,1.0,-1.0,-1.0,1.0,-1.0,1.0
2025-06-03 17:56:37.068,-18.835293,9.664481,2.886095,-0.71359503,-0.9954038,0.15959546,-1.713164,-4.658412,5.679277,-0.11478424,-0.30017853,1.178608,-0.9769493,-3.4449425,-8.544441,2.1600826,0.5777359,-6.7438774,-0.052223206,-0.52906036,0.71961594,-0.9756419,-5.7214775,1.8536644,1.6046118,-0.7731247,1.3080025,0.08174896,0.45207977,-0.3985672,-1.5096335,0.17887115,-0.2117958,1.5312679,-0.014076233,0.1336708,0.10204315,0.5373764,-0.95643616,-1.4794146,-0.12905121,-0.2117958,2.021482,0.45986176,0.33874893,0.0,0.0,0.0,0.0,0.0,0.0,0.0,0.0,0.0,0.0,0.0,0.0,-1.0,-0.7546816,-1.0,-1.0,1.0,1.0,1.0,-1.0,-1.0,1.0,-1.0,-1.0
2025-06-03 17:56:37.121,-19.871504,5.15313,3.485982,0.3429473,-2.7980256,-1.0722377,-0.179903,-8.539586,16.200493,-0.115470886,0.5100632,-3.1598396,-1.0676627,-1.3972855,-7.5849533,2.1034725,-1.4307022,-19.85565,-0.06954193,-0.7727432,0.09094238,-0.8914897,4.898266,-4.118103,1.7319463,3.660244,-0.46936798,0.10593414,1.8514633,-7.0344086,-1.5519004,-3.038372,17.600975,1.5501125,1.6530991,-8.587168,0.112724304,-0.5020523,-0.481575,-1.4845263,0.28560638,0.2117958,1.876676,-3.7769737,0.15930557,0.0,0.0,0.0,0.0,0.0,0.0,0.0,0.0,0.0,0.0,0.0,0.0,1.0,-1.0,-1.0,1.0,1.0,1.0,-1.0,-1.0,1.0,1.0,-1.0,-1.0
2025-06-03 17:56:37.172,-19.871504,5.15313,3.485982,0.3429473,-2.7980256,-1.0722377,-0.179903,-8.539586,16.200493,-0.115470886,0.5100632,-3.1598396,-1.0676627,-1.3972855,-7.5849533,2.1034725,-1.4307022,-19.85565,-0.06954193,-0.7727432,0.09094238,-0.8914897,4.898266,-4.118103,1.7319463,3.660244,-0.46936798,0.10593414,1.8514633,-7.0344086,-1.5519004,-3.038372,17.600975,1.5501125,1.6530991,-8.587168,0.112724304,-0.5020523,-0.481575,-1.4845263,0.28560638,0.2117958,1.876676,-3.7769737,0.15930557,0.0,0.0,0.0,0.0,0.0,0.0,0.0,0.0,0.0,0.0,0.0,0.0,1.0,-1.0,-1.0,1.0,-1.0,1.0,-1.0,-1.0,1.0,1.0,-1.0,-1.0
2025-06-03 17:56:37.222,-12.349329,-2.813254,5.994759,1.5825616,-0.8557174,1.2860115,2.600627,-4.215927,7.778314,0.009803772,1.0201645,-1.5094223,-1.09551,-0.48915863,-16.587778,2.0254238,-0.96645355,-18.18448,0.01941681,-0.6875992,2.6117325,-0.71425885,-6.4223175,-8.064697,1.953504,2.4176445,-4.2352943,0.10974884,-2.1387138,-1.7389183,-1.7323356,-1.2263107,15.500114,1.7371852,0.9295273,10.974899,0.09464264,0.11264801,-0.42664337,-1.476134,-0.78510284,1.8377953,1.6508459,-0.89588165,-0.88319397,0.0,0.0,0.0,0.0,0.0,0.0,0.0,0.0,0.0,0.0,0.0,0.0,1.0,-1.0,-1.0,1.0,-1.0,1.0,-1.0,0.84734344,1.0,-1.0,-1.0,-1.0
2025-06-03 17:56:37.274,-6.665346,-4.018506,10.238145,1.5355549,1.1898032,1.4146112,6.773937,-2.567364,10.023561,0.060920715,0.84316254,-1.1248932,-1.073461,1.0770035,-22.96727,2.0084865,0.49877167,-23.450676,0.047340393,1.0834885,-0.3314247,-1.0188242,-5.0149193,-0.08972168,1.9926428,0.51044464,1.0479889,0.018882751,-1.662941,1.6913109,-1.6095786,5.944866,18.582436,1.7467983,0.3521347,12.972,0.041236877,-1.2701035,-1.0882721,-1.5119158,-0.546608,2.1161194,1.6426824,0.14118195,-5.413292,0.0,0.0,0.0,0.0,0.0,0.0,0.0,0.0,0.0,0.0,0.0,0.0,1.0,1.0,-1.0,1.0,1.0,1.0,-1.0,-1.0,1.0,-1.0,-1.0,-1.0
2025-06-03 17:56:37.324,-2.974584,-1.101987,11.57071,2.6693783,1.8532107,0.5662727,-1.821433,-4.990387,12.944105,0.07816315,0.3535843,-0.75745773,-0.95352703,2.079052,9.462425,1.9982631,-0.9595108,-16.993057,0.06481171,1.7038345,-1.5716782,-0.98136395,1.7861557,10.888227,2.0047736,0.7065964,-0.18371964,-0.008811951,-0.8299637,1.2433052,-1.5387778,1.0382462,-1.203022,1.8160732,2.4560204,-0.5853348,0.011405945,-0.8564377,-1.190815,-1.5056597,0.29117584,-0.092163086,1.6422247,0.04711151,-4.6967278,0.0,0.0,0.0,0.0,0.0,0.0,0.0,0.0,0.0,0.0,0.0,0.0,1.0,-1.0,-1.0,1.0,1.0,1.0,-1.0,-1.0,1.0,-1.0,-1.0,-1.0
2025-06-03 17:56:37.376,-2.974584,-1.101987,11.57071,2.6693783,1.8532107,0.5662727,-1.821433,-4.990387,12.944105,0.07816315,0.3535843,-0.75745773,-0.95352703,2.079052,9.462425,1.9982631,-0.9595108,-16.993057,0.06481171,1.7038345,-1.5716782,-0.98136395,1.7861557,10.888227,2.0047736,0.7065964,-0.18371964,-0.008811951,-0.8299637,1.2433052,-1.5387778,1.0382462,-1.203022,1.8160732,2.4560204,-0.5853348,0.011405945,-0.8564377,-1.190815,-1.5056597,0.29117584,-0.092163086,1.6422247,0.04711151,-4.6967278,0.0,0.0,0.0,0.0,0.0,0.0,0.0,0.0,0.0,0.0,0.0,0.0,1.0,1.0,-1.0,1.0,1.0,1.0,-1.0,-1.0,1.0,-1.0,-1.0,-1.0
2025-06-03 17:56:37.428,11.076657,5.520614,11.887291,2.008919,0.064809605,-0.26409742,-2.806036,2.507816,5.006057,0.09151459,0.001335144,0.39246368,-0.66452557,1.5928268,-1.3446236,1.7329128,-1.8059921,-1.1859322,0.06511688,-0.2575302,3.2916756,-0.8029887,1.9666672,4.474556,2.0965552,0.7808304,-5.2607,-0.07030487,-0.69805145,0.3949051,-1.4962821,0.089912415,0.4376297,1.9877346,0.68660736,0.42786407,-0.06298065,0.07701874,-2.3419533,-1.4774309,0.080070496,-0.61463165,1.6001867,1.1184311,-7.118637,0.0,0.0,0.0,0.0,0.0,0.0,0.0,0.0,0.0,0.0,0.0,0.0,1.0,-1.0,-1.0,1.0,1.0,-1.0,-1.0,-1.0,1.0,-1.0,-1.0,-1.0
2025-06-03 17:56:37.482,14.059855,4.776418,11.515695,-0.13461848,-0.941327,0.24923952,-1.151332,11.429402,19.290728,0.08571625,0.22632599,0.30090714,-0.85983807,-5.5491295,-3.9838257,1.6980464,-0.9417343,-3.0243378,0.039863586,-0.8677292,6.7438774,-0.7174632,1.0694504,4.3695717,2.0302558,-2.1729698,-12.83894,-0.080451965,0.12523651,-1.70718,-1.4917045,0.4140091,-2.5702286,2.0134456,0.47924042,0.40833282,-0.08579254,-1.2035751,3.6249313,-1.4848315,-0.46916962,3.2782478,1.6757177,0.9909439,-10.735638,0.0,0.0,0.0,0.0,0.0,0.0,0.0,0.0,0.0,0.0,0.0,0.0,1.0,1.0,-1.0,1.0,1.0,-1.0,-1.0,-1.0,1.0,-1.0,-1.0,-1.0
2025-06-03 17:56:37.539,14.147211,3.796736,11.569337,-0.07063508,-0.9657836,0.2680862,2.060302,8.656894,13.495424,0.086631775,-1.6579819,1.8438988,-0.9215599,1.5719986,9.473412,1.6749294,-1.6109848,-0.18494034,0.02620697,-0.44948578,6.1371803,-0.6982371,1.086998,2.9718475,1.9915746,-2.326168,-10.287632,-0.07648468,0.3093338,-2.6569023,-1.4841514,0.22006989,-1.0150299,2.021075,0.41072845,0.29480362,-0.1026535,-0.8094406,3.9813843,-1.492766,-0.100364685,1.3580513,1.6907476,0.7992172,-10.220493,0.0,0.0,0.0,0.0,0.0,0.0,0.0,0.0,0.0,0.0,0.0,0.0,1.0,-1.0,-1.0,1.0,1.0,-1.0,-1.0,1.0,-1.0,-1.0,-1.0,-1.0
2025-06-03 17:56:37.593,15.634315,0.73344,13.844741,-0.05972248,-0.33892617,0.53381294,1.871051,2.971807,5.848755,0.104637146,0.092659,-0.46936798,-0.68741375,1.9460678,-0.19470596,1.5952022,-0.5289078,-0.35950089,0.04711151,0.4983902,1.2079048,-0.59257,0.742836,-0.5072098,1.8170141,-1.6146469,-5.3046455,-0.08304596,-0.023384094,-0.8856354,-1.4792686,0.01651764,0.004272461,2.0398433,0.051460266,0.6707878,-0.15644073,-0.27683258,4.56855,-1.464995,0.24211884,-1.7120628,1.71005,0.1783371,-8.894791,0.0,0.0,0.0,0.0,0.0,0.0,0.0,0.0,0.0,0.0,0.0,0.0,1.0,1.0,-1.0,1.0,1.0,-1.0,1.0,-1.0,-1.0,-1.0,-1.0,-1.0
2025-06-03 17:56:37.648,15.271788,-0.378918,14.942986,-0.55994034,-0.2450647,0.052196253,2.644478,1.590451,6.996411,0.10746002,-0.5553055,-0.17395401,-0.65613323,1.9815445,-1.408104,1.5669734,0.43949127,-2.150303,0.064888,-0.13370514,3.5016403,-0.54923505,0.37204742,-0.76600266,1.7497991,-0.80921173,-6.929428,-0.011940002,0.8401871,-0.604866,-1.4262443,-1.0600662,2.14542,1.8347652,-3.4830132,1.4032211,-0.17383575,0.045585632,3.753109,-1.4522539,0.1328659,-2.1637306,1.7263006,0.25791168,-9.450218,0.0,0.0,0.0,0.0,0.0,0.0,0.0,0.0,0.0,0.0,0.0,0.0,1.0,1.0,-1.0,1.0,1.0,-1.0,1.0,-1.0,-1.0,-1.0,-1.0,-1.0
2025-06-03 17:56:37.701,13.804489,-0.882769,15.312415,-0.77108574,0.029420212,0.0549667,0.901217,4.286437,7.020501,0.109825134,0.1934433,-0.076293945,-0.611116,0.7969284,0.21667862,1.5566738,-0.19489288,-0.17395401,0.065727234,-0.23052216,1.818264,-0.5337474,0.2689743,-0.895401,1.7319463,-0.3433609,-7.548332,0.034828186,0.88100433,-0.7367058,-1.4403586,-0.34664154,-0.27405167,1.7314632,-2.0652428,-0.045776367,-0.19016266,-0.28362274,5.7135887,-1.4499651,-0.0008010864,-1.4190903,1.7342352,0.13736725,-9.455101,0.0,0.0,0.0,0.0,0.0,0.0,0.0,0.0,0.0,0.0,0.0,0.0,1.0,1.0,-1.0,1.0,1.0,-1.0,1.0,-1.0,-1.0,-1.0,-1.0,-1.0
2025-06-03 17:56:37.753,13.804489,-0.882769,15.312415,-0.77108574,0.029420212,0.0549667,0.901217,4.286437,7.020501,0.109825134,0.1934433,-0.076293945,-0.611116,0.7969284,0.21667862,1.5566738,-0.19489288,-0.17395401,0.065727234,-0.23052216,1.818264,-0.5337474,0.2689743,-0.895401,1.7319463,-0.3433609,-7.548332,0.034828186,0.88100433,-0.7367058,-1.4403586,-0.34664154,-0.27405167,1.7314632,-2.0652428,-0.045776367,-0.19016266,-0.28362274,5.7135887,-1.4499651,-0.0008010864,-1.4190903,1.7342352,0.13736725,-9.455101,0.0,0.0,0.0,0.0,0.0,0.0,0.0,0.0,0.0,0.0,0.0,0.0,1.0,1.0,-1.0,1.0,1.0,-1.0,1.0,-1.0,-1.0,-1.0,-1.0,-1.0
2025-06-03 17:56:37.805,13.804489,-0.882769,15.312415,-0.77108574,0.029420212,0.0549667,0.901217,4.286437,7.020501,0.109825134,0.1934433,-0.076293945,-0.611116,0.7969284,0.21667862,1.5566738,-0.19489288,-0.17395401,0.065727234,-0.23052216,1.818264,-0.5337474,0.2689743,-0.895401,1.7319463,-0.3433609,-7.548332,0.034828186,0.88100433,-0.7367058,-1.4403586,-0.34664154,-0.27405167,1.7314632,-2.0652428,-0.045776367,-0.19016266,-0.28362274,5.7135887,-1.4499651,-0.0008010864,-1.4190903,1.7342352,0.13736725,-9.455101,0.0,0.0,0.0,0.0,0.0,0.0,0.0,0.0,0.0,0.0,0.0,0.0,1.0,1.0,-1.0,1.0,1.0,-1.0,1.0,-1.0,-1.0,-1.0,-1.0,-1.0
2025-06-03 17:56:37.859,5.530298,-1.730815,15.384336,-0.77193147,-0.25531003,-0.08829338,-0.095223,-0.066663,9.330762,0.12592316,-0.0023269653,-1.2054634,-0.6122604,-0.3371048,5.3669014,1.6231258,0.5957413,-6.09079,0.081214905,-0.0045394897,0.9015045,-0.5070445,0.07816315,-0.9710846,1.6343664,-0.81264496,-1.2213326,0.10547638,-0.038108826,-0.5047684,-1.4610343,-0.037117004,-0.776989,1.5760524,-0.18795013,-0.68421555,-0.16506195,0.48091888,0.91737366,-1.4580523,0.0034713745,-0.92225647,1.7391943,0.0007247925,-9.13039,0.0,0.0,0.0,0.0,0.0,0.0,0.0,0.0,0.0,0.0,0.0,0.0,1.0,1.0,-1.0,1.0,1.0,-1.0,1.0,-1.0,-1.0,-1.0,-1.0,-1.0
2025-06-03 17:56:37.912,3.387718,-2.32136,15.106193,-0.64735174,-0.19431669,-0.0660879,0.229898,-0.220622,10.074828,0.12836456,0.0825119,-1.2896919,-0.6201988,-0.07816315,4.658886,1.6445644,0.2614975,-6.5705338,0.082588196,0.0023269653,0.8331413,-0.5056712,0.010032654,-0.26550674,1.6011022,-0.4153824,-0.53650665,0.11173248,0.0030899048,-0.50354767,-1.4619498,0.011634827,-0.84656906,1.5607173,-0.26447296,-0.19104385,-0.14865875,0.24662018,0.8587761,-1.4554583,0.08434296,-1.3739204,1.7402624,0.07488251,-9.302509,0.0,0.0,0.0,0.0,0.0,0.0,0.0,0.0,0.0,0.0,0.0,0.0,1.0,1.0,-1.0,1.0,1.0,-1.0,1.0,-1.0,-1.0,-1.0,-1.0,-1.0
2025-06-03 17:56:37.965,3.197043,-2.37411,15.08527,-0.6366982,-0.1922805,-0.06036118,0.212128,-0.236627,9.974772,0.12851715,0.03162384,-1.2762642,-0.62050396,-0.114097595,4.5917435,1.6461666,0.25608063,-6.332493,0.08266449,0.093193054,1.030899,-0.5059764,-0.018501282,-0.2459755,1.5983557,-0.4705429,-0.5218582,0.11188507,0.017280579,-0.46326447,-1.4624076,0.019569397,-0.76111984,1.5598018,-0.16506195,-0.31677628,-0.14759064,0.4554367,0.84046555,-1.4550005,0.06404877,-1.3177681,1.7405676,0.030403137,-9.370869,0.0,0.0,0.0,0.0,0.0,0.0,0.0,0.0,0.0,0.0,0.0,0.0,1.0,1.0,-1.0,1.0,1.0,-1.0,1.0,-1.0,-1.0,-1.0,-1.0,-1.0
2025-06-03 17:56:38.020,3.197043,-2.37411,15.08527,-0.6366982,-0.1922805,-0.06036118,0.212128,-0.236627,9.974772,0.12851715,0.03162384,-1.2762642,-0.62050396,-0.114097595,4.5917435,1.6461666,0.25608063,-6.332493,0.08266449,0.093193054,1.030899,-0.5059764,-0.018501282,-0.2459755,1.5983557,-0.4705429,-0.5218582,0.11188507,0.017280579,-0.46326447,-1.4624076,0.019569397,-0.76111984,1.5598018,-0.16506195,-0.31677628,-0.14759064,0.4554367,0.84046555,-1.4550005,0.06404877,-1.3177681,1.7405676,0.030403137,-9.370869,0.0,0.0,0.0,0.0,0.0,0.0,0.0,0.0,0.0,0.0,0.0,0.0,1.0,1.0,-1.0,1.0,1.0,-1.0,1.0,-1.0,-1.0,-1.0,-1.0,-1.0
2025-06-03 17:56:38.073,-0.204439,-3.025038,15.235008,0.03033239,0.015317376,0.0898888,1.012934,-1.691813,9.389085,0.15087128,0.08708954,-2.5006485,-0.6047073,0.046958923,3.5736618,1.6624172,-0.01247406,-5.823452,0.08358002,-0.0014877319,0.8990631,-0.51368207,0.0049972534,-0.23010635,1.5575384,-0.02948761,-0.62073517,0.12325287,0.02948761,-0.8184929,-1.4734702,-0.07266998,-0.31067276,1.5908535,0.041999817,-2.7508965,-0.1266861,0.05306244,0.9430084,-1.4305102,0.020484924,-2.1734962,1.734464,0.015525818,-8.915543,0.0,0.0,0.0,0.0,0.0,0.0,0.0,0.0,0.0,0.0,0.0,0.0,1.0,1.0,-1.0,1.0,1.0,-1.0,1.0,-1.0,-1.0,-1.0,-1.0,-1.0
2025-06-03 17:56:38.127,-0.160393,-3.017254,15.355401,0.09290775,0.01973065,-0.013911984,0.811223,-1.029904,9.920604,0.15155792,-0.10845184,-1.8353539,-0.6036392,0.014762878,3.801937,1.6630275,-0.025138855,-5.8332176,0.08464813,0.003929138,0.84778976,-0.5130717,0.023612976,-0.285038,1.5566992,-0.06587982,-0.95765686,0.122413635,-0.074653625,-0.68543625,-1.4735465,-0.025978088,-0.35461807,1.5898616,-0.097084045,-2.2418556,-0.12714386,-0.008735657,1.0748444,-1.4308153,-0.040473938,-2.0709534,1.734464,-0.0038528442,-8.858166,0.0,0.0,0.0,0.0,0.0,0.0,0.0,0.0,0.0,0.0,0.0,0.0,1.0,1.0,-1.0,1.0,1.0,-1.0,1.0,-1.0,-1.0,-1.0,-1.0,-1.0
2025-06-03 17:56:38.180,-0.048187,-3.001909,15.313663,0.09924443,0.015193248,-0.040054765,0.610254,-0.377116,9.864072,0.15018463,-0.030326843,-1.7474632,-0.60417324,-0.04070282,3.8043785,1.6628749,0.028572083,-5.7892723,0.08419037,-0.08533478,0.96009827,-0.5133769,-0.082588196,-0.206913,1.5571569,0.02292633,-1.0565338,0.12218475,-0.05115509,-0.64515305,-1.4732413,0.0749588,-0.33508682,1.5881832,-0.07884979,-2.0917053,-0.12744904,0.012550354,1.2054634,-1.431502,-0.036964417,-2.0245667,1.7345403,0.03299713,-8.926529,0.0,0.0,0.0,0.0,0.0,0.0,0.0,0.0,0.0,0.0,0.0,0.0,1.0,1.0,-1.0,1.0,1.0,-1.0,1.0,-1.0,-1.0,-1.0,-1.0,-1.0
2025-06-03 17:56:38.234,-0.048187,-3.001909,15.313663,0.09924443,0.015193248,-0.040054765,0.610254,-0.377116,9.864072,0.15018463,-0.030326843,-1.7474632,-0.60417324,-0.04070282,3.8043785,1.6628749,0.028572083,-5.7892723,0.08419037,-0.08533478,0.96009827,-0.5133769,-0.082588196,-0.206913,1.5571569,0.02292633,-1.0565338,0.12218475,-0.05115509,-0.64515305,-1.4732413,0.0749588,-0.33508682,1.5881832,-0.07884979,-2.0917053,-0.12744904,0.012550354,1.2054634,-1.431502,-0.036964417,-2.0245667,1.7345403,0.03299713,-8.926529,0.0,0.0,0.0,0.0,0.0,0.0,0.0,0.0,0.0,0.0,0.0,0.0,1.0,1.0,-1.0,1.0,1.0,-1.0,1.0,-1.0,-1.0,-1.0,-1.0,-1.0
2025-06-03 17:56:38.286,0.463953,-2.883069,15.129835,-0.025054568,-0.0012547695,0.00057487655,0.367234,0.595448,9.855921,0.14202118,-0.011711121,-1.7621117,-0.60661465,-0.015068054,3.9679565,1.6623409,0.028190613,-5.8027,0.07884979,-0.015678406,1.1725044,-0.5158183,0.14850616,-0.072631836,1.5651678,0.0283432,-1.3177681,0.118370056,-0.07274628,-0.48889923,-1.4690452,-0.0075149536,-0.53894806,1.5778835,-0.0023269653,-1.9977112,-0.13248444,0.0146102905,1.1297798,-1.4337145,0.030555725,-1.8109398,1.7349218,0.014915466,-8.948502,0.0,0.0,0.0,0.0,0.0,0.0,0.0,0.0,0.0,0.0,0.0,0.0,1.0,1.0,-1.0,1.0,1.0,-1.0,1.0,-1.0,-1.0,-1.0,-1.0,-1.0
2025-06-03 17:56:38.338,0.405196,-2.882089,15.129674,-0.018185126,0.0021506122,0.0051997197,0.506918,-0.056739,9.801363,0.14240265,-0.033454895,-1.7901878,-0.60669094,0.019950867,3.8971558,1.6625698,0.042152405,-5.835659,0.07915497,-0.013465881,1.0748444,-0.51635236,-0.101509094,-0.1727333,1.5648626,0.015830994,-1.2957954,0.119132996,0.04207611,-0.4730301,-1.4690452,-0.0014877319,-0.53162384,1.5784175,-0.004005432,-2.014801,-0.1316452,0.04940033,1.1737251,-1.4337908,-0.047035217,-2.051422,1.7345403,0.009651184,-8.968033,0.0,0.0,0.0,0.0,0.0,0.0,0.0,0.0,0.0,0.0,0.0,0.0,1.0,1.0,-1.0,1.0,1.0,-1.0,1.0,-1.0,-1.0,-1.0,-1.0,-1.0
2025-06-03 17:56:38.389,0.357344,-2.887441,15.139219,-0.004029389,-0.0013325415,0.004095607,0.585604,-0.31154,9.825927,0.143013,-0.11882782,-1.7914085,-0.60653836,0.013084412,3.8654137,1.6623409,-0.01712799,-5.807583,0.079689026,0.09098053,0.8892975,-0.5161235,-0.22777557,-0.11657715,1.5644811,0.027198792,-1.2323189,0.11959076,0.16246796,-0.6256218,-1.4694266,-0.028572083,-0.50354767,1.5786464,-0.015449524,-2.0257874,-0.13072968,0.069236755,1.1956978,-1.4337145,-0.051002502,-1.8976135,1.7345403,-0.08594513,-8.9900055,0.0,0.0,0.0,0.0,0.0,0.0,0.0,0.0,0.0,0.0,0.0,0.0,1.0,1.0,-1.0,1.0,1.0,-1.0,1.0,-1.0,-1.0,-1.0,-1.0,-1.0
2025-06-03 17:56:38.440,0.357344,-2.887441,15.139219,-0.004029389,-0.0013325415,0.004095607,0.585604,-0.31154,9.825927,0.143013,-0.11882782,-1.7914085,-0.60653836,0.013084412,3.8654137,1.6623409,-0.01712799,-5.807583,0.079689026,0.09098053,0.8892975,-0.5161235,-0.22777557,-0.11657715,1.5644811,0.027198792,-1.2323189,0.11959076,0.16246796,-0.6256218,-1.4694266,-0.028572083,-0.50354767,1.5786464,-0.015449524,-2.0257874,-0.13072968,0.069236755,1.1956978,-1.4337145,-0.051002502,-1.8976135,1.7345403,-0.08594513,-8.9900055,0.0,0.0,0.0,0.0,0.0,0.0,0.0,0.0,0.0,0.0,0.0,0.0,1.0,1.0,-1.0,1.0,1.0,-1.0,1.0,-1.0,-1.0,-1.0,-1.0,-1.0
2025-06-03 17:56:38.491,0.357344,-2.887441,15.139219,-0.004029389,-0.0013325415,0.004095607,0.585604,-0.31154,9.825927,0.143013,-0.11882782,-1.7914085,-0.60653836,0.013084412,3.8654137,1.6623409,-0.01712799,-5.807583,0.079689026,0.09098053,0.8892975,-0.5161235,-0.22777557,-0.11657715,1.5644811,0.027198792,-1.2323189,0.11959076,0.16246796,-0.6256218,-1.4694266,-0.028572083,-0.50354767,1.5786464,-0.015449524,-2.0257874,-0.13072968,0.069236755,1.1956978,-1.4337145,-0.051002502,-1.8976135,1.7345403,-0.08594513,-8.9900055,0.0,0.0,0.0,0.0,0.0,0.0,0.0,0.0,0.0,0.0,0.0,0.0,1.0,1.0,-1.0,1.0,1.0,-1.0,1.0,-1.0,-1.0,-1.0,-1.0,-1.0
2025-06-03 17:56:38.541,0.414927,-2.896164,15.133707,-0.0057036136,0.0023392998,-0.0002932153,0.542153,0.265336,9.77198,0.14263153,0.0059127808,-1.79385,-0.6062332,-0.052757263,3.8995972,1.6623409,-0.024604797,-5.7672997,0.079307556,0.03643036,1.0577545,-0.51627606,-0.047340393,-0.17639542,1.5647863,0.06877899,-1.3507271,0.11867523,-0.0061416626,-0.4010086,-1.4689689,-0.024986267,-0.5157547,1.5783412,-0.039482117,-2.0367737,-0.13149261,-0.03200531,1.2298775,-1.4337145,0.046195984,-2.011139,1.7346166,0.010719299,-8.905777,0.0,0.0,0.0,0.0,0.0,0.0,0.0,0.0,0.0,0.0,0.0,0.0,1.0,1.0,-1.0,1.0,1.0,-1.0,1.0,-1.0,-1.0,-1.0,-1.0,-1.0
2025-06-03 17:56:38.592,0.389292,-2.901145,15.141215,-0.0039405692,0.00019069467,0.003052197,0.480061,-0.02563,9.799553,0.1429367,0.08747101,-1.6607933,-0.60653836,-0.01789093,3.9264526,1.6622646,-0.0132369995,-5.7917137,0.07953644,0.035057068,1.0260162,-0.5161235,-0.11981964,-0.064086914,1.5645574,-0.011482239,-1.3128853,0.119132996,-0.03429413,-0.41565704,-1.469274,-0.005302429,-0.5194168,1.5786464,0.03200531,-2.0648499,-0.13141632,0.11592865,1.1529732,-1.4337908,-0.095329285,-1.8988342,1.7345403,-0.038871765,-8.92775,0.0,0.0,0.0,0.0,0.0,0.0,0.0,0.0,0.0,0.0,0.0,0.0,1.0,1.0,-1.0,1.0,1.0,-1.0,1.0,-1.0,-1.0,-1.0,-1.0,-1.0
2025-06-03 17:56:38.643,0.383694,-2.902079,15.143786,-0.006457631,-0.00019771089,0.0032063618,0.50918,-0.067222,9.791058,0.14270782,-0.0062179565,-1.7706566,-0.60653836,-0.034065247,3.8129234,1.6624172,0.045967102,-5.8100243,0.07976532,0.068244934,0.95765686,-0.5158183,0.018043518,-0.18127823,1.5644811,-0.020561218,-1.2713814,0.11943817,-0.08686066,-0.5206375,-1.4691978,0.008888245,-0.57068634,1.5783412,-0.035438538,-2.0880432,-0.13103485,0.10585785,1.2372017,-1.4338671,0.0015640259,-1.924469,1.7347692,0.00705719,-8.959488,0.0,0.0,0.0,0.0,0.0,0.0,0.0,0.0,0.0,0.0,0.0,0.0,1.0,1.0,-1.0,1.0,1.0,-1.0,1.0,-1.0,-1.0,-1.0,-1.0,-1.0
2025-06-03 17:56:38.694,0.383694,-2.902079,15.143786,-0.006457631,-0.00019771089,0.0032063618,0.50918,-0.067222,9.791058,0.14270782,-0.0062179565,-1.7706566,-0.60653836,-0.034065247,3.8129234,1.6624172,0.045967102,-5.8100243,0.07976532,0.068244934,0.95765686,-0.5158183,0.018043518,-0.18127823,1.5644811,-0.020561218,-1.2713814,0.11943817,-0.08686066,-0.5206375,-1.4691978,0.008888245,-0.57068634,1.5783412,-0.035438538,-2.0880432,-0.13103485,0.10585785,1.2372017,-1.4338671,0.0015640259,-1.924469,1.7347692,0.00705719,-8.959488,0.0,0.0,0.0,0.0,0.0,0.0,0.0,0.0,0.0,0.0,0.0,0.0,1.0,1.0,-1.0,1.0,1.0,-1.0,1.0,-1.0,-1.0,-1.0,-1.0,-1.0
2025-06-03 17:56:38.745,0.393477,-2.906063,15.136707,0.001800499,0.005632596,-0.0009768782,0.505,0.185861,9.739999,0.14240265,-0.009727478,-1.6815453,-0.60638577,0.029563904,3.8825073,1.6624172,-0.002861023,-5.8368797,0.079307556,0.0015640259,1.1334419,-0.5158183,-0.0573349,-0.14465714,1.56471,0.07350922,-1.2713814,0.118904114,-0.11997223,-0.65125656,-1.4691978,-0.055732727,-0.44373322,1.5783412,0.036201477,-2.0428772,-0.13156891,0.0076675415,1.2164497,-1.4337145,0.024528503,-2.1808205,1.7346929,0.056877136,-8.936295,0.0,0.0,0.0,0.0,0.0,0.0,0.0,0.0,0.0,0.0,0.0,0.0,1.0,1.0,-1.0,1.0,1.0,-1.0,1.0,-1.0,-1.0,-1.0,-1.0,-1.0
2025-06-03 17:56:38.797,0.395322,-2.907568,15.138688,-0.0052752574,0.00094764394,0.0011638728,0.52995,0.107267,9.812918,0.14255524,-0.07511139,-1.7376976,-0.6063095,-0.061531067,3.843441,1.6624172,0.033454895,-5.8344383,0.07923126,-0.08426666,1.0235748,-0.51635236,-0.04802704,-0.076293945,1.5644811,0.048866272,-1.2860298,0.1190567,-0.123558044,-0.4754715,-1.4690452,0.10234833,-0.514534,1.5785701,0.00667572,-2.0428772,-0.13134003,-0.0021743774,1.2176704,-1.4338671,-0.0008010864,-1.8963928,1.7346166,0.020942688,-8.922867,0.0,0.0,0.0,0.0,0.0,0.0,0.0,0.0,0.0,0.0,0.0,0.0,1.0,1.0,-1.0,1.0,1.0,-1.0,1.0,-1.0,-1.0,-1.0,-1.0,-1.0
2025-06-03 17:56:38.848,0.384181,-2.911589,15.143862,-0.002096542,0.002204979,0.0016260186,0.5098,0.009644,9.790943,0.14263153,0.07602692,-1.8854065,-0.6063095,0.060081482,3.7909508,1.6625698,-0.010032654,-5.8344383,0.079307556,-0.15911102,1.1981392,-0.51619977,-0.06259918,0.045776367,1.5645574,-0.02445221,-1.190815,0.11920929,0.018348694,-0.6305046,-1.4693503,-0.18367767,-0.5597,1.5781887,-0.04108429,-2.0099182,-0.13134003,0.095939636,1.0785065,-1.4337145,-0.03856659,-1.9085999,1.7346166,0.023994446,-8.952164,0.0,0.0,0.0,0.0,0.0,0.0,0.0,0.0,0.0,0.0,0.0,0.0,1.0,1.0,-1.0,1.0,1.0,-1.0,1.0,-1.0,-1.0,-1.0,-1.0,-1.0
2025-06-03 17:56:38.899,0.384181,-2.911589,15.143862,-0.002096542,0.002204979,0.0016260186,0.5098,0.009644,9.790943,0.14263153,0.07602692,-1.8854065,-0.6063095,0.060081482,3.7909508,1.6625698,-0.010032654,-5.8344383,0.079307556,-0.15911102,1.1981392,-0.51619977,-0.06259918,0.045776367,1.5645574,-0.02445221,-1.190815,0.11920929,0.018348694,-0.6305046,-1.4693503,-0.18367767,-0.5597,1.5781887,-0.04108429,-2.0099182,-0.13134003,0.095939636,1.0785065,-1.4337145,-0.03856659,-1.9085999,1.7346166,0.023994446,-8.952164,0.0,0.0,0.0,0.0,0.0,0.0,0.0,0.0,0.0,0.0,0.0,0.0,1.0,1.0,-1.0,1.0,1.0,-1.0,1.0,-1.0,-1.0,-1.0,-1.0,-1.0
2025-06-03 17:56:38.950,0.384181,-2.911589,15.143862,-0.002096542,0.002204979,0.0016260186,0.5098,0.009644,9.790943,0.14263153,0.07602692,-1.8854065,-0.6063095,0.060081482,3.7909508,1.6625698,-0.010032654,-5.8344383,0.079307556,-0.15911102,1.1981392,-0.51619977,-0.06259918,0.045776367,1.5645574,-0.02445221,-1.190815,0.11920929,0.018348694,-0.6305046,-1.4693503,-0.18367767,-0.5597,1.5781887,-0.04108429,-2.0099182,-0.13134003,0.095939636,1.0785065,-1.4337145,-0.03856659,-1.9085999,1.7346166,0.023994446,-8.952164,0.0,0.0,0.0,0.0,0.0,0.0,0.0,0.0,0.0,0.0,0.0,0.0,1.0,1.0,-1.0,1.0,1.0,-1.0,1.0,-1.0,-1.0,-1.0,-1.0,-1.0
2025-06-03 17:56:39.000,0.390324,-2.915553,15.14862,-0.00024989623,0.0026103668,-0.0016463517,0.524761,0.155963,9.789066,0.14240265,-0.021705627,-1.7291527,-0.6060806,-0.02910614,3.883728,1.6622646,-0.040626526,-5.8673973,0.07938385,0.01033783,1.0589752,-0.51635236,0.12073517,-0.09338379,1.5647863,-0.0036239624,-1.1981392,0.119132996,0.1568985,-0.6671257,-1.4691978,0.055122375,-0.5645828,1.5784175,0.0016403198,-2.0013733,-0.13141632,-0.025291443,1.0821686,-1.4337908,-0.027809143,-2.0001526,1.7345403,-0.0434494,-8.948502,0.0,0.0,0.0,0.0,0.0,0.0,0.0,0.0,0.0,0.0,0.0,0.0,1.0,1.0,-1.0,1.0,1.0,-1.0,1.0,-1.0,-1.0,-1.0,-1.0,-1.0
2025-06-03 17:56:39.051,0.387605,-2.918108,15.148838,-0.0028983809,0.0007923969,0.0012246103,0.503266,0.056141,9.778698,0.14255524,-0.017662048,-1.6376,-0.6063095,0.008049011,3.786068,1.6624172,0.005531311,-5.7880516,0.079460144,0.04535675,1.1871529,-0.51619977,0.013999939,-0.15076065,1.56471,-0.022087097,-1.3311958,0.11898041,0.112724304,-0.604866,-1.4691978,0.021629333,-0.5511551,1.5785701,0.012931824,-2.0453186,-0.13118744,-0.07282257,1.2323189,-1.4339434,-0.04245758,-2.367588,1.7346929,-0.007286072,-8.970474,0.0,0.0,0.0,0.0,0.0,0.0,0.0,0.0,0.0,0.0,0.0,0.0,1.0,1.0,-1.0,1.0,1.0,-1.0,1.0,-1.0,-1.0,-1.0,-1.0,-1.0
2025-06-03 17:56:39.103,0.384811,-2.919665,15.149929,-0.004444795,0.00041338123,0.0017169327,0.53165,0.052373,9.782903,0.14270782,-0.089912415,-1.8414574,-0.6060806,-0.017204285,3.8666344,1.6622646,-0.015449524,-5.8002586,0.07961273,0.013465881,1.2274361,-0.5161235,0.0036239624,-0.06530762,1.5647863,-0.010261536,-1.3202095,0.1190567,0.029182434,-0.547493,-1.4693503,0.012321472,-0.44373322,1.5785701,-0.0061416626,-2.059967,-0.13103485,0.010566711,1.0260162,-1.434096,0.015296936,-1.8463402,1.7345403,0.03299713,-8.965591,0.0,0.0,0.0,0.0,0.0,0.0,0.0,0.0,0.0,0.0,0.0,0.0,1.0,1.0,-1.0,1.0,1.0,-1.0,1.0,-1.0,-1.0,-1.0,-1.0,-1.0
2025-06-03 17:56:39.154,0.384811,-2.919665,15.149929,-0.004444795,0.00041338123,0.0017169327,0.53165,0.052373,9.782903,0.14270782,-0.089912415,-1.8414574,-0.6060806,-0.017204285,3.8666344,1.6622646,-0.015449524,-5.8002586,0.07961273,0.013465881,1.2274361,-0.5161235,0.0036239624,-0.06530762,1.5647863,-0.010261536,-1.3202095,0.1190567,0.029182434,-0.547493,-1.4693503,0.012321472,-0.44373322,1.5785701,-0.0061416626,-2.059967,-0.13103485,0.010566711,1.0260162,-1.434096,0.015296936,-1.8463402,1.7345403,0.03299713,-8.965591,0.0,0.0,0.0,0.0,0.0,0.0,0.0,0.0,0.0,0.0,0.0,0.0,1.0,1.0,-1.0,1.0,1.0,-1.0,1.0,-1.0,-1.0,-1.0,-1.0,-1.0
2025-06-03 17:56:39.204,0.387273,-2.9231,15.150313,-0.0013738708,-0.00014767231,0.0020188573,0.496885,0.081328,9.787707,0.14270782,0.019798279,-1.694973,-0.6060043,0.014533997,3.7970543,1.6622646,-0.006980896,-5.8246727,0.079460144,0.10341644,1.0296783,-0.5159709,0.10227203,-0.19958878,1.5645574,-0.03528595,-1.2298775,0.119132996,0.067100525,-0.57923126,-1.4695029,-0.03879547,-0.5535965,1.5784175,-0.02002716,-2.051422,-0.13111115,0.016593933,1.2323189,-1.4337908,0.058174133,-2.105133,1.7346929,0.006752014,-8.921646,0.0,0.0,0.0,0.0,0.0,0.0,0.0,0.0,0.0,0.0,0.0,0.0,1.0,1.0,-1.0,1.0,1.0,-1.0,1.0,-1.0,-1.0,-1.0,-1.0,-1.0
2025-06-03 17:56:39.255,0.388568,-2.925848,15.150558,-0.0035155294,0.0014891498,0.0018189473,0.518004,0.103753,9.796587,0.14240265,-0.081977844,-1.6644554,-0.6062332,0.014381409,3.8422203,1.6624935,0.030632019,-5.7843895,0.07953644,0.045433044,1.1944771,-0.51635236,-0.025596619,-0.015258789,1.5644811,-0.026512146,-1.3568306,0.118904114,-0.059700012,-0.5609207,-1.469274,-0.010261536,-0.5658035,1.5784175,-0.0051498413,-2.0013733,-0.13126373,0.023612976,1.3739204,-1.4340197,0.018730164,-1.9061584,1.7345403,-0.038108826,-8.916763,0.0,0.0,0.0,0.0,0.0,0.0,0.0,0.0,0.0,0.0,0.0,0.0,1.0,1.0,-1.0,1.0,1.0,-1.0,1.0,-1.0,-1.0,-1.0,-1.0,-1.0
2025-06-03 17:56:39.307,0.391173,-2.924382,15.152278,0.0022945146,0.0028575752,0.00022633429,0.527342,0.040675,9.779059,0.14263153,-0.039100647,-1.8365746,-0.6060806,0.008277893,3.8568687,1.6624172,-0.022773743,-5.8002586,0.07961273,0.05657196,1.0687408,-0.51627606,-0.047798157,-0.16052628,1.5646337,-0.060539246,-1.3311958,0.11898041,-0.013084412,-0.4791336,-1.4691978,0.051765442,-0.53162384,1.5784938,0.0014877319,-2.0575256,-0.13111115,0.111198425,1.0772858,-1.434096,0.049095154,-1.9281311,1.7345403,-0.03391266,-8.889908,0.0,0.0,0.0,0.0,0.0,0.0,0.0,0.0,0.0,0.0,0.0,0.0,1.0,1.0,-1.0,1.0,1.0,-1.0,1.0,-1.0,-1.0,-1.0,-1.0,-1.0
2025-06-03 17:56:39.357,0.391173,-2.924382,15.152278,0.0022945146,0.0028575752,0.00022633429,0.527342,0.040675,9.779059,0.14263153,-0.039100647,-1.8365746,-0.6060806,0.008277893,3.8568687,1.6624172,-0.022773743,-5.8002586,0.07961273,0.05657196,1.0687408,-0.51627606,-0.047798157,-0.16052628,1.5646337,-0.060539246,-1.3311958,0.11898041,-0.013084412,-0.4791336,-1.4691978,0.051765442,-0.53162384,1.5784938,0.0014877319,-2.0575256,-0.13111115,0.111198425,1.0772858,-1.434096,0.049095154,-1.9281311,1.7345403,-0.03391266,-8.889908,0.0,0.0,0.0,0.0,0.0,0.0,0.0,0.0,0.0,0.0,0.0,0.0,1.0,1.0,-1.0,1.0,1.0,-1.0,1.0,-1.0,-1.0,-1.0,-1.0,-1.0
2025-06-03 17:56:39.409,0.391173,-2.924382,15.152278,0.0022945146,0.0028575752,0.00022633429,0.527342,0.040675,9.779059,0.14263153,-0.039100647,-1.8365746,-0.6060806,0.008277893,3.8568687,1.6624172,-0.022773743,-5.8002586,0.07961273,0.05657196,1.0687408,-0.51627606,-0.047798157,-0.16052628,1.5646337,-0.060539246,-1.3311958,0.11898041,-0.013084412,-0.4791336,-1.4691978,0.051765442,-0.53162384,1.5784938,0.0014877319,-2.0575256,-0.13111115,0.111198425,1.0772858,-1.434096,0.049095154,-1.9281311,1.7345403,-0.03391266,-8.889908,0.0,0.0,0.0,0.0,0.0,0.0,0.0,0.0,0.0,0.0,0.0,0.0,1.0,1.0,-1.0,1.0,1.0,-1.0,1.0,-1.0,-1.0,-1.0,-1.0,-1.0
2025-06-03 17:56:39.459,0.395336,-2.933989,15.156782,0.0023007977,0.0029658205,0.00032314772,0.516051,0.100088,9.765995,0.14247894,0.002632141,-1.7010765,-0.6058517,0.01903534,3.913025,1.6624172,-0.005836487,-5.7550926,0.07976532,-0.014533997,0.9027252,-0.51619977,-0.12088776,-0.14709854,1.5647863,0.03604889,-1.3324165,0.11898041,0.08708954,-0.61096954,-1.469274,0.048561096,-0.5462723,1.5785701,0.009803772,-2.0074768,-0.13126373,0.007972717,1.1505318,-1.4341723,-0.049934387,-2.1429787,1.7346166,-0.026664734,-8.863049,0.0,0.0,0.0,0.0,0.0,0.0,0.0,0.0,0.0,0.0,0.0,0.0,1.0,1.0,-1.0,1.0,1.0,-1.0,1.0,-1.0,-1.0,-1.0,-1.0,-1.0
2025-06-03 17:56:39.510,0.394439,-2.936301,15.160649,0.0046628565,0.002842513,-0.0007618188,0.524861,0.066711,9.740273,0.14270782,0.017738342,-1.7328148,-0.6062332,0.048332214,3.8580894,1.6624935,0.023918152,-5.7892723,0.0799942,-0.019569397,1.039444,-0.51619977,-0.04283905,-0.021362305,1.5644811,0.05252838,-1.2872505,0.11898041,-0.05657196,-0.7367058,-1.4694266,-0.014305115,-0.54261017,1.5784175,-0.012626648,-2.051422,-0.13141632,-0.011405945,1.2957954,-1.4341723,-0.054588318,-2.2369728,1.7347692,0.05420685,-8.906998,0.0,0.0,0.0,0.0,0.0,0.0,0.0,0.0,0.0,0.0,0.0,0.0,1.0,1.0,-1.0,1.0,1.0,-1.0,1.0,-1.0,-1.0,-1.0,-1.0,-1.0
2025-06-03 17:56:39.562,0.394934,-2.936311,15.160801,0.00010588912,0.0017935352,0.0012945281,0.53061,0.074828,9.764375,0.14263153,-0.0075912476,-1.7267113,-0.6060806,0.010185242,3.8239098,1.6623409,-0.034370422,-5.8088036,0.07961273,0.0015640259,1.0455475,-0.5160472,0.024986267,-0.25696182,1.5646337,0.00019073486,-1.2750435,0.11920929,0.07602692,-0.5450516,-1.4694266,-0.07091522,-0.52796173,1.5784938,-0.03879547,-1.948883,-0.13118744,-0.023765564,1.1493111,-1.4340197,0.09685516,-2.0294495,1.7346166,0.008430481,-8.936295,0.0,0.0,0.0,0.0,0.0,0.0,0.0,0.0,0.0,0.0,0.0,0.0,1.0,1.0,-1.0,1.0,1.0,-1.0,1.0,-1.0,-1.0,-1.0,-1.0,-1.0
2025-06-03 17:56:39.612,0.394934,-2.936311,15.160801,0.00010588912,0.0017935352,0.0012945281,0.53061,0.074828,9.764375,0.14263153,-0.0075912476,-1.7267113,-0.6060806,0.010185242,3.8239098,1.6623409,-0.034370422,-5.8088036,0.07961273,0.0015640259,1.0455475,-0.5160472,0.024986267,-0.25696182,1.5646337,0.00019073486,-1.2750435,0.11920929,0.07602692,-0.5450516,-1.4694266,-0.07091522,-0.52796173,1.5784938,-0.03879547,-1.948883,-0.13118744,-0.023765564,1.1493111,-1.4340197,0.09685516,-2.0294495,1.7346166,0.008430481,-8.936295,0.0,0.0,0.0,0.0,0.0,0.0,0.0,0.0,0.0,0.0,0.0,0.0,1.0,1.0,-1.0,1.0,1.0,-1.0,1.0,-1.0,-1.0,-1.0,-1.0,-1.0
2025-06-03 17:56:39.663,0.393834,-2.943453,15.159146,0.0006322106,0.0022306528,0.00064640015,0.50134,0.088609,9.765511,0.14255524,0.02117157,-1.7413597,-0.6061569,0.008659363,3.834896,1.6624935,0.0016403198,-5.8429832,0.07961273,-0.011177063,1.1590767,-0.5161235,0.05214691,-0.2093544,1.5646337,0.006828308,-1.2726021,0.118751526,0.010948181,-0.7757683,-1.4694266,0.010185242,-0.49378204,1.5784175,-0.004463196,-1.990387,-0.13111115,-0.022010803,1.3311958,-1.4342486,0.1291275,-2.1808205,1.7345403,-0.08213043,-8.92897,0.0,0.0,0.0,0.0,0.0,0.0,0.0,0.0,0.0,0.0,0.0,0.0,1.0,1.0,-1.0,1.0,1.0,-1.0,1.0,-1.0,-1.0,-1.0,-1.0,-1.0
2025-06-03 17:56:39.715,0.391555,-2.948512,15.162423,0.0002194926,-0.00046741663,0.0005153434,0.496212,0.08058,9.81868,0.14247894,0.022697449,-1.7376976,-0.6056991,0.02368927,3.847103,1.6624935,-0.008277893,-5.7428856,0.079460144,0.0008773804,0.96131897,-0.51635236,-0.014381409,-0.095825195,1.5646337,0.0049972534,-1.215229,0.11920929,0.12226105,-0.71717453,-1.4694266,-0.009880066,-0.5462723,1.5784938,0.08541107,-2.039215,-0.13149261,-0.063438416,1.2579536,-1.4344012,-0.019569397,-1.9537659,1.7345403,-0.01712799,-8.975357,0.0,0.0,0.0,0.0,0.0,0.0,0.0,0.0,0.0,0.0,0.0,0.0,1.0,1.0,-1.0,1.0,1.0,-1.0,1.0,-1.0,-1.0,-1.0,-1.0,-1.0
2025-06-03 17:56:39.766,0.391796,-2.94951,15.162008,-0.0020074428,-0.001817516,0.00034552283,0.520493,0.085136,9.79307,0.14255524,0.0002670288,-1.7535667,-0.605928,-0.033836365,3.847103,1.6622646,-0.029716492,-5.773403,0.079460144,0.040016174,0.99427795,-0.51619977,0.010643005,-0.12512589,1.56471,-0.026130676,-1.3702583,0.11898041,0.11463165,-0.57434845,-1.469274,0.06771088,-0.61463165,1.5783412,-0.020256042,-2.105133,-0.13134003,-0.07549286,1.1419868,-1.434096,0.00034332275,-1.9610901,1.7346166,0.018348694,-8.900894,0.0,0.0,0.0,0.0,0.0,0.0,0.0,0.0,0.0,0.0,0.0,0.0,1.0,1.0,-1.0,1.0,1.0,-1.0,1.0,-1.0,-1.0,-1.0,-1.0,-1.0
2025-06-03 17:56:39.817,0.391796,-2.94951,15.162008,-0.0020074428,-0.001817516,0.00034552283,0.520493,0.085136,9.79307,0.14255524,0.0002670288,-1.7535667,-0.605928,-0.033836365,3.847103,1.6622646,-0.029716492,-5.773403,0.079460144,0.040016174,0.99427795,-0.51619977,0.010643005,-0.12512589,1.56471,-0.026130676,-1.3702583,0.11898041,0.11463165,-0.57434845,-1.469274,0.06771088,-0.61463165,1.5783412,-0.020256042,-2.105133,-0.13134003,-0.07549286,1.1419868,-1.434096,0.00034332275,-1.9610901,1.7346166,0.018348694,-8.900894,0.0,0.0,0.0,0.0,0.0,0.0,0.0,0.0,0.0,0.0,0.0,0.0,1.0,1.0,-1.0,1.0,1.0,-1.0,1.0,-1.0,-1.0,-1.0,-1.0,-1.0
2025-06-03 17:56:39.870,0.389443,-2.952369,15.163614,0.0038774759,0.004582187,0.0017122204,0.527647,0.075967,9.768372,0.14255524,0.014076233,-1.7743187,-0.605928,0.04322052,3.7677574,1.6624172,0.010261536,-5.748989,0.07953644,-0.015983582,1.2079048,-0.51619977,-0.041542053,-0.08117676,1.5646337,-0.0064468384,-1.2176704,0.1190567,0.10379791,-0.4803543,-1.4693503,0.099601746,-0.5865555,1.578265,0.0045394897,-1.9684143,-0.13103485,0.021858215,1.2298775,-1.4341723,0.019340515,-1.9049377,1.7346166,0.053138733,-8.852062,0.0,0.0,0.0,0.0,0.0,0.0,0.0,0.0,0.0,0.0,0.0,0.0,1.0,1.0,-1.0,1.0,1.0,-1.0,1.0,-1.0,-1.0,-1.0,-1.0,-1.0
2025-06-03 17:56:39.924,0.393191,-2.948559,15.167589,0.0037274996,0.0022759268,-0.0013169382,0.521402,0.044729,9.768,0.14225006,0.026359558,-1.7206078,-0.6058517,0.022163391,3.9203491,1.6624935,-0.039405823,-5.7843895,0.07953644,-0.0104904175,0.9393463,-0.51650494,0.044517517,-0.042114258,1.5644811,-0.0037765503,-1.2591743,0.11898041,-0.042152405,-0.6732292,-1.4694266,-0.039863586,-0.481575,1.5783412,0.004234314,-2.0318909,-0.13141632,-0.04108429,1.2176704,-1.434096,0.036506653,-2.0636292,1.734464,0.049476624,-8.917984,0.0,0.0,0.0,0.0,0.0,0.0,0.0,0.0,0.0,0.0,0.0,0.0,1.0,1.0,-1.0,1.0,1.0,-1.0,1.0,-1.0,-1.0,-1.0,-1.0,-1.0
2025-06-03 17:56:39.978,0.395634,-2.948595,15.166921,0.003461651,0.0027307072,-0.0002629862,0.550942,0.080764,9.768876,0.14225006,0.05466461,-1.79385,-0.6060806,-0.04169464,3.7811852,1.6624935,0.036201477,-5.753872,0.079689026,-0.030632019,1.2164497,-0.5159709,0.1253891,-0.122680664,1.5648626,-0.011024475,-1.3434029,0.118751526,-0.11806488,-0.75745773,-1.4695029,0.034446716,-0.5511551,1.5784175,0.017051697,-2.0819397,-0.13118744,0.015525818,1.2396431,-1.4344774,-0.04940033,-2.0489807,1.7346929,-0.008277893,-8.908218,0.0,0.0,0.0,0.0,0.0,0.0,0.0,0.0,0.0,0.0,0.0,0.0,1.0,1.0,-1.0,1.0,1.0,-1.0,1.0,-1.0,-1.0,-1.0,-1.0,-1.0
2025-06-03 17:56:40.031,0.395634,-2.948595,15.166921,0.003461651,0.0027307072,-0.0002629862,0.550942,0.080764,9.768876,0.14225006,0.05466461,-1.79385,-0.6060806,-0.04169464,3.7811852,1.6624935,0.036201477,-5.753872,0.079689026,-0.030632019,1.2164497,-0.5159709,0.1253891,-0.122680664,1.5648626,-0.011024475,-1.3434029,0.118751526,-0.11806488,-0.75745773,-1.4695029,0.034446716,-0.5511551,1.5784175,0.017051697,-2.0819397,-0.13118744,0.015525818,1.2396431,-1.4344774,-0.04940033,-2.0489807,1.7346929,-0.008277893,-8.908218,0.0,0.0,0.0,0.0,0.0,0.0,0.0,0.0,0.0,0.0,0.0,0.0,1.0,1.0,-1.0,1.0,1.0,-1.0,1.0,-1.0,-1.0,-1.0,-1.0,-1.0
2025-06-03 17:56:40.086,0.395634,-2.948595,15.166921,0.003461651,0.0027307072,-0.0002629862,0.550942,0.080764,9.768876,0.14225006,0.05466461,-1.79385,-0.6060806,-0.04169464,3.7811852,1.6624935,0.036201477,-5.753872,0.079689026,-0.030632019,1.2164497,-0.5159709,0.1253891,-0.122680664,1.5648626,-0.011024475,-1.3434029,0.118751526,-0.11806488,-0.75745773,-1.4695029,0.034446716,-0.5511551,1.5784175,0.017051697,-2.0819397,-0.13118744,0.015525818,1.2396431,-1.4344774,-0.04940033,-2.0489807,1.7346929,-0.008277893,-8.908218,0.0,0.0,0.0,0.0,0.0,0.0,0.0,0.0,0.0,0.0,0.0,0.0,1.0,1.0,-1.0,1.0,1.0,-1.0,1.0,-1.0,-1.0,-1.0,-1.0,-1.0
2025-06-03 17:56:40.139,0.400087,-2.953508,15.166382,0.0033606663,0.0016262105,-0.00022837633,0.507765,0.085377,9.781262,0.14247894,0.033836365,-1.7889671,-0.605928,-0.026359558,3.8361168,1.6623409,-0.002784729,-5.8588524,0.079841614,0.023231506,1.1651802,-0.5161235,0.0016403198,-0.13489151,1.5645574,-0.022239685,-1.2957954,0.11882782,0.0012588501,-0.47058868,-1.4694266,-0.024909973,-0.57190704,1.5784938,0.002632141,-1.9879456,-0.13126373,-0.011100769,1.1029205,-1.4344774,0.023231506,-2.0672913,1.7346929,0.09502411,-8.982681,0.0,0.0,0.0,0.0,0.0,0.0,0.0,0.0,0.0,0.0,0.0,0.0,1.0,1.0,-1.0,1.0,1.0,-1.0,1.0,-1.0,-1.0,-1.0,-1.0,-1.0
2025-06-03 17:56:40.193,0.400993,-2.954445,15.168892,0.0014304195,-0.00070335023,-8.330456e-05,0.533087,0.058813,9.746027,0.14263153,0.048103333,-1.682766,-0.6060043,-0.025596619,3.8776245,1.6624935,-0.041999817,-5.6940575,0.07953644,-0.012016296,1.2127876,-0.51627606,-0.09159088,-0.04333496,1.5645574,-0.00415802,-1.223774,0.11936188,0.15865326,-0.6012039,-1.469274,0.00995636,-0.49378204,1.5784175,0.00995636,-1.9952698,-0.13149261,-0.08289337,1.1871529,-1.4341723,-0.015983582,-2.11734,1.7346166,-0.020637512,-8.896011,0.0,0.0,0.0,0.0,0.0,0.0,0.0,0.0,0.0,0.0,0.0,0.0,1.0,1.0,-1.0,1.0,1.0,-1.0,1.0,-1.0,-1.0,-1.0,-1.0,-1.0
2025-06-03 17:56:40.247,0.400993,-2.954445,15.168892,0.0014304195,-0.00070335023,-8.330456e-05,0.533087,0.058813,9.746027,0.14263153,0.048103333,-1.682766,-0.6060043,-0.025596619,3.8776245,1.6624935,-0.041999817,-5.6940575,0.07953644,-0.012016296,1.2127876,-0.51627606,-0.09159088,-0.04333496,1.5645574,-0.00415802,-1.223774,0.11936188,0.15865326,-0.6012039,-1.469274,0.00995636,-0.49378204,1.5784175,0.00995636,-1.9952698,-0.13149261,-0.08289337,1.1871529,-1.4341723,-0.015983582,-2.11734,1.7346166,-0.020637512,-8.896011,0.0,0.0,0.0,0.0,0.0,0.0,0.0,0.0,0.0,0.0,0.0,0.0,1.0,1.0,-1.0,1.0,1.0,-1.0,1.0,-1.0,-1.0,-1.0,-1.0,-1.0
2025-06-03 17:56:40.301,0.400993,-2.954445,15.168892,0.0014304195,-0.00070335023,-8.330456e-05,0.533087,0.058813,9.746027,0.14263153,0.048103333,-1.682766,-0.6060043,-0.025596619,3.8776245,1.6624935,-0.041999817,-5.6940575,0.07953644,-0.012016296,1.2127876,-0.51627606,-0.09159088,-0.04333496,1.5645574,-0.00415802,-1.223774,0.11936188,0.15865326,-0.6012039,-1.469274,0.00995636,-0.49378204,1.5784175,0.00995636,-1.9952698,-0.13149261,-0.08289337,1.1871529,-1.4341723,-0.015983582,-2.11734,1.7346166,-0.020637512,-8.896011,0.0,0.0,0.0,0.0,0.0,0.0,0.0,0.0,0.0,0.0,0.0,0.0,1.0,1.0,-1.0,1.0,1.0,-1.0,1.0,-1.0,-1.0,-1.0,-1.0,-1.0
2025-06-03 17:56:40.355,0.404055,-2.963289,15.169024,0.0010451904,-0.0007718893,0.0011526503,0.502555,0.089849,9.786916,0.14255524,0.014457703,-1.830471,-0.6056228,0.0059890747,3.908142,1.6622646,0.022239685,-5.7648582,0.07938385,-0.035438538,1.178608,-0.51650494,-0.012016296,0.033569336,1.5644811,-0.002861023,-1.2884712,0.11920929,0.10555267,-0.56702423,-1.4694266,0.013008118,-0.5853348,1.5783412,-0.017738342,-2.0123596,-0.13103485,0.049552917,1.0260162,-1.4341723,0.14949799,-2.014801,1.7346166,-0.007133484,-8.845959,0.0,0.0,0.0,0.0,0.0,0.0,0.0,0.0,0.0,0.0,0.0,0.0,1.0,1.0,-1.0,1.0,1.0,-1.0,1.0,-1.0,-1.0,-1.0,-1.0,-1.0
2025-06-03 17:56:40.408,0.401924,-2.966393,15.17083,0.0017563946,0.0008027118,0.0011440633,0.495472,0.090517,9.759828,0.14240265,0.054588318,-1.7486839,-0.605928,0.076942444,3.9240112,1.6624935,-0.01941681,-5.7843895,0.079841614,0.1089859,0.9637604,-0.5161235,-0.008735657,-0.0592041,1.5647863,0.09799957,-1.2518501,0.11936188,0.04009247,-0.5877762,-1.4695792,-0.022239685,-0.53284454,1.5784175,0.028877258,-2.0257874,-0.13095856,0.10822296,1.1712837,-1.4344774,-0.07648468,-2.0733948,1.7345403,-0.034599304,-8.845959,0.0,0.0,0.0,0.0,0.0,0.0,0.0,0.0,0.0,0.0,0.0,0.0,1.0,1.0,-1.0,1.0,1.0,-1.0,1.0,-1.0,-1.0,-1.0,-1.0,-1.0
2025-06-03 17:56:40.462,0.400257,-2.966416,15.170525,-0.0013264676,-0.001602858,0.0008576897,0.502713,0.052545,9.798158,0.14240265,0.015144348,-1.6559105,-0.6060806,-0.0030899048,3.8239098,1.6624172,-0.004310608,-5.8466454,0.079841614,0.032157898,0.83680344,-0.5161235,0.014305115,-0.18005753,1.5646337,-0.033454895,-1.2835884,0.1190567,-0.047187805,-0.50110626,-1.469274,-0.009269714,-0.5096512,1.578265,0.016899109,-1.948883,-0.13111115,-0.052223206,1.2176704,-1.4341723,0.030403137,-2.0611877,1.7345403,0.031929016,-9.029068,0.0,0.0,0.0,0.0,0.0,0.0,0.0,0.0,0.0,0.0,0.0,0.0,1.0,1.0,-1.0,1.0,1.0,-1.0,1.0,-1.0,-1.0,-1.0,-1.0,-1.0
2025-06-03 17:56:40.517,0.400257,-2.966416,15.170525,-0.0013264676,-0.001602858,0.0008576897,0.502713,0.052545,9.798158,0.14240265,0.015144348,-1.6559105,-0.6060806,-0.0030899048,3.8239098,1.6624172,-0.004310608,-5.8466454,0.079841614,0.032157898,0.83680344,-0.5161235,0.014305115,-0.18005753,1.5646337,-0.033454895,-1.2835884,0.1190567,-0.047187805,-0.50110626,-1.469274,-0.009269714,-0.5096512,1.578265,0.016899109,-1.948883,-0.13111115,-0.052223206,1.2176704,-1.4341723,0.030403137,-2.0611877,1.7345403,0.031929016,-9.029068,0.0,0.0,0.0,0.0,0.0,0.0,0.0,0.0,0.0,0.0,0.0,0.0,1.0,1.0,-1.0,1.0,1.0,-1.0,1.0,-1.0,-1.0,-1.0,-1.0,-1.0
2025-06-03 17:56:40.571,0.403221,-2.962838,15.170377,0.002461752,0.0045054103,0.0027041433,0.498978,0.076364,9.778477,0.14247894,-0.028266907,-1.727932,-0.6057754,-0.0522995,3.9227905,1.6624172,-0.006828308,-5.839321,0.08014679,-0.015220642,1.1297798,-0.5160472,0.018196106,-0.023803711,1.5644048,-0.024986267,-1.2738228,0.1190567,0.045967102,-0.5609207,-1.4695029,-0.010261536,-0.53040314,1.5783412,-0.018730164,-2.0221252,-0.13126373,-0.038108826,1.1859322,-1.4343249,0.05672455,-2.1161194,1.7346166,0.013694763,-9.002213,0.0,0.0,0.0,0.0,0.0,0.0,0.0,0.0,0.0,0.0,0.0,0.0,1.0,1.0,-1.0,1.0,1.0,-1.0,1.0,-1.0,-1.0,-1.0,-1.0,-1.0
2025-06-03 17:56:40.623,0.40381,-2.964383,15.17142,-0.0020781634,0.001189215,0.00043104397,0.53774,0.065129,9.794317,0.14270782,0.10349274,-1.7572289,-0.6057754,-0.09807587,3.794613,1.6624172,-0.011253357,-5.839321,0.079689026,-0.024299622,1.2713814,-0.51627606,0.013618469,-0.07141113,1.5647863,0.023612976,-1.2103462,0.118904114,-0.0034713745,-0.3985672,-1.4697318,0.017585754,-0.48401642,1.5784938,0.0048446655,-2.0318909,-0.13088226,0.19245148,0.9796295,-1.4344774,0.0051498413,-1.912262,1.7349218,0.031318665,-8.966812,0.0,0.0,0.0,0.0,0.0,0.0,0.0,0.0,0.0,0.0,0.0,0.0,1.0,1.0,-1.0,1.0,1.0,-1.0,1.0,-1.0,-1.0,-1.0,-1.0,-1.0
2025-06-03 17:56:40.676,0.401675,-2.966681,15.171453,0.0016865465,0.0017666222,0.00038273324,0.517862,0.077576,9.757154,0.14263153,0.06198883,-1.8072777,-0.6056991,0.032081604,3.761654,1.6623409,0.021705627,-5.840542,0.07976532,-0.025215149,1.1187897,-0.5159709,0.20061493,-0.18860245,1.5648626,-0.0434494,-1.2347603,0.1190567,0.19886017,-0.54138947,-1.4696555,0.06481171,-0.48279572,1.5784175,-0.013694763,-2.035553,-0.13088226,0.07160187,1.0113678,-1.4344012,0.046653748,-1.9635315,1.7346166,-0.017356873,-8.958267,0.0,0.0,0.0,0.0,0.0,0.0,0.0,0.0,0.0,0.0,0.0,0.0,1.0,1.0,-1.0,1.0,1.0,-1.0,1.0,-1.0,-1.0,-1.0,-1.0,-1.0
2025-06-03 17:56:40.727,0.401675,-2.966681,15.171453,0.0016865465,0.0017666222,0.00038273324,0.517862,0.077576,9.757154,0.14263153,0.06198883,-1.8072777,-0.6056991,0.032081604,3.761654,1.6623409,0.021705627,-5.840542,0.07976532,-0.025215149,1.1187897,-0.5159709,0.20061493,-0.18860245,1.5648626,-0.0434494,-1.2347603,0.1190567,0.19886017,-0.54138947,-1.4696555,0.06481171,-0.48279572,1.5784175,-0.013694763,-2.035553,-0.13088226,0.07160187,1.0113678,-1.4344012,0.046653748,-1.9635315,1.7346166,-0.017356873,-8.958267,0.0,0.0,0.0,0.0,0.0,0.0,0.0,0.0,0.0,0.0,0.0,0.0,1.0,1.0,-1.0,1.0,1.0,-1.0,1.0,-1.0,-1.0,-1.0,-1.0,-1.0
2025-06-03 17:56:40.778,0.402407,-2.967177,15.171247,0.0007947182,-0.00021135937,0.0002711369,0.507998,0.068222,9.768506,0.14263153,0.06832123,-1.7621117,-0.605928,0.04131317,3.8995972,1.6623409,-0.008049011,-5.835659,0.07976532,-0.03452301,1.170063,-0.51635236,-0.11455536,-0.1727333,1.5647863,0.021247864,-1.3446236,0.118904114,0.082588196,-0.48279572,-1.4695029,-0.06687164,-0.5157547,1.5784938,0.0060653687,-1.9598694,-0.13134003,0.06023407,1.1993599,-1.4344012,0.0030136108,-1.981842,1.7346929,0.039634705,-8.98024,0.0,0.0,0.0,0.0,0.0,0.0,0.0,0.0,0.0,0.0,0.0,0.0,1.0,1.0,-1.0,1.0,1.0,-1.0,1.0,-1.0,-1.0,-1.0,-1.0,-1.0
2025-06-03 17:56:40.829,0.405944,-2.967809,15.16748,0.0043511754,0.0022185578,-0.00084861397,0.539304,0.084272,9.766199,0.14240265,0.08205414,-1.7999535,-0.60547024,-0.015449524,3.9313354,1.6622646,0.005683899,-5.7917137,0.07976532,-0.07198334,1.0785065,-0.51650494,-0.2098465,-0.009155273,1.56471,-0.051231384,-1.3495064,0.118904114,0.02658844,-0.5242996,-1.4695029,0.072517395,-0.49988556,1.5784175,-0.003929138,-2.0294495,-0.13103485,-0.028038025,1.3092232,-1.43463,0.015602112,-1.9269104,1.7346166,0.03452301,-8.885025,0.0,0.0,0.0,0.0,0.0,0.0,0.0,0.0,0.0,0.0,0.0,0.0,1.0,1.0,-1.0,1.0,1.0,-1.0,1.0,-1.0,-1.0,-1.0,-1.0,-1.0
2025-06-03 17:56:40.880,0.408144,-2.967114,15.164564,0.00039301324,-0.0022843217,0.00031150636,0.536169,0.074703,9.798221,0.14247894,-0.04459381,-1.6925316,-0.605928,-0.11142731,3.9118042,1.6623409,-0.046272278,-5.8027,0.080070496,-0.029029846,1.0528717,-0.51619977,-0.16925812,-0.009155273,1.5647863,0.060768127,-1.26894,0.11898041,-0.079460144,-0.64881516,-1.4697318,-0.07083893,-0.58167267,1.5784938,0.03780365,-2.0416565,-0.13141632,0.004005432,1.4093246,-1.4344774,-0.005531311,-1.9940491,1.7345403,-0.022697449,-8.98024,0.0,0.0,0.0,0.0,0.0,0.0,0.0,0.0,0.0,0.0,0.0,0.0,1.0,1.0,-1.0,1.0,1.0,-1.0,1.0,-1.0,-1.0,-1.0,-1.0,-1.0
2025-06-03 17:56:40.931,0.408144,-2.967114,15.164564,0.00039301324,-0.0022843217,0.00031150636,0.536169,0.074703,9.798221,0.14247894,-0.04459381,-1.6925316,-0.605928,-0.11142731,3.9118042,1.6623409,-0.046272278,-5.8027,0.080070496,-0.029029846,1.0528717,-0.51619977,-0.16925812,-0.009155273,1.5647863,0.060768127,-1.26894,0.11898041,-0.079460144,-0.64881516,-1.4697318,-0.07083893,-0.58167267,1.5784938,0.03780365,-2.0416565,-0.13141632,0.004005432,1.4093246,-1.4344774,-0.005531311,-1.9940491,1.7345403,-0.022697449,-8.98024,0.0,0.0,0.0,0.0,0.0,0.0,0.0,0.0,0.0,0.0,0.0,0.0,1.0,1.0,-1.0,1.0,1.0,-1.0,1.0,-1.0,-1.0,-1.0,-1.0,-1.0
2025-06-03 17:56:40.982,0.408144,-2.967114,15.164564,0.00039301324,-0.0022843217,0.00031150636,0.536169,0.074703,9.798221,0.14247894,-0.04459381,-1.6925316,-0.605928,-0.11142731,3.9118042,1.6623409,-0.046272278,-5.8027,0.080070496,-0.029029846,1.0528717,-0.51619977,-0.16925812,-0.009155273,1.5647863,0.060768127,-1.26894,0.11898041,-0.079460144,-0.64881516,-1.4697318,-0.07083893,-0.58167267,1.5784938,0.03780365,-2.0416565,-0.13141632,0.004005432,1.4093246,-1.4344774,-0.005531311,-1.9940491,1.7345403,-0.022697449,-8.98024,0.0,0.0,0.0,0.0,0.0,0.0,0.0,0.0,0.0,0.0,0.0,0.0,1.0,1.0,-1.0,1.0,1.0,-1.0,1.0,-1.0,-1.0,-1.0,-1.0,-1.0
2025-06-03 17:56:41.033,0.408476,-2.973579,15.162086,0.00094434526,0.0014159158,-0.00104252,0.521082,0.094019,9.781681,0.14232635,-0.027427673,-1.6607933,-0.605928,0.05962372,3.937439,1.6623409,0.013618469,-5.8027,0.0799942,0.06900787,1.1676216,-0.51627606,-0.015220642,-0.11779785,1.56471,0.035362244,-1.2957954,0.118751526,-0.08609772,-0.53528595,-1.4695029,0.009117126,-0.5255203,1.5784938,0.012016296,-1.9403381,-0.13118744,0.08312225,1.1419868,-1.4344774,0.009803772,-2.068512,1.7346929,0.008811951,-8.942398,0.0,0.0,0.0,0.0,0.0,0.0,0.0,0.0,0.0,0.0,0.0,0.0,1.0,1.0,-1.0,1.0,1.0,-1.0,1.0,-1.0,-1.0,-1.0,-1.0,-1.0
2025-06-03 17:56:41.084,0.410984,-2.974249,15.162019,0.0011134153,0.0015948644,7.234389e-05,0.507257,0.069595,9.791579,0.14240265,-0.08693695,-1.6571312,-0.60547024,-0.021400452,3.756771,1.6622646,0.006752014,-5.7550926,0.07991791,0.05924225,0.867321,-0.51619977,-0.05672455,-0.026245117,1.5647863,-0.08075714,-1.2701607,0.118751526,-0.23799896,-0.50110626,-1.4694266,0.017585754,-0.53162384,1.5783412,-0.04901886,-2.0245667,-0.13118744,0.1215744,1.3189888,-1.4345537,-0.05252838,-2.0636292,1.7346166,-0.008964539,-8.958267,0.0,0.0,0.0,0.0,0.0,0.0,0.0,0.0,0.0,0.0,0.0,0.0,1.0,1.0,-1.0,1.0,1.0,-1.0,1.0,-1.0,-1.0,-1.0,-1.0,-1.0
2025-06-03 17:56:41.135,0.410697,-2.976701,15.162143,0.00027347563,-0.002188067,0.0013945705,0.516468,0.101697,9.770844,0.14255524,0.02292633,-1.7999535,-0.6057754,0.03025055,3.8788452,1.6623409,-0.02445221,-5.7843895,0.0799942,0.091667175,1.0528717,-0.5160472,0.017356873,-0.06286621,1.56471,0.02696991,-1.3446236,0.11936188,0.15834808,-0.665905,-1.4696555,0.0030899048,-0.5438309,1.5784938,-0.0061416626,-2.0538635,-0.13126373,-0.13767242,1.1126862,-1.4344774,-0.026435852,-1.9794006,1.734464,-0.04009247,-8.89357,0.0,0.0,0.0,0.0,0.0,0.0,0.0,0.0,0.0,0.0,0.0,0.0,1.0,1.0,-1.0,1.0,1.0,-1.0,1.0,-1.0,-1.0,-1.0,-1.0,-1.0
2025-06-03 17:56:41.187,0.410697,-2.976701,15.162143,0.00027347563,-0.002188067,0.0013945705,0.516468,0.101697,9.770844,0.14255524,0.02292633,-1.7999535,-0.6057754,0.03025055,3.8788452,1.6623409,-0.02445221,-5.7843895,0.0799942,0.091667175,1.0528717,-0.5160472,0.017356873,-0.06286621,1.56471,0.02696991,-1.3446236,0.11936188,0.15834808,-0.665905,-1.4696555,0.0030899048,-0.5438309,1.5784938,-0.0061416626,-2.0538635,-0.13126373,-0.13767242,1.1126862,-1.4344774,-0.026435852,-1.9794006,1.734464,-0.04009247,-8.89357,0.0,0.0,0.0,0.0,0.0,0.0,0.0,0.0,0.0,0.0,0.0,0.0,1.0,1.0,-1.0,1.0,1.0,-1.0,1.0,-1.0,-1.0,-1.0,-1.0,-1.0
2025-06-03 17:56:41.239,0.413071,-2.981156,15.162254,0.0035789371,0.0020256117,-0.00036157985,0.524357,0.081405,9.794933,0.14240265,-0.015830994,-1.7120628,-0.6057754,-0.031700134,3.8141441,1.6624172,0.010948181,-5.8173485,0.080070496,-0.038719177,0.895401,-0.51635236,-0.03124237,-0.08117676,1.5645574,0.051002502,-1.2323189,0.118904114,0.15216827,-0.72571945,-1.4696555,-0.027122498,-0.5609207,1.5784175,0.015907288,-2.002594,-0.13149261,-0.038261414,1.190815,-1.4344774,-0.0157547,-1.9525452,1.7345403,-0.03139496,-8.943619,0.0,0.0,0.0,0.0,0.0,0.0,0.0,0.0,0.0,0.0,0.0,0.0,1.0,1.0,-1.0,1.0,1.0,-1.0,1.0,-1.0,-1.0,-1.0,-1.0,-1.0
2025-06-03 17:56:41.290,0.414806,-2.98007,15.162558,0.000846921,0.0016848361,-0.00056735415,0.487754,0.084928,9.793321,0.14270782,0.024147034,-1.7669945,-0.60554653,0.0033950806,3.8825073,1.6623409,-0.049324036,-5.8539696,0.079689026,0.009880066,1.1322212,-0.5160472,-0.08388519,-0.14099503,1.56471,-0.03025055,-1.3495064,0.118522644,-0.3208542,-0.40955353,-1.4695792,0.02544403,-0.46082306,1.5784938,-0.0011062622,-2.044098,-0.13118744,-0.08968353,1.1480904,-1.4344774,0.08029938,-2.1100159,1.7346166,-0.06336212,-8.880142,0.0,0.0,0.0,0.0,0.0,0.0,0.0,0.0,0.0,0.0,0.0,0.0,1.0,1.0,-1.0,1.0,1.0,-1.0,1.0,-1.0,-1.0,-1.0,-1.0,-1.0
2025-06-03 17:56:41.341,0.414588,-2.98139,15.161137,-0.00023047073,0.001963862,0.00033094932,0.502707,0.042505,9.795018,0.14240265,-0.024986267,-1.7218285,-0.6056228,0.017814636,3.8324547,1.6624172,-0.024909973,-5.8051414,0.07991791,0.010719299,1.18227,-0.5161235,-0.20832062,-0.128788,1.5647863,-0.023460388,-1.3153267,0.11920929,0.14942169,-0.7415886,-1.4695029,-0.034065247,-0.53894806,1.5785701,0.0059890747,-2.059967,-0.13141632,-0.028114319,1.3531685,-1.4345537,0.0046157837,-2.0074768,1.7345403,0.024757385,-8.996109,0.0,0.0,0.0,0.0,0.0,0.0,0.0,0.0,0.0,0.0,0.0,0.0,1.0,1.0,-1.0,1.0,1.0,-1.0,1.0,-1.0,-1.0,-1.0,-1.0,-1.0
2025-06-03 17:56:41.392,0.414588,-2.98139,15.161137,-0.00023047073,0.001963862,0.00033094932,0.502707,0.042505,9.795018,0.14240265,-0.024986267,-1.7218285,-0.6056228,0.017814636,3.8324547,1.6624172,-0.024909973,-5.8051414,0.07991791,0.010719299,1.18227,-0.5161235,-0.20832062,-0.128788,1.5647863,-0.023460388,-1.3153267,0.11920929,0.14942169,-0.7415886,-1.4695029,-0.034065247,-0.53894806,1.5785701,0.0059890747,-2.059967,-0.13141632,-0.028114319,1.3531685,-1.4345537,0.0046157837,-2.0074768,1.7345403,0.024757385,-8.996109,0.0,0.0,0.0,0.0,0.0,0.0,0.0,0.0,0.0,0.0,0.0,0.0,1.0,1.0,-1.0,1.0,1.0,-1.0,1.0,-1.0,-1.0,-1.0,-1.0,-1.0
2025-06-03 17:56:41.443,0.414588,-2.98139,15.161137,-0.00023047073,0.001963862,0.00033094932,0.502707,0.042505,9.795018,0.14240265,-0.024986267,-1.7218285,-0.6056228,0.017814636,3.8324547,1.6624172,-0.024909973,-5.8051414,0.07991791,0.010719299,1.18227,-0.5161235,-0.20832062,-0.128788,1.5647863,-0.023460388,-1.3153267,0.11920929,0.14942169,-0.7415886,-1.4695029,-0.034065247,-0.53894806,1.5785701,0.0059890747,-2.059967,-0.13141632,-0.028114319,1.3531685,-1.4345537,0.0046157837,-2.0074768,1.7345403,0.024757385,-8.996109,0.0,0.0,0.0,0.0,0.0,0.0,0.0,0.0,0.0,0.0,0.0,0.0,1.0,1.0,-1.0,1.0,1.0,-1.0,1.0,-1.0,-1.0,-1.0,-1.0,-1.0
2025-06-03 17:56:41.494,0.41672,-2.989379,15.158684,0.0028158966,-0.0007699869,-4.9218283e-06,0.498077,0.085515,9.775165,0.14270782,0.032463074,-1.6754417,-0.605928,-0.05382538,3.6945152,1.6622646,-0.0047683716,-5.778286,0.07991791,-0.02193451,1.0077057,-0.5159709,0.10135651,-0.08972168,1.56471,-0.013771057,-1.293354,0.11882782,-0.05947113,-0.436409,-1.4694266,0.077934265,-0.5621414,1.5783412,-0.029945374,-2.0001526,-0.13095856,0.10349274,1.0040436,-1.43463,-0.024681091,-2.0502014,1.7346166,0.029029846,-8.913101,0.0,0.0,0.0,0.0,0.0,0.0,0.0,0.0,0.0,0.0,0.0,0.0,1.0,1.0,-1.0,1.0,1.0,-1.0,1.0,-1.0,-1.0,-1.0,-1.0,-1.0
2025-06-03 17:56:41.544,0.419062,-2.990327,15.155458,0.0011998615,0.0010968172,0.0006612878,0.496322,0.093753,9.792486,0.14247894,-0.04787445,-1.7914085,-0.6058517,-0.010719299,3.892273,1.6624172,-0.044517517,-5.8136864,0.08014679,0.07534027,1.0296783,-0.5160472,0.039711,-0.16052628,1.5645574,0.028572083,-1.2872505,0.11867523,-0.060768127,-0.38025665,-1.4696555,0.019187927,-0.5047684,1.5785701,-0.011634827,-2.089264,-0.13134003,0.048103333,1.0504303,-1.4345537,0.050239563,-1.981842,1.7346929,0.044288635,-8.926529,0.0,0.0,0.0,0.0,0.0,0.0,0.0,0.0,0.0,0.0,0.0,0.0,1.0,1.0,-1.0,1.0,1.0,-1.0,1.0,-1.0,-1.0,-1.0,-1.0,-1.0
2025-06-03 17:56:41.596,0.419725,-2.990486,15.155425,-0.0012238248,0.00014271557,-0.0011646932,0.539069,0.076322,9.778597,0.14270782,-0.01499176,-1.7486839,-0.60547024,0.07671356,3.883728,1.6624172,0.0024032593,-5.8173485,0.080070496,0.1454544,0.99183655,-0.5160472,0.019950867,-0.103149414,1.5647863,0.0031661987,-1.2957954,0.1190567,0.057258606,-0.61341095,-1.4697318,0.05870819,-0.53040314,1.5785701,0.01537323,-2.0526428,-0.13103485,-0.017814636,1.371479,-1.4344774,-0.028877258,-2.0074768,1.7345403,0.0046920776,-8.935074,0.0,0.0,0.0,0.0,0.0,0.0,0.0,0.0,0.0,0.0,0.0,0.0,1.0,1.0,-1.0,1.0,1.0,-1.0,1.0,-1.0,-1.0,-1.0,-1.0,-1.0
2025-06-03 17:56:41.647,0.419725,-2.990486,15.155425,-0.0012238248,0.00014271557,-0.0011646932,0.539069,0.076322,9.778597,0.14270782,-0.01499176,-1.7486839,-0.60547024,0.07671356,3.883728,1.6624172,0.0024032593,-5.8173485,0.080070496,0.1454544,0.99183655,-0.5160472,0.019950867,-0.103149414,1.5647863,0.0031661987,-1.2957954,0.1190567,0.057258606,-0.61341095,-1.4697318,0.05870819,-0.53040314,1.5785701,0.01537323,-2.0526428,-0.13103485,-0.017814636,1.371479,-1.4344774,-0.028877258,-2.0074768,1.7345403,0.0046920776,-8.935074,0.0,0.0,0.0,0.0,0.0,0.0,0.0,0.0,0.0,0.0,0.0,0.0,1.0,1.0,-1.0,1.0,1.0,-1.0,1.0,-1.0,-1.0,-1.0,-1.0,-1.0
2025-06-03 17:56:41.698,0.417071,-2.995674,15.153402,0.003015283,0.003329966,0.0026589043,0.543885,0.068452,9.757293,0.14247894,-0.006904602,-1.7120628,-0.6056991,-0.015296936,3.8031578,1.6623409,0.0073623657,-5.8295555,0.079841614,-0.0472641,1.1920357,-0.5160472,0.07556915,-0.19470596,1.56471,-0.052070618,-1.2701607,0.11898041,-0.009803772,-0.665905,-1.4696555,-0.021324158,-0.49134064,1.5784175,0.0048446655,-2.0123596,-0.13126373,-0.02658844,1.3726997,-1.4345537,-0.044059753,-2.0001526,1.7346166,0.005607605,-8.898453,0.0,0.0,0.0,0.0,0.0,0.0,0.0,0.0,0.0,0.0,0.0,0.0,1.0,1.0,-1.0,1.0,1.0,-1.0,1.0,-1.0,-1.0,-1.0,-1.0,-1.0
2025-06-03 17:56:41.749,0.417248,-2.993689,15.155401,0.002493831,0.0014542257,-0.0008561887,0.517826,0.073823,9.784781,0.14240265,0.03955841,-1.7657738,-0.60547024,-0.014533997,3.6652184,1.6623409,-0.014533997,-5.7795067,0.079841614,0.064964294,1.1920357,-0.51642865,-0.029945374,-0.036010742,1.56471,-0.043144226,-1.2298775,0.118751526,0.07923126,-0.53040314,-1.4693503,0.05580902,-0.5597,1.5784938,-0.0051498413,-2.0245667,-0.13103485,-0.0038528442,1.1407661,-1.4345537,0.044670105,-2.0196838,1.7346166,0.026817322,-8.960709,0.0,0.0,0.0,0.0,0.0,0.0,0.0,0.0,0.0,0.0,0.0,0.0,1.0,1.0,-1.0,1.0,1.0,-1.0,1.0,-1.0,-1.0,-1.0,-1.0,-1.0
2025-06-03 17:56:41.800,0.416005,-2.992792,15.153156,-0.0002218139,0.0018839432,0.0010176316,0.507581,0.067759,9.820799,0.14240265,-0.017204285,-1.6876488,-0.6057754,-0.03276825,3.875183,1.6624172,0.0037002563,-5.7892723,0.07991791,-0.024604797,1.1651802,-0.51619977,-0.013923645,-0.119018555,1.5647863,0.036125183,-1.235981,0.118522644,-0.08922577,-0.53406525,-1.4697318,-0.018119812,-0.49378204,1.5784938,0.028648376,-2.0465393,-0.13088226,0.12050629,1.2469673,-1.4347063,-0.017662048,-1.9562073,1.7346166,0.0076675415,-8.924088,0.0,0.0,0.0,0.0,0.0,0.0,0.0,0.0,0.0,0.0,0.0,0.0,1.0,1.0,-1.0,1.0,1.0,-1.0,1.0,-1.0,-1.0,-1.0,-1.0,-1.0
2025-06-03 17:56:41.851,0.416005,-2.992792,15.153156,-0.0002218139,0.0018839432,0.0010176316,0.507581,0.067759,9.820799,0.14240265,-0.017204285,-1.6876488,-0.6057754,-0.03276825,3.875183,1.6624172,0.0037002563,-5.7892723,0.07991791,-0.024604797,1.1651802,-0.51619977,-0.013923645,-0.119018555,1.5647863,0.036125183,-1.235981,0.118522644,-0.08922577,-0.53406525,-1.4697318,-0.018119812,-0.49378204,1.5784938,0.028648376,-2.0465393,-0.13088226,0.12050629,1.2469673,-1.4347063,-0.017662048,-1.9562073,1.7346166,0.0076675415,-8.924088,0.0,0.0,0.0,0.0,0.0,0.0,0.0,0.0,0.0,0.0,0.0,0.0,1.0,1.0,-1.0,1.0,1.0,-1.0,1.0,-1.0,-1.0,-1.0,-1.0,-1.0
2025-06-03 17:56:41.902,0.416005,-2.992792,15.153156,-0.0002218139,0.0018839432,0.0010176316,0.507581,0.067759,9.820799,0.14240265,-0.017204285,-1.6876488,-0.6057754,-0.03276825,3.875183,1.6624172,0.0037002563,-5.7892723,0.07991791,-0.024604797,1.1651802,-0.51619977,-0.013923645,-0.119018555,1.5647863,0.036125183,-1.235981,0.118522644,-0.08922577,-0.53406525,-1.4697318,-0.018119812,-0.49378204,1.5784938,0.028648376,-2.0465393,-0.13088226,0.12050629,1.2469673,-1.4347063,-0.017662048,-1.9562073,1.7346166,0.0076675415,-8.924088,0.0,0.0,0.0,0.0,0.0,0.0,0.0,0.0,0.0,0.0,0.0,0.0,1.0,1.0,-1.0,1.0,1.0,-1.0,1.0,-1.0,-1.0,-1.0,-1.0,-1.0
2025-06-03 17:56:41.953,0.41371,-2.990946,15.148499,0.0026356915,0.006138183,0.0020541651,0.51774,0.068748,9.753321,0.14240265,-0.01941681,-1.6730003,-0.6056991,-0.05191803,3.7640953,1.6624172,-0.007896423,-5.816128,0.07961273,-0.0118637085,1.1041412,-0.51627606,0.030555725,-0.055541992,1.5646337,-0.0012588501,-1.2323189,0.118751526,-0.048789978,-0.61463165,-1.4697318,0.037727356,-0.49988556,1.5784938,0.033607483,-2.1100159,-0.13088226,0.094566345,1.215229,-1.4347063,-0.025367737,-2.0209045,1.7347692,0.036506653,-8.889908,0.0,0.0,0.0,0.0,0.0,0.0,0.0,0.0,0.0,0.0,0.0,0.0,1.0,1.0,-1.0,1.0,1.0,-1.0,1.0,-1.0,-1.0,-1.0,-1.0,-1.0
2025-06-03 17:56:42.004,0.416893,-2.991311,15.149015,0.00071570714,-0.0004929333,-0.0022610566,0.497458,0.078723,9.804016,0.14263153,0.015602112,-1.7682152,-0.60554653,-0.0233078,3.9313354,1.6623409,-0.012550354,-5.748989,0.079689026,0.029335022,1.157856,-0.51627606,0.107154846,-0.10192871,1.5645574,0.0075912476,-1.281147,0.11898041,0.028877258,-0.6012039,-1.4695029,0.05596161,-0.49744415,1.5785701,0.03391266,-2.023346,-0.13111115,-0.038337708,1.117569,-1.4347063,-0.0283432,-1.9623108,1.734464,-0.007133484,-8.913101,0.0,0.0,0.0,0.0,0.0,0.0,0.0,0.0,0.0,0.0,0.0,0.0,1.0,1.0,-1.0,1.0,1.0,-1.0,1.0,-1.0,-1.0,-1.0,-1.0,-1.0
2025-06-03 17:56:42.054,0.417325,-2.993466,15.148705,0.0009761801,0.0030017567,-0.0007566875,0.505072,0.081514,9.794862,0.14278412,0.011634827,-1.7926292,-0.6056991,-0.031852722,3.9069214,1.6623409,-0.005836487,-5.807583,0.079841614,-0.06717682,1.3556099,-0.51627606,0.10051727,-0.19592667,1.5645574,-0.06473541,-1.2506294,0.118751526,-0.118904114,-0.57312775,-1.4695792,-0.004310608,-0.48279572,1.5784938,-0.007286072,-2.002594,-0.13126373,0.11173248,1.2054634,-1.4345537,-0.010261536,-1.9549866,1.7349218,-0.018501282,-8.883804,0.0,0.0,0.0,0.0,0.0,0.0,0.0,0.0,0.0,0.0,0.0,0.0,1.0,1.0,-1.0,1.0,1.0,-1.0,1.0,-1.0,-1.0,-1.0,-1.0,-1.0
2025-06-03 17:56:42.106,0.417325,-2.993466,15.148705,0.0009761801,0.0030017567,-0.0007566875,0.505072,0.081514,9.794862,0.14278412,0.011634827,-1.7926292,-0.6056991,-0.031852722,3.9069214,1.6623409,-0.005836487,-5.807583,0.079841614,-0.06717682,1.3556099,-0.51627606,0.10051727,-0.19592667,1.5645574,-0.06473541,-1.2506294,0.118751526,-0.118904114,-0.57312775,-1.4695792,-0.004310608,-0.48279572,1.5784938,-0.007286072,-2.002594,-0.13126373,0.11173248,1.2054634,-1.4345537,-0.010261536,-1.9549866,1.7349218,-0.018501282,-8.883804,0.0,0.0,0.0,0.0,0.0,0.0,0.0,0.0,0.0,0.0,0.0,0.0,1.0,1.0,-1.0,1.0,1.0,-1.0,1.0,-1.0,-1.0,-1.0,-1.0,-1.0
2025-06-03 17:56:42.157,0.419968,-2.993507,15.147406,-0.0014551857,-0.004045813,-0.0001783901,0.539497,0.060364,9.785758,0.14263153,0.0051498413,-1.6876488,-0.6056228,-0.07091522,3.925232,1.6623409,-0.043525696,-5.783169,0.0799942,0.23845673,0.95765686,-0.5158946,-0.015830994,-0.17639542,1.5646337,0.06404877,-1.3092232,0.11898041,0.011253357,-0.5658035,-1.4698081,0.0020980835,-0.54016876,1.578265,0.0699234,-2.0282288,-0.13103485,0.008888245,1.0833893,-1.4344774,-0.018806458,-2.0196838,1.734464,0.020942688,-8.986343,0.0,0.0,0.0,0.0,0.0,0.0,0.0,0.0,0.0,0.0,0.0,0.0,1.0,1.0,-1.0,1.0,1.0,-1.0,1.0,-1.0,-1.0,-1.0,-1.0,-1.0
2025-06-03 17:56:42.208,0.41946,-2.996214,15.146208,-0.0010080498,0.0029953516,-0.000403939,0.515842,0.059817,9.797249,0.14263153,0.00011444092,-1.7267113,-0.6058517,0.04299164,3.8495445,1.6624935,-0.030479431,-5.847866,0.07961273,-0.10814667,1.178608,-0.51635236,0.076789856,-0.16174698,1.5646337,0.019111633,-1.2323189,0.119132996,0.0207901,-0.58045197,-1.4697318,0.021705627,-0.53406525,1.5784938,-0.004463196,-2.0050354,-0.13141632,0.022163391,1.3311958,-1.43463,0.03177643,-2.0135803,1.7349218,0.018806458,-8.920425,0.0,0.0,0.0,0.0,0.0,0.0,0.0,0.0,0.0,0.0,0.0,0.0,1.0,1.0,-1.0,1.0,1.0,-1.0,1.0,-1.0,-1.0,-1.0,-1.0,-1.0
2025-06-03 17:56:42.259,0.420513,-2.998096,15.144706,0.002825147,-1.0175269e-05,-0.0011120365,0.503757,0.072204,9.797369,0.14255524,-0.027656555,-1.7779808,-0.6056228,0.039024353,3.9008179,1.6624172,0.024299622,-5.8222313,0.080070496,0.07083893,0.9271393,-0.51619977,0.04283905,-0.17639542,1.56471,-0.041618347,-1.3226509,0.11898041,-0.101509094,-0.64271164,-1.4695792,-0.058555603,-0.5096512,1.5785701,0.014839172,-2.0184631,-0.13095856,-0.010414124,1.2506294,-1.4345537,0.025978088,-2.0306702,1.7346166,0.006904602,-8.964371,0.0,0.0,0.0,0.0,0.0,0.0,0.0,0.0,0.0,0.0,0.0,0.0,1.0,1.0,-1.0,1.0,1.0,-1.0,1.0,-1.0,-1.0,-1.0,-1.0,-1.0
2025-06-03 17:56:42.310,0.420513,-2.998096,15.144706,0.002825147,-1.0175269e-05,-0.0011120365,0.503757,0.072204,9.797369,0.14255524,-0.027656555,-1.7779808,-0.6056228,0.039024353,3.9008179,1.6624172,0.024299622,-5.8222313,0.080070496,0.07083893,0.9271393,-0.51619977,0.04283905,-0.17639542,1.56471,-0.041618347,-1.3226509,0.11898041,-0.101509094,-0.64271164,-1.4695792,-0.058555603,-0.5096512,1.5785701,0.014839172,-2.0184631,-0.13095856,-0.010414124,1.2506294,-1.4345537,0.025978088,-2.0306702,1.7346166,0.006904602,-8.964371,0.0,0.0,0.0,0.0,0.0,0.0,0.0,0.0,0.0,0.0,0.0,0.0,1.0,1.0,-1.0,1.0,1.0,-1.0,1.0,-1.0,-1.0,-1.0,-1.0,-1.0
2025-06-03 17:56:42.361,0.420513,-2.998096,15.144706,0.002825147,-1.0175269e-05,-0.0011120365,0.503757,0.072204,9.797369,0.14255524,-0.027656555,-1.7779808,-0.6056228,0.039024353,3.9008179,1.6624172,0.024299622,-5.8222313,0.080070496,0.07083893,0.9271393,-0.51619977,0.04283905,-0.17639542,1.56471,-0.041618347,-1.3226509,0.11898041,-0.101509094,-0.64271164,-1.4695792,-0.058555603,-0.5096512,1.5785701,0.014839172,-2.0184631,-0.13095856,-0.010414124,1.2506294,-1.4345537,0.025978088,-2.0306702,1.7346166,0.006904602,-8.964371,0.0,0.0,0.0,0.0,0.0,0.0,0.0,0.0,0.0,0.0,0.0,0.0,1.0,1.0,-1.0,1.0,1.0,-1.0,1.0,-1.0,-1.0,-1.0,-1.0,-1.0
2025-06-03 17:56:42.412,0.422085,-2.998916,15.1387,0.0015626979,0.00085583964,-0.0013843428,0.538756,0.074946,9.752404,0.14247894,0.0573349,-1.752346,-0.60547024,0.028648376,3.851986,1.6623409,-0.012397766,-5.864956,0.08014679,0.08609772,1.0919342,-0.51619977,0.06778717,-0.014038086,1.5645574,-0.08342743,-1.2677193,0.11928558,0.094184875,-0.80750656,-1.4698081,0.0021743774,-0.481575,1.5785701,0.029716492,-1.9598694,-0.13118744,-0.07808685,1.281147,-1.43463,0.02910614,-2.0196838,1.7343878,0.014152527,-8.961929,0.0,0.0,0.0,0.0,0.0,0.0,0.0,0.0,0.0,0.0,0.0,0.0,1.0,1.0,-1.0,1.0,1.0,-1.0,1.0,-1.0,-1.0,-1.0,-1.0,-1.0
2025-06-03 17:56:42.463,0.421919,-2.993696,15.137301,0.002319438,0.003684966,-0.001809121,0.522417,0.045546,9.778875,0.14263153,0.115852356,-1.7828636,-0.6056991,-0.07671356,3.6945152,1.6624172,0.033988953,-5.7880516,0.07976532,-0.05367279,1.170063,-0.51642865,0.12599945,-0.13489151,1.5644048,-0.04207611,-1.2530708,0.11898041,0.22502899,-0.64759445,-1.4697318,-0.012626648,-0.5059891,1.5784938,0.02155304,-2.0367737,-0.13111115,-0.09334564,1.2286568,-1.4347826,-0.015220642,-1.9671936,1.7346929,-0.04459381,-8.902115,0.0,0.0,0.0,0.0,0.0,0.0,0.0,0.0,0.0,0.0,0.0,0.0,1.0,1.0,-1.0,1.0,1.0,-1.0,1.0,-1.0,-1.0,-1.0,-1.0,-1.0
2025-06-03 17:56:42.514,0.421346,-2.992896,15.138857,0.00062678265,0.0010834829,0.002699239,0.519031,0.066852,9.796278,0.14240265,0.05191803,-1.7413597,-0.6058517,0.029258728,3.8385582,1.6624935,0.030555725,-5.8588524,0.0799942,-0.028419495,1.1261177,-0.51650494,-0.09487152,-0.006713867,1.5648626,-0.060157776,-1.3336372,0.11898041,0.10761261,-0.5572586,-1.4696555,0.022087097,-0.5096512,1.5785701,0.08068085,-1.9781799,-0.13111115,-0.06984711,1.0894928,-1.4345537,0.021858215,-2.0099182,1.7345403,0.06290436,-8.943619,0.0,0.0,0.0,0.0,0.0,0.0,0.0,0.0,0.0,0.0,0.0,0.0,1.0,1.0,-1.0,1.0,1.0,-1.0,1.0,-1.0,-1.0,-1.0,-1.0,-1.0
2025-06-03 17:56:42.565,0.421346,-2.992896,15.138857,0.00062678265,0.0010834829,0.002699239,0.519031,0.066852,9.796278,0.14240265,0.05191803,-1.7413597,-0.6058517,0.029258728,3.8385582,1.6624935,0.030555725,-5.8588524,0.0799942,-0.028419495,1.1261177,-0.51650494,-0.09487152,-0.006713867,1.5648626,-0.060157776,-1.3336372,0.11898041,0.10761261,-0.5572586,-1.4696555,0.022087097,-0.5096512,1.5785701,0.08068085,-1.9781799,-0.13111115,-0.06984711,1.0894928,-1.4345537,0.021858215,-2.0099182,1.7345403,0.06290436,-8.943619,0.0,0.0,0.0,0.0,0.0,0.0,0.0,0.0,0.0,0.0,0.0,0.0,1.0,1.0,-1.0,1.0,1.0,-1.0,1.0,-1.0,-1.0,-1.0,-1.0,-1.0
2025-06-03 17:56:42.615,0.424792,-2.99643,15.134337,0.0002945592,0.0017858732,-0.00048153632,0.533997,0.077851,9.766875,0.14247894,-0.0030136108,-1.8084984,-0.6057754,-0.04650116,3.839779,1.6623409,0.032081604,-5.818569,0.0799942,0.029716492,0.98817444,-0.51658124,-0.028648376,-0.01159668,1.5647863,0.04611969,-1.2701607,0.118904114,0.08304596,-0.68909836,-1.4697318,0.06587982,-0.48279572,1.5784175,0.049171448,-2.080719,-0.13134003,-0.080070496,1.3238716,-1.43463,0.007133484,-1.9952698,1.7346929,0.0011062622,-8.976578,0.0,0.0,0.0,0.0,0.0,0.0,0.0,0.0,0.0,0.0,0.0,0.0,1.0,1.0,-1.0,1.0,1.0,-1.0,1.0,-1.0,-1.0,-1.0,-1.0,-1.0
2025-06-03 17:56:42.667,0.422131,-2.998521,15.131592,0.0010770776,0.0010006845,-0.0015191694,0.504293,0.056096,9.773724,0.14263153,-0.023994446,-1.8438988,-0.60554653,-0.053596497,3.851986,1.662646,0.008659363,-5.851528,0.07976532,-0.08167267,1.1285591,-0.51650494,-0.044441223,-0.12390137,1.5645574,-0.008354187,-1.1956978,0.11882782,-0.009422302,-0.5987625,-1.4697318,-0.0048446655,-0.54261017,1.5784175,-0.0062179565,-2.0221252,-0.13103485,-0.014381409,1.1798286,-1.4347826,0.0061416626,-2.0050354,1.7346929,-0.0008010864,-8.955826,0.0,0.0,0.0,0.0,0.0,0.0,0.0,0.0,0.0,0.0,0.0,0.0,1.0,1.0,-1.0,1.0,1.0,-1.0,1.0,-1.0,-1.0,-1.0,-1.0,-1.0
2025-06-03 17:56:42.717,0.418956,-3.00001,15.129366,0.0008360825,0.0005264262,0.0013078799,0.522663,0.062534,9.752344,0.14255524,-0.012245178,-1.6961937,-0.6057754,-0.0157547,3.7958336,1.6624935,0.018806458,-5.8100243,0.0799942,0.11631012,1.0565338,-0.51642865,-0.037345886,-0.16174698,1.5647863,0.06061554,-1.3409615,0.118751526,0.018577576,-0.53772736,-1.4699607,0.005683899,-0.5133133,1.5785701,-0.026817322,-2.0794983,-0.13111115,0.035743713,1.3311958,-1.43463,0.05153656,-2.0428772,1.7346929,-0.005302429,-8.958267,0.0,0.0,0.0,0.0,0.0,0.0,0.0,0.0,0.0,0.0,0.0,0.0,1.0,1.0,-1.0,1.0,1.0,-1.0,1.0,-1.0,-1.0,-1.0,-1.0,-1.0
2025-06-03 17:56:42.769,0.418956,-3.00001,15.129366,0.0008360825,0.0005264262,0.0013078799,0.522663,0.062534,9.752344,0.14255524,-0.012245178,-1.6961937,-0.6057754,-0.0157547,3.7958336,1.6624935,0.018806458,-5.8100243,0.0799942,0.11631012,1.0565338,-0.51642865,-0.037345886,-0.16174698,1.5647863,0.06061554,-1.3409615,0.118751526,0.018577576,-0.53772736,-1.4699607,0.005683899,-0.5133133,1.5785701,-0.026817322,-2.0794983,-0.13111115,0.035743713,1.3311958,-1.43463,0.05153656,-2.0428772,1.7346929,-0.005302429,-8.958267,0.0,0.0,0.0,0.0,0.0,0.0,0.0,0.0,0.0,0.0,0.0,0.0,1.0,1.0,-1.0,1.0,1.0,-1.0,1.0,-1.0,-1.0,-1.0,-1.0,-1.0
2025-06-03 17:56:42.819,0.418956,-3.00001,15.129366,0.0008360825,0.0005264262,0.0013078799,0.522663,0.062534,9.752344,0.14255524,-0.012245178,-1.6961937,-0.6057754,-0.0157547,3.7958336,1.6624935,0.018806458,-5.8100243,0.0799942,0.11631012,1.0565338,-0.51642865,-0.037345886,-0.16174698,1.5647863,0.06061554,-1.3409615,0.118751526,0.018577576,-0.53772736,-1.4699607,0.005683899,-0.5133133,1.5785701,-0.026817322,-2.0794983,-0.13111115,0.035743713,1.3311958,-1.43463,0.05153656,-2.0428772,1.7346929,-0.005302429,-8.958267,0.0,0.0,0.0,0.0,0.0,0.0,0.0,0.0,0.0,0.0,0.0,0.0,1.0,1.0,-1.0,1.0,1.0,-1.0,1.0,-1.0,-1.0,-1.0,-1.0,-1.0
2025-06-03 17:56:42.871,0.419111,-3.003612,15.125196,-0.0006773972,0.00057398644,-0.0015354184,0.52278,0.083216,9.770478,0.14255524,0.013465881,-1.682766,-0.6056991,0.12622833,3.925232,1.6623409,0.015068054,-5.8039207,0.07976532,-0.07732391,1.1029205,-0.51627606,-0.027580261,-0.10681152,1.5646337,0.06977081,-1.1993599,0.118904114,0.058250427,-0.35828018,-1.4698844,0.022239685,-0.5609207,1.5784175,-0.03261566,-2.0221252,-0.13111115,0.058174133,1.1261177,-1.4347826,0.06084442,-1.9354553,1.7347692,0.00049591064,-8.9570465,0.0,0.0,0.0,0.0,0.0,0.0,0.0,0.0,0.0,0.0,0.0,0.0,1.0,1.0,-1.0,1.0,1.0,-1.0,1.0,-1.0,-1.0,-1.0,-1.0,-1.0
2025-06-03 17:56:42.922,0.419125,-3.007434,15.121814,0.002057778,0.0017569531,-0.0016068374,0.528252,0.054136,9.782069,0.14240265,0.053749084,-1.6607933,-0.6056991,-0.0774765,3.9032593,1.6623409,0.015068054,-5.8039207,0.0799942,0.03955841,1.2347603,-0.51658124,-0.0033950806,-0.1336708,1.5645574,-0.0447464,-1.1981392,0.118751526,-0.010871887,-0.3997879,-1.4698844,-0.0024795532,-0.5218582,1.5786464,3.8146973e-05,-2.0160217,-0.13095856,0.0687027,1.0589752,-1.43463,-0.0025558472,-1.9440002,1.7348455,0.036582947,-8.98024,0.0,0.0,0.0,0.0,0.0,0.0,0.0,0.0,0.0,0.0,0.0,0.0,1.0,1.0,-1.0,1.0,1.0,-1.0,1.0,-1.0,-1.0,-1.0,-1.0,-1.0
2025-06-03 17:56:42.973,0.419299,-3.009235,15.122036,0.00028752553,-0.00086320494,0.0018501187,0.5223,0.076722,9.772465,0.14247894,0.04802704,-1.7914085,-0.6056228,-0.027961731,3.883728,1.6624935,0.038337708,-5.8246727,0.08014679,-0.07846832,1.0870514,-0.5156657,0.09975433,-0.10559082,1.5648626,0.07732391,-1.3690376,0.11859894,-0.10532379,-0.7855339,-1.4699607,0.008506775,-0.4803543,1.5785701,0.024299622,-2.0465393,-0.13111115,0.009346008,1.223774,-1.4347063,-0.018196106,-2.0196838,1.7346929,-0.0022506714,-8.880142,0.0,0.0,0.0,0.0,0.0,0.0,0.0,0.0,0.0,0.0,0.0,0.0,1.0,1.0,-1.0,1.0,1.0,-1.0,1.0,-1.0,-1.0,-1.0,-1.0,-1.0
2025-06-03 17:56:43.024,0.419299,-3.009235,15.122036,0.00028752553,-0.00086320494,0.0018501187,0.5223,0.076722,9.772465,0.14247894,0.04802704,-1.7914085,-0.6056228,-0.027961731,3.883728,1.6624935,0.038337708,-5.8246727,0.08014679,-0.07846832,1.0870514,-0.5156657,0.09975433,-0.10559082,1.5648626,0.07732391,-1.3690376,0.11859894,-0.10532379,-0.7855339,-1.4699607,0.008506775,-0.4803543,1.5785701,0.024299622,-2.0465393,-0.13111115,0.009346008,1.223774,-1.4347063,-0.018196106,-2.0196838,1.7346929,-0.0022506714,-8.880142,0.0,0.0,0.0,0.0,0.0,0.0,0.0,0.0,0.0,0.0,0.0,0.0,1.0,1.0,-1.0,1.0,1.0,-1.0,1.0,-1.0,-1.0,-1.0,-1.0,-1.0
2025-06-03 17:56:43.075,0.418447,-3.012349,15.119071,0.00046828928,-0.00011109021,0.0009540842,0.542696,0.063105,9.753413,0.14263153,0.039482117,-1.6913109,-0.60554653,0.06099701,3.8446617,1.6623409,-0.029563904,-5.783169,0.080070496,-0.011177063,0.98695374,-0.5161235,-0.12905121,-0.20569229,1.56471,0.034751892,-1.3617134,0.11859894,-0.00415802,-0.44373322,-1.4698081,0.034599304,-0.5157547,1.5783412,-0.0024032593,-1.9867249,-0.13103485,0.025291443,1.1126862,-1.43463,0.047569275,-2.002594,1.7346929,0.012016296,-8.900894,0.0,0.0,0.0,0.0,0.0,0.0,0.0,0.0,0.0,0.0,0.0,0.0,1.0,1.0,-1.0,1.0,1.0,-1.0,1.0,-1.0,-1.0,-1.0,-1.0,-1.0
2025-06-03 17:56:43.126,0.418909,-3.013807,15.118219,0.001459008,0.0027944816,0.0005355019,0.507446,0.065113,9.754692,0.14247894,-0.031547546,-1.727932,-0.60539395,-0.04299164,3.851986,1.6621883,-0.017204285,-5.8173485,0.07976532,-0.01499176,1.1212311,-0.51619977,0.08106232,-0.12512589,1.5646337,0.022163391,-1.3116646,0.11867523,-0.030403137,-0.56946564,-1.4695792,-0.026817322,-0.5572586,1.5784938,0.034980774,-2.0318909,-0.13134003,-0.13660431,1.0907135,-1.4345537,0.027961731,-2.0172424,1.7346929,-0.0038528442,-8.871593,0.0,0.0,0.0,0.0,0.0,0.0,0.0,0.0,0.0,0.0,0.0,0.0,1.0,1.0,-1.0,1.0,1.0,-1.0,1.0,-1.0,-1.0,-1.0,-1.0,-1.0
2025-06-03 17:56:43.177,0.419773,-3.013179,15.115875,0.0028559172,0.0032443402,0.0012400041,0.535805,0.084986,9.78051,0.14263153,0.06801605,-1.740139,-0.6058517,-0.0062942505,3.8324547,1.6623409,0.008888245,-5.762417,0.07991791,0.020561218,1.0370026,-0.51642865,-0.05962372,-0.03112793,1.56471,0.00019073486,-1.2823677,0.11867523,-0.03627777,-0.5206375,-1.4698081,-0.0024032593,-0.49134064,1.5784175,-0.024223328,-1.9989319,-0.13126373,-0.034980774,1.1810493,-1.4347063,-0.026741028,-2.0428772,1.7346166,0.07923126,-8.930191,0.0,0.0,0.0,0.0,0.0,0.0,0.0,0.0,0.0,0.0,0.0,0.0,1.0,1.0,-1.0,1.0,1.0,-1.0,1.0,-1.0,-1.0,-1.0,-1.0,-1.0
2025-06-03 17:56:43.228,0.419773,-3.013179,15.115875,0.0028559172,0.0032443402,0.0012400041,0.535805,0.084986,9.78051,0.14263153,0.06801605,-1.740139,-0.6058517,-0.0062942505,3.8324547,1.6623409,0.008888245,-5.762417,0.07991791,0.020561218,1.0370026,-0.51642865,-0.05962372,-0.03112793,1.56471,0.00019073486,-1.2823677,0.11867523,-0.03627777,-0.5206375,-1.4698081,-0.0024032593,-0.49134064,1.5784175,-0.024223328,-1.9989319,-0.13126373,-0.034980774,1.1810493,-1.4347063,-0.026741028,-2.0428772,1.7346166,0.07923126,-8.930191,0.0,0.0,0.0,0.0,0.0,0.0,0.0,0.0,0.0,0.0,0.0,0.0,1.0,1.0,-1.0,1.0,1.0,-1.0,1.0,-1.0,-1.0,-1.0,-1.0,-1.0
2025-06-03 17:56:43.279,0.419773,-3.013179,15.115875,0.0028559172,0.0032443402,0.0012400041,0.535805,0.084986,9.78051,0.14263153,0.06801605,-1.740139,-0.6058517,-0.0062942505,3.8324547,1.6623409,0.008888245,-5.762417,0.07991791,0.020561218,1.0370026,-0.51642865,-0.05962372,-0.03112793,1.56471,0.00019073486,-1.2823677,0.11867523,-0.03627777,-0.5206375,-1.4698081,-0.0024032593,-0.49134064,1.5784175,-0.024223328,-1.9989319,-0.13126373,-0.034980774,1.1810493,-1.4347063,-0.026741028,-2.0428772,1.7346166,0.07923126,-8.930191,0.0,0.0,0.0,0.0,0.0,0.0,0.0,0.0,0.0,0.0,0.0,0.0,1.0,1.0,-1.0,1.0,1.0,-1.0,1.0,-1.0,-1.0,-1.0,-1.0,-1.0
2025-06-03 17:56:43.330,0.416615,-3.020005,15.109597,0.0011247076,0.0013273229,0.0015901171,0.525267,0.045087,9.817664,0.14270782,-0.04299164,-1.7718773,-0.6057754,0.010643005,3.8593102,1.6624935,0.045204163,-5.797817,0.08022308,0.105018616,1.1285591,-0.51635236,-0.056114197,-0.111694336,1.5646337,-0.002708435,-1.3043404,0.118751526,-0.014915466,-0.72694016,-1.4696555,0.021095276,-0.53894806,1.5784175,-0.03742218,-2.0331116,-0.13103485,0.06587982,1.1993599,-1.4347826,0.016822815,-2.006256,1.7346929,-0.026741028,-8.858166,0.0,0.0,0.0,0.0,0.0,0.0,0.0,0.0,0.0,0.0,0.0,0.0,1.0,1.0,-1.0,1.0,1.0,-1.0,1.0,-1.0,-1.0,-1.0,-1.0,-1.0
2025-06-03 17:56:43.381,0.414755,-3.022367,15.108891,0.0004408178,0.004003087,0.0027628387,0.524776,0.084167,9.77669,0.14240265,-0.005836487,-1.7682152,-0.60554653,0.06580353,3.8654137,1.6624172,-0.013694763,-5.7892723,0.080070496,0.008277893,1.0040436,-0.51619977,0.010261536,-0.12634659,1.5649389,0.041770935,-1.326313,0.118904114,-0.013771057,-0.52918243,-1.4698081,-0.022468567,-0.5242996,1.5784938,0.018501282,-1.9952698,-0.13103485,-0.0049209595,1.3092232,-1.4347826,-0.0004196167,-2.0282288,1.7347692,0.069236755,-8.9900055,0.0,0.0,0.0,0.0,0.0,0.0,0.0,0.0,0.0,0.0,0.0,0.0,1.0,1.0,-1.0,1.0,1.0,-1.0,1.0,-1.0,-1.0,-1.0,-1.0,-1.0
2025-06-03 17:56:43.432,0.415435,-3.022693,15.108879,0.0045976336,7.2535884e-05,0.0020639915,0.51865,0.054967,9.797193,0.14240265,-0.029563904,-1.6644554,-0.6058517,-0.09876251,3.756771,1.6624935,0.011558533,-5.783169,0.079841614,-0.016899109,0.9759674,-0.51635236,0.001411438,-0.11657715,1.56471,0.013923645,-1.2860298,0.118751526,0.05115509,-0.46936798,-1.4698081,0.0062942505,-0.46570587,1.5784175,0.019187927,-2.0709534,-0.13111115,-0.013771057,1.1993599,-1.43463,0.043144226,-2.006256,1.7346929,-0.0051498413,-8.891129,0.0,0.0,0.0,0.0,0.0,0.0,0.0,0.0,0.0,0.0,0.0,0.0,1.0,1.0,-1.0,1.0,1.0,-1.0,1.0,-1.0,-1.0,-1.0,-1.0,-1.0
2025-06-03 17:56:43.483,0.415435,-3.022693,15.108879,0.0045976336,7.2535884e-05,0.0020639915,0.51865,0.054967,9.797193,0.14240265,-0.029563904,-1.6644554,-0.6058517,-0.09876251,3.756771,1.6624935,0.011558533,-5.783169,0.079841614,-0.016899109,0.9759674,-0.51635236,0.001411438,-0.11657715,1.56471,0.013923645,-1.2860298,0.118751526,0.05115509,-0.46936798,-1.4698081,0.0062942505,-0.46570587,1.5784175,0.019187927,-2.0709534,-0.13111115,-0.013771057,1.1993599,-1.43463,0.043144226,-2.006256,1.7346929,-0.0051498413,-8.891129,0.0,0.0,0.0,0.0,0.0,0.0,0.0,0.0,0.0,0.0,0.0,0.0,1.0,1.0,-1.0,1.0,1.0,-1.0,1.0,-1.0,-1.0,-1.0,-1.0,-1.0
2025-06-03 17:56:43.534,0.420768,-3.024793,15.109767,-0.0002674019,0.0038488,-0.00011958996,0.524157,0.077012,9.803776,0.14255524,-0.031089783,-1.7315941,-0.60554653,-0.055122375,3.753109,1.6623409,-0.034751892,-5.807583,0.080070496,0.06526947,1.0077057,-0.51642865,0.020561218,-0.122680664,1.5646337,-0.05214691,-1.2457466,0.11882782,-0.03818512,-0.8587761,-1.4698081,-0.022621155,-0.4803543,1.5784938,-0.021629333,-2.0331116,-0.13111115,-0.026664734,1.3128853,-1.43463,-0.024986267,-2.006256,1.7346929,-0.028953552,-8.931412,0.0,0.0,0.0,0.0,0.0,0.0,0.0,0.0,0.0,0.0,0.0,0.0,1.0,1.0,-1.0,1.0,1.0,-1.0,1.0,-1.0,-1.0,-1.0,-1.0,-1.0
2025-06-03 17:56:43.585,0.421665,-3.027422,15.105429,0.001836191,0.0011466638,0.0011388273,0.512026,0.088781,9.787537,0.14232635,0.05962372,-1.8536644,-0.60531765,-0.09143829,3.8251305,1.6623409,-0.027503967,-5.844204,0.08037567,0.05504608,1.1627388,-0.51619977,-0.13370514,-0.08728027,1.5645574,0.048713684,-1.2848091,0.11898041,0.046958923,-0.7049675,-1.4698081,-0.036125183,-0.49744415,1.5784175,-0.039634705,-2.0123596,-0.13118744,-0.14209747,1.2774849,-1.43463,-0.014381409,-1.9952698,1.7346929,0.022773743,-8.920425,0.0,0.0,0.0,0.0,0.0,0.0,0.0,0.0,0.0,0.0,0.0,0.0,1.0,1.0,-1.0,1.0,1.0,-1.0,1.0,-1.0,-1.0,-1.0,-1.0,-1.0
2025-06-03 17:56:43.637,0.417961,-3.027202,15.105228,0.0015979885,-0.0019904433,-0.000769027,0.511698,0.046108,9.790812,0.14240265,-0.006980896,-1.7352562,-0.60539395,0.033683777,3.8300133,1.6622646,0.015525818,-5.8222313,0.07976532,-0.04108429,1.2945747,-0.51635236,0.046424866,-0.042114258,1.56471,-0.054130554,-1.334858,0.11898041,0.12302399,-0.56946564,-1.4698844,-0.018119812,-0.49500275,1.5785701,0.0030136108,-2.011139,-0.13103485,0.02002716,1.1773872,-1.43463,0.0009536743,-2.056305,1.734464,-0.01651764,-8.921646,0.0,0.0,0.0,0.0,0.0,0.0,0.0,0.0,0.0,0.0,0.0,0.0,1.0,1.0,-1.0,1.0,1.0,-1.0,1.0,-1.0,-1.0,-1.0,-1.0,-1.0
2025-06-03 17:56:43.687,0.417961,-3.027202,15.105228,0.0015979885,-0.0019904433,-0.000769027,0.511698,0.046108,9.790812,0.14240265,-0.006980896,-1.7352562,-0.60539395,0.033683777,3.8300133,1.6622646,0.015525818,-5.8222313,0.07976532,-0.04108429,1.2945747,-0.51635236,0.046424866,-0.042114258,1.56471,-0.054130554,-1.334858,0.11898041,0.12302399,-0.56946564,-1.4698844,-0.018119812,-0.49500275,1.5785701,0.0030136108,-2.011139,-0.13103485,0.02002716,1.1773872,-1.43463,0.0009536743,-2.056305,1.734464,-0.01651764,-8.921646,0.0,0.0,0.0,0.0,0.0,0.0,0.0,0.0,0.0,0.0,0.0,0.0,1.0,1.0,-1.0,1.0,1.0,-1.0,1.0,-1.0,-1.0,-1.0,-1.0,-1.0
2025-06-03 17:56:43.739,0.417961,-3.027202,15.105228,0.0015979885,-0.0019904433,-0.000769027,0.511698,0.046108,9.790812,0.14240265,-0.006980896,-1.7352562,-0.60539395,0.033683777,3.8300133,1.6622646,0.015525818,-5.8222313,0.07976532,-0.04108429,1.2945747,-0.51635236,0.046424866,-0.042114258,1.56471,-0.054130554,-1.334858,0.11898041,0.12302399,-0.56946564,-1.4698844,-0.018119812,-0.49500275,1.5785701,0.0030136108,-2.011139,-0.13103485,0.02002716,1.1773872,-1.43463,0.0009536743,-2.056305,1.734464,-0.01651764,-8.921646,0.0,0.0,0.0,0.0,0.0,0.0,0.0,0.0,0.0,0.0,0.0,0.0,1.0,1.0,-1.0,1.0,1.0,-1.0,1.0,-1.0,-1.0,-1.0,-1.0,-1.0
2025-06-03 17:56:43.790,0.420781,-3.031309,15.106621,-0.0006460336,-0.0007882605,-0.0023515692,0.521132,0.0596,9.746814,0.14247894,0.0010299683,-1.6876488,-0.60547024,-0.1228714,3.7592125,1.6623409,0.0059890747,-5.773403,0.07991791,-0.02483368,0.83680344,-0.51642865,-0.057029724,-0.15442276,1.5647863,-0.0046920776,-1.2884712,0.118522644,-0.045585632,-0.5511551,-1.4696555,0.012016296,-0.57190704,1.5784175,-0.0022506714,-2.0624084,-0.13111115,-0.030326843,1.3006783,-1.4347063,-0.03665924,-1.9964905,1.734464,-0.059928894,-8.897232,0.0,0.0,0.0,0.0,0.0,0.0,0.0,0.0,0.0,0.0,0.0,0.0,1.0,1.0,-1.0,1.0,1.0,-1.0,1.0,-1.0,-1.0,-1.0,-1.0,-1.0
2025-06-03 17:56:43.841,0.420918,-3.030696,15.107677,-0.00026145033,0.0004488812,0.000692983,0.536813,0.082304,9.816595,0.14247894,-0.061454773,-1.7486839,-0.60554653,-0.018424988,3.822689,1.6624172,0.021324158,-5.811245,0.080070496,0.05153656,1.1346626,-0.5160472,0.10990143,-0.11047363,1.5648626,0.012702942,-1.2420845,0.118751526,-0.0030136108,-0.6219559,-1.4696555,-0.0035476685,-0.54016876,1.5784175,0.044517517,-2.092926,-0.13103485,0.06336212,1.2347603,-1.4347826,0.008659363,-2.006256,1.7346166,-0.016059875,-8.925308,0.0,0.0,0.0,0.0,0.0,0.0,0.0,0.0,0.0,0.0,0.0,0.0,1.0,1.0,-1.0,1.0,1.0,-1.0,1.0,-1.0,-1.0,-1.0,-1.0,-1.0
2025-06-03 17:56:43.892,0.421009,-3.030174,15.107085,0.0022083127,0.0016013221,-0.00053873076,0.503797,0.05773,9.760059,0.14278412,0.054740906,-1.7230492,-0.60554653,0.07732391,3.7921715,1.6624172,0.0059127808,-5.8295555,0.07991791,-0.023536682,1.109024,-0.51635236,0.022773743,-0.10559082,1.5647863,-0.037574768,-1.235981,0.11882782,-0.0049972534,-0.6353874,-1.4697318,0.043296814,-0.56824493,1.5784938,0.033226013,-1.9549866,-0.13103485,0.09120941,1.2542915,-1.4347063,0.060539246,-2.0404358,1.7346166,0.064888,-8.954605,0.0,0.0,0.0,0.0,0.0,0.0,0.0,0.0,0.0,0.0,0.0,0.0,1.0,1.0,-1.0,1.0,1.0,-1.0,1.0,-1.0,-1.0,-1.0,-1.0,-1.0
2025-06-03 17:56:43.943,0.421009,-3.030174,15.107085,0.0022083127,0.0016013221,-0.00053873076,0.503797,0.05773,9.760059,0.14278412,0.054740906,-1.7230492,-0.60554653,0.07732391,3.7921715,1.6624172,0.0059127808,-5.8295555,0.07991791,-0.023536682,1.109024,-0.51635236,0.022773743,-0.10559082,1.5647863,-0.037574768,-1.235981,0.11882782,-0.0049972534,-0.6353874,-1.4697318,0.043296814,-0.56824493,1.5784938,0.033226013,-1.9549866,-0.13103485,0.09120941,1.2542915,-1.4347063,0.060539246,-2.0404358,1.7346166,0.064888,-8.954605,0.0,0.0,0.0,0.0,0.0,0.0,0.0,0.0,0.0,0.0,0.0,0.0,1.0,1.0,-1.0,1.0,1.0,-1.0,1.0,-1.0,-1.0,-1.0,-1.0,-1.0
2025-06-03 17:56:43.994,0.417897,-3.03213,15.109241,0.00084261,0.003331502,-0.0007565304,0.500965,0.056398,9.804492,0.14263153,0.014915466,-1.719387,-0.60554653,-0.034446716,3.9032593,1.6623409,-0.015144348,-5.8088036,0.07976532,-0.08350372,1.203022,-0.5160472,0.06214142,-0.19104385,1.56471,-0.036125183,-1.3080025,0.119132996,0.031089783,-0.52796173,-1.4698844,-0.042915344,-0.48889923,1.5783412,-0.008811951,-2.0184631,-0.13103485,0.037956238,1.1871529,-1.4347826,0.018730164,-2.0379944,1.734464,-0.009346008,-8.971695,0.0,0.0,0.0,0.0,0.0,0.0,0.0,0.0,0.0,0.0,0.0,0.0,1.0,1.0,-1.0,1.0,1.0,-1.0,1.0,-1.0,-1.0,-1.0,-1.0,-1.0
2025-06-03 17:56:44.045,0.415738,-3.033687,15.111674,0.0004577475,-0.0033721158,0.0009869487,0.528018,0.086116,9.751456,0.14240265,-0.016212463,-1.7657738,-0.60547024,0.015144348,3.9362183,1.6624172,-0.037651062,-5.7843895,0.08014679,-0.047035217,0.9808502,-0.51650494,0.013008118,-0.16662979,1.5646337,0.011024475,-1.2713814,0.118904114,-0.0060653687,-0.53528595,-1.4699607,0.0011825562,-0.46448517,1.5785701,0.038414,-1.9964905,-0.13095856,-0.04131317,1.3043404,-1.4347826,-0.01964569,-2.0318909,1.7346166,-0.017585754,-8.981461,0.0,0.0,0.0,0.0,0.0,0.0,0.0,0.0,0.0,0.0,0.0,0.0,1.0,1.0,-1.0,1.0,1.0,-1.0,1.0,-1.0,-1.0,-1.0,-1.0,-1.0
2025-06-03 17:56:44.096,0.414833,-3.033524,15.112611,0.0019744735,0.000828054,-0.0011255104,0.506875,0.081863,9.798656,0.14232635,-0.07801056,-1.7438011,-0.60531765,0.065956116,3.7921715,1.6623409,0.037651062,-5.8039207,0.07976532,-0.09082794,1.0980377,-0.5161235,-0.028648376,-0.055541992,1.5647863,-0.022392273,-1.3372993,0.11882782,-0.06214142,-0.4779129,-1.4698081,-0.00995636,-0.53528595,1.5785701,0.0062942505,-1.9781799,-0.13126373,0.011634827,1.2469673,-1.4347826,-0.012702942,-2.0294495,1.7346166,-0.027885437,-8.935074,0.0,0.0,0.0,0.0,0.0,0.0,0.0,0.0,0.0,0.0,0.0,0.0,1.0,1.0,-1.0,1.0,1.0,-1.0,1.0,-1.0,-1.0,-1.0,-1.0,-1.0
2025-06-03 17:56:44.147,0.414833,-3.033524,15.112611,0.0019744735,0.000828054,-0.0011255104,0.506875,0.081863,9.798656,0.14232635,-0.07801056,-1.7438011,-0.60531765,0.065956116,3.7921715,1.6623409,0.037651062,-5.8039207,0.07976532,-0.09082794,1.0980377,-0.5161235,-0.028648376,-0.055541992,1.5647863,-0.022392273,-1.3372993,0.11882782,-0.06214142,-0.4779129,-1.4698081,-0.00995636,-0.53528595,1.5785701,0.0062942505,-1.9781799,-0.13126373,0.011634827,1.2469673,-1.4347826,-0.012702942,-2.0294495,1.7346166,-0.027885437,-8.935074,0.0,0.0,0.0,0.0,0.0,0.0,0.0,0.0,0.0,0.0,0.0,0.0,1.0,1.0,-1.0,1.0,1.0,-1.0,1.0,-1.0,-1.0,-1.0,-1.0,-1.0
2025-06-03 17:56:44.198,0.414833,-3.033524,15.112611,0.0019744735,0.000828054,-0.0011255104,0.506875,0.081863,9.798656,0.14232635,-0.07801056,-1.7438011,-0.60531765,0.065956116,3.7921715,1.6623409,0.037651062,-5.8039207,0.07976532,-0.09082794,1.0980377,-0.5161235,-0.028648376,-0.055541992,1.5647863,-0.022392273,-1.3372993,0.11882782,-0.06214142,-0.4779129,-1.4698081,-0.00995636,-0.53528595,1.5785701,0.0062942505,-1.9781799,-0.13126373,0.011634827,1.2469673,-1.4347826,-0.012702942,-2.0294495,1.7346166,-0.027885437,-8.935074,0.0,0.0,0.0,0.0,0.0,0.0,0.0,0.0,0.0,0.0,0.0,0.0,1.0,1.0,-1.0,1.0,1.0,-1.0,1.0,-1.0,-1.0,-1.0,-1.0,-1.0
2025-06-03 17:56:44.249,0.417339,-3.027558,15.117182,0.0018313042,6.726499e-05,1.5411257e-05,0.495272,0.070806,9.788727,0.14263153,0.039100647,-1.7291527,-0.6057754,0.0434494,3.9484253,1.6622646,-0.01865387,-5.8088036,0.0799942,-0.06511688,1.2066841,-0.51642865,0.083351135,-0.076293945,1.56471,-0.0050735474,-1.2835884,0.118751526,0.04207611,-0.5597,-1.4698081,0.031852722,-0.52796173,1.5784938,0.0308609,-2.0294495,-0.13088226,-0.018348694,1.1969185,-1.4348589,0.0031661987,-1.9537659,1.734464,-0.037345886,-8.958267,0.0,0.0,0.0,0.0,0.0,0.0,0.0,0.0,0.0,0.0,0.0,0.0,1.0,1.0,-1.0,1.0,1.0,-1.0,1.0,-1.0,-1.0,-1.0,-1.0,-1.0
2025-06-03 17:56:44.300,0.417539,-3.029428,15.119046,0.0011568391,0.0031094437,0.0017378592,0.51249,0.080292,9.767416,0.14232635,-0.102119446,-1.7352562,-0.60524136,0.023384094,3.7750816,1.6624172,-0.012245178,-5.778286,0.0799942,-0.015068054,1.1432076,-0.51619977,0.10356903,-0.1702919,1.5645574,-0.032081604,-1.3556099,0.118751526,-0.039634705,-0.526741,-1.4697318,-0.007286072,-0.52918243,1.5784938,0.021324158,-2.023346,-0.13088226,0.043373108,1.3177681,-1.4347826,0.036354065,-1.9732971,1.7346929,-0.0035476685,-8.888687,0.0,0.0,0.0,0.0,0.0,0.0,0.0,0.0,0.0,0.0,0.0,0.0,1.0,1.0,-1.0,1.0,1.0,-1.0,1.0,-1.0,-1.0,-1.0,-1.0,-1.0
2025-06-03 17:56:44.350,0.418237,-3.027397,15.119415,0.002601012,4.098033e-05,0.00028393016,0.494542,0.070024,9.79041,0.14240265,-0.01941681,-1.6107407,-0.60554653,-0.031471252,3.8336754,1.6624172,-0.013313293,-5.762417,0.0799942,0.027656555,1.1554146,-0.51635236,-0.05382538,-0.045776367,1.56471,0.023612976,-1.2884712,0.118751526,-0.056114197,-0.50354767,-1.4697318,0.016670227,-0.5047684,1.5784938,-0.041999817,-2.056305,-0.13118744,-0.030097961,1.2127876,-1.4347826,0.0017166138,-2.0001526,1.7347692,0.053520203,-9.016861,0.0,0.0,0.0,0.0,0.0,0.0,0.0,0.0,0.0,0.0,0.0,0.0,1.0,1.0,-1.0,1.0,1.0,-1.0,1.0,-1.0,-1.0,-1.0,-1.0,-1.0
2025-06-03 17:56:44.402,0.418237,-3.027397,15.119415,0.002601012,4.098033e-05,0.00028393016,0.494542,0.070024,9.79041,0.14240265,-0.01941681,-1.6107407,-0.60554653,-0.031471252,3.8336754,1.6624172,-0.013313293,-5.762417,0.0799942,0.027656555,1.1554146,-0.51635236,-0.05382538,-0.045776367,1.56471,0.023612976,-1.2884712,0.118751526,-0.056114197,-0.50354767,-1.4697318,0.016670227,-0.5047684,1.5784938,-0.041999817,-2.056305,-0.13118744,-0.030097961,1.2127876,-1.4347826,0.0017166138,-2.0001526,1.7347692,0.053520203,-9.016861,0.0,0.0,0.0,0.0,0.0,0.0,0.0,0.0,0.0,0.0,0.0,0.0,1.0,1.0,-1.0,1.0,1.0,-1.0,1.0,-1.0,-1.0,-1.0,-1.0,-1.0
2025-06-03 17:56:44.453,0.418237,-3.027397,15.119415,0.002601012,4.098033e-05,0.00028393016,0.494542,0.070024,9.79041,0.14240265,-0.01941681,-1.6107407,-0.60554653,-0.031471252,3.8336754,1.6624172,-0.013313293,-5.762417,0.0799942,0.027656555,1.1554146,-0.51635236,-0.05382538,-0.045776367,1.56471,0.023612976,-1.2884712,0.118751526,-0.056114197,-0.50354767,-1.4697318,0.016670227,-0.5047684,1.5784938,-0.041999817,-2.056305,-0.13118744,-0.030097961,1.2127876,-1.4347826,0.0017166138,-2.0001526,1.7347692,0.053520203,-9.016861,0.0,0.0,0.0,0.0,0.0,0.0,0.0,0.0,0.0,0.0,0.0,0.0,1.0,1.0,-1.0,1.0,1.0,-1.0,1.0,-1.0,-1.0,-1.0,-1.0,-1.0
