openverse-orca/OrcaGym/envs/legged_gym/legged_real_env/logs/robot_log_20250604_183124.csv
timestamp,imu_angle_roll,imu_angle_pitch,imu_angle_yaw,imu_angular_velocity_roll,imu_angular_velocity_pitch,imu_angular_velocity_yaw,imu_acc_x,imu_acc_y,imu_acc_z,fl_joint1_pos,fl_joint1_vel,fl_joint1_torque,fl_joint2_pos,fl_joint2_vel,fl_joint2_torque,fl_joint3_pos,fl_joint3_vel,fl_joint3_torque,fr_joint1_pos,fr_joint1_vel,fr_joint1_torque,fr_joint2_pos,fr_joint2_vel,fr_joint2_torque,fr_joint3_pos,fr_joint3_vel,fr_joint3_torque,hl_joint1_pos,hl_joint1_vel,hl_joint1_torque,hl_joint2_pos,hl_joint2_vel,hl_joint2_torque,hl_joint3_pos,hl_joint3_vel,hl_joint3_torque,hr_joint1_pos,hr_joint1_vel,hr_joint1_torque,hr_joint2_pos,hr_joint2_vel,hr_joint2_torque,hr_joint3_pos,hr_joint3_vel,hr_joint3_torque,fl_force_x,fl_force_y,fl_force_z,fr_force_x,fr_force_y,fr_force_z,hl_force_x,hl_force_y,hl_force_z,hr_force_x,hr_force_y,hr_force_z,fl_hip_action,fl_thigh_action,fl_calf_action,fr_hip_action,fr_thigh_action,fr_calf_action,hl_hip_action,hl_thigh_action,hl_calf_action,hr_hip_action,hr_thigh_action,hr_calf_action
2025-06-04 18:31:44.782,-0.849442,-0.725173,-131.7018,-0.0012679817,-0.0006387905,0.0014432127,0.138523,-0.140766,9.802926,-0.00804244,0.027275085,0.33752823,-0.9868872,0.0762558,-0.37414932,1.9047267,-0.022697449,-4.827343,0.010865316,0.007896423,-0.52796173,-0.9838223,0.004463196,-0.44861603,1.9049047,0.0036239624,-4.8090324,-0.0132369995,0.050315857,0.6378288,-0.97366863,0.03391266,-0.95643616,1.9330318,-0.013771057,-6.082245,0.015068054,-0.035591125,-0.6549187,-0.9798381,-0.00415802,-0.6268425,1.9277929,0.06160736,-5.8039207,0.0,0.0,0.0,0.0,0.0,0.0,0.0,0.0,0.0,0.0,0.0,0.0,0.9707296,0.50668263,-0.97042733,-0.947046,-0.03313335,-0.113317184,-0.9946223,-0.83191746,-0.33250138,0.9998801,0.91272026,-0.6855385
2025-06-04 18:31:44.834,-0.910364,-0.838116,-132.2311,0.010671746,-0.018873781,-0.7567099,-2.02213,-2.575325,13.80252,-0.008652791,-0.06946564,5.3180733,-0.95240235,0.5478287,5.938202,1.853152,-1.3933182,-7.9414062,-0.014311686,-0.44834137,-1.3800278,-0.97649807,0.38715363,-3.511406,1.8932317,-0.40355682,-4.4672318,-0.023612976,-0.23189545,-2.6410332,-1.061254,-3.0885735,-3.5761032,1.9134243,-1.6437912,-2.6630058,0.04673004,0.7620621,0.3643837,-0.8977458,1.602745,8.021973,1.8744634,-1.2679672,-6.187229,0.0,0.0,0.0,0.0,0.0,0.0,0.0,0.0,0.0,0.0,0.0,0.0,0.93056095,0.78161335,-0.9331953,-0.9990194,-0.16519344,0.6949774,-0.9998132,-0.9692261,-0.99228436,0.9999293,-0.60741425,-0.98554116
2025-06-04 18:31:44.885,1.234994,-0.716772,-134.62663,1.2038612,-0.49926636,-0.36926708,0.353161,1.756368,8.40984,0.010573283,0.38341522,1.2079048,-0.900141,0.82050323,8.958267,1.76488,-1.8235397,-1.752346,-0.046431437,-0.92746735,0.14709854,-1.0018277,-0.37464142,-1.0443268,1.923673,0.48297882,0.8856354,-0.05542755,-0.76877594,0.42664337,-1.2205558,-2.6473656,0.9759674,1.7730434,-2.3921623,0.006713867,0.093574524,0.81165314,-3.6310387,-0.9326884,-0.18009186,-14.242771,1.8518804,0.113334656,-14.4051285,0.0,0.0,0.0,0.0,0.0,0.0,0.0,0.0,0.0,0.0,0.0,0.0,0.6235503,0.7806347,-0.8122436,-0.9960019,0.055225756,0.07641784,-0.9993517,-0.94005513,-0.99502265,0.9995713,-0.38842586,-0.9676962
2025-06-04 18:31:44.936,2.842782,-2.520498,-133.84798,-0.22072275,-0.42577186,0.7005949,0.079537,2.170261,8.150153,0.03140153,0.15850067,0.18494034,-0.8664954,0.58452606,8.269779,1.7151363,-0.41690826,-4.154728,-0.07763566,-0.7238388,0.42542267,-0.9925198,0.2891159,-0.06286621,1.8932317,-0.71964264,-0.35705948,-0.070381165,-0.11241913,-1.1407661,-1.3131766,-1.3244247,-0.53650665,1.6777523,-1.2963486,-0.46082306,0.10547638,-0.21091461,1.5362778,-0.95382184,-0.33496857,-7.9487305,1.8524145,-0.01903534,-13.886322,0.0,0.0,0.0,0.0,0.0,0.0,0.0,0.0,0.0,0.0,0.0,0.0,0.5714712,0.53763235,-0.86393595,-0.9951366,-0.13171448,0.08126585,-0.9990656,-0.9216465,-0.9950702,0.9997659,-0.5739355,-0.958236
2025-06-04 18:31:44.987,2.363811,-3.820349,-131.46753,0.012916309,-0.5048972,0.7817285,2.409053,0.562312,9.6619,0.05734147,0.37258148,-2.2491798,-0.8494055,0.25562286,3.9349976,1.6940792,-0.47115326,-3.5016403,-0.095106974,-0.6043625,0.7806511,-1.0139585,-0.42446136,0.009155273,1.8685888,-0.33054352,-0.3692665,-0.090293884,-0.43498993,1.1310005,-1.3425498,-0.10303497,-3.6896324,1.6540248,0.047187805,-5.6574364,0.09433746,-0.11829376,1.2249947,-0.9947917,-0.80410004,-9.065689,1.8637823,0.16605377,-15.369495,0.0,0.0,0.0,0.0,0.0,0.0,0.0,0.0,0.0,0.0,0.0,0.0,0.62572646,0.5929177,-0.8849957,-0.9943477,-0.21603782,0.27729243,-0.9988821,-0.887137,-0.99201685,0.9996783,-0.50606364,-0.93732375
2025-06-04 18:31:45.038,2.061591,-5.224578,-130.01584,-0.1079832,-0.18674599,0.26880497,2.163895,-0.396817,9.089015,0.080229655,0.33557892,-1.9195862,-0.8462012,0.014457703,6.232395,1.6735561,-0.3571701,-3.7335777,-0.104414836,-0.08419037,0.46082306,-1.0446286,-0.42835236,-0.22766495,1.8680547,0.047569275,0.06774902,-0.098838806,-0.067481995,-0.0579834,-1.3505607,-0.39981842,-2.310215,1.6553981,-0.028190613,-5.371784,0.09349823,-0.050849915,0.4730301,-1.023707,-0.62267303,-7.775387,1.8627905,-0.23548126,-13.025711,0.0,0.0,0.0,0.0,0.0,0.0,0.0,0.0,0.0,0.0,0.0,0.0,0.68186164,0.6891409,-0.90263957,-0.9937818,-0.17149062,0.37175575,-0.99934614,-0.90882814,-0.99213666,0.99964535,-0.46682215,-0.9444588
2025-06-04 18:31:45.089,1.61305,-5.718571,-129.28395,-0.073837884,-0.08736347,0.2493617,0.815758,-0.444758,9.350084,0.09457292,0.21373749,-2.23209,-0.8495581,-0.08975983,8.614021,1.6632564,-0.2173233,-4.053406,-0.108611,-0.0050735474,0.48889923,-1.0559964,-0.1366806,-0.45471954,1.8769048,0.071372986,0.57556915,-0.10005951,-0.026054382,-0.11657715,-1.3604026,-0.2122879,-2.8741875,1.652499,-0.1278305,-4.6845207,0.09540558,0.026283264,0.34729385,-1.0430094,-0.2576828,-6.78294,1.8509649,-0.18749237,-12.263981,0.0,0.0,0.0,0.0,0.0,0.0,0.0,0.0,0.0,0.0,0.0,0.0,0.6965352,0.7085743,-0.90184873,-0.9934277,-0.131246,0.3690479,-0.99947184,-0.9262544,-0.9927695,0.99961823,-0.51896393,-0.9532752
2025-06-04 18:31:45.140,1.293042,-5.959759,-128.62772,-0.0400245,-0.107083485,0.1924216,0.832753,-0.345193,9.601309,0.10563554,0.19420624,-2.0758362,-0.85550904,-0.21533966,9.474632,1.6566951,-0.115470886,-3.7433434,-0.1111287,-0.090522766,0.48401642,-1.0553861,0.064582825,-0.5157547,1.8806432,0.011100769,0.61463165,-0.1026535,0.01651764,0.06896973,-1.3668876,-0.118370056,-2.932785,1.646548,-0.071525574,-4.5954056,0.0963974,0.026512146,0.3216591,-1.0630747,-0.36518097,-6.7316704,1.841657,-0.22754669,-12.559395,0.0,0.0,0.0,0.0,0.0,0.0,0.0,0.0,0.0,0.0,0.0,0.0,0.6999489,0.6868875,-0.8978105,-0.9927991,-0.14854603,0.34561962,-0.9994138,-0.9229481,-0.99230415,0.99957013,-0.5561439,-0.9527528
2025-06-04 18:31:45.191,1.122466,-6.225685,-128.15793,-0.027718935,-0.10931576,0.1395132,0.825735,-0.187938,9.458693,0.11418046,0.15468597,-2.4567032,-0.8635199,-0.15972137,9.287861,1.6496761,-0.09151459,-3.5309372,-0.11265458,-0.008506775,0.42053986,-1.0566068,0.0699234,-0.60852814,1.8813299,-0.023536682,0.5133133,-0.10509491,-0.07701874,0.22644424,-1.3729148,0.008888245,-2.7252617,1.6409786,-0.066185,-4.361027,0.09700775,0.019493103,0.363163,-1.0821482,-0.26630402,-6.8171196,1.8378423,-0.021095276,-12.746166,0.0,0.0,0.0,0.0,0.0,0.0,0.0,0.0,0.0,0.0,0.0,0.0,0.7010931,0.6727024,-0.8958234,-0.9922492,-0.15603605,0.32475078,-0.99937207,-0.9159702,-0.9918688,0.9995459,-0.5581911,-0.94981784
2025-06-04 18:31:45.242,1.043459,-6.416461,-127.82874,0.017956244,-0.046763793,0.08283589,0.751471,-0.246829,9.496955,0.119292155,0.005378723,-2.3883438,-0.8701575,-0.10158539,9.06691,1.6458614,-0.067481995,-3.666439,-0.11357011,0.015602112,0.44983673,-1.0588956,-0.068244934,-0.526741,1.8810247,-0.013313293,0.2496376,-0.106163025,-0.030784607,0.14709854,-1.3774924,-0.12584686,-2.5079727,1.6358669,-0.053977966,-4.053406,0.09754181,-0.07671356,0.3314247,-1.0964152,-0.22129059,-6.7939262,1.8360876,-0.015449524,-12.748608,0.0,0.0,0.0,0.0,0.0,0.0,0.0,0.0,0.0,0.0,0.0,0.0,0.7014814,0.6624282,-0.8989092,-0.9917849,-0.17068636,0.32914698,-0.9993505,-0.91095966,-0.99151784,0.9995358,-0.5593399,-0.94740736
2025-06-04 18:31:45.293,1.029508,-6.458343,-127.67204,0.01329892,-0.009132802,0.02412476,0.718075,-0.16819,9.667068,0.12188615,0.014533997,-2.2906837,-0.8760321,-0.071525574,9.081558,1.6450984,-0.018196106,-3.8324547,-0.11402787,0.010795593,0.4766922,-1.0630918,-0.1001358,-0.4766922,1.8811773,0.008659363,0.285038,-0.10623932,-0.03551483,0.14221573,-1.380239,-0.045433044,-2.4029922,1.6318233,-0.057792664,-3.9032593,0.0989151,-0.02658844,0.21301651,-1.105189,-0.06175995,-6.8830414,1.835172,-0.035362244,-12.868237,0.0,0.0,0.0,0.0,0.0,0.0,0.0,0.0,0.0,0.0,0.0,0.0,0.7030905,0.6667525,-0.89951664,-0.9917387,-0.16450329,0.32847145,-0.9993702,-0.9114071,-0.99152523,0.99953187,-0.5563774,-0.94664174
2025-06-04 18:31:45.344,1.063004,-6.43883,-127.65538,0.019546622,0.0054586744,-0.013647218,0.860384,-0.030164,9.756017,0.12203874,-0.03124237,-2.2711525,-0.87946534,-0.05252838,9.208515,1.644717,-0.03276825,-3.7494469,-0.11448564,0.007972717,0.43030548,-1.0645413,-0.060691833,-0.47058868,1.8810247,0.00995636,0.31799698,-0.106163025,-0.035591125,0.11779785,-1.381536,0.01537323,-2.3907852,1.6282375,-0.09082794,-3.7811852,0.09929657,0.065574646,0.25696182,-1.1097666,-0.07648468,-6.7853813,1.835172,-0.022392273,-12.8560295,0.0,0.0,0.0,0.0,0.0,0.0,0.0,0.0,0.0,0.0,0.0,0.0,0.7053969,0.66233885,-0.89985156,-0.991737,-0.16899675,0.32631558,-0.9993826,-0.9119613,-0.9915647,0.9995331,-0.56468916,-0.94723004
2025-06-04 18:31:45.395,1.127068,-6.407988,-127.715546,0.016300153,0.0050358507,-0.022450728,0.957492,0.212248,9.731365,0.12150468,-0.05092621,-2.0245667,-0.8813727,-0.04184723,8.974136,1.6444118,-0.011100769,-3.716488,-0.114638224,-0.013008118,0.4412918,-1.0663724,-0.032691956,-0.46936798,1.8808721,-0.017814636,0.30334854,-0.10601044,-0.012245178,0.08605957,-1.382299,-0.016059875,-2.4884415,1.6255672,-0.052604675,-3.8739586,0.1002121,0.107154846,0.23743057,-1.1115214,0.016365051,-7.028305,1.8352484,0.017814636,-12.88533,0.0,0.0,0.0,0.0,0.0,0.0,0.0,0.0,0.0,0.0,0.0,0.0,0.70582545,0.66098404,-0.899348,-0.99173445,-0.16760571,0.3273046,-0.99938184,-0.9119069,-0.99157417,0.99953246,-0.56479174,-0.9468147
2025-06-04 18:31:45.446,1.182208,-6.384737,-127.77585,0.008447812,0.0026428474,-0.019054877,1.057089,0.301031,9.744014,0.12013139,-0.010108948,-2.1893654,-0.8823645,-0.004234314,9.054703,1.6432674,-0.01651764,-3.544365,-0.11456193,-0.011100769,0.4400711,-1.0676694,-0.0522995,-0.3961258,1.881101,-0.046043396,0.2911415,-0.10593414,-0.013389587,0.0579834,-1.3821464,0.0059127808,-2.57267,1.6228206,-0.03879547,-3.7152672,0.09967804,0.0035476685,0.24109268,-1.1122843,-0.02407074,-7.0148773,1.8353246,-0.0074386597,-12.8438225,0.0,0.0,0.0,0.0,0.0,0.0,0.0,0.0,0.0,0.0,0.0,0.0,0.7064773,0.66094995,-0.89989185,-0.9916868,-0.16786402,0.32958612,-0.99938333,-0.9116266,-0.9915677,0.99953395,-0.5648321,-0.94683766
2025-06-04 18:31:45.497,1.224696,-6.376742,-127.820206,0.009273545,0.005081613,-0.011455747,1.06478,0.296229,9.727696,0.11959733,-0.0010299683,-2.04776,-0.882746,0.027656555,9.051041,1.6422756,-0.045967102,-3.617607,-0.11471452,0.035972595,0.45716095,-1.0688138,-0.034599304,-0.41443634,1.8810247,-0.013999939,0.30212784,-0.10562897,-0.016670227,0.08239746,-1.3824515,-0.0358963,-2.5738907,1.6207607,-0.0283432,-3.6798668,0.09983063,-0.104026794,0.2862587,-1.1136576,-0.09853363,-7.016098,1.8352484,-0.015449524,-12.845043,0.0,0.0,0.0,0.0,0.0,0.0,0.0,0.0,0.0,0.0,0.0,0.0,0.7061722,0.6607146,-0.90042764,-0.9915853,-0.16854607,0.33247122,-0.99937755,-0.9108989,-0.9915419,0.9995323,-0.5634074,-0.9464046
2025-06-04 18:31:45.548,1.257263,-6.367642,-127.828285,0.010366715,-0.00058339373,0.0025551969,1.007138,0.245885,9.723323,0.11974992,0.010643005,-2.092926,-0.8836615,-0.070991516,9.046158,1.6417415,-0.0118637085,-3.6469078,-0.114638224,-0.012779236,0.42542267,-1.0700345,-0.015983582,-0.35705948,1.8810247,0.049095154,0.35583878,-0.10562897,-0.022468567,0.083618164,-1.3821464,0.04634857,-2.536049,1.6192348,-0.031318665,-3.6359215,0.099983215,-0.0308609,0.28137589,-1.1146494,-0.04802704,-6.8378716,1.8352484,-0.023536682,-12.859692,0.0,0.0,0.0,0.0,0.0,0.0,0.0,0.0,0.0,0.0,0.0,0.0,0.7083088,0.66299796,-0.90038985,-0.99171096,-0.1671791,0.33220002,-0.99938923,-0.9121685,-0.99153185,0.9995319,-0.5644448,-0.9465803
2025-06-04 18:31:45.599,1.273708,-6.357693,-127.81996,0.0043246816,-0.00031374037,0.0042190365,0.997808,0.244197,9.744226,0.11982621,0.060081482,-2.0257874,-0.88419557,0.008659363,9.103531,1.64136,0.0065231323,-3.613945,-0.11471452,-0.019187927,0.44739532,-1.0707974,-0.051383972,-0.29724503,1.881101,-0.02368927,0.3680458,-0.10547638,0.029640198,0.09094238,-1.382299,-0.04924774,-2.5824356,1.6181667,-0.020713806,-3.6408043,0.10028839,0.09334564,0.2496376,-1.1158701,-0.01033783,-6.884262,1.835172,-0.0207901,-12.8108635,0.0,0.0,0.0,0.0,0.0,0.0,0.0,0.0,0.0,0.0,0.0,0.0,0.7070141,0.6603507,-0.9000337,-0.9916502,-0.16762222,0.3332123,-0.9993935,-0.91259897,-0.9916452,0.9995341,-0.5679954,-0.9470195
2025-06-04 18:31:45.650,1.281171,-6.356726,-127.80923,0.0054650973,0.0021962002,0.0019919267,1.020515,0.209893,9.71331,0.12013139,0.023231506,-2.035553,-0.88419557,0.014152527,9.058365,1.6411312,0.048789978,-3.6078415,-0.11471452,0.037117004,0.4412918,-1.0715604,-0.12081146,-0.31555557,1.881101,-0.027809143,0.330204,-0.10570526,-0.03391266,0.07751465,-1.3823752,-0.033073425,-2.536049,1.6180141,-0.02117157,-3.7177086,0.10005951,-0.028953552,0.25574112,-1.116633,-0.004310608,-6.953842,1.835172,0.0207901,-12.85725,0.0,0.0,0.0,0.0,0.0,0.0,0.0,0.0,0.0,0.0,0.0,0.0,0.7070377,0.66081333,-0.8995937,-0.99156266,-0.16594276,0.3305488,-0.9993832,-0.911878,-0.99153584,0.999526,-0.56685174,-0.94651395
2025-06-04 18:31:45.701,1.285375,-6.352933,-127.795654,0.004704011,0.0015994197,0.0028341704,1.035609,0.199556,9.7497,0.120283976,0.07015228,-2.1527443,-0.88419557,-0.005836487,9.037613,1.6409023,-0.0037002563,-3.6322594,-0.11479081,-0.040473938,0.40833282,-1.0720181,-0.024528503,-0.26672745,1.8809484,0.0005722046,0.3704872,-0.105781555,-0.004234314,0.08728027,-1.3823752,-0.035820007,-2.576332,1.6177089,-0.042304993,-3.6652184,0.100364685,-0.038108826,0.2459755,-1.1171671,0.02773285,-6.8671684,1.835172,-0.040550232,-12.845043,0.0,0.0,0.0,0.0,0.0,0.0,0.0,0.0,0.0,0.0,0.0,0.0,0.707196,0.6610334,-0.90087914,-0.9915874,-0.16791348,0.33598453,-0.99938697,-0.91173756,-0.9915559,0.9995328,-0.5644425,-0.94637525
2025-06-04 18:31:45.752,1.28761,-6.35126,-127.788445,-0.00014655529,0.0012974603,-0.0011176041,1.040054,0.174022,9.733756,0.12013139,0.058631897,-2.105133,-0.88427186,-0.0033187866,9.007095,1.6407497,-0.03162384,-3.5553513,-0.114638224,-0.0009536743,0.45471954,-1.0727811,-0.03429413,-0.27893448,1.8810247,0.023918152,0.38391876,-0.10570526,-0.088386536,0.06896973,-1.3822227,0.02735138,-2.4847794,1.6173275,0.022392273,-3.6701012,0.10005951,0.01285553,0.33508682,-1.117396,-0.01651764,-6.917221,1.8353246,0.010108948,-12.892654,0.0,0.0,0.0,0.0,0.0,0.0,0.0,0.0,0.0,0.0,0.0,0.0,0.70923877,0.6623925,-0.90085655,-0.9916482,-0.16767205,0.33932242,-0.9993918,-0.91243577,-0.99154747,0.99953276,-0.56486094,-0.9464996
2025-06-04 18:31:45.803,1.284385,-6.348871,-127.79097,0.0031952788,0.0036322395,-0.0019384499,1.080716,0.226634,9.721261,0.11982621,-0.051612854,-2.0856018,-0.88434815,0.031700134,9.090103,1.640826,-0.029335022,-3.5968552,-0.11471452,0.03704071,0.46814728,-1.0727048,-0.07556915,-0.25452042,1.881101,-0.055274963,0.4803543,-0.10570526,-0.0019454956,0.07873535,-1.3824515,0.00064849854,-2.4628067,1.61748,-0.017967224,-3.6798668,0.100364685,0.0258255,0.27527237,-1.1173197,-0.047950745,-6.89769,1.835172,0.009727478,-12.841381,0.0,0.0,0.0,0.0,0.0,0.0,0.0,0.0,0.0,0.0,0.0,0.0,0.71032286,0.6615287,-0.90082806,-0.9915701,-0.16815694,0.33710185,-0.9993996,-0.9125619,-0.9915617,0.9995297,-0.56915754,-0.94728875
2025-06-04 18:31:45.854,1.287629,-6.346424,-127.788795,-0.00091008446,-1.6353735e-05,8.042477e-05,1.057799,0.205119,9.699976,0.1199788,-0.006904602,-2.113678,-0.88419557,-0.0037002563,8.9900055,1.6406734,0.0034713745,-3.5956345,-0.11471452,0.015830994,0.45105743,-1.0734677,-0.01613617,-0.27649307,1.8811773,-0.035438538,0.4327469,-0.10562897,0.024375916,0.06774902,-1.3824515,-0.035362244,-2.5458145,1.6173275,-0.030708313,-3.6688805,0.10028839,-0.17429352,0.27405167,-1.1174723,-0.0037002563,-6.9245453,1.8352484,-0.018196106,-12.912186,0.0,0.0,0.0,0.0,0.0,0.0,0.0,0.0,0.0,0.0,0.0,0.0,0.7098813,0.66291404,-0.90123266,-0.9914912,-0.16581292,0.33813798,-0.99939156,-0.91187084,-0.9914916,0.9995283,-0.5653147,-0.94675577
2025-06-04 18:31:45.905,1.291306,-6.342881,-127.78677,-0.0008167268,-0.0019172791,-0.00039678314,1.071226,0.224493,9.763368,0.120055094,0.044898987,-2.1258888,-0.88442445,0.0002670288,9.004654,1.6405208,-0.006980896,-3.6054,-0.114638224,0.005302429,0.44617462,-1.0731626,0.0047683716,-0.24353409,1.8811773,-0.084877014,0.42420197,-0.105781555,-0.05619049,0.049438477,-1.3824515,0.0049209595,-2.518959,1.6172512,0.0073623657,-3.6310387,0.100364685,0.018119812,0.3289833,-1.1178538,-0.023384094,-6.845196,1.8352484,0.035209656,-12.832836,0.0,0.0,0.0,0.0,0.0,0.0,0.0,0.0,0.0,0.0,0.0,0.0,0.71033293,0.662121,-0.89998215,-0.9916853,-0.16520062,0.3366723,-0.9994005,-0.91332096,-0.9916009,0.99953324,-0.56810164,-0.9473695
2025-06-04 18:31:45.956,1.293834,-6.344249,-127.78761,0.0016419708,0.0006520201,0.00097122334,1.057455,0.213715,9.718451,0.120055094,-0.01537323,-2.0648499,-0.88419557,0.025215149,9.108414,1.6405208,-0.008354187,-3.6359215,-0.114867106,0.031852722,0.44983673,-1.0731626,0.01750946,-0.19836807,1.8811773,0.022087097,0.39246368,-0.105781555,-0.025367737,0.07385254,-1.3826041,0.004310608,-2.5787735,1.6170986,0.016441345,-3.6200485,0.10051727,0.038871765,0.23254776,-1.11793,0.0012588501,-6.955063,1.835172,-0.007133484,-12.834057,0.0,0.0,0.0,0.0,0.0,0.0,0.0,0.0,0.0,0.0,0.0,0.0,0.71111953,0.65936065,-0.9012069,-0.991606,-0.16975935,0.3386258,-0.99939436,-0.9124752,-0.99155015,0.9995329,-0.56845164,-0.9467435
2025-06-04 18:31:46.007,1.294354,-6.341125,-127.78158,-0.0002876477,0.00078845245,0.0016970534,1.059057,0.207366,9.724203,0.120055094,0.014457703,-1.9855042,-0.88434815,-0.032920837,9.011978,1.6405208,-0.026130676,-3.6188278,-0.11479081,0.031089783,0.44739532,-1.0738492,-0.052452087,-0.27649307,1.881101,-0.028800964,0.4010086,-0.10570526,0.03376007,0.079956055,-1.3826041,0.02872467,-2.5116348,1.6170986,-0.002937317,-3.6163864,0.10028839,0.051689148,0.22644424,-1.1183115,-0.05001068,-6.8464165,1.835172,-0.005455017,-12.809643,0.0,0.0,0.0,0.0,0.0,0.0,0.0,0.0,0.0,0.0,0.0,0.0,0.7119235,0.661679,-0.90117675,-0.9915933,-0.16974609,0.34014893,-0.99940103,-0.9124601,-0.99152076,0.9995311,-0.5692893,-0.94718915
2025-06-04 18:31:46.058,1.290861,-6.344333,-127.77052,-0.0018345853,-0.00019456931,0.0037325611,1.047882,0.210446,9.735468,0.1199788,-0.082359314,-2.133213,-0.88419557,0.010871887,9.110855,1.6405208,0.03452301,-3.5419235,-0.11479081,-0.07961273,0.45716095,-1.0740781,-0.020103455,-0.2471962,1.8811773,0.005683899,0.44861603,-0.105781555,-0.0004196167,0.095825195,-1.3826804,-0.013084412,-2.5006485,1.6170223,-0.0049209595,-3.6652184,0.10005951,-0.05619049,0.25452042,-1.1184641,0.06397247,-6.828106,1.835172,0.004463196,-12.88533,0.0,0.0,0.0,0.0,0.0,0.0,0.0,0.0,0.0,0.0,0.0,0.0,0.71270895,0.6641149,-0.9016667,-0.9915538,-0.16648096,0.34226725,-0.99940157,-0.91274554,-0.99144363,0.999528,-0.5656544,-0.9469402
2025-06-04 18:31:46.109,1.286975,-6.341029,-127.76464,0.0015542855,-0.0014685026,0.0012807575,1.080314,0.211954,9.712509,0.12036027,-0.03704071,-2.407875,-0.88442445,-0.023231506,9.105972,1.6405208,-0.00667572,-3.560234,-0.11479081,-0.0146102905,0.436409,-1.0736966,0.010261536,-0.23865128,1.8812536,-0.036201477,0.4730301,-0.10585785,0.0052261353,0.037231445,-1.3826804,0.0157547,-2.4908829,1.6170223,-0.03314972,-3.6981773,0.1001358,-0.054359436,0.30090714,-1.1186167,-0.03704071,-6.8427544,1.835172,-0.02117157,-12.8438225,0.0,0.0,0.0,0.0,0.0,0.0,0.0,0.0,0.0,0.0,0.0,0.0,0.71301806,0.6637871,-0.901391,-0.9915927,-0.16676098,0.34004736,-0.99940723,-0.9131872,-0.99151176,0.9995297,-0.5689533,-0.9475993
2025-06-04 18:31:46.160,1.282156,-6.347717,-127.76376,-0.0019562,-0.0020331864,-0.00093891734,1.052697,0.207398,9.713877,0.12036027,-0.0661087,-2.1393166,-0.88427186,0.0063705444,9.132832,1.6405208,-0.0064468384,-3.6188278,-0.11479081,0.00667572,0.47058868,-1.0737729,-0.015068054,-0.28015518,1.8811773,-0.047569275,0.4351883,-0.105781555,-0.018882751,0.10192871,-1.382833,-0.001335144,-2.551918,1.6170223,-0.00049591064,-3.6432457,0.1002121,0.029792786,0.26550674,-1.1187693,0.005760193,-6.8537407,1.835172,-0.005683899,-12.869457,0.0,0.0,0.0,0.0,0.0,0.0,0.0,0.0,0.0,0.0,0.0,0.0,0.7122837,0.6617006,-0.90115047,-0.9915586,-0.1677536,0.34114212,-0.99940383,-0.91297185,-0.9915316,0.99952966,-0.56983835,-0.94741607
2025-06-04 18:31:46.211,1.278173,-6.353025,-127.76521,-0.0012568989,-0.0048094466,-0.00011847295,1.080204,0.21482,9.714221,0.12051286,0.028419495,-2.1515236,-0.88427186,-0.004005432,9.123062,1.6402919,-0.00919342,-3.5785446,-0.11479081,0.03299713,0.45227814,-1.0738492,-0.019493103,-0.24231339,1.8813299,0.02620697,0.42542267,-0.10570526,-0.015525818,0.08239746,-1.3827567,0.053520203,-2.4835587,1.6170223,-0.015296936,-3.629818,0.10005951,-0.019950867,0.31677628,-1.1191508,0.03238678,-6.953842,1.8352484,-0.0036239624,-12.895096,0.0,0.0,0.0,0.0,0.0,0.0,0.0,0.0,0.0,0.0,0.0,0.0,0.7117723,0.66278255,-0.9012111,-0.9915509,-0.16632518,0.33835796,-0.9993987,-0.91262347,-0.99152434,0.99952966,-0.5673292,-0.94696397
2025-06-04 18:31:46.262,1.275877,-6.350327,-127.75677,0.0008750208,0.0032204117,0.0016384104,1.048719,0.205467,9.728009,0.12051286,0.1442337,-1.9781799,-0.88427186,-0.02002716,9.081558,1.6403682,0.005836487,-3.593193,-0.11456193,0.0030136108,0.4327469,-1.0736203,-0.027275085,-0.21301651,1.8811773,0.015602112,0.38758087,-0.10585785,-0.0046157837,0.08239746,-1.3829856,-0.07297516,-2.3724709,1.6170223,-0.03551483,-3.6444664,0.10028839,0.05870819,0.21301651,-1.1196085,-0.0060653687,-6.856182,1.8352484,0.019340515,-12.816967,0.0,0.0,0.0,0.0,0.0,0.0,0.0,0.0,0.0,0.0,0.0,0.0,0.70894873,0.6618266,-0.90027964,-0.9915966,-0.16671114,0.33738774,-0.9993936,-0.9127327,-0.99158114,0.99952984,-0.5669973,-0.9467977
2025-06-04 18:31:46.313,1.274825,-6.354213,-127.75409,0.00016940165,-0.0003520329,0.0008885471,1.04185,0.209169,9.72977,0.12020768,-0.07701874,-2.0160217,-0.88442445,-0.06893158,9.059586,1.6402919,-0.026435852,-3.5870895,-0.114867106,0.0049972534,0.44495392,-1.0738492,-0.0118637085,-0.23743057,1.8809484,0.00919342,0.37781525,-0.10570526,-0.008888245,0.03967285,-1.3834434,0.004005432,-2.4542618,1.6168697,-0.027275085,-3.6359215,0.100364685,0.019874573,0.25696182,-1.1195322,0.0017929077,-6.828106,1.8352484,-0.009422302,-12.908524,0.0,0.0,0.0,0.0,0.0,0.0,0.0,0.0,0.0,0.0,0.0,0.0,0.7114315,0.66143405,-0.90141463,-0.99158406,-0.16939758,0.33950785,-0.9993978,-0.91252977,-0.9914907,0.9995271,-0.56882364,-0.9467209
2025-06-04 18:31:46.364,1.270042,-6.355142,-127.75095,-0.0020039347,-0.0006590712,0.0014786429,1.073712,0.217305,9.737296,0.12051286,0.0409317,-2.0404358,-0.88434815,3.8146973e-05,8.986343,1.6403682,-0.036964417,-3.5834274,-0.114867106,-0.019111633,0.4791336,-1.0738492,0.008659363,-0.25818253,1.8811773,-0.002784729,0.46692657,-0.10593414,-0.01499176,0.08972168,-1.3831382,0.020866394,-2.5323868,1.6168697,-0.041542053,-3.6371422,0.1002121,0.023002625,0.30823135,-1.1197611,-0.039024353,-6.8635063,1.8354009,3.8146973e-05,-12.831615,0.0,0.0,0.0,0.0,0.0,0.0,0.0,0.0,0.0,0.0,0.0,0.0,0.7115654,0.6628574,-0.90122586,-0.99156296,-0.16780719,0.33981425,-0.99940217,-0.91236633,-0.99152356,0.9995307,-0.56696594,-0.9470972
2025-06-04 18:31:46.416,1.267908,-6.356366,-127.75126,0.001660995,0.0013378123,0.0008213694,1.066206,0.199918,9.721278,0.12036027,0.07663727,-2.2955666,-0.88457704,-0.0050735474,9.013199,1.6402156,-0.04360199,-3.6347008,-0.114867106,0.055503845,0.46448517,-1.0738492,0.029716492,-0.23132706,1.881101,0.018424988,0.42420197,-0.105781555,0.008354187,0.07751465,-1.3833671,0.092659,-2.6410332,1.616946,-0.011711121,-3.6432457,0.10005951,0.036888123,0.22278214,-1.1199137,0.027122498,-6.812237,1.8353246,-0.00019073486,-12.882889,0.0,0.0,0.0,0.0,0.0,0.0,0.0,0.0,0.0,0.0,0.0,0.0,0.7119516,0.66171664,-0.9014768,-0.9915875,-0.16699281,0.33790162,-0.99940526,-0.9129621,-0.9916047,0.9995355,-0.56888354,-0.94721615
2025-06-04 18:31:46.467,1.267092,-6.361758,-127.750145,-0.00037306413,-0.0044487743,0.00072825607,1.103806,0.220362,9.747834,0.1199788,-0.2891922,-1.3543892,-0.8850348,-0.25569916,9.235371,1.6402156,0.02483368,-3.5468063,-0.11479081,-0.04459381,0.46570587,-1.0738492,0.032463074,-0.24353409,1.8812536,0.0038528442,0.41565704,-0.10593414,0.004005432,0.07751465,-1.3839011,-0.17635345,-2.11734,1.6170223,0.02292633,-3.6737633,0.10044098,-0.09677887,0.2899208,-1.1199137,-0.017738342,-6.7597466,1.8353246,0.028953552,-12.837719,0.0,0.0,0.0,0.0,0.0,0.0,0.0,0.0,0.0,0.0,0.0,0.0,0.7132488,0.6627189,-0.90081203,-0.991653,-0.16937432,0.34265795,-0.9993882,-0.9128835,-0.99129,0.9995133,-0.5690099,-0.94614536
2025-06-04 18:31:46.518,1.266771,-6.372091,-127.750824,-0.0001065349,0.002889602,-0.0003008773,1.085892,0.237631,9.72449,0.12089433,0.30910492,-3.5407028,-0.88465333,0.34908295,8.799572,1.6399868,-0.018119812,-3.589531,-0.1149434,-0.0037002563,0.44373322,-1.0741544,0.008659363,-0.26184464,1.8814062,-0.02407074,0.42298126,-0.10570526,-0.007820129,0.07141113,-1.3844352,0.03414154,-2.527504,1.616946,-0.00019073486,-3.6688805,0.10051727,-0.043144226,0.24231339,-1.1206766,-0.108680725,-6.6730766,1.8350958,-0.03993988,-12.818188,0.0,0.0,0.0,0.0,0.0,0.0,0.0,0.0,0.0,0.0,0.0,0.0,0.7097186,0.6613349,-0.90183175,-0.9914037,-0.16573699,0.33895323,-0.99940073,-0.9116817,-0.99168754,0.99954355,-0.5638924,-0.947286
2025-06-04 18:31:46.569,1.268327,-6.376496,-127.74599,0.0034419638,0.0036028132,0.001020686,1.083259,0.176668,9.742053,0.12135209,0.74726105,-2.5201797,-0.88572145,0.14667511,9.235371,1.6397579,-0.03490448,-3.4833298,-0.11479081,-0.016899109,0.46326447,-1.0740781,0.020332336,-0.21912003,1.8811773,-0.020484924,0.44739532,-0.10570526,-0.0020217896,0.08728027,-1.384664,0.057411194,-2.4921036,1.6167171,-0.015602112,-3.6322594,0.100746155,0.12744904,0.22522354,-1.1209055,-0.011024475,-6.69627,1.835172,-0.00034332275,-12.887772,0.0,0.0,0.0,0.0,0.0,0.0,0.0,0.0,0.0,0.0,0.0,0.0,0.70234954,0.6633117,-0.89868903,-0.99171054,-0.1585328,0.32985345,-0.99939406,-0.91366243,-0.9919584,0.9995487,-0.5633838,-0.947068
2025-06-04 18:31:46.620,1.2671,-6.371387,-127.74884,3.8397244e-05,-0.00014735815,-0.0009663888,1.055244,0.166117,9.745496,0.11974992,-0.41805267,-0.95887756,-0.8861029,-0.12004852,9.329365,1.6398342,-0.029029846,-3.63348,-0.1149434,0.018730164,0.46326447,-1.07301,-0.06504059,-0.21912003,1.8813299,0.03993988,0.35461807,-0.105781555,0.0065231323,0.10803223,-1.3848166,-0.058555603,-2.3651466,1.6166408,0.04146576,-3.638363,0.100746155,-0.033836365,0.25818253,-1.1209055,0.096321106,-6.634014,1.8352484,0.01613617,-12.864574,0.0,0.0,0.0,0.0,0.0,0.0,0.0,0.0,0.0,0.0,0.0,0.0,0.7110504,0.65495884,-0.90250146,-0.9915204,-0.1771211,0.33865368,-0.9993802,-0.91176873,-0.9913379,0.9995182,-0.57391644,-0.9455267
2025-06-04 18:31:46.671,1.268067,-6.379763,-127.75974,-0.0026346792,-0.0007648382,-0.0008968898,1.102769,0.23843,9.696622,0.120283976,-0.17391205,-3.0243378,-0.8860266,0.041160583,8.748302,1.6396816,-0.030632019,-3.580986,-0.114867106,-0.004310608,0.43030548,-1.074841,-0.01499176,-0.26672745,1.8811773,0.005455017,0.41199493,-0.10585785,-0.007972717,0.08728027,-1.3849692,0.05130768,-2.5238419,1.6165645,-0.016975403,-3.6115036,0.10051727,-0.005378723,0.21789932,-1.121821,-0.14652252,-6.7939262,1.835172,-0.005378723,-12.803539,0.0,0.0,0.0,0.0,0.0,0.0,0.0,0.0,0.0,0.0,0.0,0.0,0.71455276,0.6615261,-0.90202534,-0.99146956,-0.17217834,0.3414339,-0.9994016,-0.9108407,-0.9913465,0.99952465,-0.5673971,-0.9466051
2025-06-04 18:31:46.722,1.270981,-6.373222,-127.74948,0.010576713,0.004896608,0.0009303652,1.068032,0.232892,9.720721,0.120818034,0.34183502,-2.916916,-0.8861029,0.08846283,9.076675,1.6396816,0.018501282,-3.499199,-0.1149434,-0.016746521,0.44373322,-1.0750699,0.014152527,-0.26062393,1.8811773,0.039100647,0.41687775,-0.10585785,-0.02872467,0.12145996,-1.3848166,0.020332336,-2.4896622,1.616183,-0.036354065,-3.5834274,0.10066986,0.0008773804,0.24109268,-1.121821,-0.020561218,-6.7609673,1.835172,-0.021629333,-12.867016,0.0,0.0,0.0,0.0,0.0,0.0,0.0,0.0,0.0,0.0,0.0,0.0,0.7080253,0.6650231,-0.900138,-0.99158543,-0.15978596,0.3344659,-0.9994015,-0.9130108,-0.99170834,0.99953705,-0.5627357,-0.9468446
2025-06-04 18:31:46.773,1.27663,-6.366212,-127.753944,0.00063166954,-0.0018667867,-0.0045742113,1.035506,0.175998,9.743949,0.12112321,0.7160568,-2.6007462,-0.8861029,0.040855408,9.124283,1.6398342,0.06893158,-3.5187302,-0.115019694,-0.0077438354,0.4766922,-1.0740018,0.03665924,-0.14587784,1.881101,-0.0371933,0.40589142,-0.10585785,0.009422302,0.10925293,-1.3848166,0.13004303,-2.482338,1.6162593,0.005531311,-3.5431442,0.10089874,0.12172699,0.23254776,-1.1214396,-0.0333786,-6.7096977,1.835172,0.0025558472,-12.880447,0.0,0.0,0.0,0.0,0.0,0.0,0.0,0.0,0.0,0.0,0.0,0.0,0.70502883,0.66033137,-0.89812857,-0.99181026,-0.16022265,0.3226716,-0.9993976,-0.9145263,-0.9919109,0.99954766,-0.57064146,-0.94752616
2025-06-04 18:31:46.824,1.271828,-6.375695,-127.76007,-0.0013824927,0.0015599055,0.0034140386,1.110114,0.219561,9.716438,0.120436564,0.16765594,-1.9415588,-0.8861029,0.048789978,9.19875,1.6398342,0.0022506714,-3.5431442,-0.1149434,-0.023612976,0.4718094,-1.0732388,0.009117126,-0.15808487,1.8810247,-0.052070618,0.23865128,-0.10570526,0.005378723,0.06652832,-1.3850455,0.087776184,-2.265049,1.6160305,-0.021400452,-3.6261559,0.10082245,0.062828064,0.26306534,-1.121821,0.01964569,-6.845196,1.8353246,0.029182434,-12.836498,0.0,0.0,0.0,0.0,0.0,0.0,0.0,0.0,0.0,0.0,0.0,0.0,0.7077164,0.6534087,-0.9003689,-0.9915699,-0.17267749,0.32875994,-0.99938446,-0.91136026,-0.9916019,0.99953675,-0.5728967,-0.94650227
2025-06-04 18:31:46.875,1.273359,-6.38039,-127.75654,-0.0006977826,0.0034656827,0.0010771997,1.105736,0.220934,9.71441,0.12058915,0.10967255,-2.6923027,-0.8863318,0.022163391,8.9448395,1.6396053,-0.011634827,-3.6322594,-0.114867106,0.022850037,0.45594025,-1.0741544,0.037956238,-0.24109268,1.8811773,0.008888245,0.30578995,-0.105781555,0.03490448,0.10070801,-1.3851981,0.096702576,-2.3907852,1.616183,0.011711121,-3.5553513,0.10044098,0.08152008,0.24353409,-1.1221262,-0.059165955,-6.802471,1.835172,-0.022239685,-12.826733,0.0,0.0,0.0,0.0,0.0,0.0,0.0,0.0,0.0,0.0,0.0,0.0,0.71122324,0.6573241,-0.9014849,-0.99157566,-0.17273104,0.33557513,-0.9993955,-0.9110509,-0.9915228,0.9995369,-0.5687467,-0.9462859
2025-06-04 18:31:46.926,1.2809,-6.370988,-127.75132,0.0021493728,0.0017272651,0.00023106413,1.04105,0.220385,9.733961,0.1199788,-0.38341522,-1.7621117,-0.8862555,-0.04650116,9.136494,1.6394527,0.0063705444,-3.5797653,-0.114867106,0.0060653687,0.4376297,-1.074841,-0.04688263,-0.25818253,1.881101,-0.02910614,0.38758087,-0.10570526,0.0030136108,0.09338379,-1.3851218,-0.04749298,-2.3993301,1.6158779,0.04634857,-3.5590134,0.100746155,0.046424866,0.30456924,-1.1221262,0.028419495,-6.7072563,1.8350958,-0.004310608,-12.868237,0.0,0.0,0.0,0.0,0.0,0.0,0.0,0.0,0.0,0.0,0.0,0.0,0.7149326,0.65963084,-0.902419,-0.99153376,-0.17274879,0.34517974,-0.99940425,-0.9122005,-0.99136174,0.9995228,-0.57086146,-0.94644797
2025-06-04 18:31:46.977,1.284641,-6.368538,-127.75053,0.003297468,0.0009610306,-0.00013203415,1.085666,0.200322,9.743186,0.1211995,0.32001495,-3.3075447,-0.8861792,0.1479721,8.8508415,1.6393764,-0.0434494,-3.4259567,-0.114867106,0.06298065,0.46570587,-1.0751462,-0.040855408,-0.330204,1.8813299,-0.007133484,0.5108719,-0.105781555,-0.0024795532,0.111694336,-1.3848166,0.12210846,-2.6422539,1.6158779,0.0118637085,-3.617607,0.10051727,-0.005531311,0.24109268,-1.1222025,-0.017662048,-6.688946,1.835172,-0.020713806,-12.827953,0.0,0.0,0.0,0.0,0.0,0.0,0.0,0.0,0.0,0.0,0.0,0.0,0.71008945,0.66412175,-0.9009434,-0.99148965,-0.16178323,0.33700684,-0.9994036,-0.91262925,-0.99169695,0.99953806,-0.5655489,-0.9471716
2025-06-04 18:31:47.028,1.279148,-6.37343,-127.743965,0.0037666822,-0.0023894778,0.0009318487,1.106894,0.20716,9.759662,0.12135209,0.7403946,-3.0829315,-0.88587403,0.087013245,9.0229645,1.6394527,-0.011711121,-3.5822067,-0.1149434,0.024528503,0.49011993,-1.074307,0.0409317,-0.1336708,1.8814062,-0.043678284,0.38147736,-0.105781555,-0.008735657,0.0970459,-1.384893,0.10318756,-2.5299454,1.6158779,-0.01712799,-3.593193,0.10089874,0.07595062,0.12145996,-1.1222025,-0.116996765,-6.745098,1.835172,-0.0074386597,-12.85725,0.0,0.0,0.0,0.0,0.0,0.0,0.0,0.0,0.0,0.0,0.0,0.0,0.7041036,0.66094124,-0.89840627,-0.99168783,-0.16075486,0.32608235,-0.9993933,-0.9134464,-0.99189955,0.99954635,-0.56816983,-0.94739497
2025-06-04 18:31:47.079,1.274414,-6.377019,-127.748795,-0.0009097179,0.0013027835,-0.0041542677,1.091948,0.217979,9.715669,0.1199788,-0.26798248,-1.0540924,-0.8862555,-0.1266098,9.442894,1.6396053,0.049324036,-3.6273766,-0.1149434,-0.00415802,0.4779129,-1.0736966,0.044441223,-0.128788,1.8811773,-0.027427673,0.2923622,-0.10562897,-0.03429413,0.07385254,-1.3849692,-0.095329285,-2.1393166,1.6158016,-0.02445221,-3.5907516,0.10059357,-0.030479431,0.2911415,-1.1221262,0.07320404,-6.746319,1.8352484,0.030479431,-12.867016,0.0,0.0,0.0,0.0,0.0,0.0,0.0,0.0,0.0,0.0,0.0,0.0,0.7100197,0.6551962,-0.90065014,-0.9915979,-0.17197144,0.33233178,-0.9993833,-0.91195154,-0.99141,0.99951965,-0.5724375,-0.94571817
2025-06-04 18:31:47.130,1.273944,-6.382982,-127.755165,-0.00032208304,0.0028538401,0.0010247177,1.128793,0.241623,9.702983,0.11990251,-0.5183792,-1.7254906,-0.8863318,-0.031471252,8.935074,1.639529,0.039253235,-3.532158,-0.115019694,-0.029563904,0.45838165,-1.0744596,-0.07221222,-0.2923622,1.8813299,-0.00019073486,0.3314247,-0.10585785,0.013923645,0.08972168,-1.384893,-0.15621185,-2.4457169,1.6157253,0.0015640259,-3.5748825,0.10044098,-0.11920929,0.34241104,-1.1225077,0.021781921,-6.7548637,1.835172,0.02155304,-12.813305,0.0,0.0,0.0,0.0,0.0,0.0,0.0,0.0,0.0,0.0,0.0,0.0,0.7146808,0.65826,-0.9027973,-0.99139124,-0.17555523,0.34439868,-0.99938774,-0.9103859,-0.99115795,0.99951255,-0.56844276,-0.94552374
2025-06-04 18:31:47.181,1.277562,-6.37501,-127.744576,-0.00025108305,0.002082841,0.0029694333,1.028386,0.216793,9.752069,0.12158097,0.8459091,-2.4847794,-0.8861792,0.07976532,9.148701,1.6393001,0.00415802,-3.6347008,-0.11509599,-0.051383972,0.46692657,-1.0758328,-0.0045394897,-0.2862587,1.8812536,-0.020256042,0.48645782,-0.105781555,0.0048446655,0.1300087,-1.384893,0.18688202,-2.4298477,1.6157253,0.01941681,-3.5101852,0.10066986,0.037727356,0.10681152,-1.1228129,0.055885315,-6.8329887,1.8353246,0.00667572,-12.762035,0.0,0.0,0.0,0.0,0.0,0.0,0.0,0.0,0.0,0.0,0.0,0.0,0.70623827,0.6698256,-0.89878196,-0.9917366,-0.15081124,0.33119732,-0.9994074,-0.91448236,-0.99191046,0.99954915,-0.560003,-0.9473597
2025-06-04 18:31:47.232,1.275939,-6.368301,-127.74783,0.0049076737,0.0027454551,-0.0022479491,1.071952,0.215837,9.745852,0.120436564,0.3119278,-1.3360786,-0.8861029,-0.018196106,9.472191,1.6393764,-0.022239685,-3.6603355,-0.11509599,-0.06778717,0.5181961,-1.0733151,0.05466461,-0.12512589,1.8813299,0.012779236,0.34119034,-0.105781555,-0.014457703,0.08605957,-1.3851218,0.090522766,-2.089264,1.615649,-0.01789093,-3.6005173,0.100746155,0.111198425,0.2105751,-1.1223551,-0.024909973,-6.699932,1.8352484,0.008964539,-12.849926,0.0,0.0,0.0,0.0,0.0,0.0,0.0,0.0,0.0,0.0,0.0,0.0,0.70752835,0.65582114,-0.90009004,-0.991728,-0.17080192,0.32901266,-0.9993924,-0.91362983,-0.9917197,0.9995397,-0.5750571,-0.9471712
2025-06-04 18:31:47.283,1.278223,-6.383443,-127.75181,-0.006235869,-0.0018085974,0.001545873,1.138848,0.229909,9.73265,0.11982621,-0.7638931,-1.9525452,-0.8861792,-0.07663727,8.935074,1.6393764,-0.013694763,-3.523613,-0.115019694,0.002937317,0.42298126,-1.0741544,-0.028877258,-0.26550674,1.8811773,-0.02735138,0.29724503,-0.105781555,0.040855408,0.092163086,-1.3856559,-0.23822784,-2.5714493,1.6155727,-0.0010299683,-3.5785446,0.100746155,-0.13713837,0.33630753,-1.1228129,-0.07823944,-6.734112,1.8352484,-0.006980896,-12.873119,0.0,0.0,0.0,0.0,0.0,0.0,0.0,0.0,0.0,0.0,0.0,0.0,0.7151873,0.6543601,-0.9036233,-0.9912553,-0.18239233,0.3474851,-0.9993813,-0.9090857,-0.9910354,0.9995047,-0.57243776,-0.9452402
2025-06-04 18:31:47.334,1.282028,-6.388509,-127.74012,-0.002334116,0.006464089,0.00080297363,1.070883,0.244947,9.726002,0.12158097,0.80905914,-3.0414276,-0.8864081,0.14598846,8.926529,1.6391475,-0.06664276,-3.6078415,-0.11517228,0.010643005,0.48401642,-1.0762906,-0.024299622,-0.30334854,1.8815588,0.07160187,0.42542267,-0.10585785,-0.012321472,0.061645508,-1.384893,0.18680573,-2.3761368,1.615649,-0.02445221,-3.6261559,0.10097504,0.16536713,0.19226456,-1.1233469,-0.016212463,-6.7853813,1.8352484,-0.02658844,-12.853588,0.0,0.0,0.0,0.0,0.0,0.0,0.0,0.0,0.0,0.0,0.0,0.0,0.70514774,0.6696313,-0.89914227,-0.9916308,-0.15291469,0.33243856,-0.9994066,-0.9131569,-0.99191743,0.9995474,-0.55693424,-0.94684994
2025-06-04 18:31:47.385,1.283219,-6.371556,-127.73943,0.008844002,-0.0015159232,-0.0040794453,1.049385,0.202448,9.767044,0.11990251,-0.3949356,-0.8233757,-0.8864844,-0.09616852,9.588158,1.6392238,0.0007247925,-3.5761032,-0.11509599,0.057106018,0.45594025,-1.0741544,-0.03124237,-0.115356445,1.8812536,0.031929016,0.34973526,-0.105781555,0.01209259,0.05432129,-1.3861136,-0.46611786,-1.7560081,1.6152675,0.0037765503,-3.5529099,0.10097504,0.11646271,0.27527237,-1.1230417,0.090522766,-6.421608,1.8352484,0.012016296,-12.835278,0.0,0.0,0.0,0.0,0.0,0.0,0.0,0.0,0.0,0.0,0.0,0.0,0.7059815,0.6522813,-0.90145373,-0.9915184,-0.17599279,0.34235105,-0.9993752,-0.9128486,-0.99152607,0.99951464,-0.5739213,-0.945028
2025-06-04 18:31:47.436,1.285838,-6.383721,-127.754845,-0.0059109936,-0.006462029,-0.0044366443,1.121512,0.206664,9.72831,0.12074174,0.032691956,-3.5468063,-0.8864081,0.24784088,8.360111,1.6391475,-0.008430481,-3.5541306,-0.11517228,0.08098602,0.4388504,-1.0754514,0.079841614,-0.27405167,1.8814062,-0.012779236,0.4412918,-0.10593414,-0.01712799,0.103149414,-1.3855033,0.37067413,-2.835125,1.6151149,-0.0024795532,-3.6078415,0.10059357,-0.02948761,0.22766495,-1.1234232,0.007972717,-6.7353325,1.8352484,-0.005531311,-12.826733,0.0,0.0,0.0,0.0,0.0,0.0,0.0,0.0,0.0,0.0,0.0,0.0,0.71693194,0.6613287,-0.90272146,-0.99150956,-0.16620834,0.33257985,-0.9994191,-0.9118873,-0.99155015,0.99954003,-0.5684507,-0.94719553
2025-06-04 18:31:47.487,1.277924,-6.381465,-127.75889,0.0012202644,0.008394248,-0.00116958,1.078672,0.238518,9.688036,0.12020768,0.21961212,-1.063858,-0.8865607,-0.1330185,9.673611,1.6390712,-0.0010299683,-3.5333786,-0.11532487,-0.09120941,0.53772736,-1.0755277,-0.023460388,-0.19226456,1.8813299,-0.002861023,0.31921768,-0.105781555,-0.011253357,0.051879883,-1.385961,-0.023918152,-1.6583519,1.614886,-0.023918152,-3.5504684,0.100746155,-0.022315979,0.1702919,-1.1232706,0.06969452,-6.717022,1.835172,-0.008659363,-12.847485,0.0,0.0,0.0,0.0,0.0,0.0,0.0,0.0,0.0,0.0,0.0,0.0,0.7077682,0.66362095,-0.8999186,-0.9916546,-0.16286899,0.33934176,-0.9993928,-0.91318595,-0.9916109,0.9995305,-0.5662335,-0.94645894
2025-06-04 18:31:47.538,1.289316,-6.372066,-127.76045,0.004067699,-0.0017609848,-0.0013214586,1.045952,0.242974,9.757321,0.1199788,-0.71308136,-2.5738907,-0.88671327,-0.061149597,8.777599,1.6390712,0.013389587,-3.5455856,-0.1149434,0.05519867,0.4010086,-1.074841,0.008277893,-0.15198135,1.8814062,0.0037765503,0.46692657,-0.10585785,-0.011253357,0.07507324,-1.3858848,-0.0434494,-3.0487518,1.6149623,0.019111633,-3.5675583,0.100746155,-0.06931305,0.23132706,-1.1234995,-0.022392273,-6.478981,1.835172,-0.021018982,-12.841381,0.0,0.0,0.0,0.0,0.0,0.0,0.0,0.0,0.0,0.0,0.0,0.0,0.7187805,0.6560781,-0.90378594,-0.9914389,-0.17815574,0.34344786,-0.9994049,-0.9121115,-0.9911974,0.99951303,-0.57732326,-0.9465126
2025-06-04 18:31:47.589,1.29317,-6.382083,-127.76546,-0.0013396798,0.0037761943,0.0031872678,1.119861,0.237549,9.730837,0.12158097,0.9006119,-2.1649513,-0.8865607,0.19321442,9.43679,1.6389949,-0.026664734,-3.589531,-0.11540116,-0.10219574,0.5828934,-1.076138,-0.04322052,-0.33264542,1.8816351,-0.038261414,0.5059891,-0.10585785,-0.06084442,0.08972168,-1.385961,0.06839752,-1.879303,1.6148098,-0.061683655,-3.454033,0.10089874,0.016441345,0.17395401,-1.1239573,0.062217712,-6.917221,1.835172,-0.02155304,-12.796215,0.0,0.0,0.0,0.0,0.0,0.0,0.0,0.0,0.0,0.0,0.0,0.0,0.7008384,0.67078197,-0.89759266,-0.9915687,-0.14660686,0.33138388,-0.9993938,-0.9130587,-0.9919606,0.999543,-0.5544205,-0.9466781
2025-06-04 18:31:47.640,1.283061,-6.367515,-127.74434,0.006046396,0.0013592624,0.0012694303,1.083114,0.18273,9.767262,0.1199788,-0.2550888,-0.7525749,-0.8864081,-0.16925812,9.690701,1.6389949,-0.02544403,-3.4930954,-0.11532487,-0.10677338,0.5548172,-1.0727811,-0.0014877319,-0.10681152,1.8814825,0.008735657,0.35828018,-0.10585785,-0.010032654,0.061645508,-1.3861899,-0.29575348,-2.1942482,1.6147335,-0.02872467,-3.560234,0.10066986,0.031547546,0.2532997,-1.1236521,0.04749298,-6.4728775,1.835172,0.002632141,-12.858471,0.0,0.0,0.0,0.0,0.0,0.0,0.0,0.0,0.0,0.0,0.0,0.0,0.7062292,0.6550002,-0.9010547,-0.9916475,-0.17515261,0.33683237,-0.9993765,-0.9132819,-0.9914842,0.9995163,-0.5743989,-0.94552904
2025-06-04 18:31:47.692,1.292454,-6.37898,-127.761696,-0.0010096206,-0.006436617,-0.002019503,1.089531,0.199077,9.733206,0.12165727,0.8047867,-3.073166,-0.8865607,0.32016754,9.004654,1.6390712,0.0047683716,-3.515068,-0.115248576,0.012626648,0.61707306,-1.074307,-0.022239685,-0.2532997,1.8814825,0.013923645,0.37659454,-0.105781555,0.033607483,0.032348633,-1.3858085,0.17299652,-2.3749123,1.6147335,-0.021629333,-3.421074,0.10097504,0.015525818,0.20203018,-1.1240336,0.0022506714,-6.78294,1.835172,-0.025901794,-12.807201,0.0,0.0,0.0,0.0,0.0,0.0,0.0,0.0,0.0,0.0,0.0,0.0,0.70286644,0.6625892,-0.89960974,-0.99144614,-0.15749867,0.32394928,-0.99938977,-0.911447,-0.99188584,0.99954706,-0.5611226,-0.9463236
2025-06-04 18:31:47.743,1.282144,-6.374744,-127.7633,0.006715887,0.003852884,0.0006226462,1.096194,0.23661,9.707246,0.120436564,0.2614975,-1.2664986,-0.88694215,-0.07976532,9.658962,1.6389186,0.0011825562,-3.5614548,-0.11540116,-0.0472641,0.5047684,-1.0731626,0.057182312,-0.16540909,1.8811773,-0.021705627,0.23498917,-0.10570526,0.008735657,0.051879883,-1.3861899,0.01209259,-1.9317932,1.6147335,-0.015296936,-3.482109,0.10120392,0.01209259,0.18249893,-1.1236521,0.10601044,-6.540016,1.8352484,-0.013771057,-12.826733,0.0,0.0,0.0,0.0,0.0,0.0,0.0,0.0,0.0,0.0,0.0,0.0,0.70432365,0.6573871,-0.89983153,-0.9917294,-0.16590549,0.32767084,-0.99938565,-0.91308546,-0.9917333,0.9995377,-0.5697048,-0.9460029
2025-06-04 18:31:47.794,1.294102,-6.372817,-127.77405,-0.005467715,-0.005924066,-0.0057419934,1.066285,0.225881,9.78723,0.119673625,-0.72155,-2.0965881,-0.886637,-0.10417938,8.614021,1.6390712,0.020942688,-3.5175095,-0.11517228,0.040550232,0.39246368,-1.0737729,0.044136047,-0.20569229,1.8813299,0.0118637085,0.26306534,-0.10593414,-0.036582947,0.12145996,-1.3865714,-0.1190567,-2.4457169,1.6146572,-0.017814636,-3.5712204,0.10105133,0.0025558472,0.2496376,-1.1242625,0.013389587,-6.630352,1.835172,-0.021018982,-12.882889,0.0,0.0,0.0,0.0,0.0,0.0,0.0,0.0,0.0,0.0,0.0,0.0,0.71537054,0.6534853,-0.90291476,-0.9914873,-0.17917925,0.34014747,-0.999393,-0.9109036,-0.9912033,0.9995114,-0.5747324,-0.9453632
2025-06-04 18:31:47.845,1.295344,-6.377251,-127.77493,-0.0015197804,0.0057031424,0.00602533,1.12484,0.261443,9.701144,0.120818034,0.15766144,-3.1903572,-0.88694215,0.18245697,8.571297,1.6388423,0.018043518,-3.617607,-0.115019694,0.021247864,0.45471954,-1.0758328,-0.0075149536,-0.30334854,1.8815588,-0.048866272,0.46692657,-0.10585785,0.003929138,0.08483887,-1.3861136,0.1089859,-2.5946426,1.6145809,-0.006980896,-3.5492477,0.10089874,0.03376007,0.20447159,-1.1243387,-0.054588318,-6.725567,1.8352484,0.026283264,-12.813305,0.0,0.0,0.0,0.0,0.0,0.0,0.0,0.0,0.0,0.0,0.0,0.0,0.7133285,0.66237795,-0.9009562,-0.9915056,-0.1640503,0.33613256,-0.9994113,-0.91192985,-0.99158305,0.9995364,-0.566146,-0.94711345
2025-06-04 18:31:47.896,1.293902,-6.367759,-127.75788,0.004064942,0.004461201,0.0025806613,1.068949,0.210532,9.77409,0.12135209,0.6997299,-1.7267113,-0.88671327,-0.030403137,9.79324,1.6388423,-0.010871887,-3.5333786,-0.11555375,-0.071144104,0.5609207,-1.0749173,0.09449005,-0.1727333,1.8814062,0.006828308,0.3619423,-0.105781555,-0.03566742,0.0970459,-1.3861136,-0.030174255,-2.265049,1.6144283,0.004310608,-3.502861,0.101127625,0.08541107,0.13611221,-1.1241862,0.027275085,-6.6010513,1.835172,-0.011787415,-12.77058,0.0,0.0,0.0,0.0,0.0,0.0,0.0,0.0,0.0,0.0,0.0,0.0,0.7029239,0.66358054,-0.89807147,-0.9917945,-0.15653217,0.33050898,-0.9993888,-0.9142623,-0.9919056,0.9995426,-0.56349623,-0.94638366
2025-06-04 18:31:47.947,1.291503,-6.36246,-127.76324,0.0022991223,-0.00077183696,-0.003751847,1.049231,0.185967,9.721604,0.11974992,-0.88230133,-1.555809,-0.88671327,-0.19824982,9.10231,1.6389186,0.0065994263,-3.478447,-0.115248576,0.038337708,0.42176056,-1.073544,0.017356873,-0.14709854,1.8813299,0.0017166138,0.33752823,-0.105781555,0.027198792,0.037231445,-1.3862662,-0.1732254,-2.387123,1.6145046,0.030097961,-3.5187302,0.10105133,0.0034713745,0.22400284,-1.1241099,-0.026664734,-6.4777603,1.835172,-0.015449524,-12.880447,0.0,0.0,0.0,0.0,0.0,0.0,0.0,0.0,0.0,0.0,0.0,0.0,0.7177408,0.6505797,-0.90377176,-0.99149996,-0.18566017,0.34294257,-0.9993925,-0.9117244,-0.9911119,0.99950653,-0.5821159,-0.9457857
2025-06-04 18:31:47.998,1.298846,-6.38355,-127.77109,-0.0073874374,-0.0011821464,0.008474481,1.191937,0.28802,9.687137,0.12173356,0.56697845,-3.2989998,-0.886637,0.37410736,8.739758,1.6386898,-0.0146865845,-3.5834274,-0.115248576,0.051383972,0.53528595,-1.0765958,-0.0233078,-0.2911415,1.8814825,0.008735657,0.45471954,-0.105781555,0.0075912476,0.10803223,-1.3856559,0.16246796,-2.4213028,1.6145046,-0.0045394897,-3.502861,0.101127625,0.010795593,0.22400284,-1.1248728,-0.107536316,-6.9819183,1.8352484,-0.00667572,-12.851147,0.0,0.0,0.0,0.0,0.0,0.0,0.0,0.0,0.0,0.0,0.0,0.0,0.7095283,0.66392404,-0.9007546,-0.99132454,-0.1603446,0.33556852,-0.9994025,-0.9104775,-0.99171036,0.99954414,-0.55980575,-0.94680387
2025-06-04 18:31:48.049,1.295166,-6.36677,-127.744576,0.011872741,0.007319806,0.0052372618,1.008846,0.211859,9.709388,0.12058915,0.03742218,-0.9015045,-0.88717103,-0.22846222,9.72488,1.638766,-0.0017929077,-3.539482,-0.11540116,-0.06679535,0.5499344,-1.0753751,-0.09868622,-0.18982315,1.8814062,0.01247406,0.3997879,-0.10585785,0.020179749,0.072631836,-1.3863425,-0.22228241,-1.8023949,1.6144283,0.03238678,-3.511406,0.10105133,0.003929138,0.15320206,-1.1245676,0.09845734,-6.4325943,1.8352484,-0.009346008,-12.8560295,0.0,0.0,0.0,0.0,0.0,0.0,0.0,0.0,0.0,0.0,0.0,0.0,0.7060875,0.662125,-0.9004208,-0.99165946,-0.16624914,0.34098047,-0.99938315,-0.9138316,-0.9915559,0.9995209,-0.568591,-0.94559187
2025-06-04 18:31:48.100,1.306063,-6.360779,-127.761795,-0.0007215191,-0.008998953,-0.003516088,1.019719,0.202002,9.779134,0.120283976,-0.36304474,-0.9637604,-0.8875525,-0.36792755,9.547874,1.6389186,0.032463074,-3.5345993,-0.115630046,-0.085105896,0.42420197,-1.0750699,0.032691956,-0.18860245,1.8814062,0.0075149536,0.44495392,-0.105781555,-0.013389587,0.07507324,-1.3865714,-0.010948181,-2.1808205,1.6140468,-0.0008773804,-3.5223923,0.10120392,-0.007133484,0.23620987,-1.1247202,0.0472641,-6.6742973,1.8354009,0.017204285,-12.84016,0.0,0.0,0.0,0.0,0.0,0.0,0.0,0.0,0.0,0.0,0.0,0.0,0.71454155,0.66389316,-0.9001045,-0.9917549,-0.16557096,0.33318081,-0.99940044,-0.9143808,-0.9913233,0.9995064,-0.57449865,-0.9462012
2025-06-04 18:31:48.151,1.294269,-6.370126,-127.759026,-0.002889026,0.00013727014,0.008647286,1.145161,0.242467,9.691013,0.121428385,0.16551971,-3.2477303,-0.8865607,0.22541046,8.802013,1.638766,-0.014762878,-3.5101852,-0.11509599,0.12111664,0.4388504,-1.0750699,0.019340515,-0.18616104,1.8816351,-0.00919342,0.3241005,-0.10585785,0.023002625,0.056762695,-1.3864188,0.09296417,-2.6715508,1.6142757,0.02620697,-3.5516891,0.10097504,-0.036582947,0.23132706,-1.1248728,-0.09296417,-6.7072563,1.835172,-0.0051498413,-12.887772,0.0,0.0,0.0,0.0,0.0,0.0,0.0,0.0,0.0,0.0,0.0,0.0,0.7126043,0.6535231,-0.90230525,-0.9912966,-0.17275451,0.33607674,-0.99939567,-0.9107273,-0.99157566,0.9995396,-0.57301164,-0.9469506
2025-06-04 18:31:48.202,1.297628,-6.373727,-127.74759,0.0010593799,0.002753798,-0.0045499336,1.128771,0.263005,9.731321,0.12150468,0.4706955,-2.9877167,-0.88694215,0.2085495,8.932632,1.6388423,0.0014877319,-3.5101852,-0.11517228,0.018501282,0.4803543,-1.0755277,-0.010643005,-0.25574112,1.8815588,0.0033950806,0.37414932,-0.105781555,0.012321472,0.053100586,-1.3861136,0.20061493,-2.3761368,1.6141994,-0.020103455,-3.5492477,0.10089874,-0.029335022,0.17639542,-1.1248728,0.07953644,-6.770733,1.8352484,-0.002632141,-12.868237,0.0,0.0,0.0,0.0,0.0,0.0,0.0,0.0,0.0,0.0,0.0,0.0,0.7087014,0.6622616,-0.9009235,-0.99149704,-0.16149206,0.3322827,-0.9994006,-0.9118574,-0.99172026,0.9995442,-0.5636642,-0.9466633
2025-06-04 18:31:48.253,1.305343,-6.356652,-127.76548,0.007400981,0.0014734768,-0.0034083836,0.996005,0.210221,9.781462,0.12135209,0.56552887,-1.3299751,-0.88694215,-0.10585785,9.936066,1.6389186,0.008049011,-3.5016403,-0.11532487,-0.077552795,0.4754715,-1.0749173,-0.044898987,-0.1324501,1.8814062,0.034828186,0.3289833,-0.105781555,0.0182724,0.06286621,-1.3862662,0.06900787,-2.1808205,1.6139705,-0.023841858,-3.4650192,0.101127625,0.040397644,0.18371964,-1.1247202,0.07282257,-6.6157,1.835172,-0.0075912476,-12.880447,0.0,0.0,0.0,0.0,0.0,0.0,0.0,0.0,0.0,0.0,0.0,0.0,0.70449257,0.6627008,-0.89933,-0.9917159,-0.1617844,0.32972604,-0.9993892,-0.9136997,-0.9917541,0.9995375,-0.56758213,-0.9463714
2025-06-04 18:31:48.304,1.301098,-6.358353,-127.76891,-0.0015205308,-0.0022025532,0.0027977626,1.106585,0.223228,9.716598,0.119673625,-0.57605743,-0.8123894,-0.88717103,-0.4304123,9.331806,1.6386898,-0.026664734,-3.5077438,-0.11509599,-0.0037002563,0.41077423,-1.0742307,-0.05847931,-0.10803223,1.8814825,0.004386902,0.34851456,-0.10585785,-0.014305115,0.05432129,-1.3865714,-0.1479721,-2.089264,1.6140468,0.0033950806,-3.5577927,0.101127625,-0.039100647,0.22888565,-1.1249491,0.07297516,-6.614479,1.8352484,0.007286072,-12.799877,0.0,0.0,0.0,0.0,0.0,0.0,0.0,0.0,0.0,0.0,0.0,0.0,0.7119921,0.65805846,-0.90126234,-0.9915809,-0.17381142,0.3383807,-0.9993821,-0.9124445,-0.99121577,0.99950105,-0.57617867,-0.9451728
2025-06-04 18:31:48.355,1.298812,-6.366029,-127.76803,-0.0009296147,0.0030783769,0.0020085075,1.158814,0.236463,9.692022,0.12150468,0.924263,-2.2906837,-0.88678956,0.24662018,9.47097,1.6388423,-0.029029846,-3.4808884,-0.115248576,-0.10959625,0.5230789,-1.0752225,-0.001335144,-0.22156143,1.8814062,-0.008583069,0.3692665,-0.10585785,0.0014877319,0.14099503,-1.3860373,0.124931335,-2.1759377,1.6141231,0.0182724,-3.5040817,0.101127625,0.07236481,0.17761612,-1.1249491,0.057182312,-6.941635,1.835172,0.010414124,-12.808422,0.0,0.0,0.0,0.0,0.0,0.0,0.0,0.0,0.0,0.0,0.0,0.0,0.7026831,0.6650272,-0.8988372,-0.99155945,-0.15439925,0.32992393,-0.9993907,-0.91258067,-0.9919237,0.9995497,-0.5589033,-0.9464994
2025-06-04 18:31:48.406,1.299636,-6.349294,-127.76599,0.0022537087,0.004876293,-0.0025416182,1.02078,0.17909,9.779655,0.12150468,0.5790329,-3.556572,-0.8865607,0.30727386,8.926529,1.6386898,0.011024475,-3.53582,-0.11517228,0.115242004,0.50110626,-1.0734677,0.09792328,-0.111694336,1.8814062,-0.045814514,0.3619423,-0.10585785,-0.0024795532,0.10192871,-1.385961,0.18321991,-2.4957657,1.6139705,0.068092346,-3.482109,0.101127625,-0.019187927,0.17883682,-1.1247202,-0.06816864,-6.441139,1.8352484,0.014457703,-12.860912,0.0,0.0,0.0,0.0,0.0,0.0,0.0,0.0,0.0,0.0,0.0,0.0,0.70769763,0.6523125,-0.9012292,-0.99157685,-0.16951372,0.32536864,-0.99939495,-0.9125436,-0.99185854,0.9995562,-0.5733704,-0.94715065
2025-06-04 18:31:48.457,1.30485,-6.352344,-127.78542,-0.001584148,-0.0021615552,0.0019211886,1.081347,0.250375,9.725133,0.12150468,0.651741,-3.4955368,-0.88709474,0.3724289,8.764172,1.6388423,-0.036888123,-3.5126266,-0.115248576,0.1305008,0.54016876,-1.0742307,-0.019111633,-0.22644424,1.8814062,-0.00064849854,0.26672745,-0.105781555,-0.0009536743,0.103149414,-1.3862662,0.118904114,-2.4017715,1.6138179,0.007972717,-3.5199509,0.101127625,0.01789093,0.21912003,-1.1249491,-0.075035095,-6.7609673,1.8352484,0.041770935,-12.820629,0.0,0.0,0.0,0.0,0.0,0.0,0.0,0.0,0.0,0.0,0.0,0.0,0.70359254,0.65334994,-0.90040183,-0.9913718,-0.16907915,0.3278909,-0.99937606,-0.9094641,-0.9917957,0.9995498,-0.56539094,-0.94585514
2025-06-04 18:31:48.508,1.295004,-6.353332,-127.77134,0.0003581241,0.0063176556,0.0014668969,1.075437,0.193915,9.743892,0.11982621,-0.3030014,-0.8172722,-0.8878577,-0.47016144,9.480736,1.6388423,-0.009422302,-3.5712204,-0.11540116,-0.0308609,0.53528595,-1.0746884,-0.045814514,-0.23987198,1.8812536,0.033073425,0.27649307,-0.105781555,0.041770935,0.048217773,-1.3862662,-0.2135849,-2.0367737,1.6136653,-0.033073425,-3.4467087,0.10097504,0.065727234,0.2117958,-1.1248728,0.09044647,-6.577858,1.8353246,0.03917694,-12.862133,0.0,0.0,0.0,0.0,0.0,0.0,0.0,0.0,0.0,0.0,0.0,0.0,0.7085166,0.6606945,-0.8999119,-0.99175847,-0.17046091,0.33582652,-0.99938077,-0.9126311,-0.9913362,0.99950707,-0.5699538,-0.9446124
2025-06-04 18:31:48.559,1.304315,-6.347013,-127.78029,0.0021710151,0.0022444935,-0.0042299973,1.058695,0.238496,9.736622,0.1211995,0.04688263,-3.5577927,-0.88686585,0.19458771,8.518806,1.6386898,0.03261566,-3.5638962,-0.115248576,0.064201355,0.42298126,-1.0754514,-0.058631897,-0.252079,1.8815588,0.03513336,0.3997879,-0.10593414,0.033988953,0.06896973,-1.3861136,0.076408386,-2.6422539,1.6135128,0.00019073486,-3.5162888,0.101127625,-0.019340515,0.21545792,-1.1251017,-0.054283142,-6.594948,1.8352484,-0.005836487,-12.831615,0.0,0.0,0.0,0.0,0.0,0.0,0.0,0.0,0.0,0.0,0.0,0.0,0.7132511,0.6568229,-0.9028213,-0.99132776,-0.17202066,0.3353173,-0.9994024,-0.9110295,-0.9914929,0.9995339,-0.5710002,-0.94659036
2025-06-04 18:31:48.610,1.297837,-6.347296,-127.77788,-0.0008229053,7.225663e-06,0.00070718996,1.072368,0.250505,9.716822,0.11982621,-0.55423737,-0.8709831,-0.8877814,-0.36655426,9.53933,1.6385372,0.027885437,-3.5590134,-0.11547746,0.017204285,0.42176056,-1.0754514,-0.05756378,-0.26062393,1.8814825,0.007972717,0.40589142,-0.10562897,0.039863586,0.049438477,-1.3864188,-0.16841888,-2.1356544,1.6134365,-0.008354187,-3.5211716,0.10089874,-0.041542053,0.2093544,-1.1251017,0.12973785,-6.6364555,1.835172,-0.004005432,-12.8560295,0.0,0.0,0.0,0.0,0.0,0.0,0.0,0.0,0.0,0.0,0.0,0.0,0.71383846,0.66216326,-0.9011596,-0.99157757,-0.16838044,0.34166804,-0.9993962,-0.9128764,-0.9912596,0.9995036,-0.57232153,-0.94558686
2025-06-04 18:31:48.661,1.29683,-6.346735,-127.77173,-0.0014895338,-0.0007059508,0.0003125361,1.11253,0.235572,9.731084,0.120055094,-0.8362961,-1.6388206,-0.88717103,-0.14217377,8.817883,1.6389186,-0.0031661987,-3.5004196,-0.11509599,0.017280579,0.41321564,-1.0752988,-0.032920837,-0.19470596,1.8815588,0.01033783,0.4376297,-0.10570526,0.014228821,0.053100586,-1.3865714,-0.110435486,-2.470131,1.613589,0.03551483,-3.482109,0.10097504,-0.029716492,0.24353409,-1.1254832,-0.0049972534,-6.6327934,1.8352484,-0.023994446,-12.83894,0.0,0.0,0.0,0.0,0.0,0.0,0.0,0.0,0.0,0.0,0.0,0.0,0.7209872,0.6579106,-0.9039645,-0.9913952,-0.1782969,0.34955543,-0.9994077,-0.9120447,-0.99108994,0.99950564,-0.577253,-0.94641423
2025-06-04 18:31:48.712,1.297975,-6.35405,-127.766014,0.000869331,-0.0012325865,0.005574337,1.105891,0.246046,9.6852,0.12158097,0.40096283,-3.1610603,-0.88694215,0.24967194,8.860607,1.6386135,-0.011177063,-3.5248337,-0.11532487,-0.009651184,0.4779129,-1.0765195,0.039634705,-0.2862587,1.8817877,-0.037956238,0.5169754,-0.10570526,0.037956238,0.04333496,-1.3863425,0.013313293,-2.6239395,1.613589,-0.039405823,-3.3844528,0.10089874,-0.005607605,0.21789932,-1.1260935,-0.095329285,-6.7512016,1.8352484,0.0017929077,-12.892654,0.0,0.0,0.0,0.0,0.0,0.0,0.0,0.0,0.0,0.0,0.0,0.0,0.7112831,0.6653734,-0.90041506,-0.9914088,-0.15890332,0.33705336,-0.9994109,-0.91236424,-0.99169666,0.9995366,-0.5638908,-0.9474575
2025-06-04 18:31:48.763,1.294036,-6.344212,-127.75196,0.0068177795,-0.00027738517,-0.001882547,1.051304,0.200976,9.777415,0.12112321,-0.06763458,-2.7850761,-0.886637,0.18321991,8.979019,1.6386135,-0.058555603,-3.5541306,-0.11532487,0.06336212,0.54016876,-1.0749936,0.02040863,-0.12390137,1.8815588,-0.026741028,0.40345,-0.10585785,0.04840851,0.08850098,-1.3862662,0.08747101,-2.4225235,1.6134365,0.02155304,-3.556572,0.10120392,-0.026054382,0.22766495,-1.1257883,0.0005722046,-6.4802017,1.8352484,-0.048942566,-12.853588,0.0,0.0,0.0,0.0,0.0,0.0,0.0,0.0,0.0,0.0,0.0,0.0,0.71444094,0.6548728,-0.9040289,-0.9913656,-0.17558897,0.34209943,-0.9994098,-0.91205466,-0.9915604,0.99953926,-0.57563007,-0.9473649
2025-06-04 18:31:48.814,1.288047,-6.352737,-127.76256,-0.005238955,-0.0052971616,-0.0027067263,1.107043,0.206062,9.716862,0.12135209,0.29949188,-2.4567032,-0.88709474,0.111961365,9.003433,1.6386135,-0.01033783,-3.5065231,-0.11555375,-0.063438416,0.38025665,-1.0759854,-0.035972595,-0.2862587,1.8817114,0.04863739,0.44983673,-0.10585785,0.021629333,0.079956055,-1.3862662,0.013999939,-2.068512,1.6135128,-0.013694763,-3.5419235,0.10097504,-0.018959045,0.23376846,-1.1257883,0.010108948,-6.7267876,1.8352484,-0.032691956,-12.869457,0.0,0.0,0.0,0.0,0.0,0.0,0.0,0.0,0.0,0.0,0.0,0.0,0.708635,0.6650705,-0.9009393,-0.9914323,-0.1626088,0.33891994,-0.99939585,-0.91178066,-0.9915881,0.99952984,-0.5629573,-0.94619733
2025-06-04 18:31:48.867,1.282492,-6.344753,-127.76018,0.0066125463,0.004647393,0.0012016592,1.088693,0.213648,9.750619,0.12089433,0.30498505,-1.359272,-0.88686585,0.073890686,9.5600815,1.6388423,0.012016296,-3.494316,-0.11540116,-0.02407074,0.514534,-1.0749936,0.07312775,-0.13611221,1.8817114,0.0157547,0.45227814,-0.10585785,-0.02368927,0.10070801,-1.3861136,0.061912537,-2.2845802,1.6135128,0.014762878,-3.499199,0.10105133,0.0037765503,0.22278214,-1.1254832,0.022163391,-6.508278,1.8353246,0.012931824,-12.892654,0.0,0.0,0.0,0.0,0.0,0.0,0.0,0.0,0.0,0.0,0.0,0.0,0.7096177,0.6609537,-0.9007461,-0.99163234,-0.16331927,0.3320911,-0.99940306,-0.9137274,-0.9917081,0.9995387,-0.5690206,-0.94682837
2025-06-04 18:31:48.919,1.297192,-6.337417,-127.77603,-0.00060891046,-0.003098448,-0.008114524,1.090676,0.276833,9.703672,0.11982621,-0.69660187,-0.98817444,-0.8872473,-0.18901825,9.929962,1.6388423,0.07045746,-3.5053024,-0.11540116,-0.0699234,0.52918243,-1.0747647,0.014076233,-0.12634659,1.8815588,0.005455017,0.3228798,-0.10585785,-0.024909973,0.11779785,-1.3864951,-0.065345764,-2.1124573,1.6136653,-0.0059127808,-3.4808884,0.10120392,0.058784485,0.23743057,-1.1255594,0.057792664,-6.724346,1.8352484,0.0018692017,-12.868237,0.0,0.0,0.0,0.0,0.0,0.0,0.0,0.0,0.0,0.0,0.0,0.0,0.71827173,0.65609956,-0.9023997,-0.99159616,-0.17730585,0.34086066,-0.9994059,-0.91273904,-0.99118257,0.99950975,-0.5787257,-0.9463829
2025-06-04 18:31:48.973,1.296829,-6.342487,-127.77803,-0.000689248,0.0005369156,0.0069166697,1.101168,0.243155,9.682297,0.121046916,0.2097702,-1.018692,-0.8874762,-0.20320892,9.744411,1.6386898,0.020713806,-3.4601364,-0.11532487,-0.09952545,0.4791336,-1.0760617,0.00667572,-0.26428604,1.8816351,0.0052261353,0.44373322,-0.105781555,-0.0064468384,0.06286621,-1.3864951,0.03566742,-2.1564064,1.6133602,0.00034332275,-3.560234,0.101127625,-0.02117157,0.21301651,-1.1260172,0.090904236,-6.8390923,1.835172,0.023612976,-12.83894,0.0,0.0,0.0,0.0,0.0,0.0,0.0,0.0,0.0,0.0,0.0,0.0,0.71147895,0.668106,-0.8991404,-0.99166864,-0.15667497,0.33507273,-0.9993994,-0.9135905,-0.9915223,0.9995219,-0.5649673,-0.9463158
2025-06-04 18:31:49.026,1.292076,-6.335648,-127.753944,0.0038173492,-0.0031574576,-0.0010030407,1.078213,0.175431,9.779347,0.120665446,-0.36952972,-2.3627052,-0.886637,-0.068244934,8.854504,1.6386135,0.027885437,-3.4723434,-0.11517228,0.067863464,0.42053986,-1.0742307,0.074272156,-0.13977432,1.8815588,0.024986267,0.40955353,-0.105781555,-0.032691956,0.060424805,-1.3864188,0.004234314,-2.584877,1.6134365,0.026512146,-3.5004196,0.10097504,0.004310608,0.19470596,-1.1258646,-0.010719299,-6.4679947,1.8352484,-0.017051697,-12.824291,0.0,0.0,0.0,0.0,0.0,0.0,0.0,0.0,0.0,0.0,0.0,0.0,0.71746457,0.65380645,-0.90274876,-0.99154156,-0.1761139,0.3381939,-0.9994055,-0.91298807,-0.99138147,0.9995241,-0.57944095,-0.94688094
2025-06-04 18:31:49.080,1.289742,-6.344056,-127.76354,-0.0073890085,0.00511268,0.0013501517,1.06829,0.193875,9.680316,0.12074174,-0.2991867,-1.7767601,-0.8873236,-0.10784149,8.894791,1.638766,0.0064468384,-3.5175095,-0.11532487,0.035057068,0.3949051,-1.0758328,-0.0258255,-0.26794815,1.8817114,0.00995636,0.37659454,-0.10585785,-0.0075149536,0.064086914,-1.3863425,0.015678406,-2.4298477,1.6134365,0.053367615,-3.5065231,0.101127625,0.008201599,0.23865128,-1.1260935,0.030174255,-6.7609673,1.835172,-0.029563904,-12.860912,0.0,0.0,0.0,0.0,0.0,0.0,0.0,0.0,0.0,0.0,0.0,0.0,0.71676975,0.6610049,-0.9020182,-0.9914791,-0.16999777,0.3441231,-0.9994026,-0.91189474,-0.9913113,0.99951726,-0.57134074,-0.9461795
2025-06-04 18:31:49.132,1.284452,-6.340537,-127.75301,0.0018728081,0.006150313,-0.0010843904,1.092716,0.212122,9.727906,0.121046916,-0.31726837,-2.494545,-0.88701844,0.042533875,8.605476,1.6386898,0.018043518,-3.5529099,-0.11517228,0.0976944,0.4351883,-1.075604,0.077552795,-0.26306534,1.8817877,-0.044822693,0.4730301,-0.10585785,0.06450653,0.111694336,-1.3863425,-0.01964569,-2.5348282,1.6132839,0.031089783,-3.5199509,0.10097504,-0.05214691,0.2117958,-1.1260935,0.014839172,-6.561989,1.835172,0.0065994263,-12.826733,0.0,0.0,0.0,0.0,0.0,0.0,0.0,0.0,0.0,0.0,0.0,0.0,0.7192477,0.6588603,-0.9030492,-0.99143976,-0.17028873,0.34233,-0.9994172,-0.9128208,-0.9914061,0.99952585,-0.57449144,-0.94726133
2025-06-04 18:31:49.186,1.296731,-6.338487,-127.76235,-0.0036598332,0.0023247437,-0.00412238,1.082651,0.282333,9.738193,0.120436564,-0.5765915,-1.4764633,-0.88717103,-0.14980316,9.086441,1.638766,-0.015907288,-3.6115036,-0.115248576,0.060310364,0.4388504,-1.0757565,-0.0062942505,-0.2105751,1.8817877,0.046424866,0.42908478,-0.105781555,-0.025367737,0.092163086,-1.3866477,-0.08174896,-2.2272072,1.6132839,-0.034980774,-3.4882126,0.10089874,0.019111633,0.2496376,-1.1260172,0.051689148,-6.6987114,1.8352484,0.007972717,-12.819408,0.0,0.0,0.0,0.0,0.0,0.0,0.0,0.0,0.0,0.0,0.0,0.0,0.7180323,0.66009676,-0.9022861,-0.99146956,-0.17194386,0.34511152,-0.99940586,-0.9123717,-0.9912559,0.99950886,-0.5736556,-0.9463448
2025-06-04 18:31:49.239,1.292279,-6.340167,-127.76171,0.0022841997,0.0018520561,0.0036978815,1.102908,0.241736,9.756963,0.12135209,0.33390045,-1.3678169,-0.8873999,-0.21289825,9.550316,1.638766,0.058937073,-3.5516891,-0.11547746,-0.06259918,0.49866486,-1.075604,-0.035743713,-0.26306534,1.8817877,-0.05344391,0.50354767,-0.10593414,0.019264221,0.095825195,-1.3864951,0.0014877319,-2.2211037,1.6132839,-0.029411316,-3.5101852,0.10105133,0.050086975,0.20569229,-1.1261698,0.089530945,-6.7231255,1.8352484,-0.043144226,-12.858471,0.0,0.0,0.0,0.0,0.0,0.0,0.0,0.0,0.0,0.0,0.0,0.0,0.7091266,0.6691722,-0.8981162,-0.9917239,-0.15244687,0.33025858,-0.9994077,-0.9151203,-0.99169695,0.99952316,-0.56812584,-0.9470942
2025-06-04 18:31:49.292,1.287934,-6.336832,-127.75856,0.002083382,-0.005508451,-0.00083039276,1.090736,0.198564,9.733182,0.121428385,0.1089859,-2.715496,-0.886637,0.16117096,9.070572,1.6386898,-0.0062942505,-3.46624,-0.11555375,0.18047333,0.4754715,-1.0731626,0.071372986,-0.15686417,1.8815588,-0.0012588501,0.31799698,-0.10593414,-0.041618347,0.07873535,-1.3862662,0.12638092,-2.5470352,1.6132839,-0.0046157837,-3.469902,0.101127625,0.030708313,0.2081337,-1.1260935,-0.06816864,-6.499733,1.8353246,0.023002625,-12.860912,0.0,0.0,0.0,0.0,0.0,0.0,0.0,0.0,0.0,0.0,0.0,0.0,0.71139526,0.6487719,-0.90115607,-0.99142516,-0.17433815,0.32505658,-0.99939215,-0.91169894,-0.9916469,0.99953747,-0.57986796,-0.9470958
2025-06-04 18:31:49.344,1.286098,-6.349576,-127.76468,-0.0063771014,0.0007507359,0.003034639,1.123895,0.233366,9.731049,0.1211995,0.20755768,-2.035553,-0.88701844,-0.0011825562,8.76173,1.638766,-0.090522766,-3.568779,-0.11547746,-0.018196106,0.42664337,-1.074307,-0.009498596,-0.25940323,1.8815588,-0.019798279,0.29358292,-0.10585785,-0.021629333,0.11291504,-1.3866477,-0.0075149536,-2.2833595,1.6132839,0.010032654,-3.4833298,0.101127625,0.05016327,0.2471962,-1.1261698,-0.035057068,-6.828106,1.8353246,-0.013771057,-12.860912,0.0,0.0,0.0,0.0,0.0,0.0,0.0,0.0,0.0,0.0,0.0,0.0,0.7073924,0.6580246,-0.90067154,-0.9914767,-0.17086488,0.3390855,-0.9993785,-0.9097966,-0.9915147,0.9995308,-0.5648924,-0.945256
2025-06-04 18:31:49.396,1.283734,-6.340329,-127.76354,0.004620497,0.010353642,-0.0013968394,1.002616,0.218142,9.722775,0.12089433,0.087013245,-2.092926,-0.88709474,0.062065125,9.10231,1.6386135,-0.019721985,-3.556572,-0.11517228,0.041999817,0.5133133,-1.0750699,0.04962921,-0.26062393,1.8817877,-0.011634827,0.45838165,-0.10585785,-0.022697449,0.06896973,-1.385961,0.0799942,-2.1734962,1.6131313,0.027580261,-3.4357224,0.10097504,0.06763458,0.18616104,-1.1260935,0.01247406,-6.516823,1.8353246,-0.025672913,-12.812084,0.0,0.0,0.0,0.0,0.0,0.0,0.0,0.0,0.0,0.0,0.0,0.0,0.7125901,0.6610166,-0.9019198,-0.99159974,-0.16614377,0.3360698,-0.99941295,-0.9130424,-0.99163014,0.99953705,-0.5688012,-0.94666547
2025-06-04 18:31:49.450,1.29231,-6.332896,-127.77705,-0.0058561903,-0.008884912,-0.007095985,1.063879,0.21315,9.749413,0.12097062,-0.051231384,-1.9940491,-0.88709474,0.01941681,9.193867,1.6386898,-0.011634827,-3.4845505,-0.11517228,0.085258484,0.42908478,-1.074841,0.11539459,-0.19104385,1.8817114,0.022850037,0.3656044,-0.10585785,-0.004463196,0.079956055,-1.3862662,0.013160706,-2.3810196,1.6132076,-0.025367737,-3.457695,0.10105133,-0.014915466,0.2471962,-1.1259409,-0.047035217,-6.585182,1.8350958,0.016746521,-12.8560295,0.0,0.0,0.0,0.0,0.0,0.0,0.0,0.0,0.0,0.0,0.0,0.0,0.7140392,0.6570188,-0.9017598,-0.99152094,-0.17080066,0.335424,-0.999403,-0.9121178,-0.9915113,0.9995299,-0.57269,-0.9466357
2025-06-04 18:31:49.503,1.284543,-6.342252,-127.77879,0.00082728604,0.003674616,0.005258729,1.162816,0.217918,9.70058,0.12074174,0.0059890747,-2.1258888,-0.8872473,-0.053596497,9.046158,1.6388423,-0.027809143,-3.580986,-0.11517228,-0.0008773804,0.4742508,-1.0751462,0.042686462,-0.2484169,1.8816351,0.0075912476,0.3973465,-0.10593414,0.0090408325,0.10681152,-1.3861899,0.010032654,-2.3602638,1.6132076,-0.008430481,-3.5053024,0.101127625,0.013847351,0.21789932,-1.1259409,-0.005302429,-6.7194633,1.835172,0.0008773804,-12.854809,0.0,0.0,0.0,0.0,0.0,0.0,0.0,0.0,0.0,0.0,0.0,0.0,0.7128778,0.6602851,-0.9013915,-0.99154854,-0.16872536,0.33851305,-0.9994005,-0.9120615,-0.99148613,0.9995278,-0.56952095,-0.9463601
2025-06-04 18:31:49.555,1.28292,-6.338436,-127.77413,0.0033701085,0.003570455,0.0005004906,1.050998,0.206617,9.713264,0.12089433,0.13729095,-2.4884415,-0.88709474,0.07854462,9.109634,1.6386135,-0.037727356,-3.5419235,-0.11532487,0.057868958,0.4766922,-1.0751462,0.008659363,-0.20447159,1.8816351,0.024375916,0.37170792,-0.10570526,0.010719299,0.10192871,-1.3861899,-0.03276825,-2.3932266,1.613055,-0.007972717,-3.4418259,0.101127625,0.018348694,0.2117958,-1.1260172,-0.002937317,-6.6034927,1.8352484,0.027122498,-12.832836,0.0,0.0,0.0,0.0,0.0,0.0,0.0,0.0,0.0,0.0,0.0,0.0,0.7100767,0.65916276,-0.901169,-0.9914629,-0.1670868,0.3359621,-0.9993958,-0.9120244,-0.99160856,0.99953115,-0.5686283,-0.94630057
2025-06-04 18:31:49.608,1.288897,-6.326125,-127.77373,0.0053385957,0.0005908987,0.0025589494,1.024226,0.199292,9.758876,0.12097062,-0.011253357,-2.178379,-0.88717103,0.030937195,9.163349,1.6386898,-0.009269714,-3.5077438,-0.11517228,-0.0035476685,0.6036453,-1.0749936,-0.030403137,-0.18005753,1.8816351,0.038337708,0.3607216,-0.105781555,0.009117126,0.045776367,-1.3863425,0.03124237,-2.273594,1.613055,-0.03780365,-3.494316,0.101127625,0.014152527,0.23254776,-1.1260172,0.048942566,-6.5839615,1.835172,0.03391266,-12.882889,0.0,0.0,0.0,0.0,0.0,0.0,0.0,0.0,0.0,0.0,0.0,0.0,0.7119267,0.65916306,-0.9017217,-0.9914871,-0.16968906,0.33554277,-0.9993989,-0.91198754,-0.99148977,0.9995274,-0.5702957,-0.9463236
2025-06-04 18:31:49.663,1.28209,-6.329827,-127.77886,-0.0026476819,-0.0032740457,-0.0017208074,1.096631,0.227337,9.7199,0.12112321,0.07709503,-2.2015724,-0.88701844,0.068092346,9.052261,1.6386135,0.021629333,-3.4857712,-0.115248576,0.022315979,0.46204376,-1.0749936,-0.064888,-0.2081337,1.8817114,-0.042304993,0.35828018,-0.10601044,-0.04421234,0.09094238,-1.3861899,0.07297516,-2.2430763,1.613055,-0.0023269653,-3.4528122,0.10089874,-0.024909973,0.21301651,-1.1259409,0.026054382,-6.6010513,1.8352484,-0.024757385,-12.845043,0.0,0.0,0.0,0.0,0.0,0.0,0.0,0.0,0.0,0.0,0.0,0.0,0.7113925,0.6610141,-0.9013274,-0.99145955,-0.16532852,0.33567262,-0.99940467,-0.9122386,-0.99155927,0.9995306,-0.56979156,-0.94678146
2025-06-04 18:31:49.716,1.28501,-6.329442,-127.78274,0.002860839,0.00010009463,-0.00013435545,1.091821,0.226002,9.720527,0.12097062,-0.042915344,-2.1893654,-0.88701844,-0.0019454956,9.177998,1.6386898,-0.004386902,-3.5419235,-0.11532487,0.012168884,0.4351883,-1.0746884,-0.073280334,-0.17395401,1.8815588,-0.032234192,0.37903595,-0.10585785,0.0063705444,0.10070801,-1.3861136,0.09304047,-2.3492775,1.613055,-0.007286072,-3.4674606,0.10120392,-0.0009536743,0.2081337,-1.1260935,0.0008010864,-6.605934,1.8352484,-0.018043518,-12.845043,0.0,0.0,0.0,0.0,0.0,0.0,0.0,0.0,0.0,0.0,0.0,0.0,0.7129468,0.65914834,-0.90170604,-0.9914625,-0.17012522,0.3358871,-0.99940413,-0.9122198,-0.99148035,0.99952716,-0.5741204,-0.9470264
2025-06-04 18:31:49.768,1.287213,-6.32385,-127.78206,-0.0007374539,0.0001635897,0.00030433305,1.043732,0.232944,9.699973,0.12089433,-0.06679535,-2.0074768,-0.88709474,0.023155212,9.18166,1.638766,0.03803253,-3.4723434,-0.11517228,-0.019111633,0.48523712,-1.0747647,-0.03528595,-0.18982315,1.8814825,-0.020256042,0.39124298,-0.105781555,0.037651062,0.06774902,-1.3863425,-0.03025055,-2.506752,1.6131313,0.003929138,-3.445488,0.10120392,0.027122498,0.21423721,-1.1261698,-0.016670227,-6.625469,1.835172,0.018959045,-12.812084,0.0,0.0,0.0,0.0,0.0,0.0,0.0,0.0,0.0,0.0,0.0,0.0,0.71302116,0.65875816,-0.90124094,-0.9914403,-0.17017366,0.33656493,-0.99940014,-0.9118537,-0.99143296,0.9995238,-0.57247496,-0.9466857
2025-06-04 18:31:49.821,1.282209,-6.319163,-127.77918,-0.00077105156,0.0014325138,-0.0018286686,1.058125,0.229411,9.737107,0.121046916,-0.045814514,-2.0099182,-0.88701844,-0.03452301,9.075455,1.6386898,-0.011711121,-3.5504684,-0.11532487,-0.018501282,0.45227814,-1.074841,-0.0038528442,-0.22888565,1.8816351,0.058937073,0.3656044,-0.10593414,0.040855408,0.09460449,-1.3863425,0.0023269653,-2.2967873,1.6131313,0.019493103,-3.4979782,0.10097504,0.01865387,0.24353409,-1.1262461,-0.031089783,-6.6694145,1.8353246,0.036506653,-12.87434,0.0,0.0,0.0,0.0,0.0,0.0,0.0,0.0,0.0,0.0,0.0,0.0,0.7144864,0.6589267,-0.9020388,-0.99147844,-0.17275983,0.33922258,-0.99939805,-0.9116806,-0.99137926,0.9995255,-0.5713483,-0.94635
2025-06-04 18:31:49.874,1.280468,-6.318722,-127.778595,0.00053722976,0.0028876646,-0.00038467057,1.080375,0.198567,9.699046,0.12097062,-0.04573822,-2.0758362,-0.88678956,0.07350922,9.114517,1.6386898,0.010871887,-3.601738,-0.11532487,0.009269714,0.4730301,-1.0753751,0.107307434,-0.26550674,1.8817114,-0.007209778,0.43030548,-0.10562897,-0.030326843,0.10192871,-1.3864188,0.005378723,-2.3651466,1.6131313,0.010795593,-3.4515915,0.10120392,0.008430481,0.2117958,-1.1260935,-0.036964417,-6.62669,1.835172,0.022468567,-12.867016,0.0,0.0,0.0,0.0,0.0,0.0,0.0,0.0,0.0,0.0,0.0,0.0,0.71509695,0.66035086,-0.9015989,-0.9915409,-0.16706611,0.33851045,-0.9994101,-0.9125131,-0.99150735,0.9995311,-0.5692203,-0.9467946
2025-06-04 18:31:49.927,1.277589,-6.318498,-127.7859,0.0010217332,-0.004226175,-0.00025377088,1.052963,0.184941,9.742149,0.12097062,-0.017814636,-2.1478615,-0.8872473,0.02368927,9.01442,1.6385372,-0.09601593,-3.499199,-0.115248576,0.0031661987,0.42053986,-1.0749173,0.0032424927,-0.19470596,1.8815588,-0.016899109,0.38513947,-0.105781555,-0.017967224,0.05065918,-1.3864951,0.019340515,-2.3260841,1.6131313,0.011940002,-3.4637985,0.10105133,-0.029335022,0.2105751,-1.1260172,0.036125183,-6.59861,1.8352484,0.037498474,-12.819408,0.0,0.0,0.0,0.0,0.0,0.0,0.0,0.0,0.0,0.0,0.0,0.0,0.7128252,0.66017044,-0.9019704,-0.9914929,-0.16881916,0.3415699,-0.9993998,-0.91222584,-0.99151975,0.99952996,-0.5697001,-0.94658595
2025-06-04 18:31:49.979,1.278853,-6.317992,-127.78943,0.00011208504,0.0018448479,0.00043903757,1.053227,0.224085,9.69736,0.12097062,0.091667175,-2.1918068,-0.88701844,-0.14369965,9.142597,1.6385372,-0.0052261353,-3.5431442,-0.11555375,-0.056877136,0.4779129,-1.0752225,-0.017356873,-0.22400284,1.8817877,0.02040863,0.44861603,-0.10585785,0.02407074,0.122680664,-1.3864188,0.082359314,-2.4542618,1.6129787,0.02002716,-3.5101852,0.10105133,-0.03299713,0.2117958,-1.1260172,-0.029945374,-6.6218033,1.8354009,0.0146865845,-12.846264,0.0,0.0,0.0,0.0,0.0,0.0,0.0,0.0,0.0,0.0,0.0,0.0,0.7137797,0.66419446,-0.9009028,-0.9916192,-0.16573223,0.3362094,-0.99940366,-0.9133382,-0.99145615,0.9995245,-0.5712004,-0.9468502
2025-06-04 18:31:50.032,1.27658,-6.318131,-127.79111,-0.00010976376,-0.0029308617,0.0010212096,1.081417,0.238034,9.729066,0.12097062,-0.052604675,-2.2003517,-0.88694215,-0.04299164,9.242695,1.6386135,0.012702942,-3.5822067,-0.11540116,-0.03704071,0.5157547,-1.074841,0.036964417,-0.19348526,1.8817114,-0.013389587,0.363163,-0.10593414,0.011253357,0.06774902,-1.3862662,0.023155212,-2.2919044,1.6131313,0.023994446,-3.4308395,0.10082245,-0.014228821,0.21423721,-1.1261698,-0.028953552,-6.602272,1.835172,0.048103333,-12.879227,0.0,0.0,0.0,0.0,0.0,0.0,0.0,0.0,0.0,0.0,0.0,0.0,0.71518445,0.65846497,-0.9015325,-0.9915135,-0.17075042,0.3370903,-0.9994035,-0.91257703,-0.99142116,0.99952686,-0.5744596,-0.9470433
2025-06-04 18:31:50.085,1.275101,-6.321673,-127.78818,-0.003039159,-1.0122909e-06,0.0042999326,1.094311,0.23518,9.748957,0.12097062,0.09449005,-2.1844826,-0.88678956,0.034828186,8.915543,1.6385372,-0.0030899048,-3.5004196,-0.11517228,0.018043518,0.47058868,-1.0753751,-0.09479523,-0.23743057,1.8816351,0.023918152,0.37170792,-0.10593414,-0.024223328,0.076293945,-1.3862662,0.035438538,-2.428627,1.6131313,-0.018730164,-3.4772263,0.10097504,-0.013008118,0.24109268,-1.1262461,-0.007896423,-6.737774,1.835172,-0.02658844,-12.864574,0.0,0.0,0.0,0.0,0.0,0.0,0.0,0.0,0.0,0.0,0.0,0.0,0.71110237,0.6611542,-0.90135866,-0.99139607,-0.16709416,0.33764443,-0.9993968,-0.91152346,-0.991499,0.9995263,-0.5687022,-0.9464165
2025-06-04 18:31:50.138,1.270918,-6.319753,-127.78321,0.003141453,0.0027635891,-0.0006595774,1.061831,0.199366,9.723148,0.12089433,-0.10555267,-2.1368752,-0.88717103,-0.026817322,9.207294,1.6386135,0.03932953,-3.5455856,-0.11547746,0.006980896,0.46936798,-1.074841,-0.013771057,-0.21423721,1.8816351,-0.011405945,0.38636017,-0.10585785,0.018577576,0.048217773,-1.3864188,-0.010719299,-2.3114357,1.613055,-0.045585632,-3.4845505,0.10120392,-0.0036239624,0.21789932,-1.1260172,0.0825119,-6.5424576,1.8352484,-0.021018982,-12.878006,0.0,0.0,0.0,0.0,0.0,0.0,0.0,0.0,0.0,0.0,0.0,0.0,0.71214366,0.66079843,-0.9012805,-0.99151254,-0.16564615,0.33371413,-0.9994069,-0.9129293,-0.9915245,0.99952435,-0.57159054,-0.9467025
2025-06-04 18:31:50.194,1.270483,-6.314837,-127.795235,-0.0022417358,0.004695669,-0.0042323363,1.066302,0.222878,9.719371,0.12058915,0.002937317,-2.0489807,-0.88694215,0.00705719,9.121841,1.6385372,-0.023765564,-3.5260544,-0.115248576,0.0283432,0.44495392,-1.0749936,0.07312775,-0.18860245,1.8817114,0.049552917,0.3216591,-0.10570526,-0.016212463,0.11657715,-1.3864951,0.001411438,-2.2723732,1.613055,-0.007820129,-3.499199,0.101127625,0.026664734,0.22034073,-1.1261698,-0.028877258,-6.6157,1.835172,0.0017929077,-12.84016,0.0,0.0,0.0,0.0,0.0,0.0,0.0,0.0,0.0,0.0,0.0,0.0,0.71241724,0.6569333,-0.90164495,-0.991511,-0.17152631,0.33713788,-0.9993963,-0.9117602,-0.9915052,0.9995299,-0.5712167,-0.946238
2025-06-04 18:31:50.250,1.272528,-6.312384,-127.79779,0.0013049128,0.0012127071,-0.0015493288,1.085947,0.248662,9.743935,0.121046916,0.14514923,-2.1075745,-0.88709474,-0.004081726,9.051041,1.6386898,0.01865387,-3.5187302,-0.11517228,-0.059776306,0.4010086,-1.0754514,-0.015296936,-0.25452042,1.8817877,-0.0036239624,0.39246368,-0.10593414,-0.019874573,0.060424805,-1.3864188,0.030555725,-2.3126564,1.6131313,0.005378723,-3.4552536,0.10120392,0.07129669,0.2093544,-1.1260935,-0.04322052,-6.6279106,1.8353246,0.031471252,-12.805981,0.0,0.0,0.0,0.0,0.0,0.0,0.0,0.0,0.0,0.0,0.0,0.0,0.712584,0.66172945,-0.9007007,-0.99160564,-0.167089,0.33641088,-0.9994038,-0.91259235,-0.99151105,0.99952996,-0.5691028,-0.94666606
2025-06-04 18:31:50.304,1.274361,-6.306221,-127.80024,0.002502226,0.00066144485,0.00019313813,1.047415,0.220345,9.729056,0.120818034,0.009498596,-2.0953674,-0.88694215,0.083732605,9.162128,1.6389186,0.056877136,-3.5382614,-0.11517228,0.056037903,0.49134064,-1.0749173,-0.0038528442,-0.20203018,1.8817114,-3.8146973e-05,0.38513947,-0.105781555,-0.017356873,0.072631836,-1.3863425,0.018959045,-2.351719,1.6131313,0.03276825,-3.4808884,0.10105133,-0.012550354,0.20447159,-1.1261698,-0.11173248,-6.5473404,1.835172,0.0059890747,-12.870678,0.0,0.0,0.0,0.0,0.0,0.0,0.0,0.0,0.0,0.0,0.0,0.0,0.71432567,0.65720034,-0.9016683,-0.9914722,-0.17107533,0.33504495,-0.99940276,-0.9120851,-0.9914762,0.9995301,-0.5736687,-0.94688064
2025-06-04 18:31:50.358,1.270022,-6.308078,-127.80048,-0.0065230634,-0.0007205243,0.00087605056,1.091817,0.198414,9.724689,0.12074174,-0.07282257,-1.8646507,-0.88686585,-0.044517517,9.052261,1.638766,0.03353119,-3.527275,-0.11540116,-0.032539368,0.48889923,-1.0752225,0.105018616,-0.2459755,1.8816351,0.02445221,0.3936844,-0.10570526,-0.021629333,0.08850098,-1.3864951,-0.0034713745,-2.3334084,1.613055,0.025749207,-3.4345016,0.101127625,0.022392273,0.2484169,-1.1261698,-0.026741028,-6.7280083,1.835172,-0.02658844,-12.862133,0.0,0.0,0.0,0.0,0.0,0.0,0.0,0.0,0.0,0.0,0.0,0.0,0.7152152,0.6599288,-0.9016536,-0.99160177,-0.16945021,0.3399611,-0.99940526,-0.91241693,-0.99143696,0.9995284,-0.5700419,-0.94640785
2025-06-04 18:31:50.410,1.262813,-6.308253,-127.795265,0.0030583579,0.0052625863,0.00029021336,1.055986,0.202277,9.740122,0.12089433,0.11348724,-2.1161194,-0.88694215,0.07648468,9.093765,1.638766,0.023918152,-3.5089645,-0.11547746,-0.0233078,0.5157547,-1.0751462,0.05924225,-0.19714737,1.8817114,-0.038414,0.42664337,-0.10570526,-0.04459381,0.07019043,-1.3864188,-0.035209656,-2.367588,1.613055,-0.0023269653,-3.4674606,0.101127625,0.010261536,0.18860245,-1.1263224,0.0035476685,-6.585182,1.8352484,0.0011062622,-12.8438225,0.0,0.0,0.0,0.0,0.0,0.0,0.0,0.0,0.0,0.0,0.0,0.0,0.71197134,0.66189355,-0.900596,-0.9915875,-0.162886,0.3360691,-0.99940646,-0.91316164,-0.9916183,0.9995317,-0.56808674,-0.94681066
2025-06-04 18:31:50.462,1.267508,-6.301345,-127.8018,-0.0003398505,0.0011318111,-0.002502139,1.058054,0.213952,9.742571,0.12089433,-0.07297516,-2.1161194,-0.88686585,0.009346008,9.153584,1.6386898,-0.02254486,-3.6041794,-0.11555375,0.03879547,0.45716095,-1.0746884,-0.008735657,-0.18127823,1.8816351,-0.02696991,0.38025665,-0.105781555,-0.0011062622,0.0970459,-1.3863425,-0.0046157837,-2.3590431,1.6131313,0.019111633,-3.469902,0.10105133,-0.019798279,0.20447159,-1.1258646,-0.0007247925,-6.574196,1.8352484,0.0005722046,-12.808422,0.0,0.0,0.0,0.0,0.0,0.0,0.0,0.0,0.0,0.0,0.0,0.0,0.71319497,0.6574653,-0.9019537,-0.99149734,-0.17132452,0.33833545,-0.9993993,-0.9123385,-0.99149686,0.99952835,-0.573649,-0.946674
2025-06-04 18:31:50.513,1.270342,-6.302045,-127.80695,-0.0042723217,0.00014906857,-0.0020624206,1.095548,0.227894,9.739614,0.12058915,-0.054588318,-2.1344337,-0.88694215,0.008811951,9.151142,1.638766,0.022010803,-3.5382614,-0.11555375,-0.104026794,0.5157547,-1.0751462,-0.05252838,-0.26062393,1.8817114,-0.001411438,0.37170792,-0.10585785,0.038414,0.10192871,-1.3863425,-0.0073623657,-2.3724709,1.613055,-0.028953552,-3.4747849,0.10120392,0.021476746,0.23620987,-1.1260172,-0.0062179565,-6.5876236,1.835172,-0.0024795532,-12.851147,0.0,0.0,0.0,0.0,0.0,0.0,0.0,0.0,0.0,0.0,0.0,0.0,0.7132968,0.6619187,-0.90148586,-0.99148667,-0.16890909,0.33829665,-0.999404,-0.9120615,-0.99141663,0.9995233,-0.56999916,-0.9467044
2025-06-04 18:31:50.564,1.266165,-6.301857,-127.8022,0.0003152588,0.0036257468,-0.0004920432,1.07777,0.198689,9.722175,0.121046916,0.06694794,-2.1087952,-0.88678956,-0.04940033,9.114517,1.638766,0.007896423,-3.5577927,-0.11540116,-0.01499176,0.45349884,-1.0752225,0.051231384,-0.23987198,1.8816351,-0.023231506,0.37659454,-0.105781555,-0.0661087,0.055541992,-1.3862662,0.07457733,-2.3566017,1.6129787,-0.011787415,-3.4467087,0.10120392,0.005683899,0.19592667,-1.1260935,-0.032539368,-6.6657524,1.8350958,-0.010566711,-12.834057,0.0,0.0,0.0,0.0,0.0,0.0,0.0,0.0,0.0,0.0,0.0,0.0,0.713135,0.66248035,-0.9006794,-0.99160326,-0.1640351,0.33477008,-0.99940974,-0.91323364,-0.9915534,0.99952954,-0.57055604,-0.9470624
2025-06-04 18:31:50.615,1.26601,-6.301403,-127.80208,-0.0016018457,-0.0034790172,-0.00031241393,1.081309,0.207912,9.752206,0.12089433,0.025215149,-2.027008,-0.88686585,0.056114197,9.142597,1.6386898,0.03391266,-3.5101852,-0.11540116,-0.031471252,0.5255203,-1.0746884,-0.028953552,-0.15808487,1.8816351,-0.0009536743,0.35705948,-0.105781555,0.05443573,0.095825195,-1.3862662,0.06565094,-2.3407326,1.6131313,0.0023269653,-3.5101852,0.101127625,0.017814636,0.21789932,-1.1259409,0.029563904,-6.6450005,1.8350958,-0.030326843,-12.873119,0.0,0.0,0.0,0.0,0.0,0.0,0.0,0.0,0.0,0.0,0.0,0.0,0.71361566,0.6578133,-0.90215856,-0.9914664,-0.17115507,0.33638805,-0.99940586,-0.91237175,-0.9915096,0.9995323,-0.57432526,-0.94711876
2025-06-04 18:31:50.666,1.264703,-6.304682,-127.80173,-0.0010628182,0.002808357,0.0037328054,1.087011,0.25211,9.719261,0.120818034,0.005607605,-2.0953674,-0.88701844,0.07236481,9.08522,1.6386898,-0.0019454956,-3.5492477,-0.11547746,-0.019721985,0.4351883,-1.0752225,-0.0063705444,-0.26184464,1.8816351,0.016212463,0.40589142,-0.10593414,0.016822815,0.07019043,-1.3861899,-0.002937317,-2.3736916,1.613055,-0.034065247,-3.4357224,0.10120392,-0.030708313,0.2105751,-1.1261698,-0.0233078,-6.6645317,1.8353246,-0.017051697,-12.860912,0.0,0.0,0.0,0.0,0.0,0.0,0.0,0.0,0.0,0.0,0.0,0.0,0.7121682,0.6601393,-0.9017968,-0.9914039,-0.16904637,0.33781803,-0.9994001,-0.9112806,-0.9914698,0.99952734,-0.5687727,-0.9464791
2025-06-04 18:31:50.717,1.262072,-6.30264,-127.80006,0.0015379143,0.0029051877,-0.0010334268,1.058541,0.212217,9.738036,0.12097062,0.0358963,-2.223545,-0.88694215,-0.042304993,9.081558,1.6386898,0.032844543,-3.5699997,-0.11540116,0.04131317,0.5194168,-1.0752988,0.025291443,-0.25574112,1.8816351,0.018424988,0.37414932,-0.10593414,-0.0010299683,0.064086914,-1.3861899,0.0012588501,-2.3907852,1.613055,0.024986267,-3.494316,0.101127625,0.011177063,0.22766495,-1.1260935,0.03604889,-6.574196,1.8350958,-0.016899109,-12.854809,0.0,0.0,0.0,0.0,0.0,0.0,0.0,0.0,0.0,0.0,0.0,0.0,0.71279407,0.6609926,-0.9014009,-0.9915723,-0.1659452,0.3367818,-0.9994055,-0.9130789,-0.99154633,0.9995298,-0.5702922,-0.94651514
2025-06-04 18:31:50.768,1.268674,-6.299752,-127.80611,0.0007972664,1.7558012e-05,0.00081934483,1.084295,0.255956,9.751471,0.120818034,0.039863586,-1.9513245,-0.88686585,0.0033187866,9.2195015,1.6386898,0.028266907,-3.5370407,-0.11547746,0.02483368,0.46936798,-1.074841,0.023384094,-0.18860245,1.8815588,-0.047798157,0.38758087,-0.10585785,0.03391266,0.103149414,-1.3864951,0.03513336,-2.3773575,1.613055,-0.02002716,-3.4442673,0.10120392,-0.0308609,0.20080948,-1.1259409,0.022773743,-6.6742973,1.8352484,0.004386902,-12.826733,0.0,0.0,0.0,0.0,0.0,0.0,0.0,0.0,0.0,0.0,0.0,0.0,0.71303016,0.65968287,-0.90107757,-0.9915401,-0.1662631,0.33325985,-0.999406,-0.91287106,-0.99155664,0.99952984,-0.57288504,-0.94705033
2025-06-04 18:31:50.820,1.266155,-6.302236,-127.80379,-0.004237607,-0.00017306684,0.0027826831,1.069532,0.22841,9.706853,0.120818034,-0.012321472,-2.1490822,-0.88686585,0.039634705,9.136494,1.638766,0.04108429,-3.44915,-0.115248576,-0.0258255,0.5194168,-1.074841,-0.0049209595,-0.1715126,1.8814825,0.016059875,0.33508682,-0.105781555,-0.026054382,0.061645508,-1.3863425,-0.0059127808,-2.3688087,1.613055,-0.0020217896,-3.457695,0.10105133,-0.02544403,0.21301651,-1.1260935,-0.0025558472,-6.6083755,1.8354009,0.037651062,-12.830395,0.0,0.0,0.0,0.0,0.0,0.0,0.0,0.0,0.0,0.0,0.0,0.0,0.7129679,0.65792274,-0.90130395,-0.99148595,-0.17044331,0.33630294,-0.99939495,-0.9117069,-0.9914305,0.99952686,-0.5709746,-0.94640094
2025-06-04 18:31:50.871,1.27057,-6.298415,-127.80033,0.0018305012,0.004129292,0.0026690448,1.067046,0.214521,9.71958,0.12089433,-0.07015228,-2.1857033,-0.8872473,0.0308609,9.029068,1.638766,0.07442474,-3.5199509,-0.11540116,0.0182724,0.5084305,-1.0749936,-0.02117157,-0.27038956,1.8817114,-0.03643036,0.37781525,-0.10585785,0.046806335,0.10192871,-1.3864951,0.011711121,-2.3712502,1.6131313,0.03704071,-3.445488,0.10105133,0.0077438354,0.21789932,-1.1260935,-0.00019073486,-6.6437798,1.8352484,-0.0059127808,-12.847485,0.0,0.0,0.0,0.0,0.0,0.0,0.0,0.0,0.0,0.0,0.0,0.0,0.7152122,0.6589446,-0.90179,-0.991517,-0.16937512,0.33642903,-0.9994089,-0.9125606,-0.99146205,0.999529,-0.5733059,-0.9469269
2025-06-04 18:31:50.922,1.268085,-6.295949,-127.8038,0.00090160215,0.002809788,0.0020901714,1.053032,0.199659,9.752279,0.12089433,-0.015449524,-2.1515236,-0.88686585,0.03238678,9.179218,1.6386135,-0.049705505,-3.544365,-0.11540116,0.0012588501,0.44495392,-1.0751462,-0.043907166,-0.21789932,1.8816351,0.00705719,0.37292862,-0.105781555,0.0049972534,0.03967285,-1.3866477,-0.0283432,-2.306553,1.6129787,-0.001335144,-3.4955368,0.101127625,-0.0020217896,0.20203018,-1.1260172,0.03452301,-6.634014,1.8352484,0.05306244,-12.84016,0.0,0.0,0.0,0.0,0.0,0.0,0.0,0.0,0.0,0.0,0.0,0.0,0.71214235,0.65938723,-0.9016272,-0.99143213,-0.16953346,0.34050962,-0.9993948,-0.91159594,-0.9914728,0.99952674,-0.56928205,-0.94630384
2025-06-04 18:31:50.973,1.266332,-6.292442,-127.80155,0.003776072,-0.0021371732,-0.0015989485,1.06561,0.217729,9.748575,0.120818034,-0.008430481,-2.1588478,-0.88709474,-0.09815216,9.120621,1.6386135,-0.033607483,-3.560234,-0.11540116,0.0207901,0.49378204,-1.0753751,-0.08579254,-0.21789932,1.8816351,0.028419495,0.42786407,-0.10585785,0.002861023,0.103149414,-1.3865714,-0.005683899,-2.3504982,1.6129787,-0.030326843,-3.4894333,0.10120392,0.016059875,0.20203018,-1.1260172,-0.050621033,-6.62669,1.8350958,-0.032844543,-12.826733,0.0,0.0,0.0,0.0,0.0,0.0,0.0,0.0,0.0,0.0,0.0,0.0,0.7115162,0.6626117,-0.9012579,-0.9915052,-0.16765201,0.33759314,-0.9994001,-0.9123902,-0.99148166,0.9995215,-0.57031655,-0.9464186
2025-06-04 18:31:51.024,1.267177,-6.294066,-127.810234,0.002373892,0.000934362,-0.0008438492,1.06114,0.236728,9.758389,0.12058915,-0.044136047,-2.0917053,-0.88701844,-0.14499664,9.168232,1.6385372,0.08037567,-3.494316,-0.11517228,0.022010803,0.4718094,-1.0749173,0.048484802,-0.17395401,1.8816351,-0.008583069,0.37414932,-0.10585785,0.012931824,0.06286621,-1.3865714,-0.011787415,-2.3736916,1.6129787,0.009651184,-3.4857712,0.101127625,-0.012016296,0.22888565,-1.1259409,0.029716492,-6.625469,1.8352484,-0.011329651,-12.899979,0.0,0.0,0.0,0.0,0.0,0.0,0.0,0.0,0.0,0.0,0.0,0.0,0.12627229,0.24465872,-0.8826275,-0.9069762,-0.4471489,0.764817,-0.99930084,-0.86233276,-0.9972718,0.9998125,-0.74792504,-0.9477402
2025-06-04 18:31:51.075,1.018344,-6.623666,-127.83408,-0.3087135,-0.19536814,-0.057837926,2.846768,-0.300668,9.561344,0.108611,-0.48885345,-2.5140762,-0.9125769,-0.93379974,3.6932945,1.6404445,0.06473541,-3.5553513,-0.11326493,-0.017433167,0.08728027,-1.1225247,-0.9215164,-0.26428604,1.9193243,0.6965256,0.8258171,-0.11211395,-0.09372711,0.7940788,-1.3926749,-0.08693695,0.040893555,1.6139705,0.001411438,-3.5980759,0.09754181,-0.11867523,0.68665695,-1.1429583,-0.21022797,-8.3015175,1.8399023,-0.0018692017,-13.229572,0.0,0.0,0.0,0.0,0.0,0.0,0.0,0.0,0.0,0.0,0.0,0.0,-0.056907646,0.4714464,-0.8763644,-0.8261117,-0.19157587,0.7377734,-0.998487,-0.81795347,-0.99520797,0.999157,-0.63974047,-0.89035857
2025-06-04 18:31:51.126,0.576825,-6.687035,-128.18678,-0.0528744,0.16598164,-0.1350758,0.764825,-0.724296,10.043989,0.09594621,0.025138855,-3.986267,-0.9237921,-0.38959503,8.13306,1.6424282,0.05558014,-3.4515915,-0.108458415,0.031852722,0.8648796,-1.1139035,0.25661469,-0.21912003,1.9448828,0.22815704,0.8868561,-0.11112213,0.0020980835,0.12023926,-1.3993125,0.05558014,0.56702423,1.6019924,-0.29071808,-1.486229,0.0938797,0.19458771,0.54016876,-1.1482226,-0.09876251,-6.593727,1.8360113,-0.1140213,-11.757381,0.0,0.0,0.0,0.0,0.0,0.0,0.0,0.0,0.0,0.0,0.0,0.0,-0.17572564,0.4423733,-0.87947667,-0.8205247,-0.15723892,0.68166053,-0.9987081,-0.84398216,-0.99654526,0.99928254,-0.66653085,-0.9001418
2025-06-04 18:31:51.177,0.552548,-6.373186,-128.41768,-0.012164596,0.03959487,-0.08105684,0.865611,-0.521819,9.754375,0.08557023,-0.20214081,-3.9032593,-0.938288,-0.19367218,7.7399864,1.6454036,0.0019454956,-3.7372398,-0.1060933,0.022850037,0.5889969,-1.0962033,0.52433014,-0.2923622,1.9544958,0.1958847,0.5548172,-0.11135101,-0.068626404,0.42298126,-1.4037375,-0.056114197,0.16662979,1.5860469,-0.29727936,-1.2335396,0.09098053,-0.05519867,0.8844147,-1.1592852,-0.2726364,-6.5131607,1.8338751,-0.0014877319,-12.298161,0.0,0.0,0.0,0.0,0.0,0.0,0.0,0.0,0.0,0.0,0.0,0.0,-0.25004715,0.42863658,-0.8600356,-0.8269463,-0.18486698,0.61674094,-0.99826473,-0.833901,-0.9963397,0.999106,-0.66869295,-0.876388
2025-06-04 18:31:51.228,0.658388,-6.071431,-128.84618,0.02523863,0.10116179,-0.18282425,0.498151,-0.051437,9.618002,0.0721425,-0.27591705,-3.2806892,-0.9496558,-0.010948181,8.018311,1.647311,0.043525696,-3.5638962,-0.10533036,0.14072418,0.6366081,-1.0895658,0.109062195,-0.28015518,1.9551061,0.012626648,0.45227814,-0.11035919,0.041999817,0.10559082,-1.4036613,0.053138733,0.08850098,1.5711696,-0.38524628,-0.3656044,0.087776184,-0.020561218,1.1200104,-1.164702,-0.17177582,-6.885483,1.8343328,0.018577576,-11.988098,0.0,0.0,0.0,0.0,0.0,0.0,0.0,0.0,0.0,0.0,0.0,0.0,-0.28619003,0.42669594,-0.8518948,-0.83430123,-0.20375933,0.5685595,-0.998157,-0.8235283,-0.99638796,0.9990864,-0.6582651,-0.86028254
2025-06-04 18:31:51.279,0.796727,-5.731441,-129.40852,0.034835845,0.11112268,-0.20565866,0.57261,0.168359,9.587072,0.059019938,-0.28202057,-3.236744,-0.9596503,-0.25928497,8.406502,1.6497524,0.019493103,-3.7030602,-0.10502519,0.06801605,0.72083664,-1.0897183,0.013389587,-0.2508583,1.9536566,-0.0035476685,0.010375977,-0.10883331,0.032234192,0.08972168,-1.4028983,-0.019264221,0.26428604,1.5573604,-0.14720917,-0.076293945,0.085487366,-0.033302307,0.940567,-1.1650835,-0.0049972534,-6.8085747,1.836469,0.056877136,-12.09552,0.0,0.0,0.0,0.0,0.0,0.0,0.0,0.0,0.0,0.0,0.0,0.0,-0.3052334,0.42396665,-0.85165566,-0.84307075,-0.2124738,0.5599822,-0.9980986,-0.82154465,-0.996464,0.9991141,-0.6478593,-0.8477278
2025-06-04 18:31:51.330,1.010185,-5.391717,-129.97127,0.058093738,0.09744393,-0.17815346,0.539223,0.248716,9.770103,0.047499552,-0.23143768,-2.6569023,-0.96758485,-0.14842987,8.264896,1.6524227,0.07312775,-3.777523,-0.10494889,0.013160706,0.8136101,-1.0912442,-0.0017929077,-0.38513947,1.9522833,-0.021324158,-0.032348633,-0.106163025,0.061149597,-0.07873535,-1.4018302,-0.0014877319,0.18738174,1.5483577,-0.17040253,-0.0030517578,0.084495544,-0.107688904,1.0113678,-1.1650072,-0.01499176,-6.437477,1.8415807,0.07892609,-12.471504,0.0,0.0,0.0,0.0,0.0,0.0,0.0,0.0,0.0,0.0,0.0,0.0,-0.30932903,0.42373452,-0.8512831,-0.8496897,-0.20800526,0.5484754,-0.99811506,-0.8230443,-0.99657995,0.9991341,-0.6444234,-0.8454714
2025-06-04 18:31:51.382,1.261288,-5.092757,-130.43085,0.0719656,0.093329124,-0.1465166,0.65988,0.352551,9.794339,0.038039103,-0.12981415,-2.3578224,-0.97284913,-0.08861542,8.314945,1.6546352,0.021324158,-3.819027,-0.10525407,0.028419495,0.6952019,-1.0912442,0.064964294,-0.31921768,1.9502233,-0.04398346,-0.015258789,-0.10387421,0.07358551,-0.18982315,-1.399694,0.13462067,0.08728027,1.543246,-0.07381439,0.012817383,0.08365631,-0.059013367,0.9845123,-1.1647784,0.10242462,-6.433815,1.847608,0.07236481,-12.786449,0.0,0.0,0.0,0.0,0.0,0.0,0.0,0.0,0.0,0.0,0.0,0.0,-0.31032756,0.41766813,-0.8493968,-0.8573643,-0.20600183,0.53700346,-0.99814075,-0.8266008,-0.9967239,0.9991759,-0.6462648,-0.84652114
2025-06-04 18:31:51.433,1.583333,-4.78997,-130.82793,0.09169843,0.08964053,-0.10413842,0.694,0.504165,9.913311,0.029951945,-0.2097702,-2.240635,-0.9759009,-0.083732605,8.244144,1.6562374,-0.05771637,-3.8300133,-0.10525407,0.03528595,0.7013054,-1.0910153,0.052375793,-0.29846573,1.9480871,-0.026741028,-0.012817383,-0.10196686,0.018959045,-0.20080948,-1.398931,-0.002708435,-0.076293945,1.5401943,-0.038414,-0.08239746,0.0825119,0.007820129,0.940567,-1.1649309,0.082206726,-6.487526,1.8526434,0.06252289,-12.664379,0.0,0.0,0.0,0.0,0.0,0.0,0.0,0.0,0.0,0.0,0.0,0.0,-0.31416377,0.41160446,-0.8463612,-0.8640283,-0.21223338,0.53068376,-0.99808455,-0.8278002,-0.9967748,0.9991893,-0.644448,-0.84321344
2025-06-04 18:31:51.484,1.813503,-4.551398,-131.08377,0.041279253,0.07855364,-0.075213395,0.912518,0.625685,9.942451,0.02346696,-0.082969666,-2.1185608,-0.9779608,-0.008583069,8.001221,1.6573055,-0.0033187866,-3.6810875,-0.105559245,-0.018196106,0.64027023,-1.0917783,0.07648468,-0.35705948,1.9453405,-0.012626648,0.005493164,-0.09990692,0.016288757,-0.3241005,-1.3967948,-0.001335144,-0.23743057,1.5385921,-0.0046920776,-0.095825195,0.08068085,-0.03604889,1.411766,-1.164168,-0.0699234,-6.618141,1.8542455,0.048484802,-12.602119,0.0,0.0,0.0,0.0,0.0,0.0,0.0,0.0,0.0,0.0,0.0,0.0,0.43185928,0.733001,-0.8329512,-0.99220705,0.099059455,-0.11169837,-0.9986442,-0.90895355,-0.9931146,0.9988128,-0.43235978,-0.84900427
2025-06-04 18:31:51.535,2.148805,-4.091917,-131.23601,0.3924096,0.2794166,-0.030784152,-0.676194,0.124989,9.443152,0.033461466,0.0951004,-0.76966476,-0.959574,0.39585114,12.143131,1.6567714,-0.019950867,-3.360035,-0.107314005,-0.16521454,0.44495392,-1.0404325,0.9265518,-0.6292839,1.887586,-1.154213,-0.84901047,-0.092659,0.1002121,-0.76234055,-1.4021354,-0.22205353,-1.2640572,1.5382869,-0.018577576,-0.08972168,0.083351135,0.31009674,0.12390137,-1.1470019,0.17620087,-4.3952103,1.8535589,-0.044822693,-12.416573,0.0,0.0,0.0,0.0,0.0,0.0,0.0,0.0,0.0,0.0,0.0,0.0,0.5745618,0.3470485,-0.8919027,-0.9938538,-0.24563032,0.060384925,-0.9990941,-0.90384996,-0.99444467,0.99974346,-0.70905423,-0.9304251
2025-06-04 18:31:51.586,3.744321,-3.365222,-130.83055,0.3896621,0.06433476,0.23074703,1.389621,0.897827,9.396212,0.05596818,0.28186798,-0.5999832,-0.95392823,0.07129669,4.7846184,1.6588314,0.08617401,-4.810253,-0.112349406,0.07472992,0.23376846,-1.0571408,-0.2512741,-1.420311,1.8621801,-0.2061081,-1.0882721,-0.09555817,0.027961731,-0.4754715,-1.414495,-0.377388,-0.07141113,1.5382106,-0.008125305,-0.10925293,0.090675354,-0.051765442,0.867321,-1.1503588,-0.29315948,-7.56176,1.8575262,0.26042938,-14.545509,0.0,0.0,0.0,0.0,0.0,0.0,0.0,0.0,0.0,0.0,0.0,0.0,0.6143973,0.54781073,-0.87138015,-0.9935471,-0.20104858,0.19326185,-0.99873215,-0.8738213,-0.99168056,0.9995337,-0.5730738,-0.90617526
2025-06-04 18:31:51.637,3.93886,-3.425186,-130.02727,0.037561685,0.089287974,0.2535131,0.115963,1.695584,9.344883,0.061613932,0.15628815,-0.64393234,-0.9433234,0.3899765,8.134281,1.6594417,0.0146865845,-4.0668335,-0.11036576,0.01964569,0.06774902,-1.0661435,-0.11226654,-0.7806511,1.8614172,-0.01209259,-0.40345,-0.09075165,0.042762756,-0.8502312,-1.4109092,-0.019264221,-0.4742508,1.5379817,-0.0009536743,-0.092163086,0.082206726,-0.19863129,1.7462425,-1.1559283,-0.11646271,-5.203327,1.8585943,0.024147034,-13.39315,0.0,0.0,0.0,0.0,0.0,0.0,0.0,0.0,0.0,0.0,0.0,0.0,0.0957113,0.2016274,-0.8671491,-0.9264932,-0.47711137,0.7240555,-0.99921894,-0.8536799,-0.9974037,0.99982744,-0.7334559,-0.9318218
2025-06-04 18:31:51.688,4.253008,-3.310156,-129.37976,-0.06536063,-0.052404277,0.08272288,1.153537,0.522907,8.582512,0.06306352,-0.16033173,-1.7865257,-0.95476747,-0.20740509,3.2452888,1.6609676,0.109443665,-4.8139153,-0.11089982,0.06984711,0.41565704,-1.1200833,-0.9030533,0.044555664,1.9020056,0.8282852,0.822155,-0.0925827,0.02872467,-0.84412766,-1.4109855,0.11539459,0.0579834,1.537524,-0.02292633,-0.06896973,0.07846832,-0.16216278,1.7877464,-1.17195,-0.3030777,-6.974594,1.8586706,0.0002670288,-13.649502,0.0,0.0,0.0,0.0,0.0,0.0,0.0,0.0,0.0,0.0,0.0,0.0,-0.041120753,0.4387716,-0.8713346,-0.8423338,-0.21247508,0.7162491,-0.9985403,-0.8230764,-0.9954929,0.9991884,-0.66344285,-0.88519573
2025-06-04 18:31:51.739,3.555473,-3.547387,-129.47531,-0.17571583,-0.080352254,-0.16168463,-0.101375,0.313656,10.362507,0.052763835,0.0422287,-2.2223244,-0.9668219,-0.2123642,9.121841,1.663409,-0.018043518,-4.1767006,-0.10716142,0.09685516,0.72816086,-1.1164975,0.14064789,-0.26550674,1.9325231,0.44689178,0.35583878,-0.08892059,-0.002784729,-0.8648796,-1.399694,-0.0976944,-0.4803543,1.5371425,0.016822815,-0.061645508,0.07411957,0.064888,1.1346626,-1.1840807,-0.091056824,-5.4071884,1.858518,-0.0051498413,-13.131916,0.0,0.0,0.0,0.0,0.0,0.0,0.0,0.0,0.0,0.0,0.0,0.0,-0.12682666,0.3909092,-0.86676574,-0.83394736,-0.18130364,0.66150904,-0.9986944,-0.84666336,-0.99639213,0.9992481,-0.70062315,-0.89868474
2025-06-04 18:31:51.790,3.295155,-3.647416,-129.93948,-0.076127194,-0.079396546,-0.1510046,0.198843,0.173081,9.556415,0.04612626,-0.10845184,-2.0953674,-0.9843695,-0.23517609,8.815441,1.6631801,0.07938385,-4.2670326,-0.10571183,-0.09578705,0.8294792,-1.102078,0.19931793,-0.56824493,1.9451116,0.24646759,0.8599968,-0.08899689,0.05153656,-0.6573601,-1.3972526,-0.09372711,-0.7855339,1.5368373,-0.0007247925,-0.10681152,0.07732391,0.13950348,1.0052643,-1.1936938,-0.4276657,-5.3852158,1.8577551,0.027885437,-13.289387,0.0,0.0,0.0,0.0,0.0,0.0,0.0,0.0,0.0,0.0,0.0,0.0,-0.15894765,0.3507934,-0.8404912,-0.85027784,-0.20078972,0.5667843,-0.99833244,-0.8377287,-0.99603933,0.9990925,-0.7093355,-0.8821328
2025-06-04 18:31:51.841,3.008104,-3.821229,-130.28764,-0.11464148,-0.05689475,-0.1046454,0.506758,0.409934,10.075697,0.038649455,0.12096405,-2.2955666,-0.998255,-0.12439728,8.373539,1.6637142,-0.0049209595,-3.9435425,-0.10540666,0.063056946,0.6219559,-1.0963559,0.16254425,-0.35095596,1.9456457,-0.044517517,0.27405167,-0.088386536,0.026054382,-0.7489128,-1.3948874,0.034065247,-0.5169754,1.5366085,-0.024604797,-0.053100586,0.07770538,-0.015678406,1.2579536,-1.2020861,-0.15995026,-5.6940575,1.8578314,0.003929138,-13.163654,0.0,0.0,0.0,0.0,0.0,0.0,0.0,0.0,0.0,0.0,0.0,0.0,-0.20253943,0.34441543,-0.8257512,-0.8700942,-0.21743967,0.50412214,-0.9981529,-0.8272829,-0.9962364,0.9991647,-0.6886321,-0.8635774
2025-06-04 18:31:51.892,2.812287,-3.862424,-130.5783,-0.02973521,0.023617882,-0.09027084,0.470226,0.268812,9.392261,0.03216447,-0.06916046,-1.8524437,-1.0064948,-0.15232086,8.42115,1.6637905,-0.026435852,-3.810482,-0.105559245,-0.053215027,0.65003586,-1.0959744,0.0059890747,-0.33508682,1.9414495,-0.17910004,0.033569336,-0.08831024,0.08365631,-0.76478195,-1.3914542,0.1845169,-0.58167267,1.5364559,-0.005455017,-0.06286621,0.07785797,0.02002716,1.1725044,-1.204909,-0.122032166,-5.3449287,1.8578314,0.01499176,-12.901199,0.0,0.0,0.0,0.0,0.0,0.0,0.0,0.0,0.0,0.0,0.0,0.0,-0.21511042,0.33721483,-0.82717,-0.8825301,-0.2493734,0.4715743,-0.9981393,-0.8215614,-0.9963192,0.9992375,-0.67888933,-0.8529283
2025-06-04 18:31:51.943,2.833909,-3.721039,-130.86028,0.012053558,0.05763372,-0.092353046,0.496477,0.212599,9.783986,0.02735795,-0.06603241,-1.9073792,-1.0126746,-0.03993988,8.241703,1.664706,-0.019111633,-3.834896,-0.10639848,-0.023384094,0.53894806,-1.101315,-0.16834259,-0.2899208,1.9368719,-0.04283905,-0.19836807,-0.08785248,0.057106018,-0.76722336,-1.3890891,0.08731842,-0.31189346,1.5365322,0.0024795532,-0.07385254,0.0787735,-0.06473541,1.0150299,-1.206206,-0.023002625,-5.396202,1.8578314,-0.013542175,-12.686352,0.0,0.0,0.0,0.0,0.0,0.0,0.0,0.0,0.0,0.0,0.0,0.0,-0.23891526,0.35004932,-0.82975006,-0.88621366,-0.26427853,0.47683933,-0.99807227,-0.81663436,-0.9964262,0.99927586,-0.6599679,-0.8417314
