openverse-orca/OrcaGym/envs/legged_gym/legged_real_env/logs/robot_log_20250604_184936.csv
timestamp,imu_angle_roll,imu_angle_pitch,imu_angle_yaw,imu_angular_velocity_roll,imu_angular_velocity_pitch,imu_angular_velocity_yaw,imu_acc_x,imu_acc_y,imu_acc_z,fl_joint1_pos,fl_joint1_vel,fl_joint1_torque,fl_joint2_pos,fl_joint2_vel,fl_joint2_torque,fl_joint3_pos,fl_joint3_vel,fl_joint3_torque,fr_joint1_pos,fr_joint1_vel,fr_joint1_torque,fr_joint2_pos,fr_joint2_vel,fr_joint2_torque,fr_joint3_pos,fr_joint3_vel,fr_joint3_torque,hl_joint1_pos,hl_joint1_vel,hl_joint1_torque,hl_joint2_pos,hl_joint2_vel,hl_joint2_torque,hl_joint3_pos,hl_joint3_vel,hl_joint3_torque,hr_joint1_pos,hr_joint1_vel,hr_joint1_torque,hr_joint2_pos,hr_joint2_vel,hr_joint2_torque,hr_joint3_pos,hr_joint3_vel,hr_joint3_torque,fl_force_x,fl_force_y,fl_force_z,fr_force_x,fr_force_y,fr_force_z,hl_force_x,hl_force_y,hl_force_z,hr_force_x,hr_force_y,hr_force_z,fl_hip_action,fl_thigh_action,fl_calf_action,fr_hip_action,fr_thigh_action,fr_calf_action,hl_hip_action,hl_thigh_action,hl_calf_action,hr_hip_action,hr_thigh_action,hr_calf_action
2025-06-04 18:49:59.571,-0.410512,-0.781186,-139.82623,0.00073434727,0.0024767793,0.00281937,0.14526,-0.080151,9.813436,-0.011399373,-0.025138855,0.48523712,-0.9868109,0.0012588501,-0.3949051,1.9043453,0.0037002563,-4.78706,0.009810343,0.047569275,-0.46204376,-0.98260814,-0.022850037,-0.49500275,1.904981,0.017051697,-4.8004875,-0.014457703,0.00049591064,0.68543625,-0.9762626,0.046424866,-0.8294792,1.9313865,-0.0004196167,-6.0541687,0.017738342,-0.057106018,-0.76234055,-0.9801602,-0.04863739,-0.61219025,1.9320654,0.007896423,-6.002899,0.0,0.0,0.0,0.0,0.0,0.0,0.0,0.0,0.0,0.0,0.0,0.0,-0.87508315,-0.018034693,0.97291946,0.91533107,-0.048203785,-0.9446259,-0.8485755,-0.9649077,-0.8520012,0.5168517,0.16964191,0.9430066
2025-06-04 18:49:59.622,-0.651583,-1.578939,-139.91655,-0.16637778,-0.86238045,-0.2581325,2.091924,0.450346,12.012489,-0.02970992,-0.64769745,-0.9271393,-0.99390626,0.13996124,-1.444725,1.9530971,0.8929062,0.6366081,0.025679484,0.13744354,2.1722755,-0.99245006,-0.44368744,-0.14953995,1.8572973,-0.7856369,-10.414589,-0.03513336,0.0358963,-2.0135803,-1.0543113,-1.5013504,-11.864805,1.9375663,0.3611374,-18.124666,0.025367737,0.22472382,0.30701065,-0.9924435,-0.8601761,6.8256645,1.9718908,0.4553604,1.1505318,0.0,0.0,0.0,0.0,0.0,0.0,0.0,0.0,0.0,0.0,0.0,0.0,-0.99645543,0.35367206,0.9923478,0.9618431,0.10258479,-0.9959674,-0.6401316,-0.9927633,-0.90023434,0.936767,0.5682778,0.99916166
2025-06-04 18:49:59.674,-0.451485,-3.452661,-140.99312,0.12309744,-0.709961,-0.38701466,3.484748,0.03223,12.528855,-0.049698934,-0.0472641,-1.4959946,-0.93340516,0.9756088,-0.67811203,1.9906337,0.60108185,0.72571945,0.021178141,-0.020179749,4.8578606,-0.9933656,-0.33481598,3.9850464,1.8038915,-1.5724564,-5.7355614,-0.0207901,0.16498566,-2.932785,-1.1246543,-1.75457,-8.701916,1.9428306,0.11066437,-17.67666,0.049171448,0.23731232,1.1407661,-0.9131741,2.077221,-0.40711212,2.000196,0.58231354,0.11779785,0.0,0.0,0.0,0.0,0.0,0.0,0.0,0.0,0.0,0.0,0.0,0.0,-0.99855465,0.58083725,0.98998326,0.9680523,0.025647284,-0.9963765,0.03909012,-0.9961136,-0.93760616,0.9102672,0.7858825,0.99968237
2025-06-04 18:49:59.725,0.926241,-6.166541,-141.21658,0.7054795,-0.7587499,0.12980245,1.665156,-0.477802,9.274043,-0.06495772,-0.11219025,-0.5487137,-0.8519995,1.2437057,-0.30701065,2.0141323,0.3067398,0.41931915,0.03994645,0.40660858,0.9027252,-1.0319704,-1.0936356,6.6974907,1.742246,-1.145134,-4.4647903,0.008201599,0.09349823,-1.4605942,-1.198278,-1.2626266,-6.9611664,1.9359641,-0.39722443,-16.2533,0.060081482,0.080833435,0.9808502,-0.80033535,1.8173599,-0.31799698,2.021482,0.49930573,0.48645782,0.0,0.0,0.0,0.0,0.0,0.0,0.0,0.0,0.0,0.0,0.0,0.0,-0.99859613,0.7765683,0.9609459,0.9755077,-0.083089665,-0.9972562,0.7162831,-0.9961955,-0.9542786,0.6948886,0.8568866,0.9996509
2025-06-04 18:49:59.775,3.160633,-8.561749,-140.77512,0.9107813,-0.58678305,0.13109486,1.866194,-0.215993,8.390406,-0.07457076,-0.037269592,-0.9246979,-0.76479554,1.447792,-0.37903595,2.0254238,0.11264801,0.5059891,0.06519975,0.33267975,-0.3997879,-1.0808748,-0.959816,6.364231,1.6984533,-0.5814743,-4.4269485,0.03299713,0.5424881,0.40833282,-1.2597709,-1.083107,-5.1764717,1.9162803,-0.5056381,-14.661478,0.06084442,-0.16010284,0.87586975,-0.7141232,1.2778854,-0.17517471,2.034223,0.11592865,0.52918243,0.0,0.0,0.0,0.0,0.0,0.0,0.0,0.0,0.0,0.0,0.0,0.0,-0.99710953,0.87790465,0.75621665,0.9828029,-0.17815721,-0.9970224,0.9080171,-0.99495363,-0.9446479,0.0434198,0.8589993,0.99899864
2025-06-04 18:49:59.827,5.445245,-10.048484,-140.69609,0.8071273,-0.38754502,0.0023221606,1.81957,0.396497,8.714752,-0.08075057,-0.20648956,-0.6378288,-0.69147706,1.2125778,-0.41321564,2.0180995,-0.14133453,-0.18982315,0.08328141,0.10456085,-0.23010635,-1.1344332,-0.9257889,6.9233246,1.679685,-0.16811371,-5.6855125,0.050621033,0.32405853,0.61951447,-1.307836,-0.654335,-4.466011,1.8894248,-0.68149567,-12.544746,0.03551483,-0.3914261,0.5938797,-0.6610989,0.69034576,-0.23376846,2.041471,0.20572662,0.5963211,0.0,0.0,0.0,0.0,0.0,0.0,0.0,0.0,0.0,0.0,0.0,0.0,-0.99159425,0.9238259,0.020209186,0.9844142,-0.38839167,-0.99021494,0.9437356,-0.9914713,-0.87126505,-0.7429547,0.8566762,0.9946019
2025-06-04 18:49:59.878,7.514213,-11.008613,-140.95099,0.6678064,-0.28779572,-0.04345039,2.1988,0.737107,7.802312,-0.08326827,0.0020217896,-1.0772858,-0.6376898,0.87207794,0.1336708,1.9460781,-1.440239,0.122680664,0.092970744,0.24692535,-0.5853348,-1.1919588,-1.1988449,5.211872,1.6761755,0.022468567,-6.32761,0.06160736,0.08495331,1.2506294,-1.3501029,-0.7288742,-2.2467384,1.862493,-0.5272293,-10.865034,-0.0104904175,-0.81386566,0.61463165,-0.6317257,0.44605255,-0.025024414,2.0455146,0.04322052,0.69276047,0.0,0.0,0.0,0.0,0.0,0.0,0.0,0.0,0.0,0.0,0.0,0.0,-0.949689,0.9727057,-0.89653176,0.9802188,-0.7270613,-0.5798793,0.9421484,-0.9917029,-0.18714322,-0.9740037,0.675797,0.7799436
2025-06-04 18:49:59.928,9.527595,-11.868382,-141.08463,0.69937855,-0.3449637,0.13298132,1.093334,0.834549,4.990079,-0.0841838,-0.007820129,-0.76966476,-0.59572816,0.43132782,0.18249893,1.801501,-2.323574,-0.1312294,0.09907426,0.06259918,-0.8575554,-1.276874,-1.929512,3.8080406,1.6994451,0.6888199,-5.3778915,0.06717682,-0.06511688,1.7145042,-1.4010673,-0.81760406,0.95643616,1.8613486,0.025978088,-5.1850166,-0.051689148,-0.5461502,0.7122917,-0.6443142,-0.14408112,-0.2825966,2.032926,-0.21793365,0.0970459,0.0,0.0,0.0,0.0,0.0,0.0,0.0,0.0,0.0,0.0,0.0,0.0,-0.33662632,0.97018147,-0.9920869,0.95733625,-0.889351,0.9752956,0.8213654,-0.99548995,0.82612693,-0.9921938,-0.3803667,-0.8870267
2025-06-04 18:49:59.979,10.749104,-11.909359,-140.77806,-0.5340675,0.67750734,0.17659351,1.954702,5.164791,8.438302,-0.072816,0.24097443,0.31067276,-0.5701697,0.22480011,0.015258789,1.7014034,-1.5919113,-0.2471962,0.090681925,-0.14949799,1.1615181,-1.3460726,-0.29224396,-1.8597679,1.8247198,2.4445763,0.2887001,0.060005188,-0.13217926,1.9427795,-1.4425712,-0.48503876,0.014038086,1.9145255,0.9983444,0.57068634,-0.06755829,-0.51540375,1.9281311,-0.717709,-0.47000885,-18.445717,2.0191932,0.074043274,-21.13985,0.0,0.0,0.0,0.0,0.0,0.0,0.0,0.0,0.0,0.0,0.0,0.0,0.90888345,0.67613685,-0.9873345,0.39614227,-0.869689,0.9986255,0.2991438,-0.9908963,0.9287861,-0.9845363,-0.85664654,-0.99374473
2025-06-04 18:50:00.031,7.172226,-10.08889,-139.84203,-1.3505807,0.5446853,0.32839826,4.114075,5.42671,8.320193,-0.0020152184,1.2559891,-1.0699615,-0.6049597,-0.68698883,0.41199493,1.6362484,-0.99315643,0.01159668,0.06878556,-0.5438614,0.79896164,-1.370334,-0.076179504,-1.1224518,1.9165777,1.3794327,0.52918243,0.030937195,-0.4947281,2.5531387,-1.4733176,-0.6923294,2.6630058,1.9545798,0.4140091,2.0123596,-0.11707306,-0.80394745,4.4684525,-0.78889126,-1.3411331,-22.371555,2.038343,0.32665253,-24.129395,0.0,0.0,0.0,0.0,0.0,0.0,0.0,0.0,0.0,0.0,0.0,0.0,0.9814274,0.6452783,-0.92583597,0.027835177,-0.5077535,0.99787545,-0.3517715,-0.9757566,0.8208009,-0.9705523,-0.8886288,-0.9930811
2025-06-04 18:50:00.081,3.596623,-8.112285,-138.60092,-0.50870836,0.68204266,0.5957038,0.585521,3.384108,19.993105,0.032698527,1.4715958,-0.0592041,-0.6544745,-1.4317703,4.1730385,1.6548641,1.1694717,-9.959259,0.040633097,-0.8749771,1.8280296,-1.3284487,0.84026337,0.16662979,1.9705938,0.53287506,1.0138092,0.005531311,-0.26569366,-1.3006783,-1.4881186,0.21579742,0.3607216,1.9662528,0.3258896,0.87464523,-0.14019012,0.2148056,0.3643837,-0.8711361,-2.0910301,-15.269398,2.0519233,0.587883,-24.959488,0.0,0.0,0.0,0.0,0.0,0.0,0.0,0.0,0.0,0.0,0.0,0.0,0.9642397,0.45335364,-0.590551,-0.13754706,-0.09001896,0.9955158,-0.6560286,-0.9582724,0.57013726,-0.9540709,-0.9179857,-0.98692733
2025-06-04 18:50:00.132,2.363318,-7.938853,-136.53471,-0.954492,-0.27118653,0.68562585,1.809065,1.381769,11.223061,0.07183732,0.2577591,-0.5120926,-0.74076295,-1.5845871,4.6210403,1.6902645,0.12752533,-2.7875175,0.0072926427,-0.52684784,0.5194168,-1.2143892,1.7580032,-0.46326447,2.0017982,0.4291153,1.2005806,-0.017662048,-0.40233612,-1.0504303,-1.4763694,0.09799957,0.103149414,1.9637351,-0.1317215,-0.05432129,-0.13820648,-0.07564545,2.157627,-0.9951138,-2.560772,-9.442894,2.0365882,-0.7696152,-19.181812,0.0,0.0,0.0,0.0,0.0,0.0,0.0,0.0,0.0,0.0,0.0,0.0,0.899519,0.17796603,0.20629478,0.0024281433,0.38893306,0.93706053,-0.7318419,-0.9416673,-0.22421953,-0.86898154,-0.9437188,-0.96849096
2025-06-04 18:50:00.184,-0.978188,-8.744896,-134.45178,-1.2261715,-0.11950631,0.7050122,2.814015,1.25336,5.630731,0.09175004,0.485878,-1.2628365,-0.828501,-1.623497,2.9510956,1.744662,1.0121536,0.7379265,0.0037831215,0.053215027,-0.76600266,-1.0651582,2.5504723,-0.5047684,2.016294,0.26958466,0.26428604,-0.042304993,-0.2399826,0.0579834,-1.4720206,-0.07976532,1.9598694,1.9043784,-1.1761093,-2.186924,-0.14949799,0.056037903,2.896164,-1.0910916,-1.4509964,-9.466087,1.989591,-1.039238,-15.407341,0.0,0.0,0.0,0.0,0.0,0.0,0.0,0.0,0.0,0.0,0.0,0.0,0.72736394,-0.35671994,0.8095201,0.79384804,0.8211899,-0.8589683,-0.8106494,-0.90089214,-0.87254673,-0.05175565,-0.96111137,-0.82759845
2025-06-04 18:50:00.235,-3.202756,-7.606922,-132.33792,-0.24853788,0.79830635,0.8112804,4.753627,0.01835,4.896613,0.10533036,0.05268097,-1.4154282,-0.95263124,-2.248272,-0.29724503,1.8430812,1.7256546,0.17395401,0.031554118,0.707283,-0.040893555,-0.88922435,2.9341545,-0.09460449,1.8712591,-3.172573,0.005493164,-0.05619049,-0.025138855,-1.2652779,-1.4656119,0.17864227,0.76234055,1.8247275,-1.3925552,-5.5927353,-0.12752533,0.77220917,3.0218964,-1.1601377,-1.1645126,-8.048828,1.931455,-1.1133957,-11.009079,0.0,0.0,0.0,0.0,0.0,0.0,0.0,0.0,0.0,0.0,0.0,0.0,-0.75599927,-0.5608411,0.96555525,0.97898954,0.6825596,-0.9995092,-0.9482715,-0.9379226,-0.90632784,0.9933257,-0.9095507,0.9055769
2025-06-04 18:50:00.285,-3.900363,-4.618768,-129.64505,-0.24295132,1.1629467,0.94450736,0.662747,-3.297143,4.108953,0.08015336,-0.07808685,-7.1039886,-1.0793555,-2.6493492,2.133213,1.9469173,2.7850761,-7.057602,0.04917802,0.25928497,1.7572289,-0.79362804,1.3067245,-0.3680458,1.740949,-2.1587791,-0.12512589,-0.06214142,-0.12897491,-0.30701065,-1.4701896,-0.16277313,1.7120628,1.7646842,-0.96515656,-4.8078117,-0.052833557,1.2571335,1.1993599,-1.2586331,-1.7731094,0.099487305,1.9611334,0.639534,0.7525749,0.0,0.0,0.0,0.0,0.0,0.0,0.0,0.0,0.0,0.0,0.0,0.0,-0.9837356,-0.20116152,0.9864727,0.97980356,0.61059964,-0.998349,-0.88956493,-0.9773356,-0.89600545,0.99141324,-0.66817605,0.9803621
2025-06-04 18:50:00.336,-7.081209,-0.828862,-127.8865,-1.3189118,0.66468066,0.3496418,-8.546258,-2.206253,21.039839,0.061842814,-0.15293121,-6.5253677,-1.1892188,-1.1098862,10.200962,2.0567806,0.66028595,-2.5580215,0.06237687,-0.2576828,3.0145721,-0.8519929,-0.90473175,10.152132,1.7406439,-0.38066864,-7.3823166,-0.09555817,-0.43880463,2.6935234,-1.4899497,0.10242462,0.45227814,1.7122703,-1.3262558,-1.2335396,0.0019454956,0.9793472,0.38391876,-1.282208,-0.08289337,-0.9771881,1.9953893,0.6014633,0.46326447,0.0,0.0,0.0,0.0,0.0,0.0,0.0,0.0,0.0,0.0,0.0,0.0,-0.98889565,-0.116269685,0.98097414,0.9804626,0.44966814,-0.99812907,-0.77955264,-0.9774411,-0.8362496,0.9897745,-0.35867524,0.99173445
2025-06-04 18:50:00.388,-10.06723,1.40083,-127.49724,-1.081219,0.4852699,0.14135094,-4.533592,-1.018432,8.429018,0.053603068,-0.098991394,-6.383766,-1.2211859,-0.30345917,9.419701,2.0737178,0.22083282,-1.727932,0.040633097,-0.39951324,3.6884117,-0.8593934,0.2565384,2.7508965,1.6974615,-1.0165787,-2.8741875,-0.094566345,0.07022858,-0.045776367,-1.4802604,0.31620026,-0.08972168,1.6645865,-0.74855804,-0.5938797,0.038337708,0.5273056,0.57190704,-1.2428403,0.582695,-0.33264542,2.0189643,0.20503998,0.4766922,0.0,0.0,0.0,0.0,0.0,0.0,0.0,0.0,0.0,0.0,0.0,0.0,-0.99120414,0.06528783,0.9803544,0.9707662,0.36544302,-0.9971574,-0.57603574,-0.980473,-0.861889,0.9858408,-0.14456362,0.99474907
2025-06-04 18:50:00.439,-12.558399,2.596759,-127.07882,-0.49937472,0.14788766,0.1591798,-3.947741,-3.640477,9.037356,0.051085368,0.18749237,-7.3957443,-1.2251532,-0.035743713,11.459526,2.0873744,0.1984787,-2.2943459,0.03643693,0.7300949,2.174717,-0.8505433,0.37403107,0.026245117,1.6612982,-0.4380417,-3.2623787,-0.090293884,-0.057411194,1.5265121,-1.4723258,0.09990692,-0.6353874,1.645513,-0.04962921,-3.3356209,0.0623703,0.22548676,0.8331413,-1.1773801,1.3063431,-0.6036453,2.033689,0.29506683,0.20080948,0.0,0.0,0.0,0.0,0.0,0.0,0.0,0.0,0.0,0.0,0.0,0.0,-0.9937359,0.27999008,0.9776069,0.96088696,0.2694668,-0.99663997,-0.14589654,-0.9853363,-0.8950334,0.9753857,0.16678259,0.99705803
2025-06-04 18:50:00.490,-13.356753,2.952253,-126.928734,-0.011391833,0.14767306,-0.093183845,-2.597387,-5.012321,9.743366,0.060164347,0.26576996,-8.046387,-1.2053168,0.5989456,13.134357,2.0934017,-0.044822693,-1.5936508,0.04360856,-0.12172699,2.4090958,-0.8394807,0.44712067,-2.593422,1.6471075,-0.048561096,-4.6771965,-0.07648468,0.34122467,0.9356842,-1.4667563,0.06252289,-1.1810493,1.6529136,0.2388382,-5.1984444,0.07297516,0.14209747,0.7098503,-1.0782743,1.7136765,-0.60974884,2.0415473,0.15987396,0.33630753,0.0,0.0,0.0,0.0,0.0,0.0,0.0,0.0,0.0,0.0,0.0,0.0,-0.9947185,0.48693478,0.96438247,0.95964926,0.23052788,-0.99682397,0.44825685,-0.9873093,-0.9369837,0.93611336,0.36359674,0.99761724
2025-06-04 18:50:00.541,-12.89395,3.141488,-127.39859,0.4321924,0.058384717,-0.21050248,-1.411666,-4.152975,10.135488,0.06489457,-0.0038528442,-7.808346,-1.162287,0.7971573,13.8069725,2.0884426,-0.26111603,-0.37537384,0.05306901,0.14896393,1.4837875,-0.8202546,0.47588348,-5.077591,1.6487097,0.09181976,-5.449913,-0.050239563,0.6056595,2.2540627,-1.4546256,0.141716,-1.5692368,1.6651206,0.31154633,-6.306858,0.0762558,-0.08174896,1.157856,-0.9777188,1.6137314,-0.57556915,2.0467353,0.122032166,0.29724503,0.0,0.0,0.0,0.0,0.0,0.0,0.0,0.0,0.0,0.0,0.0,0.0,-0.9943114,0.6341824,0.9267637,0.9655789,0.28937355,-0.9970933,0.79333025,-0.98772067,-0.9680613,0.80784184,0.387918,0.99681973
2025-06-04 18:50:00.592,-11.340549,2.668128,-127.827515,0.7789418,-0.27095187,-0.1887529,-1.309397,-3.251587,10.367257,0.066496745,-0.018043518,-7.916992,-1.1066687,1.003685,13.578697,2.067767,-0.523262,1.3726997,0.062071696,0.140419,1.1859322,-0.7955354,0.5398178,-4.820019,1.6553472,0.16727448,-5.8576317,-0.02910614,0.19039154,3.9191284,-1.4463096,0.16422272,-1.8243675,1.6820579,0.32291412,-7.8303185,0.07396698,-0.12592316,0.8868561,-0.90981716,1.0461044,-0.37659454,2.0496345,0.014381409,0.53040314,0.0,0.0,0.0,0.0,0.0,0.0,0.0,0.0,0.0,0.0,0.0,0.0,-0.99235874,0.68994164,0.8586483,0.97248375,0.33913273,-0.99700147,0.8869317,-0.98540103,-0.9781708,0.5611578,0.3664476,0.9941304
2025-06-04 18:50:00.643,-9.032009,1.46506,-128.1526,1.0222526,-0.46065322,-0.18154624,1.677845,-0.799236,7.99312,0.033842936,-1.496315,-0.33874893,-0.973078,3.2983818,-0.26550674,2.0453365,-0.16796112,0.26306534,0.07488908,0.8021164,-0.7122917,-0.7789033,-0.11798859,-2.3602638,1.669309,0.49358368,-7.9658203,-0.010948181,0.6599045,2.3260841,-1.4453177,-0.20809174,-0.6378288,1.7008262,0.39150238,-9.010757,0.0674057,0.0008010864,-0.17639542,-0.8729672,0.5990219,0.010375977,2.0523047,0.06732941,0.41809845,0.0,0.0,0.0,0.0,0.0,0.0,0.0,0.0,0.0,0.0,0.0,0.0,-0.9892761,0.7417848,0.7329139,0.9821683,0.31403106,-0.9970821,0.9146332,-0.982057,-0.9768651,0.12325541,0.41169548,0.9904314
2025-06-04 18:50:00.694,-5.317461,-0.519452,-128.18352,1.2337896,-0.63392144,0.022135487,2.025358,0.148271,9.923704,-0.014908895,-0.8810806,-0.7354851,-0.8384955,1.9694138,-0.45105743,2.0277889,-0.32489777,-0.03845215,0.10677995,0.5981827,-3.347828,-0.7979005,-0.6455612,-0.18616104,1.6909765,0.2311325,-8.350346,0.014457703,0.13652802,2.1380959,-1.465383,-0.5009079,1.9928284,1.7205863,0.15674591,-8.859388,0.040397644,-0.3786087,1.215229,-0.84435695,0.5047226,-0.9625397,2.0532966,0.0182724,0.35461807,0.0,0.0,0.0,0.0,0.0,0.0,0.0,0.0,0.0,0.0,0.0,0.0,-0.9824573,0.81210124,0.43303558,0.9814594,0.20413972,-0.99419236,0.93652105,-0.97695756,-0.96616876,-0.52728015,0.5250899,0.9811811
2025-06-04 18:50:00.746,-2.187415,-2.183377,-127.65665,0.7174959,-0.3422103,0.19481602,2.153259,0.052137,9.154722,-0.045426473,-0.3331375,-0.34363174,-0.74343324,1.4508438,-0.1324501,1.9874294,-0.6494522,-0.0970459,0.13416947,0.7492447,-3.0902557,-0.8321565,-0.8137131,-0.5133133,1.7068456,0.1581955,-8.391853,0.026283264,0.051002502,2.9425507,-1.483007,-0.23929596,1.5301743,1.7250113,0.005531311,-8.151369,-0.0036239624,-0.5384445,0.71961594,-0.8056759,0.74337006,-0.87586975,2.0534492,0.021629333,0.30090714,0.0,0.0,0.0,0.0,0.0,0.0,0.0,0.0,0.0,0.0,0.0,0.0,-0.96128297,0.90064776,-0.30630645,0.97651625,-0.074948266,-0.96636367,0.9530595,-0.9707724,-0.9136633,-0.92384297,0.57326865,0.9175393
2025-06-04 18:50:00.796,-0.428084,-3.365199,-127.01889,0.56429124,-0.426492,0.24103186,2.386803,0.519443,8.571018,-0.060761556,-0.07556915,-0.52796173,-0.674845,0.9749222,0.017700195,1.8916805,-1.6786575,0.03112793,0.15003861,0.14186859,-3.46624,-0.88159496,-0.8099747,-3.0707245,1.717832,0.19863129,-8.754406,0.023078918,-0.012702942,3.9447632,-1.5039115,-0.47382355,3.7787437,1.7234855,-0.09471893,-7.1784554,-0.0447464,-0.8848953,0.79774094,-0.7744717,0.36327362,0.15076065,2.0508552,-0.044898987,-0.16418839,0.0,0.0,0.0,0.0,0.0,0.0,0.0,0.0,0.0,0.0,0.0,0.0,-0.8462813,0.9579905,-0.90730584,0.9646234,-0.5378655,-0.08370881,0.92042404,-0.9765218,-0.40122795,-0.98296636,0.21133444,-0.07133793
2025-06-04 18:50:00.847,1.459799,-4.570887,-126.09802,0.8395056,-0.16490875,0.41041043,1.670665,-1.16258,2.804027,-0.075028524,-0.94989777,2.6691093,-0.61960816,0.7275772,-0.5597,1.7689998,-1.4548874,-2.822918,0.16567887,0.19832611,-3.7824059,-0.97505504,-1.4408493,-6.670635,1.783521,1.2043381,-6.09079,0.017738342,-0.40111542,4.949417,-1.5321403,-0.31032562,4.5465775,1.7302756,0.01712799,-1.7914085,-0.060768127,-0.49747467,-0.74403,-0.80674404,-0.54286957,-1.4557114,1.9995855,0.4377365,-11.546196,0.0,0.0,0.0,0.0,0.0,0.0,0.0,0.0,0.0,0.0,0.0,0.0,0.12859608,0.88665646,-0.9755467,0.84963644,-0.8153895,0.98010635,0.6831807,-0.9843907,0.67467415,-0.9864722,-0.70310843,-0.9676492
2025-06-04 18:50:00.899,1.152702,-3.089078,-125.39479,0.15202715,0.35555565,0.48342586,-2.576498,3.200162,18.987488,-0.06610213,0.45681,1.477684,-0.6114447,-0.2777481,3.1403084,1.7408473,0.23265839,-10.11429,0.14195146,-0.6647873,-0.11291504,-1.106891,-2.579998,-1.3897934,1.8965887,1.7225266,0.10559082,0.022010803,0.53928375,0.5865555,-1.5326743,0.16750336,1.7145042,1.8010764,1.6240311,1.0748444,-0.06450653,-0.39920807,-1.8463402,-0.8805966,-1.382103,-13.590904,2.0122504,0.9001541,-25.157242,0.0,0.0,0.0,0.0,0.0,0.0,0.0,0.0,0.0,0.0,0.0,0.0,0.9383549,0.5310222,-0.9690656,0.094182014,-0.6894789,0.99689627,0.05761268,-0.98256516,0.86053073,-0.9728843,-0.88544226,-0.9934442
2025-06-04 18:50:00.950,1.733701,-3.697803,-123.287605,-0.11555654,-0.63975185,0.7602005,1.187146,2.214306,12.269124,-0.017808065,0.81157684,1.7694359,-0.6609595,-0.87688446,-0.1312294,1.7319973,-0.6277847,-5.6818504,0.08076371,-0.9661484,1.7962914,-1.1969179,-0.9555435,-1.006485,1.9563268,1.0272598,0.71839523,0.023460388,-0.024299622,-0.5609207,-1.5103202,0.37967682,-0.34119034,1.8821769,1.3888931,0.5194168,-0.0762558,-0.3396225,0.23743057,-0.98160976,-2.410778,-9.850613,2.0256019,-0.05870819,-21.967499,0.0,0.0,0.0,0.0,0.0,0.0,0.0,0.0,0.0,0.0,0.0,0.0,0.9719079,0.50859064,-0.8445186,-0.29826054,-0.2202374,0.9954937,-0.5653566,-0.9648715,0.7255104,-0.9357552,-0.90782905,-0.9914888
2025-06-04 18:50:01.001,0.506551,-5.792874,-121.13872,-0.48197198,-0.57073545,0.79422534,2.163441,2.910654,8.175593,0.011565104,0.68798065,1.5533676,-0.7033789,-1.0154343,0.80384445,1.705981,-0.47412872,-3.8788452,0.03254594,-1.0188675,0.33996964,-1.1696047,0.705986,-0.29602432,1.9943975,0.6410599,0.481575,0.00034332275,-0.602684,-0.45838165,-1.491857,0.69034576,-0.5181961,1.9212394,0.62229156,0.4718094,-0.10066986,-0.25173187,1.260395,-1.0864377,-1.7794418,-7.445793,2.011335,-0.32665253,-19.573662,0.0,0.0,0.0,0.0,0.0,0.0,0.0,0.0,0.0,0.0,0.0,0.0,0.91476727,0.3381089,-0.17637078,-0.33042702,0.26299286,0.97887164,-0.76100683,-0.95333624,0.15334982,-0.8707862,-0.93934244,-0.9805143
2025-06-04 18:50:01.051,-1.138478,-6.898529,-118.92631,-0.7962942,-0.17321648,0.7309221,3.105064,2.106918,6.078234,0.040251628,0.301857,0.33386612,-0.7637274,-1.1951828,1.6766624,1.7327602,0.77518463,-2.4261856,0.0032490639,-0.52433014,0.055541992,-1.0585207,2.0666924,-0.5877762,2.0148444,0.4479599,0.38391876,-0.026664734,-0.513649,-0.119018555,-1.4797263,-0.10761261,1.3665962,1.8994193,-0.40576935,-0.3704872,-0.11539459,-0.11188507,1.6876488,-1.1688352,-1.4554214,-6.192112,1.9770788,-0.5288315,-17.157856,0.0,0.0,0.0,0.0,0.0,0.0,0.0,0.0,0.0,0.0,0.0,0.0,0.76845646,-0.119567215,0.6163686,0.33585426,0.75245214,0.09920883,-0.7831938,-0.9315414,-0.7282365,-0.5076885,-0.96785694,-0.93317515
2025-06-04 18:50:01.103,-2.788542,-6.375157,-116.87874,-0.44323078,0.5783526,0.69316554,5.199043,-0.11749,6.143599,0.072905436,0.60214996,-2.3126564,-0.86153626,-1.6756821,-1.727932,1.8286617,1.7369461,-1.9610901,0.009276286,-0.11226654,0.5120926,-0.9010499,2.5977745,-0.21301651,1.954801,-1.3301468,-0.17517471,-0.04611969,-0.073661804,-0.789196,-1.4728599,0.05016327,0.6024246,1.8349509,-0.9460068,-6.277561,-0.11211395,0.15872955,2.0013733,-1.2204862,-0.8914566,-6.966049,1.9333624,-1.0398483,-12.749828,0.0,0.0,0.0,0.0,0.0,0.0,0.0,0.0,0.0,0.0,0.0,0.0,0.10209743,-0.6370615,0.89720774,0.95186836,0.8884996,-0.9966024,-0.8708192,-0.88967806,-0.89064586,0.8930723,-0.95867044,-0.0952489
2025-06-04 18:50:01.154,-4.042317,-4.620585,-115.28189,-0.21675728,0.72918034,0.43181053,2.903393,-4.074543,5.082712,0.097243205,0.2776718,-5.196003,-0.9997046,-2.4126854,-3.0145721,1.9489772,2.507824,-6.585182,0.03643693,0.3698349,0.65369797,-0.7678407,2.1464195,-0.15564346,1.8049597,-2.9259148,-0.09094238,-0.053977966,-0.021247864,-1.6119614,-1.4823966,-0.40302277,3.9301147,1.777883,-1.0085678,-5.5426865,-0.05596161,1.1788559,1.4044418,-1.2925076,-1.7663193,-0.30578995,1.8916296,-1.2660599,-0.15808487,0.0,0.0,0.0,0.0,0.0,0.0,0.0,0.0,0.0,0.0,0.0,0.0,-0.92802465,-0.47643435,0.9748578,0.97509015,0.68429625,-0.99941516,-0.9252192,-0.95599383,-0.9085451,0.99781066,-0.90858877,0.94222486
2025-06-04 18:50:01.204,-5.892173,-1.51366,-114.52639,-1.5427722,0.5872431,0.033379927,-7.922871,-2.811188,22.86824,0.07160844,-0.7223129,-4.453804,-1.1211646,-2.291912,4.768749,2.0673091,1.3029861,-6.582741,0.052916422,-0.33382416,4.1449623,-0.77691966,-1.331749,11.303272,1.7672704,0.01209259,-10.60746,-0.07266998,-0.31711578,1.8170433,-1.5128379,-0.758934,5.7770653,1.7250113,-1.02108,-3.085373,-0.001411438,1.0555649,0.53284454,-1.3458371,-0.4439926,-1.6839867,1.9368719,1.0555649,0.11291504,0.0,0.0,0.0,0.0,0.0,0.0,0.0,0.0,0.0,0.0,0.0,0.0,-0.9822537,-0.22184129,0.9773824,0.976648,0.60639346,-0.9977454,-0.78185093,-0.9721192,-0.85155654,0.99129564,-0.6250204,0.97682714
2025-06-04 18:50:01.255,-8.502192,0.142969,-114.27829,-0.7891724,0.30687156,0.09297179,-5.189325,0.316127,10.0955,0.05421342,0.0009536743,-6.332493,-1.1709845,-0.7339096,5.200886,2.0833309,-0.0233078,-1.0748444,0.027205363,-0.6292343,4.6161575,-0.81354076,-0.23815155,5.736782,1.7495703,-0.79265594,-6.131077,-0.08922577,-0.22197723,1.359272,-1.5128379,0.24875641,1.2079048,1.6703086,-0.74993134,-0.80628586,0.036888123,0.54561615,0.38636017,-1.3321042,0.6509781,-0.6646843,1.9824194,0.6297684,0.2508583,0.0,0.0,0.0,0.0,0.0,0.0,0.0,0.0,0.0,0.0,0.0,0.0,-0.9850388,-0.11632437,0.97204435,0.972284,0.5325874,-0.9969451,-0.59419656,-0.9713446,-0.8479814,0.9869662,-0.45370188,0.9841152
2025-06-04 18:50:01.307,-10.333005,0.960554,-114.10336,-0.51531255,0.15308966,0.01459172,-2.934972,-1.64372,8.85399,0.050398722,0.014839172,-7.143055,-1.1821997,-0.11981964,6.131077,2.085162,0.06565094,-1.5667953,0.020644084,0.031089783,3.5761032,-0.8120149,0.24677277,2.2345314,1.7137121,-0.62358856,-5.3656807,-0.09220123,0.010948181,1.4605942,-1.5045981,0.044441223,1.4886703,1.6480308,-0.095939636,-2.9730682,0.059928894,0.21045685,0.42298126,-1.286633,0.96279144,-0.436409,2.0111823,0.48404694,0.28015518,0.0,0.0,0.0,0.0,0.0,0.0,0.0,0.0,0.0,0.0,0.0,0.0,-0.98744553,0.048801266,0.9684024,0.96627736,0.4642206,-0.99640685,-0.29955667,-0.9750685,-0.8755818,0.97982776,-0.2721026,0.98843336
2025-06-04 18:50:01.357,-11.428136,1.370378,-114.20345,-0.22974768,0.18773435,-0.07694319,-1.74258,-3.681018,9.813012,0.054671183,0.09098053,-7.7399864,-1.1715186,0.15964508,7.6618614,2.092715,0.14789581,-2.5653458,0.024535075,0.015220642,3.203785,-0.7969087,0.3622055,-1.0650787,1.6919683,-0.3724289,-5.425499,-0.080070496,0.27095795,1.33852,-1.5021567,0.06877899,1.2555122,1.6519217,0.13851166,-4.470894,0.07068634,0.10562897,0.79529953,-1.224606,0.94654083,-0.3241005,2.0276618,0.25867462,0.43152618,0.0,0.0,0.0,0.0,0.0,0.0,0.0,0.0,0.0,0.0,0.0,0.0,-0.98850733,0.22011012,0.9587039,0.96298885,0.4074328,-0.99636275,0.13917626,-0.97737396,-0.91202915,0.9614856,-0.10533149,0.99012935
2025-06-04 18:50:01.408,-11.840211,1.757518,-114.44973,0.08022336,0.15122108,-0.10339845,-0.802809,-3.805665,9.621921,0.06138505,0.15903473,-7.9780273,-1.1413062,0.44628143,8.719006,2.094241,-0.013847351,-1.773098,0.030714884,0.34801483,1.9964905,-0.7763093,0.36808014,-2.6276054,1.6824316,-0.08464813,-6.15427,-0.05832672,0.22258759,1.7389183,-1.4936881,0.26607513,0.22888565,1.6606956,0.11859894,-5.265583,0.076942444,0.14965057,0.6952019,-1.1545682,1.0134506,-0.5450516,2.0369697,0.064201355,0.48279572,0.0,0.0,0.0,0.0,0.0,0.0,0.0,0.0,0.0,0.0,0.0,0.0,-0.988135,0.4044515,0.93454844,0.9638097,0.37236091,-0.99660265,0.5706738,-0.9788743,-0.94588494,0.91415286,0.017019425,0.99041796
2025-06-04 18:50:01.460,-11.219904,1.916119,-114.803535,0.376226,0.027502531,-0.12417071,-0.901807,-3.055265,10.484795,0.06519975,0.07862091,-7.89624,-1.1043799,0.49182892,10.4902725,2.0860775,-0.25547028,-0.42176056,0.03834428,-0.06198883,2.2003517,-0.7572358,0.082969666,-4.1242065,1.6819738,0.035057068,-6.6865044,-0.03627777,0.44322968,2.9816132,-1.4836936,0.115852356,-0.12390137,1.669622,0.2729416,-6.491188,0.07762909,0.03917694,0.7879753,-1.088345,1.1063766,-0.48645782,2.042768,0.048713684,0.48889923,0.0,0.0,0.0,0.0,0.0,0.0,0.0,0.0,0.0,0.0,0.0,0.0,-0.98566926,0.5351086,0.8800171,0.96697724,0.40333995,-0.99648046,0.79343945,-0.9793575,-0.96458775,0.8017268,0.05286029,0.9873576
2025-06-04 18:50:01.511,-10.104087,1.63416,-115.00536,0.5920527,-0.15492578,-0.10976278,-1.119535,-2.644338,9.93113,0.06558122,-0.054893494,-7.508049,-1.0577643,1.1288071,9.271992,2.0668514,-0.37685394,-0.099487305,0.04574479,0.30002594,1.8280296,-0.7383149,0.37761688,-4.3500404,1.6837286,0.057487488,-6.819561,-0.021400452,0.172081,3.5211716,-1.477056,0.11035919,-0.31311417,1.6808372,0.22274017,-7.2553596,0.07518768,-0.017662048,0.64759445,-1.0425687,0.64136505,-0.37781525,2.0455909,0.03681183,0.5584793,0.0,0.0,0.0,0.0,0.0,0.0,0.0,0.0,0.0,0.0,0.0,0.0,-0.9819684,0.5957656,0.79858434,0.97258604,0.4104336,-0.99627656,0.86145175,-0.97567236,-0.9710766,0.62209797,0.06554602,0.98030674
2025-06-04 18:50:01.562,-7.97242,0.645915,-115.21943,0.86406916,-0.3650817,-0.093411244,1.316515,-0.741828,8.590068,0.039793864,-1.316185,-1.1285591,-0.95858216,2.761654,0.13733292,2.041293,-0.4454422,0.5865555,0.05963029,0.51540375,-0.049438477,-0.72816783,-0.027809143,-3.2745857,1.6908239,0.25196075,-8.173344,-0.005836487,0.38303375,2.9266815,-1.475759,-0.170784,0.44739532,1.6944175,0.30788422,-8.297855,0.0687027,-0.08945465,0.08972168,-1.0106778,0.4945755,-0.10070801,2.0476508,0.10532379,0.46814728,0.0,0.0,0.0,0.0,0.0,0.0,0.0,0.0,0.0,0.0,0.0,0.0,-0.97735137,0.6628798,0.6669042,0.9794418,0.38605115,-0.9960732,0.8909184,-0.9723974,-0.96915185,0.33614996,0.13245843,0.9719341
2025-06-04 18:50:01.613,-4.612787,-0.862863,-114.94823,1.1882236,-0.50323284,0.16707405,1.452386,0.285647,10.051933,-0.012848958,-0.82302094,-0.71961594,-0.84261537,1.8151474,-0.35217667,2.0180233,-0.3144455,-0.2532997,0.09716691,1.0058212,-3.153736,-0.7487672,-0.63274384,-0.68299484,1.7102789,0.14369965,-8.617683,0.017433167,0.50457,2.0746155,-1.4883475,-0.623436,2.3822403,1.7067771,0.17681122,-8.150148,0.04940033,-0.5384445,1.4239731,-0.9797787,0.67897797,-1.1554146,2.0481086,-0.009269714,0.4376297,0.0,0.0,0.0,0.0,0.0,0.0,0.0,0.0,0.0,0.0,0.0,0.0,-0.9720338,0.75335,0.41475335,0.97858566,0.30851954,-0.99340415,0.92064,-0.97023094,-0.95997506,-0.16036558,0.3035499,0.9600696
2025-06-04 18:50:01.666,-1.974221,-2.203569,-114.08745,0.52609843,-0.2613492,0.2783085,1.822253,0.277505,9.571712,-0.043366536,-0.2779007,-0.64271164,-0.75960755,1.524086,-0.19104385,1.9798,-0.4833603,-0.17883682,0.12791337,0.035820007,-3.1317635,-0.77974254,-0.4820633,-0.44739532,1.7160772,0.06565094,-8.256351,0.023994446,0.004234314,3.4015427,-1.5030723,-0.2603531,2.4750137,1.7104392,0.006752014,-7.3664436,0.017051697,-0.6723404,0.632946,-0.9304165,1.0121536,-0.84656906,2.0481086,-0.020179749,0.29602432,0.0,0.0,0.0,0.0,0.0,0.0,0.0,0.0,0.0,0.0,0.0,0.0,-0.94922936,0.85334826,-0.17426412,0.9735219,0.1201194,-0.9764361,0.94056636,-0.9612347,-0.9285388,-0.77621114,0.40226516,0.8887237
2025-06-04 18:50:01.719,-0.714927,-3.089011,-113.29951,0.39859363,-0.25079072,0.22926036,1.840335,0.254326,8.586578,-0.05984603,-0.02368927,-0.6305046,-0.6923163,1.1842728,0.128788,1.8975551,-1.4893723,-0.03479004,0.14797868,0.11554718,-3.6578941,-0.8206361,-0.7526779,-2.1918068,1.7212652,0.19374847,-8.9118805,0.021400452,0.019721985,3.839779,-1.5176444,-0.31147003,3.765316,1.7070823,-0.16506195,-6.4814224,-0.025901794,-0.76343536,0.61341095,-0.8805203,1.0604477,-0.72816086,2.044065,-0.027656555,-0.04699707,0.0,0.0,0.0,0.0,0.0,0.0,0.0,0.0,0.0,0.0,0.0,0.0,-0.84491444,0.93897593,-0.85388947,0.9593187,-0.3643437,-0.44190735,0.92503315,-0.9646626,-0.6158792,-0.97026384,0.1859328,0.06317352
2025-06-04 18:50:01.771,0.547129,-3.930138,-112.46631,0.21172553,0.042492606,0.30961597,1.926428,-0.133975,5.440902,-0.07342635,-0.5337143,1.851223,-0.63387513,1.1364365,-0.5255203,1.7795284,-1.879158,-1.2848091,0.16255082,-0.11821747,-2.8644218,-0.8945649,-0.87078094,-8.272221,1.7636846,0.8510208,-7.5178146,0.016593933,-0.18390656,4.7016106,-1.5386252,-0.107917786,4.055847,1.7079215,-0.11394501,-2.855877,-0.04673004,-0.3948593,-1.8219261,-0.8812832,-0.24539948,-0.1324501,2.0034766,0.02155304,-8.339359,0.0,0.0,0.0,0.0,0.0,0.0,0.0,0.0,0.0,0.0,0.0,0.0,-0.09361361,0.89917415,-0.9698108,0.8611883,-0.75449175,0.94800615,0.7107569,-0.9738496,0.5211238,-0.9769705,-0.597314,-0.9440535
2025-06-04 18:50:01.823,0.194354,-2.585132,-111.664185,0.37920165,0.14617677,0.48352918,-2.247802,-1.021836,17.44843,-0.06869613,0.3219986,0.54016876,-0.6251776,-0.3344345,3.46624,1.7630489,0.09983063,-10.431677,0.13722123,-0.929451,1.465477,-1.0410494,-2.5227776,-1.9562073,1.8771337,1.5057755,0.5987625,0.024528503,0.64411163,0.22644424,-1.5324454,0.22380829,1.4264145,1.7720847,1.4473343,1.26894,-0.0472641,-0.081596375,-2.1698341,-0.9484982,-0.8399582,-10.52079,1.9925665,0.08403778,-20.17548,0.0,0.0,0.0,0.0,0.0,0.0,0.0,0.0,0.0,0.0,0.0,0.0,0.89053726,0.4840918,-0.9737912,0.04440883,-0.7259687,0.99609673,0.12131011,-0.98267394,0.8647428,-0.96414405,-0.8599448,-0.992624
2025-06-04 18:50:01.876,0.204956,-3.21715,-109.988205,-0.16419871,-0.8035915,0.70623016,0.407483,1.875308,11.240775,-0.022996053,0.6142044,2.5775528,-0.67415833,-0.5925369,-0.84534836,1.7451198,-0.8685684,-5.7929344,0.077330485,-1.1120987,1.0113678,-1.1665529,-1.4445114,-0.80872726,1.9454168,0.9519577,0.8306999,0.02544403,-0.014839172,-0.35950089,-1.5127616,0.18161774,1.1639595,1.8627982,1.2660599,1.694973,-0.06214142,-0.3660965,-0.15198135,-1.0395932,-2.0431938,-7.94751,1.991422,0.021476746,-20.384224,0.0,0.0,0.0,0.0,0.0,0.0,0.0,0.0,0.0,0.0,0.0,0.0,0.9711411,0.4924805,-0.8813328,-0.3726976,-0.24297304,0.9957192,-0.6046376,-0.9637087,0.78445166,-0.9145585,-0.9012474,-0.99222505
2025-06-04 18:50:01.928,-0.93417,-5.501045,-107.68625,-0.37166458,-0.56366503,0.77498466,2.151765,2.063067,8.058814,0.008894816,0.49793243,1.6730003,-0.7101691,-0.4114914,-0.1702919,1.7175014,-0.27050018,-5.2265205,0.027205363,-0.9207535,0.46448517,-1.1612123,0.5550766,-0.24231339,1.990354,0.65769196,0.26672745,-0.0007247925,-0.34420013,-1.0577545,-1.4962058,0.64029694,-0.60852814,1.9158225,0.90099335,0.46570587,-0.08403778,-0.45978546,0.6610222,-1.1357236,-1.5845108,-6.421608,1.9770788,-0.3775406,-18.435951,0.0,0.0,0.0,0.0,0.0,0.0,0.0,0.0,0.0,0.0,0.0,0.0,0.9178958,0.40226167,-0.24552983,-0.43444887,0.25953528,0.9826715,-0.79744697,-0.95387167,0.25840548,-0.8448005,-0.93597317,-0.98281896
2025-06-04 18:50:01.980,-2.535715,-6.729153,-105.3966,-0.71443594,-0.18743576,0.6740818,2.340482,1.899368,6.46817,0.03994645,0.80875397,0.060424805,-0.75953126,-1.1167526,2.4798965,1.740771,0.7416916,-3.4198532,-0.0052958583,-0.54416656,0.14343643,-1.0571474,2.1956291,-0.83924484,2.012632,0.48297882,0.42908478,-0.029182434,-0.56201935,-0.23620987,-1.4859824,-0.085258484,1.6168442,1.9065146,-0.4603958,0.10437012,-0.09830475,-0.11455536,1.2835884,-1.2081265,-1.28788,-5.9198914,1.9467138,-0.6227493,-15.846798,0.0,0.0,0.0,0.0,0.0,0.0,0.0,0.0,0.0,0.0,0.0,0.0,0.73603785,-0.012454969,0.55232966,0.123433106,0.72832835,0.3642144,-0.78961766,-0.9406564,-0.69086957,-0.5440484,-0.9661672,-0.9451298
2025-06-04 18:50:02.032,-3.966247,-6.222362,-103.405205,-0.43445787,0.50595015,0.6838268,5.528315,-0.833161,6.239421,0.07374467,0.7503891,-3.4222946,-0.84162354,-1.2005234,-1.531395,1.8324764,1.8471909,-2.6446953,-0.0065165614,0.038871765,0.6610222,-0.9012788,2.5076714,-0.26306534,1.9773077,-0.69286346,-0.35828018,-0.04962921,-0.4894638,-0.07751465,-1.4782767,0.09220123,0.6744499,1.8476157,-0.7715988,-6.929428,-0.098609924,0.019493103,1.7535667,-1.2490201,-1.0012436,-6.2934303,1.9058965,-1.1016464,-12.065002,0.0,0.0,0.0,0.0,0.0,0.0,0.0,0.0,0.0,0.0,0.0,0.0,0.31558636,-0.5718405,0.83470243,0.91603154,0.9135573,-0.99285316,-0.8175317,-0.88916236,-0.8896061,0.7809744,-0.96806216,-0.47589386
2025-06-04 18:50:02.085,-4.925565,-4.633105,-101.90786,0.052281477,0.69560474,0.36909494,4.299369,-3.925302,5.879708,0.10792436,0.42949677,-5.9980164,-0.9695685,-2.2512474,-3.2025642,1.9458492,2.0819511,-5.5719833,0.024992839,0.4995346,0.64637375,-0.76433116,2.2515526,-0.40345,1.8205999,-3.1605186,0.076293945,-0.052757263,0.17810822,-2.494545,-1.4823203,-0.62122345,4.007019,1.7932181,-1.1494064,-5.597618,-0.0636673,0.4971695,3.580986,-1.2973905,-0.963707,-3.372242,1.8662237,-0.67424774,-5.376671,0.0,0.0,0.0,0.0,0.0,0.0,0.0,0.0,0.0,0.0,0.0,0.0,-0.87054354,-0.54894376,0.9613658,0.97370803,0.71308917,-0.9994115,-0.9153357,-0.93554926,-0.8933733,0.9978385,-0.9327579,0.884801
2025-06-04 18:50:02.136,-5.747455,-2.021132,-101.61914,-1.329859,0.6355724,-0.022194007,-6.606479,-3.969097,20.49374,0.087172404,-0.8967972,-4.8505363,-1.1024725,-2.0983543,3.2745857,2.0614345,1.7490005,-7.7119102,0.0443715,-0.25844574,4.011902,-0.75921947,-1.6961288,11.643854,1.7649053,0.042152405,-10.694134,-0.060691833,-0.6053543,1.3128853,-1.5156608,-0.78891754,6.6010513,1.7338614,-0.98148346,-3.3246346,-0.015907288,1.0425186,0.68665695,-1.3483548,-0.6422043,-1.543602,1.9162725,1.2318039,0.03967285,0.0,0.0,0.0,0.0,0.0,0.0,0.0,0.0,0.0,0.0,0.0,0.0,-0.977674,-0.24731778,0.9725859,0.9737603,0.6226742,-0.9976818,-0.7597828,-0.96413803,-0.8598796,0.9911221,-0.6888033,0.96660995
2025-06-04 18:50:02.188,-8.543388,-0.200229,-101.397545,-0.77271163,0.2851626,0.18392496,-5.757062,0.955668,10.687442,0.06214799,-0.38402557,-6.2714577,-1.1564887,-0.32360077,3.843441,2.0831783,0.0047683716,-1.1407661,0.016600505,-0.07839203,4.7467766,-0.8043855,-0.51013947,6.746319,1.7522405,-0.6612015,-6.6950493,-0.080070496,-0.6347275,1.6803246,-1.5177207,0.16529083,1.4740219,1.6741996,-0.9218216,-0.46692657,0.030174255,0.58490753,0.2508583,-1.3437009,0.11539459,-0.57556915,1.9695257,0.8848953,0.0592041,0.0,0.0,0.0,0.0,0.0,0.0,0.0,0.0,0.0,0.0,0.0,0.0,-0.98112255,-0.14106987,0.9640543,0.9697429,0.5502696,-0.9966997,-0.5405962,-0.96208006,-0.84590733,0.9860732,-0.52753294,0.9759912
2025-06-04 18:50:02.241,-10.402088,0.737674,-101.00662,-0.47925,0.14787714,0.051246427,-2.848928,-1.470881,8.813757,0.058180705,0.013618469,-7.6777306,-1.1690009,-0.20412445,5.4608994,2.0837123,0.07282257,-1.5997543,0.011793986,-0.013923645,3.5956345,-0.80881053,0.095939636,2.7924004,1.7179846,-0.5932236,-5.852749,-0.08533478,-0.03955841,1.4239731,-1.5078025,0.09365082,1.719387,1.6479545,-0.07198334,-2.6837578,0.055732727,0.3583145,0.41687775,-1.3071561,0.67409515,-0.5255203,2.0023322,0.42804718,0.22400284,0.0,0.0,0.0,0.0,0.0,0.0,0.0,0.0,0.0,0.0,0.0,0.0,-0.9825189,0.010869089,0.95458347,0.9627289,0.49206004,-0.99577916,-0.1997354,-0.964774,-0.86359274,0.97803223,-0.36724535,0.980412
2025-06-04 18:50:02.292,-11.465117,1.158249,-101.080215,-0.24297768,0.17169036,-0.07963644,-1.607598,-3.533681,9.819753,0.0632924,0.19176483,-8.158693,-1.1619818,0.17353058,6.4643326,2.090655,0.1971817,-2.2699318,0.016600505,0.03200531,3.5297165,-0.7950776,0.32260895,-0.27038956,1.6961645,-0.38013458,-5.5829697,-0.0724411,0.29521942,0.6256218,-1.5058951,0.064964294,1.4422836,1.650701,0.15972137,-4.3170815,0.068244934,0.18131256,0.855114,-1.2552762,0.9894943,-0.56946564,2.0215583,0.19001007,0.46936798,0.0,0.0,0.0,0.0,0.0,0.0,0.0,0.0,0.0,0.0,0.0,0.0,-0.98258454,0.18696117,0.93724483,0.9602142,0.4369044,-0.9956266,0.24929668,-0.96772414,-0.90380937,0.9579949,-0.2266647,0.98248506
2025-06-04 18:50:02.345,-11.982256,1.58355,-101.424614,0.010952656,0.18422972,-0.13415383,-0.738005,-3.703513,9.70537,0.06809892,0.09464264,-8.133059,-1.13505,0.3081894,7.892578,2.0934017,0.047340393,-1.9916077,0.021635905,0.29361725,2.6507988,-0.77325755,0.3269577,-2.9999237,1.6845678,-0.18062592,-5.9028015,-0.04825592,0.45330048,1.45327,-1.4984946,0.13614655,0.7086296,1.6587882,0.28003693,-5.3498116,0.075035095,0.013999939,0.87709045,-1.1957669,0.9018326,-0.3973465,2.0330024,0.12561798,0.37170792,0.0,0.0,0.0,0.0,0.0,0.0,0.0,0.0,0.0,0.0,0.0,0.0,-0.9801813,0.3697753,0.89580697,0.9611477,0.41528714,-0.9956825,0.626083,-0.9693632,-0.9403891,0.9078505,-0.1492206,0.98084956
2025-06-04 18:50:02.397,-11.607209,1.827556,-101.90523,0.34476903,0.07430357,-0.15332282,-0.870897,-3.345038,10.128699,0.07160844,0.017204285,-8.085451,-1.098963,0.7291794,10.038605,2.085467,-0.26729584,-1.1480904,0.028578654,0.022087097,2.8851776,-0.7509797,0.13988495,-3.2831306,1.6826605,0.007972717,-6.569313,-0.023384094,0.30735016,2.4176407,-1.4877372,0.057640076,0.049438477,1.6661124,0.15956879,-5.9723816,0.076560974,0.04550934,0.79529953,-1.1423612,0.7542801,-0.19714737,2.0394874,0.04009247,0.5133133,0.0,0.0,0.0,0.0,0.0,0.0,0.0,0.0,0.0,0.0,0.0,0.0,-0.9742716,0.4935774,0.80604196,0.9649207,0.4304706,-0.99568623,0.7950804,-0.96804553,-0.9574439,0.81250167,-0.13212967,0.97298557
2025-06-04 18:50:02.449,-10.53689,1.67965,-102.24562,0.51288325,-0.11793444,-0.10815284,-0.973051,-2.713276,10.086257,0.073058024,0.0030899048,-7.9938965,-1.0578406,0.9647751,9.564964,2.064181,-0.5538559,-0.3692665,0.033766642,0.22335052,2.4811172,-0.7299989,0.25806427,-4.109558,1.6831182,-0.035438538,-6.56443,-0.0073623657,0.098838806,2.9303436,-1.4791923,0.02002716,0.02746582,1.6764884,0.1796341,-6.845196,0.07411957,-0.06954193,0.855114,-1.1086392,0.5347824,-0.27405167,2.0421576,0.058784485,0.6012039,0.0,0.0,0.0,0.0,0.0,0.0,0.0,0.0,0.0,0.0,0.0,0.0,-0.96775854,0.56219447,0.6905351,0.96793646,0.43696177,-0.9948106,0.8538267,-0.96359813,-0.9614872,0.6755028,-0.1045895,0.95703083
2025-06-04 18:50:02.500,-8.842193,0.978203,-102.42582,0.7254696,-0.2957002,-0.0671226,0.084769,-1.937433,9.500153,0.06947221,-0.048484802,-7.5300217,-1.0012305,0.9617996,7.9560547,2.0329006,-0.4632187,-0.111694336,0.039793864,0.1253891,1.9610901,-0.7137483,0.22083282,-4.2011147,1.6866277,0.06443024,-7.2138557,0.004005432,0.19565582,3.0658417,-1.4733939,-0.025978088,0.13611221,1.6902213,0.17391205,-7.549553,0.069236755,-0.19771576,0.5499344,-1.082623,0.3950119,-0.26550674,2.0428443,0.0104904175,0.526741,0.0,0.0,0.0,0.0,0.0,0.0,0.0,0.0,0.0,0.0,0.0,0.0,-0.960329,0.61602014,0.5586332,0.9684551,0.43436602,-0.99291193,0.8842662,-0.9585825,-0.9612719,0.45766318,-0.056058012,0.93314826
2025-06-04 18:50:02.551,-6.65718,-0.070768,-102.39839,0.8366808,-0.35435832,-0.02042393,0.84592,-1.365607,8.882963,0.053908244,-1.1601639,-2.694744,-0.9314215,2.0872917,0.64881516,1.9977291,-0.6155777,0.4351883,0.05230607,0.44109344,0.45594025,-0.7086366,-0.08922577,-3.610283,1.6955541,0.36457062,-8.446785,0.011329651,0.07297516,3.0658417,-1.4708762,0.028190613,0.61951447,1.7020469,0.2413559,-8.048828,0.057258606,-0.19557953,0.2911415,-1.0599637,0.2941513,0.0018310547,2.0426917,-0.015144348,0.29968643,0.0,0.0,0.0,0.0,0.0,0.0,0.0,0.0,0.0,0.0,0.0,0.0,-0.9498816,0.67731625,0.352352,0.97224927,0.39194143,-0.99088377,0.9023381,-0.95137304,-0.95774376,0.08668879,0.01576833,0.9013623
2025-06-04 18:50:02.602,-3.273917,-1.565513,-102.01973,1.2236607,-0.58619237,0.22368513,1.538243,0.068385,10.600132,-0.00079451536,-0.651207,-1.2127876,-0.8260596,1.2952042,-0.018920898,1.9601924,-0.5174637,-0.20080948,0.08534135,0.58986664,-2.8656425,-0.7311433,-0.49358368,-1.0894928,1.7137884,0.19954681,-8.994888,0.025062561,0.16887665,2.3407326,-1.4788871,-0.19870758,2.0941467,1.7102103,0.107154846,-8.086672,0.035591125,-0.48130035,0.76111984,-1.0341,0.48892975,-0.8233757,2.040708,-0.028572083,0.06530762,0.0,0.0,0.0,0.0,0.0,0.0,0.0,0.0,0.0,0.0,0.0,0.0,-0.92956764,0.77296126,-0.05309103,0.96651065,0.2836745,-0.97762555,0.9231169,-0.94457877,-0.93777084,-0.49215725,0.1656471,0.818753
2025-06-04 18:50:02.654,-0.201757,-3.287423,-101.078995,0.87782675,-0.4359368,0.3529588,1.688396,0.213302,9.458842,-0.03489791,-0.5651474,-0.5242996,-0.74579835,1.160469,-0.0982666,1.8966396,-1.1732864,-0.115356445,0.121809855,0.76213837,-3.1024628,-0.76944286,-1.1281204,-1.0479889,1.7206548,0.05001068,-8.295414,0.02910614,0.018730164,3.1305428,-1.4949851,-0.42713165,3.342945,1.7135673,0.007209778,-7.283436,-0.005760193,-0.62129974,1.0687408,-0.98702663,0.8963394,-0.48645782,2.0328498,-0.08785248,-0.079956055,0.0,0.0,0.0,0.0,0.0,0.0,0.0,0.0,0.0,0.0,0.0,0.0,-0.8586255,0.89323324,-0.7016014,0.95397204,-0.08857379,-0.7831091,0.92275983,-0.94617885,-0.8066819,-0.91550404,0.13950321,0.29349175
2025-06-04 18:50:02.705,1.860792,-4.621852,-100.04946,0.30391765,-0.13896121,0.2902342,2.400159,0.670116,7.23046,-0.057023153,-0.56468964,0.5828934,-0.677439,1.360054,-0.3668251,1.798373,-1.4776993,-2.0624084,0.13622941,-0.09098053,-1.4593735,-0.8183473,-0.38822174,-7.9938965,1.7388128,0.3180313,-8.179447,0.020256042,-0.21717072,4.3085365,-1.5050559,0.13195038,1.8988342,1.7122703,-0.25981903,-4.528267,-0.028648376,-0.29384613,-1.1883736,-0.9723782,0.048942566,1.8255882,2.01782,-0.038414,-6.011444,0.0,0.0,0.0,0.0,0.0,0.0,0.0,0.0,0.0,0.0,0.0,0.0,-0.3960517,0.90129834,-0.9430217,0.890398,-0.6009221,0.77794933,0.7718222,-0.95325506,0.091106705,-0.9694455,-0.42047513,-0.86594605
2025-06-04 18:50:02.756,1.358696,-3.65692,-99.584015,-0.67745554,0.7791482,0.082242236,1.951406,1.636574,4.813345,-0.05870162,-0.4480362,3.7396812,-0.6351721,-0.033683777,1.1334419,1.7210109,0.43598175,-9.046158,0.11547746,-0.14484406,-0.072631836,-0.95491344,-3.174099,-1.5936508,1.8443273,1.7641068,-0.0579834,0.019187927,0.37776947,1.1358833,-1.4980369,0.14011383,1.2372017,1.7432456,0.5778885,1.0870514,-0.04787445,-0.1115036,-0.6622429,-0.9977078,0.05130768,-9.458763,1.9900488,-0.27484894,-17.554588,0.0,0.0,0.0,0.0,0.0,0.0,0.0,0.0,0.0,0.0,0.0,0.0,0.7438561,0.5243812,-0.9699905,0.26748714,-0.75510323,0.9922068,0.36854407,-0.982523,0.7745241,-0.97076863,-0.84708613,-0.99089473
2025-06-04 18:50:02.806,1.329276,-3.016886,-98.97123,0.13132651,-0.45810616,0.39071625,0.34501,1.305585,14.411271,-0.033295736,0.74222565,2.6569023,-0.6767523,-0.5954361,-0.06286621,1.7353542,-0.11501312,-8.202641,0.0733632,-0.77388763,1.3678169,-1.112842,-2.3758354,-0.25452042,1.9234442,1.1991501,0.9381256,0.029640198,0.07030487,0.09338379,-1.491857,0.1556778,0.34607315,1.8307548,1.6393661,0.8538933,-0.04711151,-0.17688751,-1.8817444,-1.0619473,-1.5633774,-9.004654,1.9985174,0.07205963,-21.170368,0.0,0.0,0.0,0.0,0.0,0.0,0.0,0.0,0.0,0.0,0.0,0.0,0.9662303,0.4138277,-0.9443607,-0.2976514,-0.369112,0.99624205,-0.49456233,-0.96592987,0.8492595,-0.92593676,-0.88304824,-0.9939584
2025-06-04 18:50:02.858,0.371058,-4.700165,-97.597305,-0.34787863,-0.6068752,0.5919094,1.7159,2.373185,9.373138,-0.008576497,0.4729843,2.8827362,-0.723902,-0.8691788,-0.10437012,1.7197139,-0.38936615,-5.6610985,0.027586833,-0.78372955,0.7159538,-1.1459535,-0.19184113,-0.56702423,1.97479,0.72971344,0.76356125,0.008125305,-0.22258759,-0.53162384,-1.4798789,0.57697296,-0.61829376,1.9036155,1.1816788,0.40711212,-0.06526947,-0.2578354,-0.26062393,-1.1452603,-1.4622116,-5.639126,1.9887518,-0.3448105,-18.869305,0.0,0.0,0.0,0.0,0.0,0.0,0.0,0.0,0.0,0.0,0.0,0.0,0.93404293,0.43023837,-0.5296671,-0.5190691,0.18091443,0.9895238,-0.8092823,-0.954419,0.5314731,-0.8409854,-0.91373724,-0.98738647
2025-06-04 18:50:02.909,-1.002431,-6.124166,-95.926,-0.6834437,-0.31832898,0.5943114,1.996102,1.877457,7.900056,0.014082804,0.40470123,1.293354,-0.76471925,-0.7191086,2.2638283,1.7253597,0.12523651,-3.8129234,-0.00804244,-0.9080887,0.74403,-1.0641664,1.5806198,-0.34729385,2.0046973,0.54798126,0.69153976,-0.018882751,-0.36548615,-0.9393463,-1.4682059,0.1379013,-0.42664337,1.920095,0.063438416,0.38391876,-0.07686615,-0.0182724,0.00793457,-1.2143826,-1.4321518,-4.610054,1.9597601,-0.5944443,-16.315556,0.0,0.0,0.0,0.0,0.0,0.0,0.0,0.0,0.0,0.0,0.0,0.0,0.723323,0.19692296,0.34470943,-0.2579385,0.630814,0.78275245,-0.8165604,-0.9528769,-0.4917674,-0.6517322,-0.9553203,-0.96576333
2025-06-04 18:50:02.960,-2.653372,-6.479963,-94.13332,-0.636633,0.2552121,0.60639316,4.256868,0.441283,5.592289,0.04200639,0.8841324,-1.223774,-0.82506776,-0.88588715,1.1493111,1.7939479,1.4431381,-1.9806213,-0.018799886,-0.14240265,-0.014038086,-0.926761,2.5554314,-0.18738174,2.0059943,-0.010948181,0.16052628,-0.04131317,-0.15506744,-0.3643837,-1.4621024,0.12134552,-0.1690712,1.8688254,-0.5339432,-6.5998306,-0.0825119,-0.09799957,0.7342644,-1.2568784,-0.7519913,-6.6095963,1.9196295,-0.892601,-12.708324,0.0,0.0,0.0,0.0,0.0,0.0,0.0,0.0,0.0,0.0,0.0,0.0,0.46203607,-0.3865247,0.75291294,0.7069866,0.9199768,-0.9453774,-0.7621672,-0.92380714,-0.89686555,0.35391018,-0.97607917,-0.7878516
2025-06-04 18:50:03.010,-3.884617,-4.970534,-92.199646,-0.08433527,0.6362097,0.5563221,5.566554,-2.561815,6.625018,0.078093424,0.37563324,-4.2597084,-0.93737245,-1.941719,-2.383461,1.9015987,2.1045341,-4.364689,0.0063008214,0.5900192,0.7501335,-0.78195506,2.421688,-0.021362305,1.8513464,-3.3337822,0.06774902,-0.04787445,0.17665863,-1.5863266,-1.4569144,-0.15911102,1.063858,1.8196158,-0.96775055,-7.6899376,-0.06175995,-0.012702942,2.4798965,-1.2933469,-0.7654953,-4.2719154,1.871488,-0.9617233,-8.307621,0.0,0.0,0.0,0.0,0.0,0.0,0.0,0.0,0.0,0.0,0.0,0.0,-0.74757004,-0.62048066,0.9377445,0.9660972,0.7742096,-0.99910086,-0.8845701,-0.913858,-0.87212956,0.9941801,-0.94037175,0.7502462
2025-06-04 18:50:03.062,-4.676404,-2.893974,-91.37735,-0.46945778,0.9021977,0.17973411,0.684243,-4.964482,8.973384,0.07527055,-0.3545761,-5.0763702,-1.068064,-2.7766838,0.92836,2.0161922,2.4470177,-9.315939,0.037505046,0.057792664,0.5438309,-0.7370179,-1.2716293,10.460976,1.7607092,0.49785614,-12.0442505,-0.053901672,-0.5710983,0.2862587,-1.4792686,-0.5623245,4.846874,1.769567,-0.96378326,-5.3913193,-0.015830994,0.6203079,1.8731956,-1.3462186,-0.58460236,-1.5448227,1.9055151,0.79242706,1.0089264,0.0,0.0,0.0,0.0,0.0,0.0,0.0,0.0,0.0,0.0,0.0,0.0,-0.9723297,-0.3029937,0.9702,0.9687932,0.649901,-0.99768645,-0.7454252,-0.95801157,-0.8795118,0.99107134,-0.7451081,0.95451826
2025-06-04 18:50:03.113,-7.582356,-0.581465,-91.23379,-0.7826263,0.38664633,0.16573171,-5.337193,0.919776,14.172858,0.049483195,-0.17810822,-6.1493874,-1.1420691,-0.68035126,3.8031578,2.0669277,0.1026535,-1.0821686,0.018813029,-0.1077652,5.708706,-0.7943147,-0.6586838,7.0380707,1.759641,-0.60871124,-7.523918,-0.07266998,-0.18032074,0.5621414,-1.4969687,0.006904602,1.1834908,1.7128806,-1.185646,-1.6937523,0.027580261,0.5991745,0.40345,-1.349957,-0.029945374,-0.2838173,1.9596838,0.8887863,0.3936844,0.0,0.0,0.0,0.0,0.0,0.0,0.0,0.0,0.0,0.0,0.0,0.0,-0.97829205,-0.1939922,0.9603547,0.967633,0.58703923,-0.9962692,-0.51691353,-0.9553373,-0.84848946,0.98514915,-0.5884474,0.96552396
2025-06-04 18:50:03.164,-9.45375,0.485057,-90.8857,-0.6153963,0.21045965,0.069736674,-3.435088,-0.738516,8.404262,0.04490556,-0.2779007,-6.692608,-1.1653388,-0.36907196,4.9152374,2.070132,0.14415741,-1.223774,0.012175456,-0.041618347,4.052185,-0.8057588,0.08563995,4.027771,1.7255377,-0.6734085,-5.639126,-0.07732391,0.07900238,1.1847115,-1.4890342,0.02620697,0.9796295,1.6773276,-0.32634735,-3.1158905,0.053367615,0.34885406,0.42176056,-1.3234067,0.40431976,-0.5462723,1.9945501,0.5739212,0.2911415,0.0,0.0,0.0,0.0,0.0,0.0,0.0,0.0,0.0,0.0,0.0,0.0,-0.97927976,-0.056205682,0.9513129,0.960708,0.5287263,-0.9952835,-0.19659565,-0.95747644,-0.87025845,0.97735715,-0.46505576,0.9712407
2025-06-04 18:50:03.215,-10.90295,1.154633,-90.924484,-0.3877175,0.21557586,-0.04497481,-2.386971,-2.768045,9.391995,0.049101725,0.19626617,-7.582512,-1.169306,0.030784607,6.4106216,2.080279,0.17467499,-2.3504982,0.01614274,-0.020942688,3.9557495,-0.7966035,0.33252716,0.8697624,1.699674,-0.4253006,-5.302204,-0.06481171,0.4566574,0.65247726,-1.4878135,0.0951767,1.0894928,1.6735129,0.04184723,-4.953079,0.06755829,0.34778595,0.46204376,-1.2816739,0.557518,-0.41199493,2.0172095,0.42331696,0.41077423,0.0,0.0,0.0,0.0,0.0,0.0,0.0,0.0,0.0,0.0,0.0,0.0,-0.9783297,0.10384204,0.9311397,0.957005,0.4771531,-0.99495655,0.20816022,-0.9591091,-0.89993477,0.9610444,-0.35406375,0.9731546
2025-06-04 18:50:03.266,-11.885837,1.761367,-91.22877,-0.111283325,0.15060237,-0.11927039,-0.943037,-3.878547,9.898723,0.057265177,0.07450104,-8.1001,-1.1538184,0.3722,7.8290977,2.0865352,0.015525818,-1.7816429,0.020872965,-0.8911514,3.6261559,-0.77753,0.4970169,-1.8084984,1.6824316,-0.25058746,-5.253376,-0.04245758,0.5791855,1.0980377,-1.4820151,0.25074005,0.2899208,1.6776328,0.10593414,-5.7257957,0.074653625,0.03993988,0.64271164,-1.2359738,0.63144684,-0.1690712,2.0291114,0.1467514,0.4766922,0.0,0.0,0.0,0.0,0.0,0.0,0.0,0.0,0.0,0.0,0.0,0.0,-0.9721089,0.26025137,0.8802845,0.95908153,0.4528299,-0.9951306,0.5527934,-0.9577042,-0.9293958,0.9255993,-0.3127234,0.9678184
2025-06-04 18:50:03.316,-11.925073,2.013356,-91.69148,0.21112232,0.0934757,-0.16160494,-0.778915,-3.609708,9.197826,0.06367387,0.12447357,-7.766842,-1.1264288,0.48145294,8.96315,2.0839412,-0.08960724,-1.7340355,0.028426066,-0.26493073,1.9378967,-0.7560914,0.42346954,-2.0953674,1.6759466,0.04261017,-6.209202,-0.016899109,0.27561188,2.0502014,-1.4742332,0.2753067,-0.095825195,1.682363,0.10509491,-6.334934,0.07663727,0.085258484,0.7330437,-1.1979795,0.58475494,-0.2862587,2.03552,0.060081482,0.57556915,0.0,0.0,0.0,0.0,0.0,0.0,0.0,0.0,0.0,0.0,0.0,0.0,-0.96511185,0.39516738,0.7925248,0.96048754,0.4473421,-0.9950352,0.73834646,-0.9572838,-0.94733673,0.8652457,-0.2778603,0.95891386
2025-06-04 18:50:03.368,-11.238126,2.101184,-92.10497,0.41978994,-0.050814003,-0.12647153,-1.192961,-3.215898,10.276554,0.06588639,-0.013771057,-7.5666428,-1.0930121,0.5144119,9.783474,2.0695217,-0.4304886,-1.1139069,0.0343007,0.45856476,3.5468063,-0.73671275,0.1064682,-3.2416267,1.6767095,-0.0046157837,-6.3215065,0.0020980835,0.16490936,2.2613869,-1.4642386,-0.077934265,-0.2508583,1.6890006,0.110054016,-6.9062347,0.07564545,-0.06778717,0.8306999,-1.1695218,0.38669586,-0.41443634,2.038343,0.044822693,0.57556915,0.0,0.0,0.0,0.0,0.0,0.0,0.0,0.0,0.0,0.0,0.0,0.0,-0.9593268,0.4925162,0.6841627,0.9619218,0.44882172,-0.994128,0.8204285,-0.9555556,-0.9540517,0.77909493,-0.23344918,0.94432765
2025-06-04 18:50:03.419,-9.952759,1.726506,-92.34572,0.59803265,-0.18575548,-0.09505937,-0.506711,-2.809431,9.87304,0.06733598,0.014228821,-7.541008,-1.0504401,0.9737778,9.300068,2.0408351,-0.6682968,-0.16296768,0.038649455,0.089149475,2.4310684,-0.72046214,0.20664215,-3.8702965,1.6786932,0.008659363,-6.58152,0.013999939,0.081596375,2.899826,-1.453939,0.20908356,-0.9039459,1.6963248,0.15102386,-7.455559,0.072898865,-0.019569397,0.6012039,-1.145184,0.3948593,-0.22156143,2.0395637,0.025749207,0.48767853,0.0,0.0,0.0,0.0,0.0,0.0,0.0,0.0,0.0,0.0,0.0,0.0,-0.9505754,0.5543698,0.54373646,0.96403253,0.44555435,-0.9926331,0.8571958,-0.949037,-0.95415807,0.65096456,-0.19542271,0.91617805
2025-06-04 18:50:03.473,-7.948375,0.845888,-92.41352,0.76921844,-0.3527546,-0.026101433,-0.176158,-2.024279,9.785497,0.06153764,-0.3371811,-5.170368,-0.9942877,1.6975021,4.662548,2.00368,-0.6167984,-0.31067276,0.04589738,0.22785187,1.4935532,-0.71023875,0.121040344,-3.6359215,1.6824316,0.14888763,-7.0063324,0.02040863,0.11165619,2.9913788,-1.4482169,0.008430481,-0.46570587,1.7060142,0.2729416,-8.046387,0.06717682,-0.045967102,0.2838173,-1.1224484,0.297966,-0.13977432,2.039411,-0.029792786,0.19226456,0.0,0.0,0.0,0.0,0.0,0.0,0.0,0.0,0.0,0.0,0.0,0.0,-0.9408881,0.6220143,0.36567277,0.9653548,0.4207166,-0.98990166,0.88165444,-0.94233114,-0.9508306,0.43829063,-0.12810774,0.877752
2025-06-04 18:50:03.526,-5.465302,-0.48135,-92.23315,1.0072601,-0.46297178,0.052483376,1.615124,-0.327342,8.495605,0.02773942,-1.0997391,-1.4300766,-0.9005225,2.582058,-0.41199493,1.9592006,-0.62015533,-0.26428604,0.06313981,0.5046463,-0.26672745,-0.71657115,-0.21770477,-2.2101173,1.6941046,0.4606247,-8.549324,0.0258255,0.25821686,2.2369728,-1.4501243,-0.09502411,0.37659454,1.7163138,0.13233185,-8.307621,0.05756378,0.02445221,-0.1715126,-1.0980344,0.23914337,0.13489151,2.0374274,-0.04512787,-0.005493164,0.0,0.0,0.0,0.0,0.0,0.0,0.0,0.0,0.0,0.0,0.0,0.0,-0.9243725,0.70873487,0.05885598,0.96607363,0.35151732,-0.9839717,0.9017249,-0.9340374,-0.9390299,0.05510107,-0.018400857,0.8146897
2025-06-04 18:50:03.579,-1.84556,-2.260618,-91.5851,1.1669418,-0.5766225,0.29603052,1.510286,0.760172,9.658792,-0.015519246,-0.709877,-0.6353874,-0.80637574,1.482811,-0.19104385,1.9106777,-0.8193588,-0.30334854,0.09777726,0.80142975,-3.4149704,-0.7489198,-0.8058548,-1.2677193,1.7108892,0.1947403,-8.460213,0.034980774,0.15140533,2.5323868,-1.463552,-0.19565582,1.7645531,1.7240958,0.10837555,-8.228275,0.03276825,-0.587883,0.65003586,-1.0640073,0.8470535,-0.83924484,2.0304847,-0.16986847,-0.060424805,0.0,0.0,0.0,0.0,0.0,0.0,0.0,0.0,0.0,0.0,0.0,0.0,-0.88842356,0.8239947,-0.44780853,0.9531556,0.16244547,-0.93159825,0.91596484,-0.9336512,-0.8871782,-0.5791683,0.11292007,0.5849343
2025-06-04 18:50:03.632,1.294525,-4.144906,-90.384895,0.7443611,-0.42327943,0.36828905,2.034891,0.590112,8.925136,-0.042985067,-0.4642868,-0.8587761,-0.72184205,1.1368179,0.32043839,1.8250759,-1.3565445,-0.10437012,0.12867631,-0.16345978,-2.4213028,-0.79736644,-0.643425,-1.8744164,1.7217993,0.26355743,-8.733654,0.031089783,-0.22830963,3.9264526,-1.4819388,-0.46360016,2.6398125,1.7273765,-0.037574768,-7.3701057,-0.004005432,0.279274,-2.4481583,-1.0202146,0.19527435,2.3199806,2.01164,0.2109909,-3.3014412,0.0,0.0,0.0,0.0,0.0,0.0,0.0,0.0,0.0,0.0,0.0,0.0,-0.683362,0.9011236,-0.88078856,0.9173636,-0.35079506,0.06533209,0.8578564,-0.94033295,-0.47917897,-0.93658334,-0.16485065,-0.5460273
2025-06-04 18:50:03.685,1.964863,-4.170045,-89.79325,-0.33312452,0.61144865,0.07192924,2.516143,2.267588,5.437038,-0.056717977,0.2868271,-0.8929596,-0.6581366,1.0334396,-0.040893555,1.7281063,-1.6110611,-0.26062393,0.115630046,-0.5865097,0.21912003,-0.88151866,-1.7053604,-6.101776,1.7911505,1.086998,-3.9057007,0.022392273,-0.23571014,3.843441,-1.4756064,0.11264801,0.07751465,1.727529,-0.12584686,-2.1588478,-0.025749207,-0.6605911,-0.84046555,-1.0234189,0.34992218,-3.5699997,1.9830297,-0.29514313,-13.542076,0.0,0.0,0.0,0.0,0.0,0.0,0.0,0.0,0.0,0.0,0.0,0.0,0.30903393,0.74306315,-0.95343596,0.609138,-0.72842085,0.9702567,0.5956403,-0.96957916,0.53613937,-0.959308,-0.76843345,-0.97652495
2025-06-04 18:50:03.737,1.374159,-2.948475,-89.588844,0.07238311,0.0066092303,0.28178504,-1.976839,0.836759,15.903625,-0.0488597,0.6560135,1.6730003,-0.66744447,-0.08029938,2.498207,1.7265041,0.28461456,-9.092546,0.09091081,-0.32779694,0.83436203,-1.0425752,-2.6442375,-1.7145042,1.891477,1.6743088,0.64637375,0.03353119,0.6353378,-1.0357819,-1.4788108,0.1228714,0.42542267,1.7936759,1.2479782,1.0589752,-0.032691956,-0.14736176,-2.4847794,-1.0685086,-0.8798599,-9.881134,1.9794439,0.011024475,-19.77264,0.0,0.0,0.0,0.0,0.0,0.0,0.0,0.0,0.0,0.0,0.0,0.0,0.92725897,0.37470487,-0.9665722,-0.17078927,-0.5579057,0.9955548,-0.20500617,-0.9729288,0.85409665,-0.9398767,-0.8589069,-0.9934805
2025-06-04 18:50:03.789,0.93377,-3.717573,-88.23918,-0.2919567,-0.6156111,0.58764493,0.907067,1.514959,10.142316,-0.017350301,0.31917572,3.09758,-0.7177985,-1.0118484,-1.3214302,1.720782,-0.500679,-6.3508034,0.042540446,-0.88970184,0.7367058,-1.1404604,-1.132164,-0.87953186,1.9558691,1.1009598,0.6341667,0.021324158,-0.4856491,-0.28015518,-1.4721732,0.17917633,-0.46204376,1.87882,1.5353012,0.19592667,-0.050621033,-0.46466827,-0.5645828,-1.1417508,-1.6581345,-4.865185,1.9757818,-0.0699234,-19.239185,0.0,0.0,0.0,0.0,0.0,0.0,0.0,0.0,0.0,0.0,0.0,0.0,0.9530035,0.4243313,-0.80108756,-0.52753913,-0.0034931807,0.9941381,-0.77829546,-0.9547145,0.7613064,-0.8514007,-0.8896376,-0.9910449
2025-06-04 18:50:03.842,-0.515911,-5.5117,-86.50215,-0.4361037,-0.43582773,0.5745137,2.42477,2.0954,8.861562,0.0020283607,0.4517746,2.0550842,-0.7550299,-0.9308243,1.3324165,1.7157466,-0.04940033,-5.5756454,0.0017231848,-0.71071625,0.44495392,-1.096744,1.0404587,-0.49500275,1.9945501,0.478096,0.44373322,-0.0075912476,-0.64243317,-1.3177681,-1.4614158,0.20580292,-0.75745773,1.9265037,0.7226944,0.25574112,-0.06679535,-0.08846283,0.08728027,-1.2145352,-1.2487411,-3.9227905,1.9550298,-0.5363846,-16.697643,0.0,0.0,0.0,0.0,0.0,0.0,0.0,0.0,0.0,0.0,0.0,0.0,0.81037486,0.36592716,-0.07008167,-0.5012591,0.47166526,0.95536536,-0.86399025,-0.95284617,0.063649654,-0.71779096,-0.93241566,-0.98012245
2025-06-04 18:50:03.896,-1.861948,-6.085554,-84.888794,-0.63199204,0.018387847,0.541709,1.995953,1.350042,6.399037,0.027052775,0.4453659,0.5084305,-0.80492616,-1.1145401,3.7482262,1.760226,0.89710236,-3.6774254,-0.025742635,-0.48854828,0.49378204,-0.9729951,2.4152794,-0.43030548,2.0127082,0.35884857,0.6243973,-0.03414154,-0.32642365,-1.1114655,-1.4553123,0.00957489,-0.5841141,1.8942313,-0.7830429,-0.072631836,-0.0749588,-0.11356354,0.26306534,-1.2651181,-0.7645035,-4.5795364,1.9194769,-0.5790329,-14.439308,0.0,0.0,0.0,0.0,0.0,0.0,0.0,0.0,0.0,0.0,0.0,0.0,0.50336856,-0.08781566,0.63507557,0.17426468,0.8381745,-0.35759127,-0.7855109,-0.9470202,-0.82844746,-0.20218353,-0.97168446,-0.92336464
2025-06-04 18:50:03.950,-3.499166,-5.470139,-83.08677,-0.36064363,0.6058863,0.5546907,5.753424,-1.911276,6.836691,0.060698405,0.67806244,-3.6041794,-0.8909857,-1.3389206,-0.9845123,1.8623836,1.999321,-3.3929977,-0.017197713,0.22579193,1.0589752,-0.8245271,2.5188103,-0.12023926,1.9123815,-2.2335472,-0.0030517578,-0.049476624,0.037269592,-1.2176704,-1.4495139,0.15850067,-0.7537956,1.8434196,-0.692482,-8.885023,-0.06938934,-0.015983582,1.5826645,-1.298306,-0.37418365,-5.2558174,1.8785833,-0.8310318,-10.275425,0.0,0.0,0.0,0.0,0.0,0.0,0.0,0.0,0.0,0.0,0.0,0.0,-0.28167254,-0.64575386,0.8524821,0.92483115,0.8880561,-0.9965665,-0.8076999,-0.8931139,-0.83688265,0.9485084,-0.9580027,0.08543831
2025-06-04 18:50:04.003,-4.450153,-3.637515,-81.96789,-0.23543154,0.66135365,0.19981168,2.974342,-5.509059,5.379402,0.07542314,-0.024147034,-5.0543976,-1.0258734,-2.3890343,-2.3126564,1.9798763,2.3978844,-8.297855,0.017210856,0.53302765,0.45471954,-0.71657115,1.4029312,-0.044555664,1.7659734,-2.1695366,-0.3314247,-0.051765442,-0.045967102,-1.2286568,-1.4625602,-0.54584503,3.231861,1.803823,-0.73841095,-6.929428,-0.016365051,1.0673904,0.6292839,-1.350491,-0.9075546,-0.4327469,1.8594335,-0.29193878,-0.30823135,0.0,0.0,0.0,0.0,0.0,0.0,0.0,0.0,0.0,0.0,0.0,0.0,-0.9303326,-0.521837,0.95697236,0.9602204,0.7263993,-0.9983218,-0.80397105,-0.9310862,-0.88708127,0.99548674,-0.90160286,0.86463976
2025-06-04 18:50:04.055,-6.303696,-1.408813,-81.93524,-1.0117296,0.32140172,-0.032009043,-5.220918,0.568695,18.575321,0.049254313,-0.43216705,-4.9237823,-1.1237586,-1.5732956,0.76356125,2.058688,0.40546417,-2.3663673,0.023695841,-0.245018,5.524376,-0.7648652,-0.77518463,8.454109,1.7713903,3.8146973e-05,-10.493935,-0.06931305,-0.4807663,0.8905182,-1.4930778,-0.27713776,3.2831306,1.7589622,-1.2269974,-3.819027,0.021018982,0.86063385,0.8270378,-1.3784909,-0.374794,-0.45349884,1.9110082,1.2678146,0.37659454,0.0,0.0,0.0,0.0,0.0,0.0,0.0,0.0,0.0,0.0,0.0,0.0,-0.9726424,-0.3155931,0.96056443,0.9649966,0.6532315,-0.99633753,-0.61621964,-0.9482138,-0.85484856,0.9890183,-0.7244949,0.940855
2025-06-04 18:50:04.108,-7.958684,-0.294019,-81.7087,-0.6005516,0.23073117,0.116598584,-2.89267,0.838024,8.043613,0.0343007,-0.48915863,-5.183796,-1.1523688,-0.38265228,1.7438011,2.0637233,3.8146973e-05,-0.5951004,0.009047404,-0.087394714,4.2218666,-0.7917207,-0.2802658,5.8381004,1.7476629,-0.61489105,-6.5839615,-0.076942444,-0.123939514,1.3299751,-1.4881186,0.07709503,0.6292839,1.7096763,-0.62374115,-3.2745857,0.049552917,0.2817154,0.895401,-1.3683438,0.32024384,-0.8209343,1.9631933,0.85285187,0.17761612,0.0,0.0,0.0,0.0,0.0,0.0,0.0,0.0,0.0,0.0,0.0,0.0,-0.9748311,-0.18081187,0.950683,0.9607545,0.59309125,-0.9952232,-0.3328362,-0.9491617,-0.8609846,0.98204345,-0.600494,0.9556315
2025-06-04 18:50:04.160,-9.576406,0.562493,-81.52316,-0.49333522,0.22630759,0.028185548,-2.462096,-1.692776,9.501559,0.03353776,0.010032654,-6.482643,-1.1631262,-0.13393402,4.285343,2.0721157,0.27080536,-2.0856018,0.012175456,0.14621735,3.5211716,-0.79347545,0.19435883,2.9108124,1.7220281,-0.45886993,-6.2397194,-0.071144104,0.25951385,0.39124298,-1.4864402,0.042762756,1.0662994,1.6946464,-0.021858215,-5.4511337,0.066337585,0.15293121,0.98695374,-1.3337827,0.7110214,-0.3216591,1.9972204,0.49404144,0.38880157,0.0,0.0,0.0,0.0,0.0,0.0,0.0,0.0,0.0,0.0,0.0,0.0,-0.9741973,-0.02594757,0.93335986,0.9542512,0.53900063,-0.9942508,0.050691918,-0.95165133,-0.8814039,0.97056675,-0.48058712,0.961587
2025-06-04 18:50:04.212,-10.928691,1.33248,-81.626495,-0.2819273,0.19854775,-0.053710204,-1.205955,-3.229683,9.925024,0.040022746,0.16742706,-7.5019455,-1.158396,0.16674042,6.0956726,2.0827968,0.067481995,-2.002594,0.01805009,0.32047272,3.2440681,-0.7789796,0.21442413,0.30090714,1.6999792,-0.48664093,-5.56588,-0.052452087,0.20687103,0.9259186,-1.4828544,0.13088226,0.68055344,1.6946464,0.015602112,-5.9272156,0.074653625,0.1618576,0.68055344,-1.290524,0.838356,-0.18738174,2.017362,0.3117752,0.54261017,0.0,0.0,0.0,0.0,0.0,0.0,0.0,0.0,0.0,0.0,0.0,0.0,-0.9702302,0.1527134,0.89626575,0.9527697,0.48230013,-0.9942731,0.44020256,-0.9522839,-0.91700506,0.9460379,-0.3988324,0.9625668
2025-06-04 18:50:04.265,-11.457915,1.766524,-81.97893,0.04937395,0.13850197,-0.14167932,-1.06624,-3.523107,9.625397,0.04826249,0.0333786,-7.471428,-1.1378729,0.5524063,8.136723,2.0835598,-0.039482117,-1.9147034,0.02384843,-0.296669,4.269474,-0.76204234,0.7242203,-1.498436,1.6854833,-0.20259857,-5.783169,-0.025596619,0.71582794,1.1932564,-1.4754539,0.15254974,-0.049438477,1.6946464,-0.007209778,-6.2311745,0.0774765,-0.012168884,0.9649811,-1.2488675,0.46001434,-0.26550674,2.0282722,0.080451965,0.5658035,0.0,0.0,0.0,0.0,0.0,0.0,0.0,0.0,0.0,0.0,0.0,0.0,-0.9576622,0.28793266,0.80482674,0.955691,0.47882864,-0.9942614,0.6747886,-0.94682163,-0.9377927,0.8995089,-0.39772344,0.94679457
2025-06-04 18:50:04.317,-11.122608,2.012456,-82.42153,0.30019456,0.04943809,-0.120269045,-1.082987,-3.322326,9.942159,0.055281535,0.10410309,-7.365223,-1.1115515,0.6016159,8.788586,2.0744045,-0.19641876,-1.9525452,0.032622233,1.0808945,2.859539,-0.74304515,0.16414642,-2.9584198,1.6814398,-0.023460388,-6.289768,-0.0024032593,0.40317535,1.2945747,-1.4654593,-0.016212463,-0.2899208,1.6950278,0.025367737,-6.5668716,0.0774765,0.022239685,0.83802414,-1.2215543,0.39791107,-0.30701065,2.0333838,0.12805939,0.5914383,0.0,0.0,0.0,0.0,0.0,0.0,0.0,0.0,0.0,0.0,0.0,0.0,-0.95016146,0.41146904,0.68561053,0.9572104,0.4628339,-0.99363744,0.78327394,-0.94611704,-0.94618934,0.83921003,-0.344538,0.93233794
2025-06-04 18:50:04.370,-10.215188,1.953294,-82.74627,0.48658046,-0.09444142,-0.11394333,-1.101228,-3.027329,10.226545,0.058257,0.015602112,-7.445793,-1.0757697,0.6270218,9.065689,2.051669,-0.58582306,-0.895401,0.03742875,0.27202606,2.0489807,-0.72648937,0.23830414,-3.400322,1.6814398,0.0090408325,-6.496071,0.014533997,0.12477875,2.5018692,-1.4530997,0.14698029,-0.7367058,1.6973166,0.08075714,-7.061264,0.07564545,-0.0048446655,0.7379265,-1.1970639,0.4454422,-0.42176056,2.034452,0.023384094,0.5511551,0.0,0.0,0.0,0.0,0.0,0.0,0.0,0.0,0.0,0.0,0.0,0.0,-0.9379812,0.49432063,0.52387637,0.9574243,0.46689436,-0.99161255,0.83658963,-0.94002795,-0.9462913,0.7512416,-0.31063676,0.89604586
2025-06-04 18:50:04.423,-8.593009,1.326841,-82.90057,0.65955645,-0.29774228,-0.052616596,-0.524499,-2.526847,9.906827,0.059172526,0.021247864,-7.122299,-1.0339606,0.64273834,8.693371,2.0129116,-0.8459854,-0.29602432,0.04299821,0.11104584,2.0282288,-0.7146638,0.13874054,-3.330738,1.6818975,-0.0014877319,-6.438698,0.0233078,0.11318207,2.581215,-1.4450889,0.1870346,-0.67933273,1.7032676,0.105781555,-7.619133,0.07190704,-0.010643005,0.7818718,-1.1751676,0.39958954,-0.44983673,2.034223,-0.02544403,0.20447159,0.0,0.0,0.0,0.0,0.0,0.0,0.0,0.0,0.0,0.0,0.0,0.0,-0.92449135,0.564801,0.3280347,0.9560336,0.45068482,-0.9877434,0.86685735,-0.9309936,-0.94206595,0.61958545,-0.25909638,0.83659375
2025-06-04 18:50:04.479,-6.648697,0.378425,-82.813515,0.7890547,-0.39404008,0.027488273,-0.381445,-1.943975,9.807345,0.058714762,-0.088386536,-6.9367523,-0.98909974,0.79143524,7.8474083,1.9640834,-0.81279755,-0.02746582,0.0494069,0.1506424,1.5960922,-0.708484,0.009727478,-3.4894333,1.6842626,0.06298065,-6.7231255,0.024909973,-0.018424988,3.0817108,-1.4398246,0.11928558,-0.5511551,1.7106681,0.16277313,-7.909668,0.06465912,-0.12882233,0.6573601,-1.152432,0.31734467,-0.119018555,2.0304084,-0.059013367,-0.10803223,0.0,0.0,0.0,0.0,0.0,0.0,0.0,0.0,0.0,0.0,0.0,0.0,-0.90578187,0.6402035,0.077760145,0.9508928,0.4059507,-0.9791178,0.8859212,-0.9195016,-0.9328301,0.39596745,-0.19061087,0.7409929
2025-06-04 18:50:04.536,-3.542066,-1.369081,-82.52544,1.0660397,-0.5188893,0.064078316,1.004232,-0.55044,8.394333,0.03369035,-0.91999054,-1.1334419,-0.8991492,2.019085,-0.0018310547,1.904269,-0.8735275,0.27649307,0.06466569,0.4027176,-0.18249893,-0.71641856,-0.25287628,-2.793621,1.693952,0.378685,-8.369877,0.025901794,0.068626404,2.6727715,-1.4405875,-0.17292023,0.1312294,1.7196708,0.23456573,-8.501717,0.05306244,-0.14324188,0.18005753,-1.1261868,0.47336578,-0.547493,2.0194983,-0.22678375,-0.2899208,0.0,0.0,0.0,0.0,0.0,0.0,0.0,0.0,0.0,0.0,0.0,0.0,-0.8697099,0.7345648,-0.29159495,0.94608635,0.2961648,-0.9546069,0.8964428,-0.9087477,-0.9052252,-0.021690598,-0.09282518,0.5613946
2025-06-04 18:50:04.590,0.674688,-3.5499,-81.87641,1.3221142,-0.7019148,0.29859886,1.803433,0.414912,9.791178,-0.014756307,-0.6959152,-0.9820709,-0.7889807,1.6889572,-0.31555557,1.8349941,-1.1782455,-0.119018555,0.10029496,0.5855942,-3.2098885,-0.7554048,-0.49922943,-1.2701607,1.7148565,0.24852753,-8.529793,0.032844543,-0.026817322,2.8375664,-1.4549308,-0.40569305,3.023117,1.7274528,0.17940521,-8.401617,0.027503967,-0.06214142,-0.11413574,-1.0943723,0.13523102,0.60852814,1.99661,0.4240036,-2.6410332,0.0,0.0,0.0,0.0,0.0,0.0,0.0,0.0,0.0,0.0,0.0,0.0,-0.7767747,0.82793885,-0.70553946,0.9147579,-0.047634024,-0.6706271,0.86594665,-0.91222507,-0.75976104,-0.66050017,-0.10258195,-0.0717059
2025-06-04 18:50:04.644,2.763093,-4.532765,-81.08309,0.076500796,0.24775633,0.16578811,2.755813,2.745702,7.167335,-0.040467367,-0.15659332,-1.1078033,-0.71154237,0.922966,0.27771378,1.750613,-1.4634323,-0.016479492,0.10037126,0.04512787,0.5951004,-0.7887452,-0.1190567,-9.420921,1.7402624,0.33039093,-6.2958717,0.02254486,-0.30330658,4.0595093,-1.4480643,0.36197662,-1.2335396,1.7221122,-0.2627945,-4.302433,0.005378723,-0.2110672,-1.1554146,-1.0888791,0.3130722,1.0357819,1.9925665,-0.15018463,-8.896011,0.0,0.0,0.0,0.0,0.0,0.0,0.0,0.0,0.0,0.0,0.0,0.0,-0.26853496,0.80209464,-0.90548104,0.7636261,-0.51372546,0.7663295,0.6928947,-0.92772543,0.016646557,-0.90211487,-0.5349632,-0.884433
2025-06-04 18:50:04.697,2.262818,-3.689462,-80.978325,-0.8607057,0.816289,0.010259325,1.785941,1.752233,5.529077,-0.048935995,-0.5321121,3.08049,-0.6707251,0.35915375,0.5951004,1.698962,0.74962616,-9.295185,0.084731,0.42446136,-0.61951447,-0.9291261,-3.2858696,-0.95277405,1.843717,1.7274857,0.128788,0.024909973,0.25074005,0.41931915,-1.4467673,-0.06717682,0.35705948,1.7480521,0.3847885,0.79529953,-0.020713806,-0.20069122,-2.072174,-1.106503,0.093421936,-7.2602425,1.9715856,-0.1783371,-17.30312,0.0,0.0,0.0,0.0,0.0,0.0,0.0,0.0,0.0,0.0,0.0,0.0,0.72843635,0.43259844,-0.9582121,0.10444914,-0.6637993,0.98807436,0.25624847,-0.97681403,0.71961486,-0.9530549,-0.8417263,-0.9894626
2025-06-04 18:50:04.748,1.9808,-2.923565,-80.64625,-0.06041705,-0.23059085,0.33961776,0.558645,1.283094,12.942052,-0.034821615,0.15460968,3.0902557,-0.71413636,-0.5376816,-0.29480362,1.7216976,-0.008506775,-8.003662,0.048491374,-0.72460175,1.3446236,-1.0840029,-2.1885338,-0.0982666,1.9250463,1.1732864,1.1236725,0.030021667,-0.12210846,-0.115356445,-1.4520316,0.107688904,-1.4630356,1.8318992,1.727562,-0.06286621,-0.023536682,-0.103645325,-2.3651466,-1.1544919,-1.0725021,-6.094452,1.97273,0.024681091,-19.573662,0.0,0.0,0.0,0.0,0.0,0.0,0.0,0.0,0.0,0.0,0.0,0.0,0.9464019,0.32732525,-0.9321286,-0.4621988,-0.2514378,0.99482095,-0.63868356,-0.9617459,0.8514968,-0.870389,-0.8624038,-0.99305856
2025-06-04 18:50:04.799,1.050594,-4.178208,-79.59389,-0.38558903,-0.5028739,0.4346411,1.823899,1.995297,9.317894,-0.017808065,0.43888092,3.1268806,-0.75976014,-0.7304001,-0.15564346,1.7173488,-0.17246246,-6.475319,0.008437052,-0.634346,0.45471954,-1.1058992,0.022773743,-0.665905,1.9742559,0.82660675,0.7940788,0.0049209595,-0.5347824,-1.3507271,-1.4503531,0.06984711,-0.88075256,1.9027762,1.039238,0.3997879,-0.039482117,-0.2679062,-1.2884712,-1.2185025,-1.1138535,-3.1854744,1.9583868,-0.38837433,-17.099258,0.0,0.0,0.0,0.0,0.0,0.0,0.0,0.0,0.0,0.0,0.0,0.0,0.87788033,0.39283422,-0.5007458,-0.60340095,0.32486314,0.9836962,-0.88279027,-0.9496809,0.5731031,-0.7035386,-0.8996753,-0.9857015
2025-06-04 18:50:04.850,-0.180798,-5.178019,-78.21881,-0.31389406,-0.15750286,0.4909036,1.676616,1.676774,8.107154,0.0018757727,0.85567474,1.8487816,-0.79737306,-0.8613968,3.1207733,1.7323787,0.35655975,-4.448921,-0.024064168,-0.40431976,0.46082306,-1.0120577,1.617012,-0.6353874,2.004087,0.38150787,0.75867844,-0.024986267,-0.501976,-0.6610222,-1.447454,0.15865326,-0.9723053,1.9239097,0.1481247,0.33386612,-0.04840851,-0.09098053,-0.92836,-1.2704587,-1.0563278,-3.0743866,1.924436,-0.6812668,-14.574806,0.0,0.0,0.0,0.0,0.0,0.0,0.0,0.0,0.0,0.0,0.0,0.0,0.5437087,0.21737772,0.3323747,-0.36989367,0.68124634,0.6336266,-0.84812355,-0.9533264,-0.5108039,-0.44210005,-0.9492442,-0.9621036
2025-06-04 18:50:04.901,-1.503716,-5.016287,-76.671646,-0.7579482,0.2642353,0.570065,1.79381,1.664753,5.460435,0.022017375,0.26447296,0.31189346,-0.85657716,-1.161232,3.6200485,1.8095119,1.690712,-4.2597084,-0.034974203,-0.090065,0.119018555,-0.879535,2.317318,-0.1336708,1.9931768,-0.21923065,-0.061645508,-0.045661926,-0.14438629,-0.83924484,-1.4476829,-0.08708954,-0.19226456,1.8336539,-1.7586899,0.07019043,-0.053367615,-0.20198822,1.0382233,-1.3063169,-0.6911087,-3.9752808,1.886289,-0.6145859,-12.478828,0.0,0.0,0.0,0.0,0.0,0.0,0.0,0.0,0.0,0.0,0.0,0.0,0.24451935,-0.3979231,0.70598733,0.61775863,0.93380934,-0.9505857,-0.7517116,-0.93207496,-0.8857962,0.59010154,-0.98010767,-0.76372576
2025-06-04 18:50:04.952,-2.706143,-3.984503,-75.24713,0.01614208,0.67967904,0.3163775,5.111908,-3.047877,7.907073,0.053145304,1.2899399,-3.372242,-0.9645331,-2.018856,-1.7169456,1.9180019,2.0473137,-5.7257957,-0.0049143885,0.4909134,1.137104,-0.74930125,2.2068443,-0.026245117,1.8353246,-3.0115166,0.2838173,-0.050621033,0.5222702,-3.1549568,-1.4482169,-0.18009186,0.46570587,1.7920737,-0.6583786,-7.340809,-0.030784607,0.4870987,1.8036156,-1.336987,-0.35022736,-3.7579918,1.859815,-0.69797516,-8.853283,0.0,0.0,0.0,0.0,0.0,0.0,0.0,0.0,0.0,0.0,0.0,0.0,-0.7829014,-0.6363839,0.9123817,0.9498351,0.79501367,-0.99854165,-0.8193207,-0.90857387,-0.8334182,0.9948689,-0.94250846,0.63762724
2025-06-04 18:50:05.003,-3.978506,-2.1594,-75.0412,-1.4715805,0.34496912,-0.11014834,-3.65445,-1.489434,17.802279,0.041167155,-0.7481003,-4.179142,-1.083399,-1.7560959,-1.5057602,2.020007,1.2996292,-4.7394524,0.018507853,-0.4556656,4.6564445,-0.75578624,-0.5811691,10.543983,1.7956518,0.014762878,-11.563286,-0.05634308,-0.107307434,0.02746582,-1.4814048,-0.46588898,4.7748528,1.7637687,-0.49983978,-5.752651,0.005836487,0.824852,1.0589752,-1.370709,-0.52654266,-1.1212311,1.8924688,0.7465744,0.252079,0.0,0.0,0.0,0.0,0.0,0.0,0.0,0.0,0.0,0.0,0.0,0.0,-0.9619428,-0.40302157,0.9562198,0.95916593,0.6951053,-0.99642456,-0.6344663,-0.9398056,-0.86599815,0.9910471,-0.805671,0.90656745
2025-06-04 18:50:05.055,-6.724938,-0.625063,-74.95144,-0.97519195,0.3410638,0.14372058,-2.658664,0.691663,10.235096,0.026976481,-0.3255844,-5.216755,-1.128794,-0.6697464,0.14465714,2.051974,0.31864166,-1.5094223,0.0050801183,0.0346756,5.0910187,-0.7837861,-0.22533417,6.3056374,1.7748235,-0.8713913,-7.339588,-0.06374359,-0.040168762,0.7940788,-1.4864402,-0.23860931,1.477684,1.7243247,-0.62397003,-3.9801636,0.039711,0.57582855,0.60852814,-1.3772702,0.032691956,-0.69153976,1.9437383,0.95912933,0.2459755,0.0,0.0,0.0,0.0,0.0,0.0,0.0,0.0,0.0,0.0,0.0,0.0,-0.97107524,-0.24354778,0.9493327,0.95646304,0.6415261,-0.994537,-0.3441692,-0.9445394,-0.86711645,0.98287505,-0.6772513,0.93500835
2025-06-04 18:50:05.105,-9.159023,0.387637,-74.601944,-0.71923625,0.25206152,0.06612782,-2.05991,-1.562938,9.390115,0.0267476,-0.004386902,-6.229954,-1.1476386,-0.22449493,3.0914764,2.068301,0.33611298,-2.1795998,0.005232706,0.08640289,4.1730385,-0.78729564,0.1669693,3.9215698,1.7369817,-0.63640594,-6.31052,-0.062065125,0.091285706,0.9051666,-1.4853721,-0.012779236,1.4154282,1.7027335,-0.19962311,-4.994583,0.060081482,0.2387619,0.54016876,-1.3557553,0.21282196,-0.37170792,1.9826483,0.5021286,0.41931915,0.0,0.0,0.0,0.0,0.0,0.0,0.0,0.0,0.0,0.0,0.0,0.0,-0.9684907,-0.0937863,0.92560357,0.9514001,0.5777085,-0.993965,0.02112448,-0.94155264,-0.8809478,0.9727398,-0.58007586,0.943827
2025-06-04 18:50:05.156,-10.993849,1.237494,-74.62836,-0.4907296,0.25126472,-0.015075211,-1.534165,-3.121555,9.720065,0.033079997,0.21015167,-7.1772346,-1.1516058,0.013008118,4.9897003,2.0833309,0.24799347,-2.57267,0.010802165,0.16796112,3.4772263,-0.77592784,0.32733917,0.5230789,1.706159,-0.48427582,-5.0592804,-0.04436493,0.5624771,0.6598015,-1.4831595,0.087013245,1.0565338,1.6968589,-0.09250641,-5.6525536,0.07129669,0.20526886,0.6732292,-1.3232541,0.37960052,-0.34363174,2.0063758,0.36273956,0.25818253,0.0,0.0,0.0,0.0,0.0,0.0,0.0,0.0,0.0,0.0,0.0,0.0,-0.9618199,0.06842136,0.88212854,0.94791776,0.5267448,-0.9936336,0.39229602,-0.9399487,-0.90787524,0.9537801,-0.51229835,0.94317067
2025-06-04 18:50:05.208,-12.123605,1.875874,-74.88961,-0.16868979,0.15136248,-0.111624464,-1.296998,-3.967236,9.67378,0.042311564,0.24044037,-7.1369514,-1.1432898,0.10410309,7.4226,2.089053,0.016365051,-2.6288261,0.018278971,0.021400452,2.5091934,-0.75929576,0.18230438,-1.4520493,1.6823553,-0.34488678,-4.827343,-0.019950867,0.47992706,1.2384224,-1.4772849,0.31719208,0.40711212,1.6950278,-0.008506775,-6.105438,0.076560974,-0.004234314,0.7855339,-1.2910581,0.6548691,-0.092163086,2.0201087,0.23174286,0.42664337,0.0,0.0,0.0,0.0,0.0,0.0,0.0,0.0,0.0,0.0,0.0,0.0,-0.94934523,0.2372692,0.7864312,0.94813746,0.49373114,-0.99368364,0.64453614,-0.9385121,-0.93012804,0.9203941,-0.47156358,0.93345326
2025-06-04 18:50:05.258,-12.40708,2.186391,-75.33269,0.12669136,0.10756354,-0.13316296,-1.305976,-3.890928,9.18676,0.051390544,0.115242004,-7.4531174,-1.1222327,0.4414749,8.329594,2.0858486,-0.14072418,-3.1122284,0.02445878,-0.90847015,3.2562752,-0.74052745,0.4263687,-2.4420547,1.6696905,-0.15132904,-5.291218,0.0061416626,0.16513824,0.8538933,-1.4704185,0.18695831,0.26428604,1.6949515,-0.018043518,-6.4362564,0.07778168,0.0019454956,0.8526726,-1.2625241,0.38547516,-0.3241005,2.0270514,0.07205963,0.58045197,0.0,0.0,0.0,0.0,0.0,0.0,0.0,0.0,0.0,0.0,0.0,0.0,-0.9289718,0.3546827,0.61549324,0.94984597,0.49903935,-0.9926069,0.7627426,-0.93105084,-0.9360677,0.8697437,-0.46582758,0.8951802
2025-06-04 18:50:05.310,-11.862144,2.303617,-75.70628,0.42748895,-0.03584449,-0.115127586,-1.208309,-3.867024,10.202358,0.057417765,0.13057709,-7.3578987,-1.0923254,0.72818756,9.214619,2.0676143,-0.34053802,-2.694744,0.033003703,0.25318146,2.9584198,-0.72290355,0.2777481,-3.499199,1.6665624,-0.10486603,-5.507286,0.0258255,0.36136627,1.3629341,-1.4587455,0.114860535,-0.35461807,1.6955619,0.020637512,-6.590065,0.07686615,-0.07259369,0.91004944,-1.2437558,0.48343658,-0.38391876,2.0281959,0.028038025,0.43152618,0.0,0.0,0.0,0.0,0.0,0.0,0.0,0.0,0.0,0.0,0.0,0.0,-0.4651073,0.09947556,-0.16270475,0.9811888,0.8804952,-0.9803868,0.7235572,-0.74624604,-0.5742742,0.68524575,-0.638616,0.67131156
2025-06-04 18:50:05.360,-10.25849,1.655736,-76.06607,0.7874904,-0.3644638,-0.22958702,-2.163514,-3.944202,10.397621,0.06680192,0.05290985,-6.167698,-1.067301,0.862236,1.6974144,2.0098598,-1.219368,-6.261692,0.041548625,0.056648254,1.6961937,-0.68612987,0.41477203,3.1085663,1.6571783,-0.22953033,-4.1681557,0.040397644,0.48000336,0.14099503,-1.440969,0.21137238,2.9962616,1.7044883,0.0863266,-2.8851776,0.07015228,-0.21503448,0.80628586,-1.260159,-0.47733307,-0.7757683,2.0119452,-0.24524689,-0.17883682,0.0,0.0,0.0,0.0,0.0,0.0,0.0,0.0,0.0,0.0,0.0,0.0,-0.32857573,0.1390412,-0.50734675,0.976601,0.8861138,-0.9410875,0.6646366,-0.6201701,-0.48707798,0.6056056,-0.6935756,-0.06572088
2025-06-04 18:50:05.411,-7.941231,0.624134,-76.88437,0.9951038,-0.32849956,-0.31707558,-1.296377,-2.792997,8.637147,0.06779374,0.05908966,-4.732128,-1.0196936,1.0454178,-0.42176056,1.9409664,-1.1273575,-7.2272835,0.043684855,0.42461395,2.298008,-0.65721446,0.32238007,1.4459457,1.650617,-0.10334015,-4.101013,0.060920715,0.39524078,-1.3958969,-1.4245658,0.27935028,4.068054,1.7074637,0.016212463,-2.011139,0.062828064,-0.05466461,0.6243973,-1.2825131,-0.22731781,-0.46936798,1.9321417,-1.4735031,0.006713867,0.0,0.0,0.0,0.0,0.0,0.0,0.0,0.0,0.0,0.0,0.0,0.0,-0.18318138,-0.02357913,-0.5891911,0.95101035,0.8858956,-0.9215701,0.5029338,-0.68930817,-0.34482715,0.857569,-0.7875672,-0.27706358
2025-06-04 18:50:05.463,-5.466728,-0.631984,-77.4866,0.8789744,-0.53702366,-0.17583464,0.582127,-1.699243,7.496579,0.06909074,0.14667511,-4.035095,-0.98528504,0.52791595,-4.090027,1.8813808,-1.1377335,-6.2397194,0.041014567,-0.028419495,2.1380959,-0.63463145,0.15705109,1.5838852,1.6497015,0.048332214,-4.274357,0.06946564,0.043067932,-0.8526726,-1.4244132,-0.05290985,4.5539017,1.7276053,0.57445526,-3.1598396,0.06755829,0.14019012,0.35461807,-1.3159299,-0.5662155,-0.07507324,1.854627,-1.2282181,-0.22644424,0.0,0.0,0.0,0.0,0.0,0.0,0.0,0.0,0.0,0.0,0.0,0.0,-0.16307189,-0.12906256,-0.5372907,0.93125665,0.91542727,-0.9479469,0.39159438,-0.7712151,-0.2902562,0.95785487,-0.8575486,-0.24550438
2025-06-04 18:50:05.513,-2.876558,-2.286649,-77.64341,0.8907903,-0.62865424,0.013714116,0.521663,-0.109391,9.120823,0.0632924,-0.13942719,-3.0914764,-0.9710181,0.07198334,-4.290226,1.8346126,-0.92746735,-4.1779213,0.04086198,0.08396149,2.0904846,-0.6262391,0.061454773,2.621498,1.6572546,0.43849945,-6.187229,0.06465912,-0.10547638,-0.37781525,-1.4411979,-0.35404205,4.8053703,1.7590384,0.5196762,-4.490425,0.073890686,0.222435,0.72327805,-1.3483548,-0.42629242,-0.49134064,1.8083166,-0.68065643,-0.30456924,0.0,0.0,0.0,0.0,0.0,0.0,0.0,0.0,0.0,0.0,0.0,0.0,-0.24479744,-0.19393496,-0.43309125,0.93108034,0.92932,-0.964028,0.38155082,-0.8044468,-0.29463518,0.97224736,-0.87573445,-0.13857777
2025-06-04 18:50:05.565,-0.139132,-3.633191,-77.24256,0.5571545,-0.07840879,0.26728585,1.483417,3.373952,10.253201,0.040175334,-0.0409317,-1.6607933,-0.99253297,-0.14850616,-3.5785446,1.7947872,-0.6039047,-2.3968887,0.044829264,-0.15254974,2.4359512,-0.6135743,0.5778885,0.76234055,1.673963,0.2525711,-6.720684,0.05466461,-0.26882172,0.3253212,-1.4361625,0.6519699,-0.05432129,1.786428,0.25859833,-3.9264526,0.07518768,-0.18390656,1.9745178,-1.3691068,-0.15026093,-1.5619125,1.8305181,0.88703156,-7.1662483,0.0,0.0,0.0,0.0,0.0,0.0,0.0,0.0,0.0,0.0,0.0,0.0,-0.34416202,-0.25765055,-0.31676492,0.9333466,0.93869567,-0.9698756,0.3731243,-0.81152904,-0.34271026,0.96825194,-0.8879231,-0.10708446
2025-06-04 18:50:05.615,1.788403,-3.935912,-76.6991,0.40057912,-0.037557688,0.07039986,1.96817,3.174751,9.141574,0.01728715,-0.37166595,-0.24231339,-1.032511,-0.92388153,-0.42420197,1.7723567,-0.38211823,-0.6549187,0.050398722,0.0963974,1.6131821,-0.5899995,0.35427094,0.1702919,1.6775488,0.021324158,-6.085907,0.04673004,-0.09876251,-0.03845215,-1.4115195,0.330925,-1.2713814,1.7932181,0.21259308,-4.6002884,0.06954193,-0.010185242,1.6754417,-1.3771176,0.004005432,-2.0099182,1.8746923,0.6144333,-7.372547,0.0,0.0,0.0,0.0,0.0,0.0,0.0,0.0,0.0,0.0,0.0,0.0,-0.4123956,-0.30293724,-0.21368627,0.93265164,0.94707745,-0.9759505,0.39121455,-0.81848955,-0.40824568,0.9639859,-0.89395356,-0.026121387
2025-06-04 18:50:05.667,2.580143,-4.108874,-76.5185,0.07875435,0.06722045,0.10318345,2.339907,2.442627,9.125198,-0.0004130456,-0.2638626,-0.95033264,-1.0736334,-0.83400726,-0.4425125,1.7644222,-0.030632019,-0.80140305,0.060164347,0.25852203,0.45105743,-0.57161266,0.23601532,-0.08605957,1.6781591,0.048789978,-6.25803,0.045433044,-0.00919342,-0.10070801,-1.3948874,0.5941391,-1.5497055,1.8064933,0.2854538,-6.663311,0.06969452,-0.06122589,1.3702583,-1.3779569,0.052452087,-2.392006,1.9000982,0.4856491,-6.0346375,0.0,0.0,0.0,0.0,0.0,0.0,0.0,0.0,0.0,0.0,0.0,0.0,-0.47794622,-0.31989738,-0.1093188,0.93668985,0.9504369,-0.9797057,0.40257704,-0.8201685,-0.47170666,0.95628405,-0.893236,0.046707455
2025-06-04 18:50:05.717,2.489625,-4.115345,-76.090645,-0.12077467,0.07357423,0.14517303,2.187074,0.911301,10.023762,-0.0062113856,0.042152405,-1.9024963,-1.0897315,-0.093803406,-2.3150978,1.7741878,0.24539948,-1.5338364,0.07282914,0.11211395,-0.12145996,-0.5637544,0.08365631,0.67811203,1.6784643,0.005302429,-6.2055397,0.043678284,0.10562897,0.15442276,-1.393209,-0.031852722,0.05432129,1.821981,0.3056717,-8.229496,0.06916046,-0.0032424927,1.5484848,-1.3787198,0.037879944,-2.2064552,1.9095587,0.009803772,-4.3781204,0.0,0.0,0.0,0.0,0.0,0.0,0.0,0.0,0.0,0.0,0.0,0.0,-0.5196575,-0.32640085,-0.046035316,0.94676834,0.94965804,-0.982886,0.41595912,-0.813854,-0.5011037,0.95007855,-0.88596714,0.12522209
2025-06-04 18:50:05.768,1.907196,-4.065628,-75.78609,-0.16111167,0.0816753,0.05416261,1.246504,-0.262968,9.968498,-0.0049906825,0.100364685,-2.379799,-1.1019385,-0.23082733,-1.489891,1.7946346,0.37143707,-1.8585472,0.08129777,0.06938934,0.17395401,-0.5661195,-0.2034378,1.3202095,1.6786169,0.016670227,-6.308079,0.043907166,-0.013847351,0.02746582,-1.397634,0.082359314,1.0321198,1.834188,0.19260406,-8.224613,0.0687027,0.01613617,1.4508286,-1.3807797,0.024986267,-1.9220276,1.907575,-0.25035858,-2.5226212,0.0,0.0,0.0,0.0,0.0,0.0,0.0,0.0,0.0,0.0,0.0,0.0,-0.5362712,-0.33370852,-0.006079314,0.9534064,0.9472929,-0.9842537,0.4144262,-0.8030569,-0.51360166,0.9458018,-0.87721044,0.18805547
2025-06-04 18:50:05.819,1.313965,-3.874498,-75.62315,-0.16788134,0.08129248,0.06558582,0.481844,-0.356447,9.887312,-0.0033885094,0.05329132,-2.4261856,-1.1149085,-0.16422272,-1.2079048,1.8112667,0.26454926,-1.588768,0.08633317,0.15460968,0.16174698,-0.57153636,-0.09525299,1.6717796,1.6793035,0.058174133,-6.4203873,0.043525696,0.03490448,0.21423721,-1.4035087,-0.06687164,1.0223541,1.8369346,0.002937317,-7.959717,0.06908417,0.07350922,1.1102448,-1.3827634,-0.10387421,-1.3458443,1.9002508,-0.1128006,-1.2457466,0.0,0.0,0.0,0.0,0.0,0.0,0.0,0.0,0.0,0.0,0.0,0.0,-0.5570475,-0.34784412,0.048349116,0.9573762,0.9462695,-0.98502773,0.39903244,-0.7984122,-0.5197867,0.94463855,-0.8722832,0.2351486
2025-06-04 18:50:05.871,0.814099,-3.640958,-75.40648,-0.1393477,0.07489663,0.0834082,0.209311,-0.376956,9.665868,-0.0033885094,0.003929138,-2.428627,-1.1235297,-0.17375946,-1.5118637,1.8246944,0.2060318,-1.5777817,0.08824052,-0.105400085,0.2862587,-0.576114,-0.04322052,1.6754417,1.6802953,0.04184723,-6.380104,0.038719177,-0.13729095,0.72571945,-1.4048057,0.02483368,0.8245964,1.8376212,-0.007209778,-8.019531,0.07320404,0.11638641,0.7403679,-1.3896298,-0.1505661,-0.604866,1.8890356,-0.23937225,-0.2105751,0.0,0.0,0.0,0.0,0.0,0.0,0.0,0.0,0.0,0.0,0.0,0.0,-0.56852585,-0.37293294,0.09630795,0.96058995,0.94610006,-0.9862977,0.37515137,-0.79512006,-0.52473533,0.94667095,-0.87134326,0.28496897
2025-06-04 18:50:05.922,0.428152,-3.420902,-75.15513,-0.06228216,0.030622255,0.06759805,0.23459,-0.112526,9.687584,-0.0046092127,-0.06908417,-2.424965,-1.1290991,-0.12943268,-2.0697327,1.8359859,0.16124725,-1.1139069,0.08907975,0.025215149,0.31921768,-0.57817394,-0.046653748,1.60952,1.6825079,0.07274628,-6.6767387,0.031471252,-0.09113312,0.84534836,-1.4033561,0.06755829,0.76478195,1.839376,0.05306244,-8.3015175,0.07686615,0.022850037,0.80750656,-1.3957334,-0.0976944,-0.5511551,1.8851446,-0.018959045,-0.18249893,0.0,0.0,0.0,0.0,0.0,0.0,0.0,0.0,0.0,0.0,0.0,0.0,-0.5887659,-0.3994211,0.16840264,0.96403676,0.9457205,-0.9870358,0.34316042,-0.7936842,-0.532264,0.9470635,-0.8686508,0.33157375
2025-06-04 18:50:05.973,0.366289,-3.320615,-74.95919,0.043615147,0.049893692,0.08215603,0.37971,0.071908,9.782001,-0.009339437,-0.14087677,-1.8133812,-1.1375678,-0.21007538,-1.6351585,1.8442256,0.08144379,-0.45716095,0.09197892,-0.039787292,0.051879883,-0.57908946,-0.026512146,1.5497055,1.6876959,0.13980865,-7.361561,0.026741028,-0.034217834,0.5902176,-1.4008384,0.08426666,0.481575,1.8414359,0.004386902,-8.426031,0.07839203,0.0035476685,0.8319206,-1.3981748,-0.10608673,-0.5841141,1.885755,0.022850037,0.061645508,0.0,0.0,0.0,0.0,0.0,0.0,0.0,0.0,0.0,0.0,0.0,0.0,-0.61003655,-0.4369139,0.25903633,0.9665519,0.9468657,-0.9881948,0.30531394,-0.7971926,-0.55095136,0.94814867,-0.8689743,0.38949656
2025-06-04 18:50:06.023,0.64735,-3.103686,-74.60037,0.12425198,0.10517547,0.17797822,0.108517,0.492451,9.648274,-0.022309408,-0.28614044,-0.9430084,-1.1589301,-0.28377533,-0.6939812,1.8513973,0.15605927,0.22522354,0.10220231,0.250206,-1.1981392,-0.57802135,0.10120392,1.359272,1.6963171,0.15918732,-7.7595177,0.023994446,-0.07274628,0.6341667,-1.391912,0.40584564,-0.330204,1.8428092,0.08930206,-8.855726,0.07900238,0.13500214,0.8270378,-1.3998532,-0.022163391,-0.57068634,1.891477,0.02193451,0.15686417,0.0,0.0,0.0,0.0,0.0,0.0,0.0,0.0,0.0,0.0,0.0,0.0,-0.6448542,-0.48572406,0.3998675,0.9684981,0.94822705,-0.9892608,0.24948485,-0.8075616,-0.5907411,0.9480756,-0.8690213,0.4707141
2025-06-04 18:50:06.075,0.831224,-2.838407,-74.043846,0.03197417,0.07302501,0.17497927,0.357513,0.132217,9.666417,-0.032914266,-0.20313263,-0.84901047,-1.184336,-0.39287567,-0.46814728,1.8674953,0.2652359,0.5450516,0.11326493,0.14568329,-1.1407661,-0.5758851,-0.05832672,1.2323189,1.7028784,0.16139984,-7.880371,0.017738342,-0.20511627,0.9820709,-1.3812308,0.22563934,-0.96131897,1.8487601,0.1317215,-10.006866,0.079460144,-0.025367737,0.8685417,-1.4011502,0.003929138,-0.6305046,1.9001745,0.09143829,0.40467072,0.0,0.0,0.0,0.0,0.0,0.0,0.0,0.0,0.0,0.0,0.0,0.0,-0.68719095,-0.53688383,0.5479833,0.97166914,0.94892734,-0.9908339,0.1703382,-0.8205333,-0.6369648,0.94793856,-0.86958206,0.56307936
2025-06-04 18:50:06.125,0.871025,-2.698207,-73.63575,0.016124485,0.039142743,0.10619444,0.452472,-0.004546,10.229743,-0.040467367,-0.10669708,-0.84412766,-1.2078345,-0.39440155,-0.5889969,1.8901546,0.5173874,0.5877762,0.12036027,0.37326813,-0.7330437,-0.57283336,0.006752014,1.0894928,1.707456,0.07022858,-7.9365234,0.011405945,-0.12935638,0.95887756,-1.3751273,0.063438416,-1.0821686,1.8564658,0.17520905,-11.054245,0.07953644,-0.026435852,0.8856354,-1.4017606,-0.010719299,-0.57678986,1.9148229,0.24089813,0.38147736,0.0,0.0,0.0,0.0,0.0,0.0,0.0,0.0,0.0,0.0,0.0,0.0,-0.95315045,-0.32634792,0.92559636,0.9275537,0.70881945,-0.99433684,-0.0074238195,-0.94105816,-0.9587873,0.9700472,-0.82966435,0.75819206
2025-06-04 18:50:06.177,0.865832,-2.754008,-73.300934,0.06082193,-0.1357857,0.14967425,2.458556,-0.079576,11.637275,-0.054734334,-0.32024384,-1.1761665,-1.1916602,0.58589935,-0.84168625,1.9401271,1.0215378,0.44861603,0.123335734,-0.033607483,-1.1322212,-0.5862611,-0.038642883,-1.9024963,1.7089056,-0.013389587,-7.709469,0.00049591064,-0.23181915,1.2262154,-1.3790183,-0.1870346,-2.5336075,1.8585258,0.066185,-14.217136,0.08174896,-0.06290436,0.6964226,-1.399014,0.06916046,-0.24109268,1.9414495,0.4896927,0.45227814,0.0,0.0,0.0,0.0,0.0,0.0,0.0,0.0,0.0,0.0,0.0,0.0,-0.9681174,-0.25014037,0.9567768,0.9363634,0.6974927,-0.9956264,-0.0040488504,-0.95781827,-0.9624319,0.9673449,-0.7742565,0.8954179
2025-06-04 18:50:06.227,1.207158,-3.607214,-72.7483,0.12182506,-0.27158108,0.17475682,1.537011,-0.549547,10.279902,-0.06686507,-0.22220612,-0.80140305,-1.1624396,0.42873383,-0.35705948,1.9798763,0.6825638,0.46204376,0.12982072,-0.0034713745,-2.482338,-0.6115907,-0.6422806,0.015258789,1.7089819,0.0024795532,-7.6935997,-0.008430481,-0.17063141,1.4020004,-1.3948112,-0.32665253,-0.54138947,1.8563895,-0.08907318,-13.636072,0.08243561,-0.22350311,0.5841141,-1.3855863,0.18444061,-0.19836807,1.9738744,0.5728531,0.6707878,0.0,0.0,0.0,0.0,0.0,0.0,0.0,0.0,0.0,0.0,0.0,0.0,-0.9706034,-0.16397476,0.952621,0.94970703,0.6616974,-0.9954509,0.12505698,-0.9580654,-0.95756215,0.95410186,-0.69292754,0.92160356
2025-06-04 18:50:06.279,1.626777,-4.317089,-72.40798,0.13640207,-0.16684683,0.02354765,0.583393,0.316046,10.526925,-0.07342635,0.009498596,-1.203022,-1.1278021,0.4617691,-0.1312294,2.0026882,0.3120041,0.65125656,0.13088883,-0.25684357,-1.0662994,-0.6416505,-0.43064117,0.07507324,1.7098211,0.030097961,-7.770504,-0.015830994,-0.10082245,1.8829651,-1.4108329,-0.54691315,-0.57923126,1.8446403,-0.2715683,-12.117495,0.082969666,0.019950867,0.68909836,-1.3733029,-0.047569275,1.3275337,1.9927953,0.23227692,1.3250923,0.0,0.0,0.0,0.0,0.0,0.0,0.0,0.0,0.0,0.0,0.0,0.0,-0.96637976,-0.08050179,0.9304071,0.9574461,0.6060083,-0.9954639,0.29081514,-0.9516577,-0.9504256,0.9393486,-0.6239711,0.9262181
2025-06-04 18:50:06.329,2.04184,-4.715513,-72.59091,0.1299892,-0.15623924,-0.10676746,0.84406,0.725401,9.818511,-0.07693587,-0.11074066,-0.8233757,-1.0909522,0.50891876,-0.3997879,2.015353,0.16498566,0.6231766,0.12493791,-0.3748703,-0.57068634,-0.6627839,-0.460701,-0.7367058,1.7105078,-0.00064849854,-7.741207,-0.014762878,0.04535675,1.912262,-1.4213614,-0.15453339,-0.7025261,1.8272452,-0.27454376,-11.219044,0.085105896,0.04207611,0.5499344,-1.3596463,0.1556778,2.0733948,2.0032477,0.23052216,1.157856,0.0,0.0,0.0,0.0,0.0,0.0,0.0,0.0,0.0,0.0,0.0,0.0,-0.96028143,0.022545645,0.89707005,0.9608111,0.55185336,-0.99531287,0.45381773,-0.9488026,-0.9479323,0.9202689,-0.5582198,0.9272984
2025-06-04 18:50:06.380,2.452412,-4.991266,-72.89336,0.115725644,-0.11802021,-0.060702812,0.803278,0.673976,9.318356,-0.07937728,-0.07709503,-0.5242996,-1.0497534,0.47168732,-0.19836807,2.0190914,0.015983582,0.49256134,0.120436564,-0.16414642,-0.5877762,-0.6785005,-0.122032166,-0.6561394,1.7107366,-0.022697449,-7.824215,-0.007972717,0.091362,1.8890686,-1.430059,-0.041618347,-0.6012039,1.8133597,-0.2273941,-10.961472,0.08823395,0.10532379,0.072631836,-1.3425565,0.5247116,2.3004494,2.0080543,0.11318207,1.190815,0.0,0.0,0.0,0.0,0.0,0.0,0.0,0.0,0.0,0.0,0.0,0.0,-0.9541901,0.14222534,0.84833556,0.96160096,0.5168205,-0.9947261,0.6120013,-0.9492671,-0.94718695,0.88989604,-0.48229003,0.92700654
2025-06-04 18:50:06.431,2.77778,-5.114298,-73.13804,0.039728407,0.013139519,-0.08582704,0.552114,0.962249,9.237276,-0.08075057,-0.063438416,-1.0028229,-1.0020697,0.6496048,-0.6036453,2.019015,-0.045204163,0.22888565,0.11883439,-0.15651703,-0.42786407,-0.6873506,0.80379486,-3.5956345,1.7125677,0.030555725,-8.090332,3.8146973e-05,0.074272156,2.4176407,-1.4353995,-0.09174347,-0.65125656,1.8019919,-0.2450943,-10.475624,0.089912415,-0.011100769,0.06774902,-1.3218808,0.6996536,1.8573265,2.0101905,0.09235382,1.1920357,0.0,0.0,0.0,0.0,0.0,0.0,0.0,0.0,0.0,0.0,0.0,0.0,-0.9456673,0.24950595,0.7669062,0.9640423,0.49994826,-0.99391496,0.7210547,-0.94671714,-0.9466917,0.8337951,-0.42732438,0.9134636
2025-06-04 18:50:06.483,2.889211,-5.063324,-73.3484,0.0013286144,0.081159085,-0.04983798,0.79161,1.01911,9.757777,-0.08082686,-0.06374359,-0.87709045,-0.9530127,0.84819794,-0.5084305,2.014056,-0.047798157,-0.2081337,0.118910685,0.067100525,-0.5645828,-0.6971925,-0.19664764,-2.3944473,1.7150854,0.0017166138,-8.125736,0.0090408325,0.18421173,2.0697327,-1.4394431,-0.057106018,-0.363163,1.7932181,-0.14156342,-10.446327,0.08998871,-0.03932953,-0.012817383,-1.2947202,0.7882309,1.6388206,2.0124793,0.08594513,1.0028229,0.0,0.0,0.0,0.0,0.0,0.0,0.0,0.0,0.0,0.0,0.0,0.0,-0.9385982,0.38142532,0.6291257,0.967169,0.4596514,-0.9931971,0.7947919,-0.9449787,-0.9429861,0.75760186,-0.3381057,0.9021651
2025-06-04 18:50:06.534,2.809043,-4.921305,-73.45157,-0.063827544,0.06286479,-0.0027757017,1.046673,1.018234,9.513754,-0.08120833,-0.060081482,-0.5877762,-0.89937806,0.93990326,-0.6720085,1.998492,-0.16475677,-0.33508682,0.12089433,-0.12149811,-0.88319397,-0.70772105,-0.09929657,-1.9794006,1.7171453,0.019111633,-8.241703,0.015830994,0.1821518,2.6556816,-1.4445548,-0.17414093,-0.010375977,1.7880301,0.011253357,-10.626993,0.08785248,0.032463074,-0.4376297,-1.2628293,0.6429672,2.4017715,2.012632,0.021781921,1.1261177,0.0,0.0,0.0,0.0,0.0,0.0,0.0,0.0,0.0,0.0,0.0,0.0,-0.9265656,0.5100205,0.40140915,0.9666442,0.41979906,-0.9899867,0.8466317,-0.9381753,-0.93289894,0.62217474,-0.23919424,0.8663533
2025-06-04 18:50:06.584,2.527032,-4.765106,-73.45834,-0.20443247,0.17340401,-0.0016011127,0.697878,1.284079,9.479393,-0.081055745,0.07663727,-1.0101471,-0.8423865,1.0763931,-0.49011993,1.9653804,-0.566597,-0.079956055,0.12364091,0.07129669,-1.5118637,-0.7196992,-0.3710556,-2.3358498,1.7201208,0.06771088,-8.592049,0.020637512,-0.0037765503,2.7911797,-1.450048,-0.07434845,0.5108719,1.7845206,-0.052375793,-10.291294,0.0799942,-0.32604218,0.4425125,-1.2223172,0.86711884,1.3653755,2.0120215,0.005683899,0.8111687,0.0,0.0,0.0,0.0,0.0,0.0,0.0,0.0,0.0,0.0,0.0,0.0,-0.9063642,0.657902,0.0012355758,0.96198547,0.33532083,-0.9808028,0.88180363,-0.92783344,-0.9101521,0.37446928,-0.10634462,0.7882019
2025-06-04 18:50:06.635,1.991881,-4.420723,-73.31909,-0.20140634,0.17727503,0.06928217,1.141222,0.515505,8.782527,-0.081437215,-0.032234192,-0.5999832,-0.78089356,1.0798264,-0.1715126,1.9053371,-1.027031,-0.16662979,0.1275319,0.2915573,-1.6888695,-0.73533946,-0.18115997,-3.982605,1.7272924,0.16254425,-9.160908,0.02193451,-0.07953644,3.408867,-1.4559226,-0.025596619,0.64515305,1.781774,-0.045433044,-9.8713665,0.06931305,-0.3331375,-0.30701065,-1.1785245,0.7966995,2.363926,2.005384,-0.0774765,0.76234055,0.0,0.0,0.0,0.0,0.0,0.0,0.0,0.0,0.0,0.0,0.0,0.0,-0.8512393,0.78618115,-0.5020307,0.9400621,0.16460767,-0.9030065,0.8931061,-0.9177576,-0.84182477,-0.20050976,-0.026186014,0.45141774
2025-06-04 18:50:06.687,1.013908,-3.783488,-72.98708,-0.4537721,0.3071837,0.14311367,1.481615,0.503983,7.909973,-0.08090316,-0.089149475,0.042114258,-0.71940064,0.82553864,-0.16174698,1.8188198,-1.0496902,-1.6363792,0.13081254,0.25203705,-1.6046371,-0.75921947,-0.21404266,-6.474098,1.7416357,0.36533356,-9.127949,0.018424988,-0.1353836,3.9655151,-1.462255,0.056495667,1.3604927,1.7804008,-0.035820007,-8.855726,0.048103333,-0.37509918,-1.7633324,-1.1360288,0.24913788,4.387886,1.9794439,-0.6875229,0.00793457,0.0,0.0,0.0,0.0,0.0,0.0,0.0,0.0,0.0,0.0,0.0,0.0,-0.6175964,0.8558495,-0.8711009,0.86947745,-0.30170923,0.14429992,0.82019806,-0.9226074,-0.42397246,-0.8110445,-0.26530266,-0.6149917
2025-06-04 18:50:06.737,-0.606916,-2.299231,-72.577194,-0.0017910918,0.4574687,0.2553557,-0.098742,-1.520491,16.16603,-0.08242904,0.3119278,0.15442276,-0.69262147,-0.3042984,5.564659,1.7868526,0.40790558,-11.443657,0.121428385,-0.39455414,-0.48645782,-0.84154063,-1.7444229,-5.7599754,1.8098425,0.8182144,-2.5079727,0.015678406,0.15041351,2.9352264,-1.462255,0.11417389,0.2838173,1.7754416,-0.5137253,-2.2296486,0.034599304,0.07274628,-5.4157333,-1.1338925,-0.032081604,0.3936844,1.9212316,-0.69820404,-10.021515,0.0,0.0,0.0,0.0,0.0,0.0,0.0,0.0,0.0,0.0,0.0,0.0,0.23084374,0.5988029,-0.93907017,0.36512133,-0.67185926,0.9675669,0.49586713,-0.96885383,0.5307879,-0.9188449,-0.7599619,-0.9708535
2025-06-04 18:50:06.788,-1.141929,-1.980945,-71.83109,-0.07519006,-0.30682504,0.31365037,-2.152583,-1.110372,8.983824,-0.057404622,0.027122498,1.8487816,-0.7198584,-0.05947113,1.3507271,1.7823513,-0.48015594,-8.502937,0.08320512,-0.7327652,1.0028229,-1.016025,-3.1851616,-0.15320206,1.8912481,1.5564346,0.9723053,0.02735138,0.08556366,-0.2825966,-1.4652305,0.021095276,-0.13733292,1.8230491,0.9988785,0.68421555,0.022773743,-0.3686905,-3.5822067,-1.1786771,-0.9634018,-4.359806,1.8859075,-0.45871735,-13.290607,0.0,0.0,0.0,0.0,0.0,0.0,0.0,0.0,0.0,0.0,0.0,0.0,0.88329315,0.3094387,-0.9581287,-0.4303974,-0.51643926,0.99346066,-0.40014845,-0.9678276,0.8702395,-0.8446041,-0.82314366,-0.98946524
2025-06-04 18:50:06.839,-2.1883,-3.444425,-70.32044,-0.32161748,-0.66247296,0.6150834,0.318523,1.081794,9.08873,-0.03222762,0.2537918,3.7225914,-0.75853944,-0.4971695,-2.539711,1.7588527,-0.55065155,-7.2590218,0.029570475,-0.89336395,0.7135124,-1.1138338,-1.2608719,-0.84168625,1.955335,0.91259,0.7159538,0.010261536,-0.17642975,-0.6231766,-1.4644675,0.29651642,-1.0382233,1.896749,1.3367081,0.50110626,-0.0037765503,-0.34374237,-2.0086975,-1.2394071,-1.445198,-1.2970161,1.8705724,-0.12248993,-14.378273,0.0,0.0,0.0,0.0,0.0,0.0,0.0,0.0,0.0,0.0,0.0,0.0,0.8566139,0.27590436,-0.8329051,-0.7330678,0.104121745,0.9901739,-0.897954,-0.9525846,0.8603979,-0.36357203,-0.7927189,-0.9840815
2025-06-04 18:50:06.890,-3.178304,-4.963267,-68.639145,-0.3429357,-0.40664548,0.4607796,1.602395,0.571515,8.751298,-0.011857137,0.57590485,2.3810196,-0.79104066,-0.8675766,-0.50110626,1.7529018,-0.03551483,-7.5886154,-0.013993368,-0.8798599,0.40833282,-1.0628694,1.2859726,-0.68055344,1.9937109,0.6280899,0.3241005,-0.019340515,-0.4252243,-1.0003815,-1.457067,0.1744461,-0.87464523,1.9449668,0.65265656,0.5535965,-0.013313293,-0.042152405,-1.1065826,-1.2902188,-1.0715103,-0.07751465,1.8543218,-0.33672333,-13.057449,0.0,0.0,0.0,0.0,0.0,0.0,0.0,0.0,0.0,0.0,0.0,0.0,0.5707319,0.32212454,-0.2900964,-0.7183671,0.55836403,0.8808269,-0.95055366,-0.94397235,0.43832797,0.27620003,-0.8433417,-0.970176
