openverse-orca/OrcaGym/envs/legged_gym/legged_real_env/logs/robot_log_20250606_162718.csv
timestamp,imu_angle_roll,imu_angle_pitch,imu_angle_yaw,imu_angular_velocity_roll,imu_angular_velocity_pitch,imu_angular_velocity_yaw,imu_acc_x,imu_acc_y,imu_acc_z,fl_joint1_pos,fl_joint1_vel,fl_joint1_torque,fl_joint2_pos,fl_joint2_vel,fl_joint2_torque,fl_joint3_pos,fl_joint3_vel,fl_joint3_torque,fr_joint1_pos,fr_joint1_vel,fr_joint1_torque,fr_joint2_pos,fr_joint2_vel,fr_joint2_torque,fr_joint3_pos,fr_joint3_vel,fr_joint3_torque,hl_joint1_pos,hl_joint1_vel,hl_joint1_torque,hl_joint2_pos,hl_joint2_vel,hl_joint2_torque,hl_joint3_pos,hl_joint3_vel,hl_joint3_torque,hr_joint1_pos,hr_joint1_vel,hr_joint1_torque,hr_joint2_pos,hr_joint2_vel,hr_joint2_torque,hr_joint3_pos,hr_joint3_vel,hr_joint3_torque,fl_force_x,fl_force_y,fl_force_z,fr_force_x,fr_force_y,fr_force_z,hl_force_x,hl_force_y,hl_force_z,hr_force_x,hr_force_y,hr_force_z,fl_hip_action,fl_thigh_action,fl_calf_action,fr_hip_action,fr_thigh_action,fr_calf_action,hl_hip_action,hl_thigh_action,hl_calf_action,hr_hip_action,hr_thigh_action,hr_calf_action
2025-06-06 16:27:38.058,-0.956419,-0.909354,0.110831,-0.0019009777,0.00032421236,0.0022060962,0.155121,-0.145359,9.80065,-0.013542175,0.0050735474,0.5853348,-0.98221356,0.01209259,-0.57312775,1.9077785,0.0015640259,-4.975052,0.011940002,0.023384094,-0.58045197,-0.983892,-0.01964569,-0.4412918,1.9034551,0.023231506,-4.744335,-0.010185242,-0.028877258,0.48889923,-0.97603375,-0.03681183,-0.84778976,1.931277,0.0104904175,-6.0260925,0.01613617,0.039863586,-0.69153976,-0.978153,0.005531311,-0.6952019,1.9313024,0.0037002563,-5.9736023,0.0,0.0,0.0,0.0,0.0,0.0,0.0,0.0,0.0,0.0,0.0,0.0,0.54949623,0.28936198,-1.2491677,-0.26834473,0.42825148,0.60487086,-0.95108324,-1.1392654,-3.0,-0.13929258,0.32832736,-3.0
2025-06-06 16:27:38.109,-1.127276,-0.723511,-0.161678,-0.10546539,0.42717624,-0.42600694,1.860458,-1.967901,13.586705,-0.02254486,-0.24349213,1.8841858,-0.9638267,0.42499542,0.19104385,1.8867214,-0.73574066,-6.6486626,-0.0036239624,-0.5501938,0.27405167,-0.95810467,0.52539825,0.6012039,1.9050573,-0.3054428,-1.0565338,-0.0146865845,0.16117096,-1.1810493,-0.9762626,0.45017242,-9.06447,1.890002,-1.2086105,-12.698559,0.023841858,0.16674042,-1.0980377,-0.9327581,1.5121841,-1.8231468,1.8738531,-1.4715195,-11.962463,0.0,0.0,0.0,0.0,0.0,0.0,0.0,0.0,0.0,0.0,0.0,0.0,2.4417574,1.0221144,-3.0,2.7533414,0.27725667,1.7741883,-3.0,-2.389558,-3.0,-2.7470467,0.26109833,-3.0
2025-06-06 16:27:38.161,-0.752642,-0.389766,-2.080402,0.48734808,-0.48019224,-0.7174382,0.725732,-1.915751,14.199421,-0.032691956,-0.32619476,5.3046455,-0.95207745,-0.12943268,5.3327217,1.7796047,-2.5543633,-6.9111176,0.036506653,1.189003,1.2249947,-0.94589764,0.25356293,-0.18494034,1.9421362,0.7318497,0.65125656,-0.016212463,-0.3372574,-3.454033,-1.0679679,-2.14085,-10.794231,1.8277462,-1.3610458,-10.3682,0.03490448,0.14850616,-5.368122,-0.9160497,-0.4253769,-0.7537956,1.8227361,-0.8776474,-10.67094,0.0,0.0,0.0,0.0,0.0,0.0,0.0,0.0,0.0,0.0,0.0,0.0,3.0,0.6226328,-3.0,3.0,2.0087528,0.13059907,-3.0,-1.4803947,-3.0,-3.0,0.60756546,-3.0
2025-06-06 16:27:38.212,-1.032189,-2.277541,-4.177894,-0.31385595,-0.20662577,-0.5562913,2.056023,0.454739,7.799141,-0.06481171,-0.52783966,7.3347054,-0.9515434,0.35762787,2.0587463,1.6577632,-2.1731224,-3.1964607,0.09174347,0.11249542,0.79529953,-0.7297569,3.987545,-1.510643,1.8663763,-0.6442642,-0.79529953,-0.026359558,-0.25302887,-3.1769295,-1.0947471,-0.027656555,-6.524147,1.7575557,-1.599617,-7.364002,0.020942688,-0.2651596,-4.678417,-0.90704703,0.064582825,0.64271164,1.755979,-1.3294601,-7.500725,0.0,0.0,0.0,0.0,0.0,0.0,0.0,0.0,0.0,0.0,0.0,0.0,3.0,-0.43930098,-3.0,3.0,3.0,-1.6061932,-3.0,-1.163086,-3.0,-3.0,1.1920081,-3.0
2025-06-06 16:27:38.263,-1.643904,-2.494247,-5.290924,-0.43776238,0.34896085,-0.34844282,2.229204,0.9649,4.238697,-0.07297516,-0.39974213,7.414055,-0.986486,-0.36823273,-2.7960625,1.6088588,-0.25745392,-4.1034546,0.1064682,-0.002708435,0.5609207,-0.50567776,3.1166496,-1.2372017,1.7172979,-1.9963455,-0.26672745,-0.041007996,-0.14972687,-2.7618828,-1.0852866,0.23677826,-5.1361885,1.6840084,-1.1400223,-5.4523544,0.0030136108,-0.23670197,-4.1559486,-0.8781316,0.6410599,2.9254608,1.6843389,-1.1690903,-5.4804306,0.0,0.0,0.0,0.0,0.0,0.0,0.0,0.0,0.0,0.0,0.0,0.0,3.0,-0.47441077,-3.0,3.0,3.0,-3.0,-3.0,-1.3507396,-3.0,-3.0,1.2539566,-3.0
2025-06-06 16:27:38.314,-2.163009,-1.317165,-6.413072,-0.027878126,0.5551664,-0.37581322,1.56605,0.375689,6.10662,-0.091056824,-0.37189484,8.031738,-1.0227256,-1.1627579,-1.1212311,1.6102321,0.36502838,-5.0043488,0.11386871,-0.14347076,0.33874893,-0.4334274,0.24951935,-0.14587784,1.5666937,-2.3138084,0.06652832,-0.039482117,0.17894745,-3.3844528,-1.0977225,-0.40042877,-5.2094307,1.6434963,-0.5018234,-4.912796,0.0020217896,0.28614044,-4.790722,-0.8699682,-0.052223206,3.9667358,1.6522192,-0.29453278,-5.5378036,0.0,0.0,0.0,0.0,0.0,0.0,0.0,0.0,0.0,0.0,0.0,0.0,3.0,-0.37516612,-3.0,3.0,3.0,-3.0,-3.0,-1.4633634,-3.0,-3.0,1.0994259,-3.0
2025-06-06 16:27:38.365,-1.755666,0.455667,-7.717884,0.32104248,0.7021072,-0.45212564,-0.264277,-0.039449,9.246804,-0.09807587,-0.20015717,7.992676,-1.0782676,-1.257515,1.8402367,1.6430385,0.7302475,-6.475319,0.11669159,0.1504898,-0.08972168,-0.43884426,-0.8839035,1.6534691,1.5448736,2.0043602,-5.0177765,-0.04924774,-1.0904312,-1.301899,-1.1602073,-2.0635643,-1.4410629,1.5867336,-2.0817223,-0.94667053,0.024147034,0.43437958,-5.568321,-0.88179374,-0.35869598,3.6920738,1.6488622,-0.011405945,-5.8088036,0.0,0.0,0.0,0.0,0.0,0.0,0.0,0.0,0.0,0.0,0.0,0.0,3.0,-0.51726633,-3.0,3.0,3.0,-3.0,-3.0,-1.4627454,-3.0,-3.0,1.0820298,-3.0
2025-06-06 16:27:38.415,-1.384538,2.086503,-9.193557,0.009864322,0.35624942,-0.471163,-3.042616,1.661331,12.166044,-0.09799957,0.17780304,7.6276817,-1.1279349,-0.8399582,1.8963928,1.653796,-0.028038025,-5.9980164,0.11104584,0.023002625,0.54261017,-0.470964,-0.42934418,2.1380959,1.6037725,0.546608,-4.883499,-0.089149475,-0.6822586,-0.50110626,-1.2508445,-1.2009811,0.34851456,1.5091426,-0.7916641,0.08850098,0.04261017,0.5132675,-6.58152,-0.88392997,0.13179779,3.0548553,1.629865,-0.55805206,-4.298771,0.0,0.0,0.0,0.0,0.0,0.0,0.0,0.0,0.0,0.0,0.0,0.0,3.0,-0.77444273,-3.0,3.0,3.0,-3.0,-3.0,-1.4683847,-3.0,-3.0,1.2899164,-3.0
2025-06-06 16:27:38.467,-1.743434,2.87,-10.406959,-0.26968768,0.07827278,-0.30188736,-2.214476,0.914166,9.68872,-0.091285706,0.13431549,7.4030685,-1.1605124,-0.63365936,1.1615181,1.6537197,0.037879944,-6.05661,0.10639191,-0.01789093,0.6939812,-0.4799667,-0.028114319,2.0135803,1.6050695,-0.13912201,-3.9386597,-0.1051712,-0.05039215,-0.61341095,-1.2702994,0.020103455,-0.45960236,1.494189,-0.0051498413,-0.41443634,0.06175995,0.5928421,-7.130848,-0.86668754,0.25302887,3.5883102,1.5895818,-0.8155441,-2.802166,0.0,0.0,0.0,0.0,0.0,0.0,0.0,0.0,0.0,0.0,0.0,0.0,3.0,-0.8627306,-3.0,3.0,3.0,-2.9905598,-3.0,-1.491943,-3.0,-3.0,1.4249388,-3.0
2025-06-06 16:27:38.517,-2.591255,2.898267,-11.268376,-0.35942203,-0.099219695,-0.3208812,-1.721576,-0.170469,9.004318,-0.08358002,0.092811584,7.2114143,-1.1927085,-0.68294525,1.79385,1.6611202,0.2160263,-6.6279106,0.10471344,-0.045585632,0.76722336,-0.47813565,0.12706757,1.7486839,1.5866827,-0.31993866,-3.1573982,-0.10509491,-0.018196106,-0.68299484,-1.2720542,-0.039863586,-0.49744415,1.4938076,-0.013771057,-0.42786407,0.081214905,0.49274445,-7.8425255,-0.8531072,0.22792816,4.137638,1.560285,-0.32382965,-2.228428,0.0,0.0,0.0,0.0,0.0,0.0,0.0,0.0,0.0,0.0,0.0,0.0,3.0,-0.93534833,-3.0,3.0,3.0,-2.7568753,-3.0,-1.4550027,-3.0,-3.0,1.5661057,-3.0
2025-06-06 16:27:38.569,-3.80521,2.517688,-12.253819,-0.47391215,-0.14795962,-0.39938203,-1.231743,-1.050441,8.927027,-0.08090973,0.07785797,7.2236214,-1.2296348,-0.52814484,2.802166,1.6832454,0.5272293,-7.819332,0.0976944,-0.14446259,1.2091255,-0.46882778,0.37136078,1.2787056,1.5682195,-0.32665253,-1.6693382,-0.10494232,0.030174255,-0.6976433,-1.2690787,0.062294006,-0.4791336,1.493655,-0.0074386597,-0.4351883,0.09815216,0.48496246,-8.277103,-0.84021354,0.19802094,4.7272453,1.5438055,-0.21068573,-1.8963928,0.0,0.0,0.0,0.0,0.0,0.0,0.0,0.0,0.0,0.0,0.0,0.0,3.0,-1.0483836,-3.0,3.0,3.0,-2.405517,-3.0,-1.3888897,-3.0,-3.0,1.7693924,-3.0
2025-06-06 16:27:38.620,-5.115045,2.110891,-13.435757,-0.30575114,0.009765117,-0.45460364,-0.264877,-2.338551,9.536062,-0.07762909,0.145607,6.843975,-1.263967,-0.40287018,2.6837578,1.7133815,0.5814743,-8.938736,0.08937836,-0.013465881,1.3275337,-0.45173794,0.6580734,0.29358292,1.5666937,0.021400452,-0.76111984,-0.09159088,0.647316,-2.0660706,-1.2755637,-0.299263,0.632946,1.5065486,0.3850937,-1.4105453,0.11867523,0.28980255,-9.01564,-0.8151891,0.758934,4.502632,1.5315222,-0.26378632,-1.178608,0.0,0.0,0.0,0.0,0.0,0.0,0.0,0.0,0.0,0.0,0.0,0.0,3.0,-1.2783911,-3.0,3.0,3.0,-1.7806337,-3.0,-1.2869848,-3.0,-3.0,2.1228962,-3.0
2025-06-06 16:27:38.671,-5.832174,2.761436,-14.46417,-0.09724927,0.47296542,-0.23475721,0.164618,-3.008524,9.252772,-0.07419586,-0.045433044,7.0026703,-1.2786155,-0.12821198,1.359272,1.748019,0.66402435,-10.246128,0.08716583,-0.021705627,1.3482857,-0.43274075,0.29994965,-0.006713867,1.5972112,0.3987503,-0.053100586,-0.07030487,0.13774872,-2.3358498,-1.266027,0.28316498,0.20203018,1.5148647,-0.0104904175,-1.1847115,0.1278305,0.17223358,-9.069351,-0.7635381,0.8111954,4.8944855,1.5042852,-0.31261444,-0.24475479,0.0,0.0,0.0,0.0,0.0,0.0,0.0,0.0,0.0,0.0,0.0,0.0,3.0,-1.4722402,-3.0,3.0,3.0,-1.3052006,-3.0,-1.1641951,-3.0,-3.0,2.2960198,-3.0
2025-06-06 16:27:38.722,-6.052932,3.861131,-15.215758,0.06599273,0.3547976,-0.19151942,-0.178126,-2.668267,9.051735,-0.07709503,-0.1328659,7.2883186,-1.2893729,-0.087623596,0.43030548,1.7705257,0.33374786,-10.614786,0.08358002,-0.06954193,1.5924301,-0.42526394,0.053138733,-0.08239746,1.639707,0.5095291,0.010375977,-0.060691833,0.07556915,-2.4261856,-1.2516074,0.36121368,0.5609207,1.5119655,-0.116539,-0.8917389,0.13248444,0.02544403,-9.093765,-0.737293,0.2880478,5.7343407,1.4964269,0.0046157837,-0.49622345,0.0,0.0,0.0,0.0,0.0,0.0,0.0,0.0,0.0,0.0,0.0,0.0,3.0,-1.5756817,-3.0,3.0,3.0,-1.0503929,-3.0,-1.0989618,-3.0,-3.0,2.3278482,-3.0
2025-06-06 16:27:38.776,-5.890061,4.809009,-15.893629,0.1717065,0.40732113,-0.19570187,-0.263253,-1.729187,10.105015,-0.08731842,-0.19153595,7.721676,-1.2994437,-0.06603241,0.03967285,1.782809,0.049171448,-10.635538,0.076179504,-0.16986847,1.8939514,-0.4231277,-0.06427765,-0.017700195,1.6849493,0.85697174,-0.95155334,-0.057029724,0.037956238,-2.3602638,-1.2351279,0.21938324,0.44983673,1.4996059,-0.24036407,-0.3228798,0.13454437,0.0447464,-9.1865425,-0.7232549,0.15506744,5.8490868,1.5032934,0.2463913,-1.1480904,0.0,0.0,0.0,0.0,0.0,0.0,0.0,0.0,0.0,0.0,0.0,0.0,3.0,-1.63703,-3.0,3.0,3.0,-0.92624754,-3.0,-1.0634921,-3.0,-3.0,2.3261852,-3.0
2025-06-06 16:27:38.827,-5.197566,5.593934,-16.685629,0.20214763,0.23918971,-0.24543133,-1.200389,-0.201883,9.444194,-0.09502411,-0.2640152,8.091553,-1.3076835,-0.12958527,-0.06774902,1.7828853,-0.071372986,-10.56962,0.06526947,-0.23509979,2.4689102,-0.42617947,-0.09616852,0.16174698,1.7272924,0.8540726,-1.9513245,-0.06046295,-0.106163025,-2.113678,-1.2224631,0.1958847,0.38880157,1.4886959,-0.20374298,-0.06652832,0.13698578,-0.028648376,-9.18166,-0.72172904,0.060005188,5.828335,1.5176367,0.070991516,-1.4020004,0.0,0.0,0.0,0.0,0.0,0.0,0.0,0.0,0.0,0.0,0.0,0.0,3.0,-1.6555047,-3.0,3.0,3.0,-0.86950725,-3.0,-1.0490465,-3.0,-3.0,2.3004568,-3.0
2025-06-06 16:27:38.878,-4.623891,6.227207,-17.30362,0.2343525,0.19793871,-0.18382832,-1.49334,0.363167,10.35113,-0.09967804,-0.049705505,7.8425255,-1.3136344,-0.1832962,-0.0018310547,1.7825801,-0.012016296,-10.5232315,0.05947113,-0.14881134,2.3981094,-0.4296127,-0.07343292,0.26672745,1.7649053,0.7036209,-2.7765312,-0.07663727,-0.14858246,-1.4056625,-1.2093406,0.29193878,-0.2093544,1.4863307,0.019950867,-0.18860245,0.14354706,0.2312088,-9.755398,-0.72012687,0.047340393,5.6574364,1.5275549,0.07190704,-1.752346,0.0,0.0,0.0,0.0,0.0,0.0,0.0,0.0,0.0,0.0,0.0,0.0,3.0,-1.6499275,-3.0,3.0,3.0,-0.85882825,-3.0,-1.0745336,-3.0,-3.0,2.2794025,-3.0
2025-06-06 16:27:38.930,-4.096033,6.548091,-17.918617,0.060402513,0.013131717,-0.2306646,-1.597878,0.539079,10.487548,-0.09906769,0.03566742,7.8388634,-1.3237052,-0.32047272,0.5841141,1.7800624,-0.07633209,-10.3633175,0.05466461,-0.08747101,2.6532402,-0.43121487,0.041770935,0.28137589,1.7810796,0.20236969,-2.8094902,-0.08975983,-0.103263855,-1.1139069,-1.2030845,0.041770935,-0.14709854,1.4863307,-0.036125183,-0.18371964,0.1543808,0.14636993,-9.976349,-0.71799064,0.04924774,5.449913,1.5300726,0.017204285,-1.6974144,0.0,0.0,0.0,0.0,0.0,0.0,0.0,0.0,0.0,0.0,0.0,0.0,3.0,-1.6559473,-3.0,3.0,3.0,-0.7854306,-3.0,-1.0514185,-3.0,-3.0,2.3298588,-3.0
2025-06-06 16:27:38.980,-4.156131,6.405756,-18.567858,-0.10484025,-0.056016043,-0.16073276,-1.240296,-0.305878,9.653725,-0.09792328,0.04535675,7.779049,-1.3361411,-0.15529633,0.9234772,1.7789943,-0.0016403198,-10.469521,0.048942566,-0.0687027,2.7374687,-0.43167263,-0.05420685,0.27771378,1.7829107,-0.018043518,-2.2430763,-0.08747101,0.10852814,-1.4618149,-1.2081199,-0.18146515,0.42542267,1.486407,-0.024757385,-0.18738174,0.1619339,0.098609924,-10.204624,-0.7148626,0.07480621,5.654995,1.5270971,-0.10456085,-1.4630356,0.0,0.0,0.0,0.0,0.0,0.0,0.0,0.0,0.0,0.0,0.0,0.0,3.0,-1.7399381,-3.0,3.0,3.0,-0.64201254,-3.0,-0.98120326,-3.0,-3.0,2.41706,-3.0
2025-06-06 16:27:39.031,-4.406476,6.327181,-18.855373,-0.057909466,0.043891486,-0.06195889,-0.785844,-1.348514,10.120945,-0.09540558,-0.0032424927,7.6484337,-1.3442283,-0.14835358,0.45349884,1.7802913,0.006752014,-10.475624,0.048789978,0.023841858,2.6898613,-0.43152004,-0.06755829,0.27283096,1.7832159,0.022163391,-1.752346,-0.08136749,0.22274017,-1.6864281,-1.2125449,-0.0033187866,0.84778976,1.486407,-0.01964569,-0.18616104,0.16651154,0.05542755,-10.265659,-0.70914054,0.09723663,5.847866,1.5190862,-0.32512665,-1.0113678,0.0,0.0,0.0,0.0,0.0,0.0,0.0,0.0,0.0,0.0,0.0,0.0,3.0,-1.805454,-3.0,3.0,3.0,-0.49713513,-3.0,-0.9313977,-3.0,-3.0,2.4666932,-3.0
2025-06-06 16:27:39.083,-4.597409,6.420847,-19.004425,-0.031198004,0.079883546,-0.033817064,-0.875582,-1.175644,9.343367,-0.09410858,0.03627777,7.6948204,-1.348577,-0.093193054,0.09338379,1.7802913,-0.004234314,-10.481728,0.048713684,-0.0060653687,2.6800957,-0.43266445,-0.023078918,0.35583878,1.7864965,0.17894745,-1.5362778,-0.07884979,0.060691833,-1.6839867,-1.2111716,0.05290985,1.0101471,1.486407,0.024757385,-0.18249893,0.16719818,0.0033950806,-10.2156105,-0.70410514,0.0032424927,6.176243,1.5113043,-0.115242004,-0.87831116,0.0,0.0,0.0,0.0,0.0,0.0,0.0,0.0,0.0,0.0,0.0,0.0,3.0,-1.818068,-3.0,3.0,3.0,-0.43581113,-3.0,-0.9166458,-3.0,-3.0,2.4670362,-3.0
2025-06-06 16:27:39.133,-4.630803,6.619101,-19.111437,0.01877845,0.07517337,-0.035394475,-1.123294,-0.994726,9.541412,-0.09479523,0.047035217,7.7058067,-1.3526969,-0.111579895,0.18616104,1.7803676,-0.00705719,-10.454872,0.048179626,0.042381287,2.7142754,-0.4359451,-0.046424866,0.514534,1.7956518,0.21701813,-1.7145042,-0.07801056,0.15468597,-1.6485863,-1.2085776,0.037498474,1.0540924,1.4827449,-0.05367279,0.040893555,0.16780853,0.044059753,-10.279087,-0.7033422,-0.037345886,6.209202,1.5097784,-0.01941681,-0.9674225,0.0,0.0,0.0,0.0,0.0,0.0,0.0,0.0,0.0,0.0,0.0,0.0,3.0,-1.831045,-3.0,3.0,3.0,-0.4147459,-3.0,-0.9014287,-3.0,-3.0,2.4591064,-3.0
2025-06-06 16:27:39.184,-4.574079,6.815549,-19.256353,0.02305613,0.06536666,-0.047038823,-1.381424,-0.582852,9.852622,-0.09502411,-0.038719177,7.699703,-1.3565879,-0.13820648,0.2081337,1.7802913,0.041236877,-10.476845,0.046806335,0.02368927,2.7679863,-0.4383865,-0.06046295,0.5523758,1.8026708,0.06702423,-1.70718,-0.07762909,0.06023407,-1.6546898,-1.2056785,0.033988953,1.0760651,1.4778621,-0.071525574,0.20080948,0.16834259,0.019721985,-10.282749,-0.7031896,0.008049011,6.129856,1.5097021,0.0060653687,-0.95521545,0.0,0.0,0.0,0.0,0.0,0.0,0.0,0.0,0.0,0.0,0.0,0.0,3.0,-1.836213,-3.0,3.0,3.0,-0.39767465,-3.0,-0.8954988,-3.0,-3.0,2.45337,-3.0
2025-06-06 16:27:39.235,-4.525737,6.969976,-19.34514,0.004046633,0.02437581,-0.004697414,-1.494274,-0.571002,9.773167,-0.0951767,-0.07091522,7.7021446,-1.3586478,-0.021781921,0.24109268,1.7801387,-0.0037002563,-10.482948,0.046424866,-0.021705627,2.736248,-0.4395309,-0.027198792,0.5902176,1.8077825,0.059547424,-1.7816429,-0.077552795,-0.030555725,-1.6449242,-1.2043815,0.005531311,1.0955963,1.4759548,0.008506775,0.2081337,0.16925812,0.052986145,-10.331577,-0.7031133,-0.0009536743,6.1164246,1.5095495,-0.005607605,-0.9417877,0.0,0.0,0.0,0.0,0.0,0.0,0.0,0.0,0.0,0.0,0.0,0.0,3.0,-1.8426105,-3.0,3.0,3.0,-0.38601384,-3.0,-0.8930575,-3.0,-3.0,2.4563937,-3.0
2025-06-06 16:27:39.287,-4.524622,7.012901,-19.362305,-0.0067074923,-0.00389362,-0.008430097,-1.324285,-0.771418,9.722977,-0.094947815,0.02986908,7.7021446,-1.3594108,0.01209259,0.18982315,1.7803676,0.05886078,-10.479286,0.046424866,0.017662048,2.7521172,-0.44006497,-0.026741028,0.5535965,1.8085455,0.0061416626,-1.7242699,-0.07740021,-0.0049972534,-1.6644554,-1.2041526,0.005836487,1.1236725,1.4758022,-0.013618469,0.18738174,0.169487,0.018730164,-10.310825,-0.7029607,-0.014076233,6.1530495,1.5092443,0.012550354,-0.9320221,0.0,0.0,0.0,0.0,0.0,0.0,0.0,0.0,0.0,0.0,0.0,0.0,3.0,-1.8430094,-3.0,3.0,3.0,-0.37518606,-3.0,-0.89491403,-3.0,-3.0,2.459253,-3.0
2025-06-06 16:27:39.337,-4.527269,7.013784,-19.378677,0.0049222996,0.0032034295,-0.0011180928,-1.200649,-0.845974,9.702926,-0.09487152,-0.034751892,7.692379,-1.3594108,-0.0059127808,0.17517471,1.7802913,0.021247864,-10.504921,0.046424866,0.0023269653,2.7582207,-0.43945462,0.03643036,0.5450516,1.8086218,0.036582947,-1.6656761,-0.0774765,0.1392746,-1.6351585,-1.2039237,0.013923645,1.1053619,1.4758022,0.026817322,0.18005753,0.16963959,-0.022010803,-10.323032,-0.70265555,0.071525574,6.1005554,1.5090154,0.029335022,-0.95521545,0.0,0.0,0.0,0.0,0.0,0.0,0.0,0.0,0.0,0.0,0.0,0.0,3.0,-1.8512305,-3.0,3.0,3.0,-0.3549795,-3.0,-0.8860386,-3.0,-3.0,2.4678335,-3.0
2025-06-06 16:27:39.388,-4.514255,7.023477,-19.389402,0.008445875,0.00961549,-0.0018961083,-1.188236,-0.70606,9.647281,-0.09502411,0.00049591064,7.6984825,-1.3591819,0.023002625,0.09460449,1.7803676,-0.026817322,-10.435339,0.04650116,-0.013847351,2.7716484,-0.43892056,-0.009269714,0.5218582,1.8089269,-0.0045394897,-1.6046371,-0.07724762,-0.008201599,-1.6937523,-1.2034659,0.0358963,1.1419868,1.4758785,0.028495789,0.18738174,0.16963959,0.021324158,-10.3266945,-0.7018163,0.024681091,6.155491,1.509168,0.02658844,-0.92836,0.0,0.0,0.0,0.0,0.0,0.0,0.0,0.0,0.0,0.0,0.0,0.0,3.0,-1.8465077,-3.0,3.0,3.0,-0.35502812,-3.0,-0.8866274,-3.0,-3.0,2.4642322,-3.0
2025-06-06 16:27:39.440,-4.489213,7.03412,-19.404724,0.003612116,0.0028267526,-0.004088486,-1.187452,-0.68381,9.724496,-0.09502411,0.064964294,7.7155724,-1.3590293,-0.016288757,0.13489151,1.7805202,0.029945374,-10.509804,0.04634857,0.06046295,2.7521172,-0.4385391,0.021781921,0.5072098,1.8092321,-0.0333786,-1.5997543,-0.077171326,0.010261536,-1.6888695,-1.2033134,0.12683868,1.1432076,1.4756496,-0.015449524,0.18860245,0.16979218,0.017814636,-10.315708,-0.70158744,-0.04863739,6.1274147,1.509168,0.03025055,-0.9417877,0.0,0.0,0.0,0.0,0.0,0.0,0.0,0.0,0.0,0.0,0.0,0.0,3.0,-1.8449879,-3.0,3.0,3.0,-0.3579732,-3.0,-0.891805,-3.0,-3.0,2.4641745,-3.0
2025-06-06 16:27:39.490,-4.48458,7.037193,-19.414948,-0.00068645546,0.0032687923,-0.0013251412,-1.17689,-0.738497,9.702166,-0.09502411,0.0075149536,7.709469,-1.3593345,0.019569397,0.15442276,1.7803676,0.016975403,-10.484169,0.046424866,0.007972717,2.7508965,-0.4383102,0.06465912,0.5181961,1.8093847,0.03025055,-1.6107407,-0.07709503,0.00049591064,-1.674221,-1.2033896,0.008201599,1.1041412,1.4756496,-0.035743713,0.18738174,0.16979218,0.022392273,-10.31815,-0.70120597,0.040855408,6.131077,1.5092443,-0.029029846,-0.9381256,0.0,0.0,0.0,0.0,0.0,0.0,0.0,0.0,0.0,0.0,0.0,0.0,3.0,-1.8504428,-3.0,3.0,3.0,-0.3528895,-3.0,-0.8840609,-3.0,-3.0,2.4699814,-3.0
2025-06-06 16:27:39.541,-4.489531,7.043021,-19.4286,-0.0014777528,0.00249425,-0.0057426044,-1.192899,-0.766613,9.673457,-0.09502411,0.0037765503,7.6935997,-1.3596396,-0.011329651,0.11657715,1.7804439,0.034217834,-10.440224,0.046272278,-0.0025558472,2.7667656,-0.4385391,-0.046653748,0.5084305,1.8096136,0.018196106,-1.6632347,-0.077171326,-0.019493103,-1.694973,-1.2030845,0.025367737,1.1407661,1.4757259,0.0033187866,0.18738174,0.17009735,0.0258255,-10.334019,-0.70120597,0.040168762,6.1738014,1.5090917,-0.017967224,-0.9039459,0.0,0.0,0.0,0.0,0.0,0.0,0.0,0.0,0.0,0.0,0.0,0.0,3.0,-1.8496741,-3.0,3.0,3.0,-0.35629734,-3.0,-0.884583,-3.0,-3.0,2.4633474,-3.0
2025-06-06 16:27:39.592,-4.489333,7.050424,-19.444006,0.0014049202,0.0043950183,-0.0021419378,-1.228272,-0.710489,9.68568,-0.0951767,-0.041542053,7.7058067,-1.3597922,0.014305115,0.15564346,1.7802913,-0.032310486,-10.474403,0.04634857,0.0048446655,2.7557793,-0.4385391,0.008506775,0.5499344,1.8101476,-0.008277893,-1.6644554,-0.07701874,-0.024909973,-1.6852074,-1.203237,-0.06687164,1.1236725,1.4757259,-0.01903534,0.19104385,0.16994476,-0.03566742,-10.337681,-0.7010534,-0.021095276,6.1091003,1.509168,0.032157898,-0.9454498,0.0,0.0,0.0,0.0,0.0,0.0,0.0,0.0,0.0,0.0,0.0,0.0,3.0,-1.8466557,-3.0,3.0,3.0,-0.35344288,-3.0,-0.8841743,-3.0,-3.0,2.4693317,-3.0
2025-06-06 16:27:39.643,-4.483027,7.060639,-19.448706,0.0015557865,0.0049366113,-0.000351998,-1.206607,-0.746238,9.722518,-0.094947815,0.010261536,7.725338,-1.3599448,0.019798279,0.16296768,1.7804439,0.02292633,-10.482948,0.046272278,0.005378723,2.7423515,-0.4383102,0.04611969,0.5255203,1.8103765,0.0036239624,-1.6778831,-0.077171326,0.068473816,-1.6510277,-1.2033896,-0.043067932,1.1236725,1.4755733,-0.0059890747,0.19470596,0.17009735,0.0017929077,-10.330357,-0.7010534,0.0037002563,6.162815,1.5090917,0.01750946,-0.9381256,0.0,0.0,0.0,0.0,0.0,0.0,0.0,0.0,0.0,0.0,0.0,0.0,3.0,-1.853727,-3.0,3.0,3.0,-0.34694573,-3.0,-0.8831618,-3.0,-3.0,2.4733574,-3.0
2025-06-06 16:27:39.694,-4.47563,7.067954,-19.458954,-9.866346e-05,0.0036903415,-0.00425883,-1.176403,-0.72214,9.672647,-0.09502411,0.029563904,7.6862755,-1.3601737,-0.00957489,0.1300087,1.7802913,-0.06687164,-10.50248,0.046272278,-0.011940002,2.7386894,-0.4382339,0.045280457,0.53162384,1.8106054,-0.00957489,-1.6314964,-0.07671356,-0.055885315,-1.6900902,-1.2030845,-0.019569397,1.1566353,1.4755733,0.023994446,0.19836807,0.17017365,0.0046157837,-10.327915,-0.7009008,0.021476746,6.164036,1.509168,-0.037879944,-0.9271393,0.0,0.0,0.0,0.0,0.0,0.0,0.0,0.0,0.0,0.0,0.0,0.0,3.0,-1.8518184,-3.0,3.0,3.0,-0.3426058,-3.0,-0.88110274,-3.0,-3.0,2.4731357,-3.0
2025-06-06 16:27:39.745,-4.473511,7.0694,-19.471766,-0.00059796724,0.00330136,-0.0054746787,-1.201973,-0.720965,9.678694,-0.094947815,0.048789978,7.708248,-1.36025,-0.0021743774,0.12756729,1.780215,-0.02193451,-10.4902725,0.046424866,0.057868958,2.7460136,-0.4382339,-0.043144226,0.5096512,1.8109869,0.08274078,-1.6559105,-0.07701874,0.035209656,-1.6864281,-1.2031608,-0.04787445,1.170063,1.475497,0.0030136108,0.19958878,0.17024994,0.06435394,-10.2937355,-0.7008245,-0.0017929077,6.1811256,1.5092443,-0.013389587,-0.95399475,0.0,0.0,0.0,0.0,0.0,0.0,0.0,0.0,0.0,0.0,0.0,0.0,3.0,-1.8527554,-3.0,3.0,3.0,-0.3541033,-3.0,-0.8819959,-3.0,-3.0,2.4651134,-3.0
2025-06-06 16:27:39.797,-4.467428,7.07387,-19.482,-0.0033125826,0.0013149311,-0.0036646677,-1.219045,-0.749303,9.731874,-0.0951767,0.006980896,7.6728477,-1.3610129,0.044441223,0.16540909,1.7802913,0.0032424927,-10.48661,0.046272278,-0.02696991,2.7435722,-0.4384628,0.07648468,0.5242996,1.8111395,-0.021324158,-1.7084007,-0.07671356,0.048789978,-1.70718,-1.2033134,-0.046272278,1.1395454,1.4754207,-0.028038025,0.19836807,0.17024994,0.027580261,-10.310825,-0.7009008,-0.00034332275,6.1249695,1.5090917,-0.045204163,-0.96131897,0.0,0.0,0.0,0.0,0.0,0.0,0.0,0.0,0.0,0.0,0.0,0.0,3.0,-1.8561381,-3.0,3.0,3.0,-0.3388091,-3.0,-0.8820602,-3.0,-3.0,2.4773264,-3.0
2025-06-06 16:27:39.848,-4.466959,7.080219,-19.492275,0.00095602154,0.002021196,-0.0026888717,-1.204303,-0.749295,9.689709,-0.0951004,-0.037879944,7.696041,-1.3610892,0.07106781,0.1715126,1.7804439,-0.027885437,-10.474403,0.04611969,0.030326843,2.757,-0.4384628,0.035743713,0.5206375,1.8115972,0.01247406,-1.6681175,-0.07663727,-0.033073425,-1.70718,-1.2029319,-0.044517517,1.1651802,1.4753444,-0.036735535,0.2093544,0.17009735,0.039787292,-10.347446,-0.7009008,-0.027122498,6.200657,1.509168,0.0497818,-0.91493225,0.0,0.0,0.0,0.0,0.0,0.0,0.0,0.0,0.0,0.0,0.0,0.0,3.0,-1.8504987,-3.0,3.0,3.0,-0.347025,-3.0,-0.8785241,-3.0,-3.0,2.4663496,-3.0
2025-06-06 16:27:39.899,-4.462005,7.082991,-19.503004,0.0015604814,0.0038716462,-0.001043672,-1.181173,-0.725067,9.664594,-0.0951767,0.008811951,7.7119102,-1.3610892,-0.08708954,0.15930557,1.7803676,-0.060157776,-10.476845,0.046424866,-0.012397766,2.7753105,-0.4383102,0.04688263,0.52918243,1.8118261,0.035972595,-1.6913109,-0.076789856,-0.08716583,-1.6839867,-1.2030845,-0.01209259,1.1944771,1.4754207,-0.013313293,0.2105751,0.17032623,-0.02735138,-10.334019,-0.7007482,-0.011405945,6.1200867,1.5090154,-0.0052261353,-0.9332428,0.0,0.0,0.0,0.0,0.0,0.0,0.0,0.0,0.0,0.0,0.0,0.0,3.0,-1.8524901,-3.0,3.0,3.0,-0.3502173,-3.0,-0.88347036,-3.0,-3.0,2.469692,-3.0
2025-06-06 16:27:39.950,-4.457582,7.091138,-19.503464,-0.0012898856,0.001745591,-0.0009973684,-1.196474,-0.733213,9.690214,-0.09525299,0.03894806,7.7070274,-1.3611655,0.025291443,0.1702919,1.7802913,-0.008659363,-10.4902725,0.046195984,0.006752014,2.7618828,-0.4383102,-0.005683899,0.49988556,1.8116735,-0.019493103,-1.7047386,-0.07671356,0.07732391,-1.7010765,-1.203237,-0.002784729,1.1224518,1.4753444,0.01033783,0.2117958,0.17040253,-0.027275085,-10.308384,-0.7007482,-0.004081726,6.162815,1.5090917,0.024375916,-0.9332428,0.0,0.0,0.0,0.0,0.0,0.0,0.0,0.0,0.0,0.0,0.0,0.0,3.0,-1.8560934,-3.0,3.0,3.0,-0.3403655,-3.0,-0.8810919,-3.0,-3.0,2.4725778,-3.0
2025-06-06 16:27:40.001,-4.45424,7.096414,-19.510147,0.00075687945,0.0013642017,-0.00078984874,-1.214374,-0.755173,9.685983,-0.0951004,-0.043373108,7.692379,-1.361547,0.029258728,0.17517471,1.7803676,-0.06122589,-10.452431,0.046424866,-0.055122375,2.7521172,-0.43800503,0.057868958,0.5047684,1.8119787,0.0008773804,-1.6876488,-0.07663727,0.020713806,-1.7010765,-1.2030845,-0.1115036,1.1981392,1.4753444,-0.005607605,0.20447159,0.17032623,0.018501282,-10.358433,-0.7005956,0.002937317,6.1811256,1.5090917,-0.012016296,-0.9417877,0.0,0.0,0.0,0.0,0.0,0.0,0.0,0.0,0.0,0.0,0.0,0.0,3.0,-1.8561181,-3.0,3.0,3.0,-0.33494517,-3.0,-0.87493235,-3.0,-3.0,2.4764812,-3.0
2025-06-06 16:27:40.053,-4.452995,7.10216,-19.514648,0.00047931977,0.0058234655,-0.0031992234,-1.196438,-0.759633,9.679811,-0.09502411,-0.029716492,7.687496,-1.361547,-0.001411438,0.17639542,1.7803676,0.021629333,-10.460976,0.04634857,0.011634827,2.7521172,-0.4383102,0.022239685,0.5133133,1.8122839,-0.009422302,-1.6485863,-0.07648468,0.041618347,-1.7047386,-1.2030082,-0.0035476685,1.2225533,1.4752681,-0.00064849854,0.21301651,0.17047882,0.019340515,-10.357212,-0.7005193,0.03391266,6.2067604,1.5090917,-0.07511139,-0.9393463,0.0,0.0,0.0,0.0,0.0,0.0,0.0,0.0,0.0,0.0,0.0,0.0,3.0,-1.8606464,-3.0,3.0,3.0,-0.3338165,-3.0,-0.8749047,-3.0,-3.0,2.4729247,-3.0
2025-06-06 16:27:40.104,-4.447269,7.106488,-19.526348,0.0010009637,0.0024851393,-0.004559271,-1.19076,-0.723318,9.695726,-0.0951004,0.016899109,7.699703,-1.3616996,0.016975403,0.14099503,1.7802913,0.029335022,-10.4780655,0.04634857,0.039711,2.765545,-0.4385391,-0.07923126,0.5230789,1.8130468,0.03429413,-1.6449242,-0.07663727,-0.052223206,-1.7084007,-1.2027793,-0.037727356,1.1847115,1.4751918,-0.0012588501,0.2117958,0.1707077,-0.041999817,-10.340122,-0.700443,-0.023460388,6.1322975,1.509168,-0.054130554,-0.91981506,0.0,0.0,0.0,0.0,0.0,0.0,0.0,0.0,0.0,0.0,0.0,0.0,3.0,-1.8522894,-3.0,3.0,3.0,-0.3478956,-3.0,-0.8801376,-3.0,-3.0,2.4638085,-3.0
2025-06-06 16:27:40.155,-4.436162,7.115014,-19.53895,0.0014440679,0.0030950622,-0.0033761824,-1.251481,-0.725647,9.724026,-0.09502411,0.026054382,7.6899376,-1.3617759,0.049552917,0.18249893,1.7803676,0.0422287,-10.434118,0.046272278,0.007286072,2.757,-0.4382339,-0.060691833,0.49744415,1.8134283,-0.0024032593,-1.7242699,-0.076560974,-0.010566711,-1.6900902,-1.2028556,0.032463074,1.1834908,1.4751155,-0.057258606,0.2117958,0.170784,0.014533997,-10.340122,-0.7005193,-0.03238678,6.0993347,1.5090917,-0.009880066,-0.9442291,0.0,0.0,0.0,0.0,0.0,0.0,0.0,0.0,0.0,0.0,0.0,0.0,3.0,-1.8547491,-3.0,3.0,3.0,-0.35337874,-3.0,-0.8831704,-3.0,-3.0,2.4635675,-3.0
2025-06-06 16:27:40.206,-4.43533,7.119683,-19.545855,-0.0026111521,0.0010505834,-0.0004711167,-1.213795,-0.758534,9.688481,-0.0951004,-0.02407074,7.6984825,-1.362081,0.021705627,0.19592667,1.780215,-0.07480621,-10.476845,0.046424866,0.033073425,2.7557793,-0.4383102,-0.022468567,0.5133133,1.813352,-0.0308609,-1.773098,-0.076408386,0.009651184,-1.7108421,-1.2030845,-0.002784729,1.1725044,1.4751918,0.01613617,0.20569229,0.17093658,-0.031318665,-10.363316,-0.70036674,-0.013465881,6.0871277,1.5092443,0.0014877319,-0.9381256,0.0,0.0,0.0,0.0,0.0,0.0,0.0,0.0,0.0,0.0,0.0,0.0,3.0,-1.8557271,-3.0,3.0,3.0,-0.33981845,-3.0,-0.8791743,-3.0,-3.0,2.4723966,-3.0
2025-06-06 16:27:40.257,-4.43359,7.124333,-19.551897,0.0012105079,0.003267204,-0.003057747,-1.215678,-0.75314,9.67934,-0.0951004,0.0045394897,7.6935997,-1.3620048,0.023460388,0.20447159,1.7804439,0.0052261353,-10.48661,0.046424866,-0.0038528442,2.7411308,-0.4382339,-0.0030899048,0.526741,1.8137335,-0.044059753,-1.7511253,-0.076408386,-0.0035476685,-1.7047386,-1.2030082,0.008430481,1.1432076,1.474963,0.015144348,0.20569229,0.170784,0.053596497,-10.362095,-0.70021415,-0.020179749,6.1457253,1.5090154,-0.041160583,-0.9308014,0.0,0.0,0.0,0.0,0.0,0.0,0.0,0.0,0.0,0.0,0.0,0.0,3.0,-1.858143,-3.0,3.0,3.0,-0.3370081,-3.0,-0.8779183,-3.0,-3.0,2.4717288,-3.0
2025-06-06 16:27:40.308,-4.43394,7.126047,-19.56062,0.0008982162,0.0045197746,-0.0041513005,-1.208617,-0.746042,9.672544,-0.0951767,-0.008506775,7.687496,-1.3624625,-0.0073623657,0.16540909,1.7802913,-0.009422302,-10.482948,0.04634857,-0.052223206,2.7753105,-0.4384628,0.039634705,0.5096512,1.8144201,0.011329651,-1.7218285,-0.07648468,0.008354187,-1.6839867,-1.2030845,-0.0064468384,1.1725044,1.4750392,-0.045890808,0.22888565,0.17124176,-0.012016296,-10.390175,-0.70021415,0.008201599,6.110321,1.5090917,-0.010185242,-0.9625397,0.0,0.0,0.0,0.0,0.0,0.0,0.0,0.0,0.0,0.0,0.0,0.0,3.0,-1.8602761,-3.0,3.0,3.0,-0.3321992,-3.0,-0.8762307,-3.0,-3.0,2.4740274,-3.0
2025-06-06 16:27:40.359,-4.425321,7.13743,-19.576836,0.004295011,0.0106432615,-0.00544054,-1.204114,-0.749651,9.708937,-0.0951004,-0.012016296,7.7241173,-1.3630729,-0.06855011,0.18005753,1.7802913,0.0062179565,-10.462196,0.046043396,-0.002708435,2.744793,-0.4382339,0.036888123,0.5230789,1.8151067,0.018424988,-1.727932,-0.076408386,0.017051697,-1.7206078,-1.2029319,0.025291443,1.2176704,1.474963,0.017356873,0.22034073,0.17139435,-0.005455017,-10.374302,-0.6996801,0.0447464,6.1249695,1.5093969,0.02407074,-0.95277405,0.0,0.0,0.0,0.0,0.0,0.0,0.0,0.0,0.0,0.0,0.0,0.0,3.0,-1.863042,-3.0,3.0,3.0,-0.3232157,-3.0,-0.87627846,-3.0,-3.0,2.4760053,-3.0
2025-06-06 16:27:40.413,-4.41419,7.152663,-19.593035,0.0040301047,0.0062476327,-0.0063460693,-1.204369,-0.734811,9.65918,-0.0951004,-0.015296936,7.6935997,-1.3635306,-0.04497528,0.16418839,1.7802913,0.029563904,-10.484169,0.046043396,-0.006904602,2.7924004,-0.4383865,0.02773285,0.53528595,1.81648,0.03993988,-1.7718773,-0.076179504,0.02292633,-1.7132835,-1.202703,-0.07671356,1.1932564,1.4748104,-0.0032424927,0.22278214,0.17185211,0.055885315,-10.406044,-0.6994512,-0.0434494,6.1457253,1.5090917,-0.019264221,-0.95155334,0.0,0.0,0.0,0.0,0.0,0.0,0.0,0.0,0.0,0.0,0.0,0.0,3.0,-1.8614953,-3.0,3.0,3.0,-0.32315096,-3.0,-0.8729709,-3.0,-3.0,2.477221,-3.0
2025-06-06 16:27:40.467,-4.402189,7.166563,-19.630318,0.0058185086,0.008290977,-0.013694045,-1.225465,-0.738215,9.654962,-0.09502411,0.018882751,7.713131,-1.3636832,-0.009346008,0.21667862,1.7804439,0.024223328,-10.497597,0.04573822,0.03993988,2.7521172,-0.4384628,-0.005455017,0.53650665,1.8179296,0.018119812,-1.8146019,-0.075798035,-0.01712799,-1.7315941,-1.202703,-0.002708435,1.18227,1.4747341,0.0051498413,0.22400284,0.17215729,0.0037765503,-10.431679,-0.69899344,0.005531311,6.1567116,1.509168,0.002861023,-0.940567,0.0,0.0,0.0,0.0,0.0,0.0,0.0,0.0,0.0,0.0,0.0,0.0,3.0,-1.866366,-3.0,3.0,3.0,-0.32065567,-3.0,-0.87340564,-3.0,-3.0,2.4766245,-3.0
2025-06-06 16:27:40.520,-4.387315,7.193966,-19.670057,0.0006453355,0.0067706034,-0.014335873,-1.223389,-0.713556,9.721384,-0.09502411,0.03932953,7.720455,-1.3645225,0.022163391,0.2105751,1.7803676,-0.036354065,-10.475624,0.04535675,-0.022315979,2.8033867,-0.4383102,0.08960724,0.5169754,1.819074,-0.030784607,-1.8585472,-0.075798035,-0.13217926,-1.7547874,-1.202703,0.022010803,1.1871529,1.4746578,-0.022163391,0.23865128,0.17292023,0.10547638,-10.431679,-0.69891715,0.008277893,6.1371803,1.5092443,-0.031318665,-0.9393463,0.0,0.0,0.0,0.0,0.0,0.0,0.0,0.0,0.0,0.0,0.0,0.0,3.0,-1.8680812,-3.0,3.0,3.0,-0.30867884,-3.0,-0.87339145,-3.0,-3.0,2.4845161,-3.0
2025-06-06 16:27:40.572,-4.372747,7.214679,-19.711847,0.007167596,0.007432118,-0.011355653,-1.248661,-0.702678,9.683851,-0.0951004,-0.005455017,7.708248,-1.3651328,-0.02735138,0.22766495,1.7804439,-0.052757263,-10.465858,0.045204163,-0.013389587,2.7972832,-0.43861538,-0.034980774,0.5096512,1.8199896,0.011405945,-1.8695335,-0.07549286,-0.04940033,-1.7364769,-1.2024741,-0.006980896,1.1639595,1.4746578,0.0035476685,0.23620987,0.17345428,0.020942688,-10.460976,-0.69876456,0.0008773804,6.1725807,1.509168,0.013999939,-0.9246979,0.0,0.0,0.0,0.0,0.0,0.0,0.0,0.0,0.0,0.0,0.0,0.0,3.0,-1.8699156,-3.0,3.0,3.0,-0.30607972,-3.0,-0.8642991,-3.0,-3.0,2.480186,-3.0
2025-06-06 16:27:40.625,-4.369327,7.224058,-19.742811,0.00075850263,0.0014073986,-0.006573259,-1.237899,-0.7571,9.721979,-0.094947815,-0.03353119,7.6984825,-1.3655906,-0.019264221,0.19470596,1.7803676,0.0012588501,-10.454872,0.0447464,0.061836243,2.814373,-0.43869168,-0.054893494,0.49622345,1.820371,-0.019569397,-1.8194847,-0.07518768,0.08457184,-1.7425804,-1.2023978,-0.030403137,1.2848091,1.4746578,-0.016365051,0.23010635,0.17360687,-0.040855408,-10.474403,-0.698612,0.004234314,6.126194,1.509168,-0.0060653687,-0.95765686,0.0,0.0,0.0,0.0,0.0,0.0,0.0,0.0,0.0,0.0,0.0,0.0,3.0,-1.8757851,-3.0,3.0,3.0,-0.29464003,-3.0,-0.86269563,-3.0,-3.0,2.4860418,-3.0
2025-06-06 16:27:40.677,-4.365569,7.230888,-19.761143,0.0022973246,0.0042347447,-0.0050120447,-1.217657,-0.737261,9.668461,-0.09479523,0.022773743,7.7106895,-1.3657432,0.02155304,0.15564346,1.7802913,-0.01247406,-10.48539,0.044670105,-0.026054382,2.7911797,-0.43861538,-0.020942688,0.5133133,1.8208288,0.0146102905,-1.8329124,-0.075416565,-0.009880066,-1.740139,-1.2022452,-0.0062179565,1.2872505,1.4746578,-0.034980774,0.23865128,0.17383575,-0.017356873,-10.484169,-0.6984594,-0.01285553,6.1115417,1.5092443,-0.028648376,-0.9381256,0.0,0.0,0.0,0.0,0.0,0.0,0.0,0.0,0.0,0.0,0.0,0.0,3.0,-1.8734978,-3.0,3.0,3.0,-0.29556605,-3.0,-0.8642828,-3.0,-3.0,2.4840422,-3.0
2025-06-06 16:27:40.730,-4.352408,7.242493,-19.776722,0.0006440265,0.002943463,-0.005187293,-1.239682,-0.673103,9.693638,-0.0951004,-0.036354065,7.699703,-1.3661246,-0.039482117,0.20447159,1.7804439,0.004234314,-10.475624,0.0447464,-0.0283432,2.7911797,-0.43869168,-0.05016327,0.514534,1.8212866,-0.0061416626,-1.86343,-0.07549286,-0.054283142,-1.7254906,-1.202169,0.022163391,1.256733,1.4747341,-0.00011444092,0.23010635,0.17406464,0.0522995,-10.460976,-0.6982305,0.016899109,6.178684,1.509168,-0.020103455,-0.9393463,0.0,0.0,0.0,0.0,0.0,0.0,0.0,0.0,0.0,0.0,0.0,0.0,3.0,-1.8747872,-3.0,3.0,3.0,-0.29447123,-3.0,-0.8629214,-3.0,-3.0,2.4828763,-3.0
2025-06-06 16:27:40.783,-4.344609,7.247266,-19.783117,-0.0012098971,0.0010748261,-0.0044734883,-1.256341,-0.721475,9.716446,-0.09502411,-0.006980896,7.692379,-1.3658957,-0.02193451,0.20447159,1.7804439,0.005378723,-10.498817,0.044670105,0.030708313,2.7875175,-0.4383865,-0.06603241,0.53406525,1.8215917,0.007133484,-1.8438988,-0.07526398,-0.050315857,-1.727932,-1.2020926,0.031471252,1.2591743,1.4745815,0.0146865845,0.23987198,0.17414093,0.027503967,-10.459755,-0.6980016,0.064201355,6.1652565,1.5090154,-0.027198792,-0.9320221,0.0,0.0,0.0,0.0,0.0,0.0,0.0,0.0,0.0,0.0,0.0,0.0,3.0,-1.8773469,-3.0,3.0,3.0,-0.2908058,-3.0,-0.86364794,-3.0,-3.0,2.4839368,-3.0
2025-06-06 16:27:40.836,-4.342136,7.251083,-19.79206,0.0008436223,-9.594075e-05,-0.0049057365,-1.212968,-0.726362,9.659181,-0.09502411,0.024223328,7.729,-1.3663535,0.048866272,0.1690712,1.7804439,0.046043396,-10.4683,0.044670105,0.02948761,2.8412285,-0.43861538,0.017585754,0.5206375,1.8219732,0.0077438354,-1.818264,-0.075416565,-0.053520203,-1.7169456,-1.2020926,-0.045280457,1.248188,1.4746578,0.0283432,0.23498917,0.1744461,0.014076233,-10.487831,-0.69784904,-0.0018692017,6.134739,1.5090917,-0.019340515,-0.9393463,0.0,0.0,0.0,0.0,0.0,0.0,0.0,0.0,0.0,0.0,0.0,0.0,3.0,-1.8753703,-3.0,3.0,3.0,-0.28393254,-3.0,-0.86627257,-3.0,-3.0,2.4916205,-3.0
2025-06-06 16:27:40.888,-4.343222,7.252672,-19.809422,-0.000644585,0.0018246893,-0.0054428964,-1.239303,-0.744482,9.685037,-0.0951004,0.0989151,7.696041,-1.366735,-0.08014679,0.18616104,1.7803676,0.009269714,-10.4451065,0.04459381,0.009117126,2.8204765,-0.43869168,-0.017662048,0.526741,1.8225073,0.00019073486,-1.86343,-0.07549286,-0.037269592,-1.7694359,-1.2020164,-0.042381287,1.2213326,1.4745815,-0.07129669,0.22766495,0.1745987,0.033226013,-10.475624,-0.69777274,-0.099372864,6.175022,1.5090917,-0.03917694,-0.95521545,0.0,0.0,0.0,0.0,0.0,0.0,0.0,0.0,0.0,0.0,0.0,0.0,3.0,-1.872308,-3.0,3.0,3.0,-0.29102036,-3.0,-0.86098343,-3.0,-3.0,2.4872878,-3.0
2025-06-06 16:27:40.940,-4.337804,7.258578,-19.816137,0.0015949865,0.0020582317,-0.00038723618,-1.259817,-0.72455,9.700938,-0.09525299,-0.0497818,7.685055,-1.3669639,0.009269714,0.23376846,1.7803676,-0.03604889,-10.484169,0.044441223,-0.009498596,2.7997246,-0.43861538,0.0005722046,0.54261017,1.8225836,-0.038490295,-1.8365746,-0.075416565,-0.072898865,-1.7206078,-1.2020926,-0.011787415,1.2628365,1.4745815,0.012779236,0.22644424,0.17467499,-0.062446594,-10.48661,-0.69762015,-0.01865387,6.155491,1.509168,0.023155212,-0.9369049,0.0,0.0,0.0,0.0,0.0,0.0,0.0,0.0,0.0,0.0,0.0,0.0,3.0,-1.8782803,-3.0,3.0,3.0,-0.2836729,-3.0,-0.8590628,-3.0,-3.0,2.4919643,-3.0
2025-06-06 16:27:40.993,-4.33791,7.257278,-19.820618,-0.0011877663,-0.0011095756,-0.002719031,-1.241237,-0.734336,9.691152,-0.09502411,-0.025978088,7.6911583,-1.3670402,0.021781921,0.206913,1.7802913,-0.0016403198,-10.471962,0.044517517,0.008964539,2.8326836,-0.43869168,-0.050468445,0.52918243,1.8227361,-0.0050735474,-1.7901878,-0.075416565,-0.018119812,-1.7425804,-1.2019401,-0.031547546,1.2701607,1.4745052,0.0020980835,0.21545792,0.1745987,-0.0019454956,-10.467079,-0.69754386,0.022773743,6.151829,1.5093969,-0.02368927,-0.96131897,0.0,0.0,0.0,0.0,0.0,0.0,0.0,0.0,0.0,0.0,0.0,0.0,3.0,-1.8798007,-3.0,3.0,3.0,-0.28188738,-3.0,-0.85694385,-3.0,-3.0,2.4883146,-3.0
2025-06-06 16:27:41.046,-4.33433,7.260399,-19.830772,0.0036460625,0.0013711306,-0.003524413,-1.241004,-0.738211,9.688829,-0.0951004,0.023002625,7.718014,-1.3671927,0.07190704,0.20203018,1.7803676,0.027580261,-10.492714,0.044441223,-0.0062942505,2.814373,-0.43861538,0.0049209595,0.54261017,1.8230413,0.0032424927,-1.8548851,-0.07564545,0.010261536,-1.7376976,-1.2019401,-0.0016403198,1.3189888,1.4745815,0.017051697,0.22522354,0.17467499,0.03704071,-10.467079,-0.6972387,0.06946564,6.164036,1.509168,0.01209259,-0.9271393,0.0,0.0,0.0,0.0,0.0,0.0,0.0,0.0,0.0,0.0,0.0,0.0,3.0,-1.8842295,-3.0,3.0,3.0,-0.27289006,-3.0,-0.86180705,-3.0,-3.0,2.4933927,-3.0
2025-06-06 16:27:41.099,-4.329375,7.267079,-19.831957,-0.0018007958,-0.00093272136,-0.001170121,-1.241426,-0.725136,9.65149,-0.09502411,-0.010185242,7.718014,-1.3674216,-0.028877258,0.1702919,1.7802913,0.0065994263,-10.50248,0.044517517,0.034599304,2.8216972,-0.4383102,0.017051697,0.5242996,1.8233465,0.0358963,-1.8084984,-0.07556915,-0.04184723,-1.7120628,-1.2019401,0.0146102905,1.2579536,1.4745052,0.043067932,0.23620987,0.1744461,0.039405823,-10.481728,-0.6972387,0.047721863,6.176243,1.5092443,0.02445221,-0.9356842,0.0,0.0,0.0,0.0,0.0,0.0,0.0,0.0,0.0,0.0,0.0,0.0,3.0,-1.8785173,-3.0,3.0,3.0,-0.27299842,-3.0,-0.8593594,-3.0,-3.0,2.4885871,-3.0
2025-06-06 16:27:41.152,-4.326868,7.268847,-19.8434,0.00032309536,0.0011977496,-0.0029335842,-1.251788,-0.696102,9.69119,-0.0951004,-0.020484924,7.697262,-1.3674216,0.010414124,0.21301651,1.7804439,-0.010719299,-10.481728,0.044441223,-0.007133484,2.8253593,-0.43869168,-0.121421814,0.52918243,1.8233465,-0.023155212,-1.8487816,-0.07549286,0.07587433,-1.7108421,-1.2017875,0.05153656,1.2298775,1.4745052,-0.022850037,0.23987198,0.17498016,0.020942688,-10.4902725,-0.6971624,0.0017929077,6.166477,1.509168,0.05191803,-0.9344635,0.0,0.0,0.0,0.0,0.0,0.0,0.0,0.0,0.0,0.0,0.0,0.0,3.0,-1.8811258,-3.0,3.0,3.0,-0.27721307,-3.0,-0.8551328,-3.0,-3.0,2.485929,-3.0
2025-06-06 16:27:41.205,-4.324716,7.276373,-19.845686,-0.0013474117,0.00043624503,-0.00034424872,-1.268352,-0.764276,9.706246,-0.09502411,0.0090408325,7.6935997,-1.3676505,-0.027961731,0.21423721,1.7802913,0.017433167,-10.423132,0.044517517,-0.0037002563,2.8192558,-0.43861538,-0.048103333,0.5169754,1.8238043,0.019340515,-1.8500023,-0.07564545,-0.04573822,-1.7364769,-1.2017875,-3.8146973e-05,1.2970161,1.4744289,-0.02002716,0.24231339,0.1745987,-0.0573349,-10.531776,-0.6972387,0.005683899,6.126194,1.5090154,0.009880066,-0.94911194,0.0,0.0,0.0,0.0,0.0,0.0,0.0,0.0,0.0,0.0,0.0,0.0,3.0,-1.8783332,-3.0,3.0,3.0,-0.28315434,-3.0,-0.8613332,-3.0,-3.0,2.4856753,-3.0
2025-06-06 16:27:41.257,-4.32527,7.270549,-19.841677,0.0015553851,0.0012433726,0.0005409997,-1.249306,-0.742958,9.682864,-0.09479523,-0.0014877319,7.6899376,-1.3677268,-0.039405823,0.21423721,1.7804439,0.04009247,-10.426794,0.044441223,0.027961731,2.82658,-0.43876797,-0.11638641,0.5072098,1.8238043,-0.038871765,-1.8829651,-0.07556915,0.062446594,-1.7254906,-1.2018638,0.0049972534,1.2701607,1.4742763,0.013923645,0.23743057,0.17475128,-0.01285553,-10.492714,-0.69746757,-0.008735657,6.1005554,1.509168,-0.05809784,-0.9369049,0.0,0.0,0.0,0.0,0.0,0.0,0.0,0.0,0.0,0.0,0.0,0.0,3.0,-1.8799717,-3.0,3.0,3.0,-0.27983925,-3.0,-0.85635823,-3.0,-3.0,2.4869206,-3.0
2025-06-06 16:27:41.311,-4.327102,7.261891,-19.833548,-0.002303538,-0.000927433,-0.0016245175,-1.211986,-0.733959,9.678801,-0.094947815,-0.0024032593,7.7033653,-1.3678031,0.010948181,0.21301651,1.7804439,-0.016441345,-10.48661,0.044517517,0.013160706,2.8131523,-0.43869168,0.0062942505,0.52796173,1.8240331,-0.011634827,-1.8463402,-0.075416565,-0.05344391,-1.7145042,-1.2017875,-0.03238678,1.3006783,1.4742763,-0.014076233,0.23987198,0.17482758,0.031318665,-10.480507,-0.6972387,0.04322052,6.115204,1.5090917,-0.046424866,-0.95521545,0.0,0.0,0.0,0.0,0.0,0.0,0.0,0.0,0.0,0.0,0.0,0.0,3.0,-1.8830346,-3.0,3.0,3.0,-0.2739683,-3.0,-0.8574068,-3.0,-3.0,2.4932907,-3.0
2025-06-06 16:27:41.364,-4.334037,7.253722,-19.825583,-0.0016013396,0.003153269,-0.0025442885,-1.217785,-0.739333,9.708196,-0.0951004,-0.07144928,7.700924,-1.3676505,0.00957489,0.17761612,1.780215,0.04283905,-10.4902725,0.044517517,-0.041923523,2.8033867,-0.43861538,0.004386902,0.5194168,1.8243383,-0.003929138,-1.851223,-0.075416565,-0.046958923,-1.7779808,-1.2017112,0.022468567,1.2909126,1.4742,-0.016822815,0.23987198,0.17498016,-0.0046157837,-10.497597,-0.6970861,0.025978088,6.1445045,1.5090917,-0.05214691,-0.9332428,0.0,0.0,0.0,0.0,0.0,0.0,0.0,0.0,0.0,0.0,0.0,0.0,3.0,-1.8815473,-3.0,3.0,3.0,-0.2738354,-3.0,-0.8540016,-3.0,-3.0,2.4891472,-3.0
2025-06-06 16:27:41.417,-4.333459,7.255532,-19.823114,0.00071424106,-0.0006467841,-0.0041265343,-1.26838,-0.736993,9.723042,-0.09502411,0.018806458,7.680172,-1.3681083,0.036888123,0.22156143,1.780215,0.00995636,-10.473183,0.044441223,0.0017929077,2.8204765,-0.43869168,-0.046195984,0.5218582,1.8244909,0.022468567,-1.8561058,-0.075416565,0.04802704,-1.7364769,-1.2017112,-0.035209656,1.2994576,1.4742763,-0.026893616,0.23620987,0.17505646,-0.07190704,-10.497597,-0.6969335,-0.010795593,6.1701393,1.509168,-0.017814636,-0.95277405,0.0,0.0,0.0,0.0,0.0,0.0,0.0,0.0,0.0,0.0,0.0,0.0,3.0,-1.8835356,-3.0,3.0,3.0,-0.27459952,-3.0,-0.8556054,-3.0,-3.0,2.4917345,-3.0
2025-06-06 16:27:41.470,-4.339548,7.250931,-19.808578,0.00047928485,0.0009483246,-0.0011211995,-1.22483,-0.7419,9.676651,-0.09525299,-0.011940002,7.7119102,-1.3681083,-0.0033187866,0.19714737,1.7805202,0.0233078,-10.480507,0.04436493,0.002632141,2.8314629,-0.43861538,-0.044441223,0.53650665,1.8246435,0.0020217896,-1.8243675,-0.07556915,0.04924774,-1.715725,-1.2015586,0.063591,1.281147,1.4742763,0.0010299683,0.23865128,0.17498016,-0.051689148,-10.496376,-0.6970861,0.044288635,6.1603737,1.5092443,0.020256042,-0.9308014,0.0,0.0,0.0,0.0,0.0,0.0,0.0,0.0,0.0,0.0,0.0,0.0,3.0,-1.8842868,-3.0,3.0,3.0,-0.2707537,-3.0,-0.8559676,-3.0,-3.0,2.488634,-3.0
2025-06-06 16:27:41.523,-4.337745,7.252917,-19.805422,0.0035439609,0.0021409953,-0.0008845154,-1.226034,-0.714249,9.697941,-0.0951767,-0.031700134,7.6935997,-1.3683372,0.052833557,0.19348526,1.7805202,-0.0025558472,-10.48661,0.04421234,-0.013313293,2.8155937,-0.4384628,0.0182724,0.5181961,1.8247961,-0.0065994263,-1.8658714,-0.07556915,-0.045814514,-1.7450218,-1.2017112,0.011329651,1.2945747,1.4742763,-0.015068054,0.23743057,0.17513275,-0.062828064,-10.508583,-0.6969335,-0.0036239624,6.15427,1.5093206,0.03513336,-0.9369049,0.0,0.0,0.0,0.0,0.0,0.0,0.0,0.0,0.0,0.0,0.0,0.0,3.0,-1.8807808,-3.0,3.0,3.0,-0.26869103,-3.0,-0.8568567,-3.0,-3.0,2.493472,-3.0
2025-06-06 16:27:41.577,-4.338724,7.251498,-19.794456,0.0005410521,0.0029342824,0.0009617113,-1.255766,-0.753742,9.682047,-0.0951004,-0.03566742,7.7143517,-1.3681846,0.011940002,0.24353409,1.7803676,-0.0002670288,-10.50248,0.044441223,-0.020713806,2.8033867,-0.43876797,0.014533997,0.5255203,1.8252538,0.061454773,-1.8500023,-0.07564545,-0.011634827,-1.7254906,-1.2016349,-0.0037002563,1.301899,1.4742763,-0.016212463,0.2471962,0.17498016,-0.019569397,-10.528114,-0.6970098,-0.0059127808,6.1286354,1.5092443,0.0308609,-0.940567,0.0,0.0,0.0,0.0,0.0,0.0,0.0,0.0,0.0,0.0,0.0,0.0,3.0,-1.8821335,-3.0,3.0,3.0,-0.27651164,-3.0,-0.85450083,-3.0,-3.0,2.4886327,-3.0
2025-06-06 16:27:41.635,-4.339736,7.25373,-19.786827,0.0015471121,0.0015701505,-0.0012514534,-1.227793,-0.727498,9.711759,-0.09502411,-0.021018982,7.7058067,-1.3683372,-0.051765442,0.2117958,1.7803676,0.0118637085,-10.441444,0.04436493,-0.0258255,2.8033867,-0.43861538,-0.019950867,0.5462723,1.8254064,0.0104904175,-1.8878479,-0.07549286,-0.043907166,-1.7633324,-1.2014823,0.05405426,1.2896919,1.4742,0.02155304,0.23620987,0.17505646,-0.040397644,-10.467079,-0.6969335,0.031089783,6.1567116,1.5092443,-0.016899109,-0.9344635,0.0,0.0,0.0,0.0,0.0,0.0,0.0,0.0,0.0,0.0,0.0,0.0,3.0,-1.8831971,-3.0,3.0,3.0,-0.27452204,-3.0,-0.85727656,-3.0,-3.0,2.4890578,-3.0
2025-06-06 16:27:41.691,-4.33555,7.252116,-19.771881,-0.0034384732,0.00053070224,0.00084795075,-1.260147,-0.701864,9.677256,-0.09502411,-0.0035476685,7.692379,-1.3684134,0.011024475,0.22034073,1.7805202,0.0073623657,-10.457314,0.044441223,-0.026283264,2.7948418,-0.4384628,0.027046204,0.5242996,1.8254827,-0.007896423,-1.8670921,-0.07534027,-0.04383087,-1.7450218,-1.2015586,-0.047035217,1.2579536,1.4742763,0.03643036,0.23865128,0.17536163,0.04688263,-10.473183,-0.6968572,0.014839172,6.1615944,1.5090154,-0.04940033,-0.95765686,0.0,0.0,0.0,0.0,0.0,0.0,0.0,0.0,0.0,0.0,0.0,0.0,3.0,-1.8844825,-3.0,3.0,3.0,-0.26502296,-3.0,-0.8554773,-3.0,-3.0,2.4984093,-3.0
2025-06-06 16:27:41.744,-4.339076,7.249971,-19.761854,0.0020079664,0.0052814535,-0.0034583872,-1.24974,-0.740429,9.709425,-0.0951004,-0.026664734,7.700924,-1.3684897,0.051383972,0.22400284,1.780215,-0.058937073,-10.470741,0.044517517,-0.0048446655,2.82658,-0.43892056,-0.012245178,0.5133133,1.8257116,0.017280579,-1.8207054,-0.07556915,-0.016975403,-1.740139,-1.2012534,0.010185242,1.3104439,1.4742763,0.006904602,0.23743057,0.17505646,0.0422287,-10.536659,-0.6968572,0.008125305,6.1860085,1.5092443,-0.0008773804,-0.96009827,0.0,0.0,0.0,0.0,0.0,0.0,0.0,0.0,0.0,0.0,0.0,0.0,3.0,-1.8836403,-3.0,3.0,3.0,-0.27232334,-3.0,-0.8503012,-3.0,-3.0,2.4884946,-3.0
2025-06-06 16:27:41.796,-4.338827,7.250725,-19.758371,-0.0019829383,0.0028457942,-0.0003030415,-1.232286,-0.705351,9.67718,-0.09502411,-0.017585754,7.7058067,-1.3690238,0.07663727,0.22278214,1.7804439,0.024375916,-10.462196,0.044441223,0.0017929077,2.8180351,-0.4385391,-0.016212463,0.5218582,1.8257879,-0.00919342,-1.8670921,-0.07556915,-0.044288635,-1.7425804,-1.2013297,-0.016746521,1.3372993,1.4740474,0.014457703,0.2484169,0.17551422,-0.03162384,-10.48661,-0.6968572,-0.018501282,6.1481667,1.5090154,-0.0497818,-0.9454498,0.0,0.0,0.0,0.0,0.0,0.0,0.0,0.0,0.0,0.0,0.0,0.0,3.0,-1.8848244,-3.0,3.0,3.0,-0.2719837,-3.0,-0.85548466,-3.0,-3.0,2.493682,-3.0
2025-06-06 16:27:41.848,-4.334426,7.256195,-19.747234,-0.0002854486,0.0018113375,-0.0001643751,-1.242634,-0.721425,9.671552,-0.09525299,0.00667572,7.704586,-1.3691001,0.052223206,0.21667862,1.780215,-0.012245178,-10.507362,0.04436493,-0.02773285,2.8278008,-0.4383865,-0.019721985,0.5255203,1.8260931,0.009422302,-1.8561058,-0.07549286,-0.013313293,-1.7181664,-1.2012534,0.040473938,1.2909126,1.4741237,-0.015525818,0.23743057,0.17551422,0.060157776,-10.524452,-0.6968572,-0.024681091,6.183567,1.5092443,-0.010261536,-0.9417877,0.0,0.0,0.0,0.0,0.0,0.0,0.0,0.0,0.0,0.0,0.0,0.0,3.0,-1.8847867,-3.0,3.0,3.0,-0.27388677,-3.0,-0.85388154,-3.0,-3.0,2.489455,-3.0
2025-06-06 16:27:41.899,-4.336387,7.251368,-19.74124,-0.00029126054,-0.00023001694,-0.0019037876,-1.237161,-0.718512,9.697004,-0.0951767,-0.03353119,7.7241173,-1.369329,-0.07740021,0.23254776,1.7804439,-0.017738342,-10.469521,0.04459381,-0.00957489,2.822918,-0.4384628,-0.017662048,0.5120926,1.8259405,0.0035476685,-1.912262,-0.07556915,0.023384094,-1.7462425,-1.2014823,0.03353119,1.2823677,1.4741237,0.004386902,0.2459755,0.17536163,-0.039024353,-10.541542,-0.6968572,-0.025672913,6.150608,1.5090917,-0.026359558,-0.9234772,0.0,0.0,0.0,0.0,0.0,0.0,0.0,0.0,0.0,0.0,0.0,0.0,3.0,-1.8839688,-3.0,3.0,3.0,-0.26994297,-3.0,-0.8530002,-3.0,-3.0,2.4917047,-3.0
2025-06-06 16:27:41.950,-4.334097,7.249219,-19.731,-0.00013988814,0.0010048384,0.0029500078,-1.283572,-0.717583,9.662529,-0.094947815,0.011940002,7.718014,-1.3691764,0.079460144,0.22888565,1.7803676,-0.025520325,-10.469521,0.044441223,-0.002632141,2.8278008,-0.4383102,0.0963974,0.48645782,1.8260168,-0.01613617,-1.9232483,-0.07564545,-0.027046204,-1.7572289,-1.2013297,0.017967224,1.2738228,1.4741237,0.035438538,0.2484169,0.17520905,0.0104904175,-10.50248,-0.6968572,-0.015296936,6.159153,1.5092443,0.0623703,-0.9271393,0.0,0.0,0.0,0.0,0.0,0.0,0.0,0.0,0.0,0.0,0.0,0.0,3.0,-1.8849387,-3.0,3.0,3.0,-0.26409313,-3.0,-0.85801786,-3.0,-3.0,2.497775,-3.0
2025-06-06 16:27:42.001,-4.337109,7.245884,-19.724998,-0.0012897634,0.00033178707,-0.00088633056,-1.247622,-0.733389,9.681563,-0.0951767,-0.03894806,7.688717,-1.3695579,-0.007209778,0.2508583,1.7802913,0.00995636,-10.471962,0.044517517,0.02117157,2.8339043,-0.4384628,0.027885437,0.5572586,1.8262457,0.0021743774,-1.89151,-0.075416565,-0.055656433,-1.7413597,-1.2014823,0.02292633,1.2555122,1.4741237,0.003929138,0.2508583,0.17536163,0.008506775,-10.546425,-0.6967809,0.029258728,6.2067604,1.5090154,-0.03025055,-0.9356842,0.0,0.0,0.0,0.0,0.0,0.0,0.0,0.0,0.0,0.0,0.0,0.0,3.0,-1.8863052,-3.0,3.0,3.0,-0.2638851,-3.0,-0.8475321,-3.0,-3.0,2.4929454,-3.0
2025-06-06 16:27:42.051,-4.337043,7.247999,-19.718838,-0.002494826,0.0028079206,-0.0010172302,-1.253349,-0.705627,9.706851,-0.09502411,-0.005378723,7.7192345,-1.3694053,0.05886078,0.2484169,1.7804439,-0.014762878,-10.512245,0.044517517,-0.008888245,2.8180351,-0.4383865,0.024299622,0.5194168,1.8264745,-0.032463074,-1.8780823,-0.07526398,0.113716125,-1.7096214,-1.2011771,0.021781921,1.3275337,1.4740474,-0.0049972534,0.252079,0.17551422,0.03879547,-10.525673,-0.6967809,-0.00919342,6.164036,1.509168,-0.020256042,-0.95765686,0.0,0.0,0.0,0.0,0.0,0.0,0.0,0.0,0.0,0.0,0.0,0.0,3.0,-1.8912691,-3.0,3.0,3.0,-0.25697574,-3.0,-0.85068685,-3.0,-3.0,2.4988086,-3.0
2025-06-06 16:27:42.102,-4.339807,7.250448,-19.709675,0.001938607,0.00020643754,-0.0011635063,-1.253194,-0.74209,9.663,-0.09502411,0.009422302,7.7058067,-1.3696342,-0.010108948,0.20080948,1.7802913,-0.02368927,-10.487831,0.044517517,-0.004081726,2.7972832,-0.4383865,0.0025558472,0.5242996,1.826856,0.049858093,-1.8316917,-0.07526398,0.029640198,-1.7303734,-1.2010245,-0.0233078,1.2957954,1.4740474,-0.017662048,0.26184464,0.17543793,-0.0061416626,-10.491493,-0.6967809,-0.020637512,6.1896706,1.5090917,-0.009727478,-0.95521545,0.0,0.0,0.0,0.0,0.0,0.0,0.0,0.0,0.0,0.0,0.0,0.0,3.0,-1.8852829,-3.0,3.0,3.0,-0.2646701,-3.0,-0.8493651,-3.0,-3.0,2.4916308,-3.0
2025-06-06 16:27:42.153,-4.338691,7.251486,-19.707474,-5.8939768e-05,0.0020802754,-0.0002160194,-1.236128,-0.70857,9.677258,-0.09525299,0.043067932,7.704586,-1.3697104,-0.0034713745,0.25452042,1.7802913,-0.016670227,-10.448769,0.044441223,0.026893616,2.82658,-0.4385391,-0.008277893,0.5218582,1.8269323,-0.007286072,-1.8573265,-0.07526398,0.030632019,-1.7315941,-1.2013297,-0.034751892,1.334858,1.4741237,-0.01750946,0.2484169,0.1757431,0.030937195,-10.512245,-0.6967046,-0.04711151,6.1567116,1.5090917,-0.008201599,-0.95155334,0.0,0.0,0.0,0.0,0.0,0.0,0.0,0.0,0.0,0.0,0.0,0.0,3.0,-1.8878685,-3.0,3.0,3.0,-0.26333544,-3.0,-0.85222,-3.0,-3.0,2.4975846,-3.0
2025-06-06 16:27:42.204,-4.337849,7.257,-19.69456,-0.0053220675,-0.0033167189,-0.0012806354,-1.273533,-0.757364,9.7151,-0.0951767,0.058631897,7.7070274,-1.3697867,-0.017280579,0.2508583,1.7802913,-0.019187927,-10.50248,0.044517517,-0.016822815,2.8241386,-0.4385391,0.0016403198,0.5047684,1.8270086,0.0074386597,-1.912262,-0.07511139,3.8146973e-05,-1.7364769,-1.2011771,0.012016296,1.2848091,1.4738948,-0.016365051,0.24353409,0.17528534,-0.061531067,-10.52079,-0.6967809,-0.028190613,6.211643,1.5092443,-0.0049209595,-0.9442291,0.0,0.0,0.0,0.0,0.0,0.0,0.0,0.0,0.0,0.0,0.0,0.0,3.0,-1.8857638,-3.0,3.0,3.0,-0.26624462,-3.0,-0.85109717,-3.0,-3.0,2.4924045,-3.0
2025-06-06 16:27:42.255,-4.343027,7.248293,-19.691046,-0.0016711004,0.0010739011,-0.0033067705,-1.242595,-0.726182,9.683178,-0.0951767,0.012702942,7.700924,-1.3697867,-0.0037765503,0.2496376,1.7802913,-0.0724411,-10.457314,0.044517517,0.010185242,2.7972832,-0.4383102,0.045967102,0.49500275,1.8270849,0.0049209595,-1.912262,-0.07526398,-0.021018982,-1.7120628,-1.2011008,-0.060920715,1.2664986,1.4739711,0.010261536,0.25452042,0.1757431,0.038490295,-10.522011,-0.69655204,0.039863586,6.146946,1.5090154,-0.025749207,-0.9332428,0.0,0.0,0.0,0.0,0.0,0.0,0.0,0.0,0.0,0.0,0.0,0.0,3.0,-1.8908842,-3.0,3.0,3.0,-0.25694034,-3.0,-0.84887403,-3.0,-3.0,2.5017347,-3.0
2025-06-06 16:27:42.306,-4.345315,7.250793,-19.680647,0.001205272,0.00369282,-0.003936817,-1.239196,-0.73636,9.659337,-0.09525299,0.002784729,7.721676,-1.3699393,0.022010803,0.21545792,1.7802913,0.014076233,-10.475624,0.044517517,0.0037765503,2.8290215,-0.43808132,0.024909973,0.49866486,1.8271612,0.002937317,-1.8780823,-0.07534027,-0.023841858,-1.740139,-1.2011771,-0.011787415,1.2957954,1.4740474,-0.00019073486,0.2532997,0.1757431,-0.011558533,-10.52079,-0.69647574,0.014381409,6.2177467,1.509168,0.013999939,-0.95277405,0.0,0.0,0.0,0.0,0.0,0.0,0.0,0.0,0.0,0.0,0.0,0.0,3.0,-1.8884426,-3.0,3.0,3.0,-0.25774392,-3.0,-0.84903836,-3.0,-3.0,2.4961295,-3.0
2025-06-06 16:27:42.358,-4.343953,7.254434,-19.678152,-0.00015184365,-0.001207506,-0.0048017497,-1.241109,-0.699842,9.683966,-0.09525299,-0.004234314,7.696041,-1.3700156,-0.012168884,0.22278214,1.7805965,0.004005432,-10.458534,0.04436493,0.01750946,2.82658,-0.43800503,-0.030632019,0.52796173,1.8273901,0.0104904175,-1.830471,-0.07518768,0.008049011,-1.752346,-1.2011771,0.026664734,1.3238716,1.4740474,0.005683899,0.25574112,0.17559052,-0.038871765,-10.531776,-0.69647574,0.0434494,6.1933327,1.5093206,-0.009498596,-0.9454498,0.0,0.0,0.0,0.0,0.0,0.0,0.0,0.0,0.0,0.0,0.0,0.0,3.0,-1.8907202,-3.0,3.0,3.0,-0.25839254,-3.0,-0.8477983,-3.0,-3.0,2.4943283,-3.0
2025-06-06 16:27:42.408,-4.345754,7.251009,-19.669544,0.0012079424,0.0016543976,-0.0028838424,-1.264141,-0.725686,9.679013,-0.0951767,-0.027198792,7.7155724,-1.3704734,-0.01712799,0.23254776,1.7804439,0.018119812,-10.512245,0.044441223,-0.0132369995,2.8241386,-0.43792874,-0.03604889,0.53772736,1.8274664,0.041236877,-1.9159241,-0.07534027,0.06473541,-1.7596703,-1.2012534,-0.025672913,1.3189888,1.4738185,0.02658844,0.2532997,0.1757431,-0.060081482,-10.540321,-0.69647574,0.019187927,6.1933327,1.5092443,0.042915344,-0.92103577,0.0,0.0,0.0,0.0,0.0,0.0,0.0,0.0,0.0,0.0,0.0,0.0,3.0,-1.8901628,-3.0,3.0,3.0,-0.25738046,-3.0,-0.8488023,-3.0,-3.0,2.4952507,-3.0
2025-06-06 16:27:42.460,-4.347728,7.250268,-19.663614,-2.7925269e-06,0.0034170055,-0.0026114837,-1.245194,-0.716743,9.677056,-0.09525299,0.008506775,7.716793,-1.3707786,-0.037117004,0.24353409,1.780215,0.029258728,-10.473183,0.044441223,0.016975403,2.810711,-0.43785244,0.032691956,0.5157547,1.8273138,0.040473938,-1.8658714,-0.07556915,-0.032234192,-1.7328148,-1.2013297,-0.022392273,1.3080025,1.4738185,0.020942688,0.25452042,0.17566681,0.02483368,-10.515907,-0.69655204,-0.007286072,6.183567,1.5090917,0.006980896,-0.9417877,0.0,0.0,0.0,0.0,0.0,0.0,0.0,0.0,0.0,0.0,0.0,0.0,3.0,-3.0,-3.0,3.0,3.0,2.4478512,-3.0,0.43328726,-3.0,-3.0,1.6634896,-3.0
2025-06-06 16:27:42.511,-4.264334,7.387529,-19.57605,0.24580598,0.47388208,0.12994926,0.816191,-3.467026,6.558458,-0.08960724,-0.017204285,7.6057053,-1.3916068,-0.29315948,-6.0016785,1.7982967,0.89740753,-12.293278,0.07511139,0.90465546,0.5169754,-0.43037564,0.7702255,-0.604866,1.9680761,2.5497093,0.014038086,-0.08144379,-0.48603058,-1.0528717,-1.1525016,0.76984406,7.0795746,1.4490993,-0.47336578,1.752346,0.1720047,-0.13256073,-10.171665,-0.7093694,0.056800842,0.9771881,1.5188574,0.050239563,-1.3580513,0.0,0.0,0.0,0.0,0.0,0.0,0.0,0.0,0.0,0.0,0.0,0.0,3.0,-3.0,-3.0,3.0,3.0,2.9011834,-3.0,-0.32232854,0.9696756,-3.0,1.0380327,-3.0
2025-06-06 16:27:42.561,-4.335524,8.337353,-18.853148,0.20820995,-0.07801222,0.25714278,1.400831,-1.970289,10.135926,-0.09601593,-0.03124237,7.6484337,-1.4293723,-1.3373947,-3.2220955,1.8217952,-0.09853363,-11.911192,0.09716034,0.038261414,0.99916077,-0.43113858,0.21472931,0.10192871,2.056501,0.8603287,0.6353874,-0.106544495,-0.44750214,-0.01159668,-1.1202292,1.503334,-0.0592041,1.7217739,5.5366936,-0.94667053,0.16635895,-0.18047333,-9.955597,-0.77063346,-1.9720078,1.6058578,1.5669988,1.4530563,-5.0922394,0.0,0.0,0.0,0.0,0.0,0.0,0.0,0.0,0.0,0.0,0.0,0.0,3.0,-3.0,-3.0,3.0,3.0,0.87623197,-3.0,1.4167632,3.0,-3.0,0.031911064,-3.0
2025-06-06 16:27:42.613,-4.295111,7.209378,-18.68768,-0.053045284,-0.41109255,0.000540703,2.106996,0.370181,9.289817,-0.11135101,-0.4101944,8.987564,-1.5096335,-2.029461,0.07385254,1.8080623,-0.77472687,-10.469521,0.10219574,-0.17635345,1.0772858,-0.4258743,-0.32146454,0.38269806,1.9602941,-2.100872,0.30456924,-0.114479065,0.29644012,-0.4754715,-0.8522087,5.477566,-3.1769295,1.9910152,3.9781609,-0.68177414,0.16468048,0.01903534,-10.221714,-0.906513,-2.477993,0.20447159,1.6509985,1.4045334,-7.8547325,0.0,0.0,0.0,0.0,0.0,0.0,0.0,0.0,0.0,0.0,0.0,0.0,3.0,-2.9124815,-3.0,3.0,3.0,-3.0,-2.4583752,0.62822855,3.0,-3.0,-1.7483182,-3.0
2025-06-06 16:27:42.663,-5.69225,4.693684,-19.091057,-1.4149455,-1.8739781,-0.31868264,-3.636836,6.19911,20.288528,-0.1492691,-0.37425995,10.331577,-1.6149192,-1.689949,4.0582886,1.733218,-2.5585594,-5.322956,0.08892059,-1.1273575,2.9877167,-0.5301681,-2.904705,7.820553,1.8752264,-1.109581,-12.080872,-0.098609924,0.69911957,-0.8319206,-0.84641033,-1.2291336,0.49744415,2.0847042,0.14034271,0.8294792,0.14591217,-0.089530945,-9.329365,-1.117542,-4.0671196,-2.2186623,1.725614,0.7040024,-9.545433,0.0,0.0,0.0,0.0,0.0,0.0,0.0,0.0,0.0,0.0,0.0,0.0,3.0,-0.37995484,-1.8522209,-1.2745223,3.0,-3.0,1.4987555,-0.8728699,2.6075513,-3.0,-1.4219186,-3.0
2025-06-06 16:27:42.715,-7.419397,0.637456,-18.760168,-0.30630705,-0.9787907,-0.045210503,-3.614108,-1.618343,15.739412,-0.14476776,0.8069229,8.515144,-1.6083579,0.50266266,17.900055,1.6377742,-2.0047417,1.3116646,0.056800842,0.039711,-4.0424194,-0.6212669,-0.20305634,7.2309456,1.7787908,-2.9941216,-6.2482643,-0.046043396,0.98911285,2.7667656,-1.0298209,-1.9530869,-2.3297462,2.1497066,0.03932953,-2.654461,0.14194489,-0.15987396,-8.979019,-1.2067297,0.05558014,-2.3810196,1.6856359,-2.1258965,-4.212101,0.0,0.0,0.0,0.0,0.0,0.0,0.0,0.0,0.0,0.0,0.0,0.0,3.0,-2.2751434,0.1309476,-3.0,3.0,-3.0,3.0,0.049586315,2.6087425,-3.0,-2.0318968,-3.0
2025-06-06 16:27:42.765,-9.641845,-0.475064,-18.402382,-1.3968681,-0.12846404,0.17955749,-4.523532,2.009919,2.208576,-0.07061005,0.52822113,6.032196,-1.6239982,-0.31398773,6.983139,1.6606624,0.55675507,4.638134,0.036735535,0.15506744,-5.8539696,-0.6011978,0.9508896,4.9347687,1.6281103,-2.3090782,-1.9940491,0.0015640259,0.81417084,3.5065231,-1.0324912,0.3422165,0.8941803,2.1355922,-0.46161652,-1.6327171,0.021247864,-3.6886253,-0.42176056,-1.2684515,-1.9677353,-1.4923325,1.5910314,-1.849556,-1.215229,0.0,0.0,0.0,0.0,0.0,0.0,0.0,0.0,0.0,0.0,0.0,0.0,3.0,-1.6473866,3.0,-3.0,2.8619556,-3.0,3.0,-0.5901935,-2.0284903,-3.0,-3.0,-3.0
2025-06-06 16:27:42.817,-11.139799,1.529234,-18.200834,0.6200489,1.2034489,-0.120268874,-1.592387,-4.58774,5.904274,0.022773743,1.5340805,1.3726997,-1.5961509,0.61138153,9.053482,1.8365963,3.2207909,5.257038,0.0825119,0.7175827,-8.15259,-0.5393234,1.6975021,0.98939514,1.5858434,-0.09403229,-3.4442673,0.062828064,1.7712784,-0.15564346,-0.9641319,1.8314743,-7.836422,2.039996,-1.4043808,-14.176851,-0.11684418,-1.6446304,1.9073792,-1.4527013,-3.0930748,-0.20203018,1.5158819,-1.1954117,0.34851456,0.0,0.0,0.0,0.0,0.0,0.0,0.0,0.0,0.0,0.0,0.0,0.0,3.0,-0.19393876,3.0,-3.0,1.423073,-3.0,3.0,-2.2748432,-3.0,-2.8758905,-2.236563,-1.547514
2025-06-06 16:27:42.867,-12.150294,4.480843,-20.335745,-0.51652443,0.79875326,-0.82963336,2.048913,-4.259049,13.243066,0.051383972,0.49137115,2.0343323,-1.570745,0.064964294,18.595863,1.8807704,-0.067481995,8.37476,0.06877899,-0.6952286,-5.7965965,-0.51727444,-0.09624481,-7.304188,1.5972875,-0.019493103,-4.0375366,0.10951996,0.9302139,-0.30578995,-0.9653526,-0.08266449,-16.404669,1.9991786,-0.53569794,-17.459373,-0.12302399,0.07083893,-0.092163086,-1.4705541,0.831337,0.23254776,1.5697454,1.7872238,0.27527237,0.0,0.0,0.0,0.0,0.0,0.0,0.0,0.0,0.0,0.0,0.0,0.0,3.0,-0.14750859,3.0,-3.0,1.7736049,-3.0,3.0,-2.794008,-3.0,-2.6772645,-2.513456,-0.36071795
2025-06-06 16:27:42.918,-13.780635,4.102308,-22.689001,-0.17798938,-0.2239303,-0.7983103,1.222685,-3.588817,8.350458,0.07572174,0.35503387,1.0626373,-1.568685,0.058021545,18.667889,1.8620021,-0.08609772,9.159687,0.02986908,-0.5157852,-4.6723137,-0.5316177,-0.4189682,-3.6359215,1.586759,-0.17246246,-3.4772263,0.15613556,0.97003937,-2.2613869,-1.0332541,-1.2060928,-15.7540245,1.9950588,0.030479431,-18.020905,-0.12866974,-0.0019454956,0.6268425,-1.4635351,0.064582825,-0.7525749,1.6974615,1.8982315,-0.1324501,0.0,0.0,0.0,0.0,0.0,0.0,0.0,0.0,0.0,0.0,0.0,0.0,3.0,-0.3582612,3.0,-3.0,2.4963179,-3.0,3.0,-3.0,-3.0,-2.6775339,-2.6410215,-0.6092286
2025-06-06 16:27:42.970,-14.698623,2.847797,-24.638052,-0.24103986,-0.02603574,-0.7180711,0.805445,-3.697326,8.002218,0.09235382,-0.010261536,1.1419868,-1.5670066,0.43636322,16.899063,1.8613918,0.096473694,8.819103,0.008506775,-0.45124054,-3.9093628,-0.5239883,0.15735626,0.09094238,1.5598272,-0.23860931,-2.190586,0.19573212,0.48000336,-3.1403084,-1.0977988,-1.0750961,-15.349966,1.9949062,-0.026664734,-17.974518,-0.13683319,-0.07839203,1.0687408,-1.4715459,-0.07602692,-1.1383247,1.7241644,-0.016746521,0.3997879,0.0,0.0,0.0,0.0,0.0,0.0,0.0,0.0,0.0,0.0,0.0,0.0,3.0,-0.30353782,3.0,-3.0,2.906076,-3.0,3.0,-3.0,-3.0,-2.7955165,-2.7996871,-1.3698002
2025-06-06 16:27:43.020,-16.294857,2.574866,-26.765488,-0.5517234,0.3305657,-0.6827913,-0.325546,-3.025168,7.892459,0.08861542,-0.08388519,1.3641548,-1.5735679,-0.30628204,18.373692,1.8616207,0.0409317,8.965591,-0.02483368,-0.6975937,-2.694744,-0.5155197,0.14133453,2.4090958,1.549909,0.0009536743,-2.3712502,0.21533966,0.30223846,-3.502861,-1.1486869,-1.330452,-13.245441,1.9813259,-0.8221817,-16.324102,-0.1404953,-0.07083893,0.9417877,-1.4963415,-0.5817795,-0.64393234,1.6863226,-0.8309555,-0.029907227,0.0,0.0,0.0,0.0,0.0,0.0,0.0,0.0,0.0,0.0,0.0,0.0,3.0,-0.11729559,3.0,-3.0,3.0,-3.0,3.0,-3.0,-3.0,-2.9910223,-2.7878103,-1.8801594
2025-06-06 16:27:43.071,-17.868113,3.996304,-29.036951,-0.50273585,0.78157383,-0.38986406,-2.135902,-1.731868,9.005004,0.0863266,-0.0146865845,1.3641548,-1.574636,0.0014877319,19.356373,1.8614681,0.028572083,8.92897,-0.047569275,-0.3331375,-2.2027931,-0.5011764,0.54431915,2.2211037,1.5599035,0.1355362,-3.0463104,0.221138,-0.05466461,-3.339283,-1.213613,-1.9961166,-10.083773,1.9162471,-2.0286217,-12.163881,-0.1467514,-0.16735077,0.88319397,-1.5086248,-0.2148819,-0.7159538,1.6336797,-0.75962067,-0.07507324,0.0,0.0,0.0,0.0,0.0,0.0,0.0,0.0,0.0,0.0,0.0,0.0,3.0,0.10363045,3.0,-3.0,3.0,-3.0,3.0,-3.0,-3.0,-3.0,-2.7586632,-2.0695863
2025-06-06 16:27:43.122,-19.081053,6.619477,-30.372122,-0.578322,0.8539224,-0.028343657,-4.51995,-1.122114,7.665057,0.087776184,0.057029724,1.1395454,-1.5739493,0.00995636,20.794384,1.8825252,0.8899307,7.0624847,-0.052070618,0.053977966,-2.7045097,-0.47393948,0.71590424,0.8233757,1.5698217,0.14408112,-3.2172127,0.19001007,-1.0363388,-0.75745773,-1.3827567,-4.548687,-0.80872726,1.6921718,-6.0067444,0.08605957,-0.145607,0.074653625,0.60852814,-1.5131261,-0.13576508,-0.45594025,1.6043829,-0.33924103,-0.3680458,0.0,0.0,0.0,0.0,0.0,0.0,0.0,0.0,0.0,0.0,0.0,0.0,3.0,0.3699998,3.0,-3.0,3.0,-3.0,3.0,-3.0,-3.0,-3.0,-2.6705954,-2.1025872
2025-06-06 16:27:43.173,-20.186163,10.010063,-30.813534,-0.30055285,1.1023138,0.25442263,-4.899402,-3.02129,9.078809,0.11264801,0.7213974,-0.42786407,-1.56426,0.52051544,21.541466,1.9537075,1.6781235,3.4564743,-0.028266907,0.7252121,-4.2682533,-0.41885525,1.5084457,-1.9952698,1.5784429,0.07724762,-3.4772263,0.15087128,-0.5069351,-0.2484169,-1.5367179,-1.4960098,0.53528595,1.5237148,-1.2453842,0.18494034,-0.14598846,0.066719055,0.7721062,-1.5007665,0.3409195,-0.6768913,1.595075,-0.082206726,-0.47058868,0.0,0.0,0.0,0.0,0.0,0.0,0.0,0.0,0.0,0.0,0.0,0.0,3.0,0.70233184,3.0,-3.0,3.0,-3.0,3.0,-3.0,-3.0,-3.0,-2.6659691,-2.4252195
2025-06-06 16:27:43.224,-20.833767,13.349901,-31.132149,-0.23863158,0.87053466,0.19768448,-3.903173,-4.933511,10.565971,0.14629364,0.6407547,-1.5655746,-1.5317588,0.54042816,22.282444,2.0261867,1.1795425,1.5094223,-0.0060653687,0.10707855,-4.307316,-0.3488174,1.1048508,-4.2059975,1.572492,-0.2664566,-2.7521172,0.14156342,-0.08312225,-0.44739532,-1.5644889,-0.12424469,-0.18127823,1.4970119,-0.18909454,-0.35583878,-0.14598846,0.05115509,0.7086296,-1.4976385,0.018730164,-0.44861603,1.568067,-0.3384781,-0.3668251,0.0,0.0,0.0,0.0,0.0,0.0,0.0,0.0,0.0,0.0,0.0,0.0,3.0,1.0193889,3.0,-3.0,3.0,-3.0,3.0,-3.0,-3.0,-3.0,-2.637465,-2.4437656
2025-06-06 16:27:43.275,-22.039303,15.290554,-31.480791,-0.28129348,0.27845773,0.07046374,-3.949792,-4.28318,10.001685,0.1695633,0.49518585,-2.2211037,-1.4740043,1.1966324,21.828335,2.068301,0.44361115,1.1444283,-0.018806458,-0.36563873,-3.3124275,-0.32539517,0.28598785,-3.6847496,1.5627264,-0.17108917,-2.5824356,0.14148712,0.07236481,-0.5597,-1.5667777,-0.0017166138,-0.34973526,1.4942653,-0.0010299683,-0.45349884,-0.14339447,-0.02544403,0.64271164,-1.497791,0.052604675,-0.33752823,1.5579962,-0.08670807,-0.39246368,0.0,0.0,0.0,0.0,0.0,0.0,0.0,0.0,0.0,0.0,0.0,0.0,3.0,1.2739918,3.0,-3.0,3.0,-3.0,3.0,-3.0,-3.0,-3.0,-2.6436572,-2.178525
2025-06-06 16:27:43.327,-22.369637,15.906699,-31.240044,-0.09295559,-0.08204943,0.12933604,-4.482319,-4.035249,8.968795,0.19794464,0.65883636,-3.3893356,-1.3918357,1.8196487,19.695736,2.081576,0.117836,1.0357819,-0.042533875,-0.64243317,-2.207676,-0.33203274,-0.37296295,-2.805828,1.5534948,-0.3409958,-2.1515236,0.14125824,-0.009269714,-0.48523712,-1.5658622,-0.10951996,-0.29480362,1.494189,0.020637512,-0.45716095,-0.14431,-0.011177063,0.7379265,-1.4956548,0.053977966,-0.5230789,1.5642523,0.17787933,0.040893555,0.0,0.0,0.0,0.0,0.0,0.0,0.0,0.0,0.0,0.0,0.0,0.0,3.0,1.5062737,3.0,-3.0,3.0,-3.0,3.0,-3.0,-3.0,-3.0,-2.6399617,-1.7003375
2025-06-06 16:27:43.377,-22.388733,16.054714,-30.570515,-0.13798325,-0.2095343,0.17270432,-4.74879,-3.098285,7.379494,0.22815704,0.5397415,-4.2841225,-1.292501,1.8472672,17.511864,2.0910366,0.37708282,0.57312775,-0.07396698,-0.7806015,-0.8294792,-0.34897,-0.49678802,-2.0379944,1.5385412,-0.25218964,-1.6131821,0.14087677,-0.06404877,-0.4412918,-1.5657859,-0.08182526,-0.29602432,1.4941127,-0.056877136,-0.4412918,-0.14453888,-0.037117004,0.711071,-1.492832,0.067100525,-0.64027023,1.595075,0.48351288,0.21912003,0.0,0.0,0.0,0.0,0.0,0.0,0.0,0.0,0.0,0.0,0.0,0.0,3.0,1.753036,2.8670938,-3.0,3.0,-3.0,3.0,-3.0,-3.0,-3.0,-2.5928261,-1.172379
2025-06-06 16:27:43.428,-22.801096,16.254274,-29.68862,-0.52749634,-0.17311008,0.2071086,-4.82955,-3.022203,6.307687,0.25608063,0.7464981,-5.2643623,-1.1779838,2.2445335,14.792095,2.106219,0.80623627,-0.9784088,-0.110435486,-1.0690689,0.35217667,-0.36964566,-0.3230667,-1.235981,1.5272497,-0.2893448,-1.2469673,0.13965607,-0.0046920776,-0.45349884,-1.5664725,-0.018043518,-0.29968643,1.4940364,0.04108429,-0.46326447,-0.14461517,0.13072968,0.5658035,-1.4845922,0.141716,-0.7855339,1.645429,0.7249832,0.06896973,0.0,0.0,0.0,0.0,0.0,0.0,0.0,0.0,0.0,0.0,0.0,0.0,3.0,2.059346,2.3049433,-3.0,3.0,-3.0,3.0,-3.0,-3.0,-2.9318569,-2.4989936,-0.75216126
2025-06-06 16:27:43.479,-24.321398,16.427282,-28.884724,-0.7971927,-0.3347352,0.099364296,-5.057507,-3.569385,7.434369,0.28194427,0.5320358,-5.9894714,-1.0398154,2.6431694,11.36919,2.1320064,0.5540848,-3.7579918,-0.13378143,-0.6385422,0.99061584,-0.3894058,-0.4995346,-0.4803543,1.5090154,-0.4844284,-0.37170792,0.13774872,-0.14537811,-0.2508583,-1.5684562,-0.08342743,-0.14221573,1.4939601,0.005455017,-0.44861603,-0.14148712,0.04962921,0.6243973,-1.4735296,0.27439117,-0.6634636,1.6925787,0.7291031,0.09094238,0.0,0.0,0.0,0.0,0.0,0.0,0.0,0.0,0.0,0.0,0.0,0.0,3.0,2.4531906,1.4320029,-3.0,3.0,-3.0,3.0,-3.0,-3.0,-2.9327638,-2.338311,-0.63010883
2025-06-06 16:27:43.530,-27.12636,15.392232,-28.157537,-1.1918942,-0.83269906,-0.2706922,-4.931558,-3.749509,7.526811,0.29567719,0.10929108,-6.102997,-0.87906414,3.227047,7.7595177,2.132693,-0.14820099,-6.094452,-0.15033722,-0.13858795,0.99794006,-0.4120651,-0.26371002,-0.099487305,1.498258,-0.12012482,-0.4351883,0.13362885,-0.17673492,-0.12145996,-1.5724235,-0.10669708,0.00061035156,1.4938076,-0.008583069,-0.44861603,-0.13813019,-0.06687164,0.56702423,-1.4524724,0.6166458,-0.40589142,1.7160772,0.38913727,0.111694336,0.0,0.0,0.0,0.0,0.0,0.0,0.0,0.0,0.0,0.0,0.0,0.0,3.0,3.0,0.020571783,-3.0,3.0,-2.7267919,2.7034905,-3.0,-3.0,-3.0,-2.0598803,-0.8504667
2025-06-06 16:27:43.581,-30.847212,12.514503,-27.724327,-1.567289,-1.4951636,-0.7596601,-4.704509,-3.222065,7.293668,0.2854538,-0.6245041,-5.011673,-0.7022911,3.2178917,5.2301826,2.0785244,-1.5765762,-7.647213,-0.1506424,0.083732605,0.8245964,-0.4181686,-0.1745224,-0.053100586,1.5064214,0.04283905,0.08728027,0.12195587,-0.10707855,-0.005493164,-1.5753226,-0.14163971,-0.01159668,1.4935787,0.07732391,-0.4754715,-0.1329422,-0.008735657,0.22278214,-1.4166143,0.6858444,0.00793457,1.7169927,0.025596619,-0.21545792,0.0,0.0,0.0,0.0,0.0,0.0,0.0,0.0,0.0,0.0,0.0,0.0,3.0,3.0,-2.3185546,-3.0,3.0,-2.215969,-0.5859492,-3.0,-3.0,-3.0,-1.5500562,-1.5681424
2025-06-06 16:27:43.632,-35.154293,6.866781,-26.807844,-1.5912851,-2.3681118,-1.1304233,3.586238,-4.787084,8.933041,0.24990082,-0.21572113,-4.0546265,-0.54130703,3.397564,0.04699707,1.9315059,-3.5552635,-8.187992,-0.14202118,0.647316,-0.2105751,-0.42015225,0.3584671,-0.6610222,1.5315222,1.0183334,0.15198135,0.08747101,1.853447,-6.426491,-1.6404777,-3.4384575,6.9806976,1.6251094,6.4682465,-13.916838,-0.13431549,-1.313057,1.9232483,-1.3314703,2.630886,-2.2064552,1.6632055,-1.0791397,0.30945206,0.0,0.0,0.0,0.0,0.0,0.0,0.0,0.0,0.0,0.0,0.0,0.0,3.0,1.357479,-3.0,-2.9763,3.0,-1.0801975,-3.0,-3.0,-3.0,-3.0,-0.6849687,-3.0
2025-06-06 16:27:43.683,-38.991104,1.664956,-26.567038,-1.4757073,-0.36840615,-0.14080487,10.106028,-6.404299,10.117435,0.25081635,-0.15110016,-4.0924683,-0.40962368,1.9505692,-14.334326,1.7883785,-2.3225822,-7.376213,-0.15705109,-0.09555817,1.3702583,-0.43304592,-0.27370453,0.75989914,1.621549,1.2723923,0.57434845,0.13767242,0.06504059,-9.370869,-1.6887717,0.12363434,3.6701012,1.8311794,2.696804,-15.603876,-0.1782608,-0.1291275,2.2308693,-1.1687353,2.1097984,-1.4923325,1.5419744,-1.6870499,0.26306534,0.0,0.0,0.0,0.0,0.0,0.0,0.0,0.0,0.0,0.0,0.0,0.0,3.0,0.6953701,-3.0,-1.356093,3.0,-1.0795444,-3.0,-2.631789,-3.0,-3.0,0.8324399,-3.0
2025-06-06 16:27:43.735,-44.920067,-0.537883,-25.880024,-2.0231168,0.22154121,0.55822664,10.685478,-7.76548,10.330112,0.2425766,-0.22190094,-3.9215698,-0.42762905,-1.7028427,-13.20882,1.7317684,-0.7304764,-7.753414,-0.12218475,0.73833466,1.0809479,-0.43739468,-0.22098541,0.9332428,1.6549658,0.091667175,0.90760803,0.09311676,-1.5291977,-5.4962997,-1.6140037,1.7329025,1.6119614,1.8657405,-0.5741501,-12.81941,-0.17337799,0.067100525,1.6607933,-0.95602775,4.011654,-1.444725,1.4884924,-0.06175995,-0.048217773,0.0,0.0,0.0,0.0,0.0,0.0,0.0,0.0,0.0,0.0,0.0,0.0,3.0,-0.083493836,-3.0,3.0,3.0,-1.6500412,-3.0,-1.6220449,-3.0,-3.0,1.4957932,-3.0
2025-06-06 16:27:43.785,-51.02993,-0.84539,-24.15917,-1.4339744,0.09561835,1.0932103,5.994118,-6.717438,7.371732,0.24723053,0.09273529,-4.3891068,-0.5961624,-3.7286797,-9.65774,1.7032344,-0.80287933,-6.774395,0.022697449,2.9297295,-0.09460449,-0.4371658,-0.096092224,0.6341667,1.6420721,-0.10929108,-0.34607315,0.010032654,-1.5443802,-2.3285255,-1.5047507,1.8148422,4.3134193,1.7751033,-2.3453178,-7.2346077,-0.1594162,-0.021095276,1.2726021,-0.7817724,2.7880516,-1.371479,1.4850591,0.008735657,-0.0970459,0.0,0.0,0.0,0.0,0.0,0.0,0.0,0.0,0.0,0.0,0.0,0.0,3.0,-0.109212905,-3.0,3.0,3.0,-3.0,-3.0,-1.2823088,-3.0,-3.0,1.1269727,-3.0
2025-06-06 16:27:43.836,-57.057583,1.173339,-21.75822,-2.0617185,-0.083215095,1.3401746,1.881401,-2.678543,3.378408,0.23303986,-0.17917633,-3.4833298,-0.7926994,-3.3349266,-3.5004196,1.631213,-1.734581,-3.0328827,0.1026535,0.611763,-0.10803223,-0.4295364,-0.010261536,0.1300087,1.5455602,-1.6391373,-0.16418839,-0.08152008,-1.35746,0.25574112,-1.4149528,1.5040207,3.8605309,1.6373928,-2.6224937,-2.0709534,-0.15491486,0.16674042,0.7367058,-0.7601049,-0.7842636,-0.032348633,1.4851354,0.0182724,-0.0982666,0.0,0.0,0.0,0.0,0.0,0.0,0.0,0.0,0.0,0.0,0.0,0.0,3.0,0.10281676,-3.0,3.0,3.0,-3.0,-3.0,-1.513733,-3.0,-3.0,0.7468409,-3.0
2025-06-06 16:27:43.888,-63.1776,4.566375,-19.836039,-2.467489,-0.06349365,1.3837585,0.017602,-1.071249,0.60553,0.22144318,-0.063056946,-3.1488533,-0.889669,-1.283226,-1.6607933,1.5608699,-1.0681534,-1.2970161,0.10875702,-0.055274963,0.7476921,-0.43113858,0.031318665,0.1727333,1.5032171,-0.30483246,-0.3216591,-0.117836,-0.04863739,-0.11413574,-1.3503318,1.0128403,0.6585808,1.5276058,-1.1680222,-0.09094238,-0.14247894,0.060768127,0.49866486,-0.8221319,-1.6878128,0.7000847,1.4850591,-0.017585754,-0.08239746,0.0,0.0,0.0,0.0,0.0,0.0,0.0,0.0,0.0,0.0,0.0,0.0,3.0,0.0722073,-3.0,3.0,3.0,-3.0,-3.0,-1.4341921,-3.0,-3.0,0.5097119,-3.0
2025-06-06 16:27:43.939,-71.609474,8.095115,-17.859135,-3.4736657,-0.29972413,1.5901366,-2.999392,-2.229971,0.142895,0.22418976,-0.17467499,-3.5138474,-0.9591728,0.41324615,-0.24231339,1.5170009,-0.6999588,-0.35461807,0.10242462,-1.5955734,2.8290215,-0.42099148,3.257946,-3.9362183,1.5006994,-0.3319931,-0.38391876,-0.13561249,0.6127548,0.15198135,-1.3153892,-1.0972977,3.1451912,1.4994533,-0.25691986,-0.33996964,-0.14530182,0.90076447,0.1715126,-0.8720281,-0.07045746,-0.8856354,1.4840673,-0.07190704,0.037231445,0.0,0.0,0.0,0.0,0.0,0.0,0.0,0.0,0.0,0.0,0.0,0.0,3.0,-0.100848734,-3.0,3.0,3.0,-3.0,-3.0,-1.4575499,-3.0,-3.0,0.59245795,-3.0
2025-06-06 16:27:43.989,-77.925865,9.410712,-15.157166,-1.9597994,-1.140008,-0.20895536,-6.948062,-5.381222,-1.768276,0.17856598,-2.3828545,0.3704872,-1.0060935,-0.4857254,0.436409,1.4925106,-0.43621063,0.016479492,0.10318756,0.60375214,-0.2838173,-0.41015774,-0.051460266,-0.025024414,1.4939855,-0.2160263,-0.15076065,-0.14431,-0.42926788,1.1664009,-1.2879233,0.34610748,-0.2105751,1.4896877,-0.02483368,-0.2459755,-0.14133453,0.10158539,0.3619423,-0.8784368,0.26203156,-0.2532997,1.4858984,-0.045967102,-0.06652832,0.0,0.0,0.0,0.0,0.0,0.0,0.0,0.0,0.0,0.0,0.0,0.0,3.0,-0.060490515,-3.0,3.0,3.0,-3.0,-3.0,-1.4383103,-3.0,-3.0,0.38136643,-3.0
2025-06-06 16:27:44.040,-82.45529,9.568704,-11.589335,-1.297313,-1.1734058,0.5728093,-4.408573,0.441562,0.573136,0.13523102,-0.37303925,-0.07751465,-1.0127311,-0.04497528,0.13611221,1.4880855,-0.11104584,-0.10559082,0.12996674,-0.11219025,-0.19470596,-0.42907864,-0.005302429,0.38636017,1.4885687,-0.06855011,-0.16052628,-0.15468597,-0.26325226,1.5594711,-1.2740378,0.25348663,-0.39246368,1.489001,0.0074386597,-0.26184464,-0.13103485,-0.36373138,0.37414932,-0.90948844,-0.96035004,0.35217667,1.4851354,-0.006752014,-0.08972168,0.0,0.0,0.0,0.0,0.0,0.0,0.0,0.0,0.0,0.0,0.0,0.0,3.0,-0.087660074,-3.0,3.0,3.0,-3.0,-3.0,-1.5186336,-3.0,-3.0,0.3755842,-3.0
2025-06-06 16:27:44.091,-85.78073,10.6406,-8.284392,-1.7479151,-0.62740237,-0.73606795,-11.726317,-53.01938,-0.600419,0.16613007,0.55561066,-2.2052345,-1.0208945,0.0358963,0.14587784,1.4891536,-0.15110016,-0.11291504,0.09586334,0.8851242,0.19226456,-0.403215,-0.24860382,-0.37170792,1.490476,0.07839203,-0.43030548,-0.1745224,-0.63388824,2.597084,-1.2832694,-0.13156891,-0.22034073,1.4877803,-0.0762558,-0.14221573,-0.14217377,-0.46848297,1.072403,-0.906513,-0.16933441,-0.79652023,1.4883398,0.26935577,-0.5511551,0.0,0.0,0.0,0.0,0.0,0.0,0.0,0.0,0.0,0.0,0.0,0.0,3.0,-0.0628621,-3.0,3.0,3.0,-3.0,-3.0,-1.5243326,-3.0,-3.0,0.34950715,-3.0
2025-06-06 16:27:44.143,-88.27604,10.137891,-6.024406,-0.6762311,-0.90584385,0.47145668,2.123843,-3.022213,-0.48317,0.140419,-0.42835236,0.15686417,-1.0080009,-0.3129959,-0.20447159,1.4867122,0.3914261,-0.44861603,0.12500763,0.15743256,-0.33386612,-0.42877346,-0.5765152,0.7074089,1.487348,-0.039253235,-0.13855362,-0.17421722,0.0598526,1.6607933,-1.2877707,-0.13278961,0.053100586,1.4873226,-0.008888245,-0.2093544,-0.13729095,0.30857086,0.092163086,-0.9325292,-0.21152496,0.48279572,1.4855932,-0.023841858,-0.10559082,0.0,0.0,0.0,0.0,0.0,0.0,0.0,0.0,0.0,0.0,0.0,0.0,3.0,-0.08375102,-3.0,3.0,3.0,-3.0,-3.0,-1.4906517,-3.0,-3.0,0.36316794,-3.0
2025-06-06 16:27:44.193,-90.89257,10.085023,-4.302837,-0.7439507,-0.32392493,-0.10732923,-2.067909,-3.094064,-2.500782,0.16307831,0.12699127,-1.4337387,-1.0175376,0.08228302,-0.08972168,1.4876277,0.059165955,-0.25574112,0.11478424,0.09059906,0.06652832,-0.4183975,-0.34122467,0.051879883,1.4876531,0.009422302,-0.21789932,-0.18520355,-0.16414642,2.3407326,-1.2879996,0.49808502,-0.23620987,1.4870937,-0.019340515,-0.2105751,-0.14453888,-0.041999817,0.6768913,-0.9225347,-0.26844025,0.051879883,1.4861273,0.021629333,-0.12756729,0.0,0.0,0.0,0.0,0.0,0.0,0.0,0.0,0.0,0.0,0.0,0.0,3.0,-0.033216354,-3.0,3.0,3.0,-3.0,-3.0,-1.5092802,-3.0,-3.0,0.3484679,-3.0
2025-06-06 16:27:44.244,-93.3909,9.942777,-4.005058,-0.5916416,0.065497965,-0.023862334,-2.8962,-7.988572,-1.547121,0.15415192,-0.23303986,-0.7940788,-1.0106711,0.13179779,-0.13489151,1.4874752,-0.061302185,-0.21912003,0.11867523,0.06855011,0.12145996,-0.42236477,-0.11417389,0.025024414,1.4875005,0.012397766,-0.16540909,-0.18939972,0.05306244,2.2040138,-1.2836509,0.10128021,-0.38513947,1.48717,-0.026130676,-0.21423721,-0.14125824,-0.024223328,0.65003586,-0.9251287,-0.22251129,-0.055541992,1.486051,-0.021018982,-0.12756729,0.0,0.0,0.0,0.0,0.0,0.0,0.0,0.0,0.0,0.0,0.0,0.0,3.0,-0.04170389,-3.0,3.0,3.0,-3.0,-3.0,-1.459385,-3.0,-3.0,0.39680034,-3.0
2025-06-06 16:27:44.295,-95.02458,10.013249,-4.381028,-0.25278273,0.13784404,0.021202015,-1.865686,-8.640168,-1.426873,0.14019012,-0.18184662,-0.2484169,-1.0071616,0.08556366,-0.045776367,1.4873989,0.026283264,-0.21423721,0.117759705,-0.06816864,0.26794815,-0.42358547,-0.039482117,0.049438477,1.4874243,0.02696991,-0.18616104,-0.18665314,0.09082794,2.0660706,-1.2796073,0.16231537,-0.2496376,1.48717,-0.0146102905,-0.206913,-0.13767242,-0.053749084,0.41931915,-0.92551017,-0.011482239,0.08972168,1.4862036,0.0014877319,-0.14221573,0.0,0.0,0.0,0.0,0.0,0.0,0.0,0.0,0.0,0.0,0.0,0.0,3.0,-0.06810798,-3.0,3.0,3.0,-3.0,-3.0,-1.4519459,-3.0,-3.0,0.4416576,-3.0
2025-06-06 16:27:44.347,-95.61653,10.036945,-4.665377,-0.038161624,0.03558545,0.0012755215,-1.656897,-9.603968,-1.452417,0.13332367,-0.093193054,-0.24475479,-1.0086875,-0.02872467,-0.14099503,1.4873226,-0.04383087,-0.21545792,0.11684418,-0.015144348,0.2874794,-0.4243484,-0.06099701,0.03845215,1.4874243,-0.033988953,-0.18616104,-0.1833725,0.030021667,2.0404358,-1.2770896,-0.00415802,-0.099487305,1.4870937,-0.0075912476,-0.20325089,-0.13690948,0.010719299,0.42542267,-0.92055106,0.056495667,0.10925293,1.4861273,-0.028572083,-0.1324501,0.0,0.0,0.0,0.0,0.0,0.0,0.0,0.0,0.0,0.0,0.0,0.0,3.0,-0.08186689,-3.0,3.0,3.0,-3.0,-3.0,-1.4428658,-3.0,-3.0,0.47113782,-3.0
2025-06-06 16:27:44.397,-95.43856,9.975931,-4.657458,0.2013092,-0.020568984,-0.023816064,-1.927044,-9.603076,-1.686808,0.13462067,0.10959625,-0.38269806,-1.0099082,0.034828186,-0.20203018,1.4873989,-0.0497818,-0.22034073,0.116996765,0.012397766,0.28137589,-0.42411953,0.082588196,-0.014038086,1.4875005,-0.022850037,-0.18494034,-0.18321991,0.043525696,2.0209045,-1.2764792,-0.040245056,-0.025024414,1.48717,0.0075149536,-0.2117958,-0.13736725,0.046653748,0.436409,-0.9150579,0.063819885,0.10681152,1.4862036,-0.022087097,-0.1324501,0.0,0.0,0.0,0.0,0.0,0.0,0.0,0.0,0.0,0.0,0.0,0.0,3.0,-0.080365,-3.0,3.0,3.0,-3.0,-3.0,-1.4448055,-3.0,-3.0,0.48730236,-3.0
2025-06-06 16:27:44.448,-94.614334,9.847572,-4.628928,0.43829203,-0.003619743,-0.052375272,-1.894091,-9.582099,-1.564541,0.13629913,0.06771088,-0.45105743,-1.0100608,0.006980896,-0.19714737,1.4873989,-0.018196106,-0.22156143,0.116996765,-0.040245056,0.2862587,-0.42427212,-0.062828064,0.049438477,1.4874243,-0.011024475,-0.18371964,-0.1833725,-0.008049011,2.039215,-1.2761741,0.01209259,-0.07873535,1.48717,-0.008735657,-0.2117958,-0.13751984,-0.0036239624,0.44983673,-0.90781,0.053596497,-0.026245117,1.4862798,0.039863586,-0.13977432,0.0,0.0,0.0,0.0,0.0,0.0,0.0,0.0,0.0,0.0,0.0,0.0,3.0,-0.07298246,-3.0,3.0,3.0,-3.0,-3.0,-1.4382046,-3.0,-3.0,0.48874432,-3.0
2025-06-06 16:27:44.499,-93.10083,9.621558,-4.646551,0.6870624,0.016832635,-0.08673171,-1.842074,-9.614118,-1.393884,0.1379776,-0.03025055,-0.4742508,-1.0096793,-0.04184723,-0.18860245,1.4875515,-0.019569397,-0.22034073,0.116996765,-0.017585754,0.27283096,-0.42404324,0.024986267,0.015258789,1.4874243,0.008125305,-0.17639542,-0.1833725,-0.007209778,2.0465393,-1.2760978,0.024223328,-0.045776367,1.4870937,-0.016441345,-0.2093544,-0.13744354,0.017204285,0.45105743,-0.9075048,0.027580261,0.072631836,1.4862036,-0.0024032593,-0.13977432,0.0,0.0,0.0,0.0,0.0,0.0,0.0,0.0,0.0,0.0,0.0,0.0,3.0,-0.06822927,-3.0,3.0,3.0,-3.0,-3.0,-1.4400018,-3.0,-3.0,0.485946,-3.0
2025-06-06 16:27:44.550,-90.58831,9.259713,-4.699377,0.99465865,0.008410043,-0.1266008,-1.79192,-9.617829,-1.02152,0.1391983,0.1039505,-0.53162384,-1.0099845,0.01789093,-0.10925293,1.4873226,-0.0146102905,-0.21667862,0.116996765,0.025672913,0.27161026,-0.42419583,-0.051765442,0.017700195,1.4875005,0.020484924,-0.17517471,-0.18245697,0.04901886,1.9781799,-1.2760215,0.036354065,-0.037231445,1.4870174,0.0012588501,-0.2093544,-0.13751984,0.049171448,0.43030548,-0.9075811,0.03993988,0.07873535,1.4861273,-0.0008773804,-0.13977432,0.0,0.0,0.0,0.0,0.0,0.0,0.0,0.0,0.0,0.0,0.0,0.0,3.0,-0.06707542,-3.0,3.0,3.0,-3.0,-3.0,-1.4476823,-3.0,-3.0,0.47055572,-3.0
2025-06-06 16:27:44.601,-87.38257,8.830363,-4.712585,1.3308045,-0.017947866,-0.17235716,-1.791298,-9.586532,-0.6628,0.14148712,0.060081482,-0.6768913,-1.0105186,-0.0024795532,-0.09460449,1.4873989,0.003929138,-0.2117958,0.116996765,-0.012168884,0.2911415,-0.42411953,0.012016296,0.064086914,1.487348,0.0048446655,-0.17517471,-0.18024445,0.008583069,1.8219261,-1.2764792,0.042762756,-0.07507324,1.4870937,-0.022468567,-0.2081337,-0.13736725,0.026512146,0.44983673,-0.9088781,-0.040626526,-0.018920898,1.4862798,0.019264221,-0.13977432,0.0,0.0,0.0,0.0,0.0,0.0,0.0,0.0,0.0,0.0,0.0,0.0,3.0,-0.06127688,-3.0,3.0,3.0,-3.0,-3.0,-1.4587456,-3.0,-3.0,0.45156187,-3.0
2025-06-06 16:27:44.652,-83.16562,8.252536,-4.685215,1.7126285,-0.052458767,-0.19722967,-1.592487,-9.533731,-0.21314,0.14591217,0.11257172,-0.8587761,-1.0125022,-0.083351135,0.079956055,1.4874752,-0.00667572,-0.21912003,0.11692047,0.004005432,0.27038956,-0.4244247,0.010566711,0.012817383,1.487348,-0.05153656,-0.18371964,-0.17559052,0.060081482,1.5594711,-1.2780814,0.056877136,-0.0579834,1.48717,-0.013313293,-0.2093544,-0.13729095,0.04688263,0.44739532,-0.91055655,0.02910614,-0.022583008,1.4861273,-0.05809784,-0.14099503,0.0,0.0,0.0,0.0,0.0,0.0,0.0,0.0,0.0,0.0,0.0,0.0,3.0,-0.07244861,-3.0,3.0,3.0,-3.0,-3.0,-1.4692177,-3.0,-3.0,0.4344533,-3.0
2025-06-06 16:27:44.704,-77.84214,7.621324,-4.871757,2.0574636,0.22011994,-0.06968911,-0.269285,-10.261647,4.208233,0.17307281,1.975975,-4.269474,-1.0152488,-0.35068512,0.29968643,1.4933498,0.41309357,-0.96131897,0.111961365,-0.5030441,0.9308014,-0.42511135,-0.27187347,0.30090714,1.4869665,-0.01712799,-0.1324501,-0.104789734,1.7164993,-3.0341034,-1.2908988,-0.5524826,0.7000847,1.5092952,0.30155182,-1.4215317,-0.14461517,-0.09189606,0.7391472,-0.9100225,-0.44078827,0.004272461,1.4859747,-0.015296936,-0.122680664,0.0,0.0,0.0,0.0,0.0,0.0,0.0,0.0,0.0,0.0,0.0,0.0,3.0,-0.23100781,-3.0,3.0,3.0,-3.0,-3.0,-1.5203954,-3.0,-3.0,0.48916668,-3.0
2025-06-06 16:27:44.756,-71.19072,7.950497,-4.337292,1.2945135,-0.28297004,0.2671989,-0.759804,-7.882883,6.833599,0.250206,0.916481,-5.674526,-1.0362296,-0.44200897,0.16296768,1.5021999,-0.048332214,-0.6768913,0.08937836,-0.28499603,1.8084984,-0.42747647,0.022010803,0.064086914,1.4863561,0.03993988,-0.12756729,-0.047416687,0.40164948,-3.2843513,-1.3154655,-0.4265976,1.5484848,1.5239437,0.24028778,-1.7889671,-0.15903473,-0.18306732,1.3690376,-0.9046819,0.29483795,-0.38147736,1.4851354,0.02292633,-0.099487305,0.0,0.0,0.0,0.0,0.0,0.0,0.0,0.0,0.0,0.0,0.0,0.0,3.0,-0.23913944,-3.0,3.0,3.0,-3.0,-3.0,-1.555972,-3.0,-3.0,0.45368272,-3.0
2025-06-06 16:27:44.806,-69.00165,8.680492,-3.247965,0.061722487,-0.1972758,0.21019904,-2.274053,-8.781623,4.627988,0.2640152,-0.05130768,-4.744335,-1.0506492,-0.106925964,0.38025665,1.5004451,-0.0022506714,-0.6695671,0.08136749,0.07274628,1.4459457,-0.4207626,0.031013489,-0.14587784,1.4864324,-0.0024795532,-0.14221573,-0.05016327,-0.19390106,-2.190586,-1.3377433,-0.118141174,1.629055,1.5334041,0.08304596,-1.8976135,-0.1619339,0.24524689,0.98817444,-0.8962896,-0.023231506,-0.5133133,1.4852117,0.011787415,-0.10070801,0.0,0.0,0.0,0.0,0.0,0.0,0.0,0.0,0.0,0.0,0.0,0.0,3.0,-0.26175788,-3.0,3.0,3.0,-3.0,-3.0,-1.5615807,-3.0,-3.0,0.44828135,-3.0
2025-06-06 16:27:44.858,-69.24243,9.242455,-2.808271,-0.384105,-0.0011526329,0.007258754,-2.173434,-8.466849,4.247926,0.250206,-0.3822708,-3.8300133,-1.0541587,0.010414124,0.045776367,1.4996822,0.0052261353,-0.62073517,0.087394714,0.053215027,1.2005806,-0.42099148,0.030021667,-0.103149414,1.4862798,-0.0011825562,-0.13855362,-0.06816864,-0.18802643,-1.5155258,-1.3414054,0.052375793,1.4288559,1.5340145,-0.032081604,-1.8646507,-0.1543808,0.08136749,0.9344635,-0.89796805,-0.026359558,-0.5096512,1.4852117,-0.013999939,-0.10681152,0.0,0.0,0.0,0.0,0.0,0.0,0.0,0.0,0.0,0.0,0.0,0.0,3.0,-0.25980735,-3.0,3.0,3.0,-3.0,-3.0,-1.5634751,-3.0,-3.0,0.44978005,-3.0
2025-06-06 16:27:44.909,-70.575066,9.432258,-3.058527,-0.6010583,0.1139083,-0.20117885,-2.192021,-8.561989,3.771691,0.2260971,-0.65029144,-2.8912811,-1.0481315,0.1796341,-0.2899208,1.499377,0.014228821,-0.6353874,0.09471893,0.10974884,0.8636589,-0.421907,-0.0825119,-0.009155273,1.4863561,0.017814636,-0.14831924,-0.07915497,-0.14873505,-1.4691391,-1.3369803,0.09365082,1.1419868,1.5338619,-0.025062561,-1.8097191,-0.14911652,0.030708313,0.7464714,-0.901325,-0.03261566,-0.33630753,1.4852117,-0.03955841,-0.10559082,0.0,0.0,0.0,0.0,0.0,0.0,0.0,0.0,0.0,0.0,0.0,0.0,3.0,-0.2518504,-3.0,3.0,3.0,-3.0,-3.0,-1.551143,-3.0,-3.0,0.44874817,-3.0
2025-06-06 16:27:44.960,-72.472466,8.984691,-3.692104,-0.66060716,0.17908578,-0.252794,-1.380872,-9.279581,2.812737,0.20061493,-0.6536484,-1.990387,-1.037374,0.21297455,-0.6952019,1.4992244,0.020484924,-0.632946,0.100746155,0.06549835,0.7391472,-0.4233566,-0.07358551,0.0592041,1.4864324,-0.019340515,-0.13733292,-0.084114075,-0.24059296,-1.2249947,-1.3284354,0.23036957,0.7501335,1.5339382,0.006752014,-1.8585472,-0.1480484,0.03162384,0.8123894,-0.9050634,-0.08205414,-0.14709854,1.4852117,0.013694763,-0.0982666,0.0,0.0,0.0,0.0,0.0,0.0,0.0,0.0,0.0,0.0,0.0,0.0,3.0,-0.23597927,-3.0,3.0,3.0,-3.0,-3.0,-1.5470707,-3.0,-3.0,0.44201952,-3.0
2025-06-06 16:27:45.011,-74.54771,8.24145,-4.224717,-0.6029143,0.061265595,-0.07857507,-0.344134,-10.041528,1.966448,0.17436981,-0.52791595,-1.096817,-1.0327201,-0.027198792,-0.49011993,1.498843,0.008201599,-0.60974884,0.10562897,0.067100525,0.5450516,-0.42732388,-0.07343292,0.16296768,1.4863561,0.014533997,-0.14587784,-0.09983063,-0.3546524,-0.27405167,-1.3232474,0.05908966,0.83680344,1.5327175,-0.046195984,-1.7389183,-0.14713287,0.04749298,0.7037468,-0.91040397,-0.0005722046,-0.07873535,1.4852117,0.002632141,-0.10681152,0.0,0.0,0.0,0.0,0.0,0.0,0.0,0.0,0.0,0.0,0.0,0.0,3.0,-0.23219839,-3.0,3.0,3.0,-3.0,-3.0,-1.536087,-3.0,-3.0,0.4463367,-3.0
2025-06-06 16:27:45.062,-76.06802,8.021187,-4.200905,-0.21143751,-0.03846367,0.058378488,-1.5818,-9.580282,1.618625,0.15903473,-0.13904572,-1.0614166,-1.0344748,-0.034065247,-0.31311417,1.4982326,-0.005378723,-0.5877762,0.110435486,0.17719269,0.3936844,-0.42556912,0.09967804,-0.040893555,1.4863561,0.02193451,-0.15076065,-0.115623474,-0.14736176,-0.13977432,-1.3236289,-0.054512024,1.0418854,1.5308101,-0.008659363,-1.727932,-0.14217377,0.07030487,0.52918243,-0.9123876,-0.029945374,-0.06896973,1.4852117,0.0207901,-0.095825195,0.0,0.0,0.0,0.0,0.0,0.0,0.0,0.0,0.0,0.0,0.0,0.0,3.0,-0.25163406,-3.0,3.0,3.0,-3.0,-3.0,-1.5366231,-3.0,-3.0,0.47993487,-3.0
2025-06-06 16:27:45.112,-76.05625,8.193085,-4.089172,0.1838248,-0.021433167,-0.018006997,-1.692673,-9.377201,2.000219,0.16292572,0.2615738,-1.6400414,-1.0363059,-0.005531311,-0.45594025,1.4982326,-0.0024795532,-0.5975418,0.10967255,-0.058555603,0.60730743,-0.424501,-0.0064468384,0.05432129,1.4864324,0.019187927,-0.15198135,-0.11463165,0.21770477,-0.6341667,-1.3251548,-0.0033950806,1.0675201,1.5309627,0.015144348,-1.7486839,-0.1430893,-0.022010803,0.72938156,-0.90559745,0.08998871,-0.16052628,1.4850591,-0.009880066,-0.099487305,0.0,0.0,0.0,0.0,0.0,0.0,0.0,0.0,0.0,0.0,0.0,0.0,3.0,-0.26403913,-3.0,3.0,3.0,-3.0,-3.0,-1.5355967,-3.0,-3.0,0.4964369,-3.0
2025-06-06 16:27:45.164,-75.31809,8.110497,-4.076115,0.27261186,-0.00301551,-0.0025741162,-1.095905,-9.430786,2.711878,0.17513275,0.17841339,-2.1039124,-1.0363059,-0.056419373,-0.5133133,1.4982326,-0.01537323,-0.5914383,0.10761261,-0.104255676,0.7330437,-0.42503506,-0.0010299683,0.051879883,1.4863561,0.005607605,-0.13611221,-0.102500916,0.20381927,-1.0687408,-1.32546,0.015296936,1.0492096,1.5313442,0.013847351,-1.773098,-0.14667511,0.023612976,0.8294792,-0.9034612,-0.013084412,-0.07751465,1.4851354,0.002937317,-0.10437012,0.0,0.0,0.0,0.0,0.0,0.0,0.0,0.0,0.0,0.0,0.0,0.0,3.0,-0.25332746,-3.0,3.0,3.0,-3.0,-3.0,-1.537831,-3.0,-3.0,0.48685056,-3.0
2025-06-06 16:27:45.215,-74.72752,8.145911,-4.012179,0.12516661,-0.023150466,0.035209592,-1.414838,-9.183208,2.775329,0.1819992,0.03429413,-2.1039124,-1.0369925,-0.0063705444,-0.40345,1.4979274,0.005378723,-0.5963211,0.106163025,0.01247406,0.69276047,-0.42472988,0.0065231323,0.037231445,1.4863561,0.019493103,-0.14099503,-0.09906769,-0.0035476685,-0.9442291,-1.3260703,-0.11219025,1.0870514,1.5313442,-0.007972717,-1.7621117,-0.14736176,0.0422287,0.7428093,-0.902622,0.016288757,-0.11291504,1.4850591,-0.03353119,-0.10559082,0.0,0.0,0.0,0.0,0.0,0.0,0.0,0.0,0.0,0.0,0.0,0.0,3.0,-0.25141665,-3.0,3.0,3.0,-3.0,-3.0,-1.5343506,-3.0,-3.0,0.4862402,-3.0
2025-06-06 16:27:45.265,-74.49327,8.288426,-3.935178,0.0034403754,0.0004248306,0.014908899,-1.532696,-9.21239,2.797755,0.18314362,-0.01247406,-2.0343323,-1.0376029,0.005531311,-0.40467072,1.4982326,-0.002708435,-0.6036453,0.10593414,-0.04924774,0.6561394,-0.4246536,0.03704071,0.044555664,1.4863561,0.015449524,-0.13611221,-0.099601746,-0.07801056,-0.8856354,-1.3260703,-0.017738342,1.0504303,1.5311916,0.0548172,-1.719387,-0.14705658,0.039787292,0.76478195,-0.90201163,0.020561218,-0.10803223,1.4852117,-0.0035476685,-0.09460449,0.0,0.0,0.0,0.0,0.0,0.0,0.0,0.0,0.0,0.0,0.0,0.0,3.0,-0.2480602,-3.0,3.0,3.0,-3.0,-3.0,-1.5373638,-3.0,-3.0,0.48485225,-3.0
2025-06-06 16:27:45.316,-74.530556,8.340435,-3.942805,-0.031478427,0.00941057,-0.010010737,-1.448216,-9.337,2.571693,0.18253326,0.021629333,-1.9708557,-1.0371451,-0.040168762,-0.42420197,1.49808,-0.037574768,-0.5841141,0.10608673,-0.0076675415,0.6598015,-0.42488247,-0.03566742,0.03845215,1.4865087,0.023384094,-0.13611221,-0.09975433,-0.023231506,-0.8624382,-1.3253074,0.07259369,1.0260162,1.5305812,-0.025596619,-1.7145042,-0.14659882,-0.037574768,0.7513542,-0.9024694,0.053977966,-0.10070801,1.4851354,-0.0059127808,-0.10559082,0.0,0.0,0.0,0.0,0.0,0.0,0.0,0.0,0.0,0.0,0.0,0.0,3.0,-0.24906275,-3.0,3.0,3.0,-3.0,-3.0,-1.5353242,-3.0,-3.0,0.47886354,-3.0
2025-06-06 16:27:45.367,-74.62666,8.315445,-3.962715,-0.018404812,0.0035854299,0.0028680647,-1.376038,-9.371134,2.51679,0.18146515,-0.04650116,-1.9598694,-1.0369925,0.016899109,-0.42786407,1.4981563,0.008583069,-0.60974884,0.10623932,-0.002937317,0.665905,-0.42488247,0.013389587,0.03845215,1.4865087,0.002784729,-0.14221573,-0.1001358,0.0052261353,-0.84778976,-1.3249259,0.020561218,1.0296783,1.530505,0.032157898,-1.7328148,-0.14652252,-0.0033187866,0.76356125,-0.90315604,-0.050849915,-0.12023926,1.4851354,0.0073623657,-0.10437012,0.0,0.0,0.0,0.0,0.0,0.0,0.0,0.0,0.0,0.0,0.0,0.0,3.0,-0.24679545,-3.0,3.0,3.0,-3.0,-3.0,-1.5378026,-3.0,-3.0,0.47932822,-3.0
2025-06-06 16:27:45.418,-74.631,8.332837,-3.949371,0.013056843,-0.002789839,-0.0012061272,-1.486232,-9.295355,2.531185,0.18169403,0.06664276,-2.0050354,-1.0369925,-0.03261566,-0.37537384,1.49808,-0.016670227,-0.5951004,0.10631561,-0.032234192,0.6707878,-0.42472988,-0.020179749,0.051879883,1.4863561,-0.005836487,-0.14587784,-0.099983215,-0.026893616,-0.9002838,-1.3253837,-0.014228821,1.0443268,1.530505,0.018959045,-1.7462425,-0.14644623,0.01209259,0.76966476,-0.90292716,0.018424988,-0.13733292,1.4852117,0.011711121,-0.10559082,0.0,0.0,0.0,0.0,0.0,0.0,0.0,0.0,0.0,0.0,0.0,0.0,3.0,-0.25016233,-3.0,3.0,3.0,-3.0,-3.0,-1.537037,-3.0,-3.0,0.48230773,-3.0
2025-06-06 16:27:45.469,-74.58405,8.34003,-3.938373,0.0019717857,0.00043807764,-0.009991172,-1.404088,-9.28996,2.714288,0.18184662,-0.013771057,-2.0038147,-1.0372977,-0.0021743774,-0.40833282,1.4983089,0.037651062,-0.5987625,0.10601044,-0.03551483,0.64149094,-0.42480618,0.007820129,0.0592041,1.4862798,-0.033836365,-0.14709854,-0.09975433,0.018959045,-0.8856354,-1.3253837,-0.001335144,1.0687408,1.5306575,0.025138855,-1.7303734,-0.14652252,0.026283264,0.7464714,-0.90307975,-0.009727478,-0.1336708,1.4852117,-0.005760193,-0.10192871,0.0,0.0,0.0,0.0,0.0,0.0,0.0,0.0,0.0,0.0,0.0,0.0,3.0,-0.25001428,-3.0,3.0,3.0,-3.0,-3.0,-1.5364902,-3.0,-3.0,0.48338813,-3.0
2025-06-06 16:27:45.520,-74.62454,8.326903,-3.9384,-0.029076155,0.0028906667,-0.0047018994,-1.405088,-9.334372,2.594225,0.18115997,-0.01499176,-1.9305725,-1.0367637,0.029792786,-0.42298126,1.4981563,-0.023002625,-0.5853348,0.106163025,-0.016822815,0.64759445,-0.42480618,-0.0674057,0.03967285,1.4864324,-0.0011825562,-0.14709854,-0.09983063,0.035820007,-0.8844147,-1.3253074,0.007286072,1.0443268,1.5306575,-0.014305115,-1.7474632,-0.14644623,0.01903534,0.74403,-0.90307975,0.008888245,-0.1324501,1.4850591,-0.013923645,-0.10559082,0.0,0.0,0.0,0.0,0.0,0.0,0.0,0.0,0.0,0.0,0.0,0.0,3.0,-0.2500157,-3.0,3.0,3.0,-3.0,-3.0,-1.534307,-3.0,-3.0,0.4806798,-3.0
2025-06-06 16:27:45.572,-74.69173,8.309529,-3.944949,-0.012847002,-0.00010281734,-0.004920886,-1.379865,-9.363391,2.525206,0.18047333,0.067481995,-1.9403381,-1.03684,-0.009346008,-0.42542267,1.4981563,-0.025520325,-0.5951004,0.10623932,-0.021324158,0.65003586,-0.42488247,-0.007972717,0.051879883,1.4864324,0.026893616,-0.14343643,-0.09983063,0.013847351,-0.8624382,-1.3253837,-0.013542175,1.039444,1.5308101,0.009727478,-1.7560081,-0.14621735,0.008049011,0.7464714,-0.90315604,0.051689148,-0.122680664,1.4852117,-0.010108948,-0.0982666,0.0,0.0,0.0,0.0,0.0,0.0,0.0,0.0,0.0,0.0,0.0,0.0,3.0,-0.25430903,-3.0,3.0,3.0,-3.0,-3.0,-1.5375547,-3.0,-3.0,0.485506,-3.0
2025-06-06 16:27:45.623,-74.690056,8.307028,-3.937509,0.011988789,-0.0027657708,0.004497469,-1.378762,-9.348428,2.525255,0.18062592,-0.030326843,-1.9464417,-1.0367637,0.03665924,-0.46570587,1.4982326,0.021095276,-0.58045197,0.10631561,-0.0008010864,0.6622429,-0.42488247,-0.028495789,0.048217773,1.4862798,-0.022468567,-0.14953995,-0.09990692,-0.0258255,-0.8697624,-1.3253837,-0.02002716,1.0406647,1.5305812,-0.00064849854,-1.7181664,-0.14659882,0.037956238,0.7525749,-0.90300345,-0.004310608,-0.103149414,1.4852117,0.023918152,-0.10681152,0.0,0.0,0.0,0.0,0.0,0.0,0.0,0.0,0.0,0.0,0.0,0.0,3.0,-0.24702069,-3.0,3.0,3.0,-3.0,-3.0,-1.535649,-3.0,-3.0,0.48140663,-3.0
2025-06-06 16:27:45.674,-74.63925,8.334153,-3.918599,0.013976666,0.0020196775,0.007639463,-1.425759,-9.287418,2.640137,0.18123627,0.07808685,-1.9879456,-1.0369925,-0.026512146,-0.38391876,1.4980037,0.009651184,-0.57923126,0.10623932,0.008125305,0.65003586,-0.42480618,-0.043754578,0.03845215,1.4862798,-0.031318665,-0.14343643,-0.09990692,0.025062561,-0.8722038,-1.3253074,0.0146865845,1.0479889,1.5306575,0.029640198,-1.7218285,-0.14659882,0.020484924,0.7330437,-0.90307975,-0.050468445,-0.128788,1.4852117,0.030097961,-0.10559082,0.0,0.0,0.0,0.0,0.0,0.0,0.0,0.0,0.0,0.0,0.0,0.0,3.0,-0.24940392,-3.0,3.0,3.0,-3.0,-3.0,-1.5386714,-3.0,-3.0,0.48088712,-3.0
2025-06-06 16:27:45.724,-74.61877,8.361303,-3.904272,-0.003551291,0.0023517613,-0.002347398,-1.431596,-9.31286,2.607204,0.18108368,-0.04825592,-1.9598694,-1.03684,0.006752014,-0.41687775,1.49808,-0.015830994,-0.58045197,0.106163025,-0.017356873,0.6683464,-0.42488247,-0.0045394897,0.072631836,1.4864324,-0.04688263,-0.14221573,-0.10005951,-0.034828186,-0.8892975,-1.3252311,-0.017280579,0.98817444,1.5307338,-0.028800964,-1.7352562,-0.14652252,0.015525818,0.75867844,-0.9027746,-0.0037002563,-0.13855362,1.4851354,-0.029335022,-0.10803223,0.0,0.0,0.0,0.0,0.0,0.0,0.0,0.0,0.0,0.0,0.0,0.0,3.0,-0.24891105,-3.0,3.0,3.0,-3.0,-3.0,-1.5332931,-3.0,-3.0,0.48416013,-3.0
2025-06-06 16:27:45.776,-74.639404,8.361371,-3.900754,-0.0081837615,-0.0006968402,-0.0015162373,-1.419911,-9.300749,2.555637,0.1807785,0.04901886,-1.957428,-1.0369163,0.0036239624,-0.40833282,1.49808,0.014305115,-0.6024246,0.10639191,0.050468445,0.6317253,-0.42488247,-0.02407074,0.053100586,1.4862798,-0.017280579,-0.14953995,-0.1002121,0.0061416626,-0.8880768,-1.3253074,-0.0011062622,1.0321198,1.5305812,-0.029716492,-1.7596703,-0.14644623,-0.038719177,0.74403,-0.90315604,-0.039024353,-0.13855362,1.4852117,0.019874573,-0.095825195,0.0,0.0,0.0,0.0,0.0,0.0,0.0,0.0,0.0,0.0,0.0,0.0,3.0,-0.24842617,-3.0,3.0,3.0,-3.0,-3.0,-1.5374643,-3.0,-3.0,0.48214275,-3.0
2025-06-06 16:27:45.826,-74.65139,8.350534,-3.898542,-0.0011893196,0.0001324705,-0.00091409875,-1.386695,-9.322084,2.596076,0.18100739,-0.057411194,-1.9671936,-1.0369163,-0.016746521,-0.42664337,1.4981563,0.029182434,-0.61829376,0.10631561,-0.060157776,0.65125656,-0.42480618,0.06839752,0.036010742,1.4862798,-0.0030136108,-0.15442276,-0.10005951,0.023231506,-0.87709045,-1.3253074,-0.02040863,1.030899,1.530505,-0.03803253,-1.7547874,-0.14659882,0.0061416626,0.7415886,-0.90315604,0.0018692017,-0.1336708,1.4851354,-0.008201599,-0.103149414,0.0,0.0,0.0,0.0,0.0,0.0,0.0,0.0,0.0,0.0,0.0,0.0,3.0,-0.2508234,-3.0,3.0,3.0,-3.0,-3.0,-1.5334576,-3.0,-3.0,0.48644334,-3.0
