openverse-orca/OrcaGym/envs/legged_gym/legged_real_env/logs/robot_log_20250606_171132.csv
timestamp,imu_angle_roll,imu_angle_pitch,imu_angle_yaw,imu_angular_velocity_roll,imu_angular_velocity_pitch,imu_angular_velocity_yaw,imu_acc_x,imu_acc_y,imu_acc_z,fl_joint1_pos,fl_joint1_vel,fl_joint1_torque,fl_joint2_pos,fl_joint2_vel,fl_joint2_torque,fl_joint3_pos,fl_joint3_vel,fl_joint3_torque,fr_joint1_pos,fr_joint1_vel,fr_joint1_torque,fr_joint2_pos,fr_joint2_vel,fr_joint2_torque,fr_joint3_pos,fr_joint3_vel,fr_joint3_torque,hl_joint1_pos,hl_joint1_vel,hl_joint1_torque,hl_joint2_pos,hl_joint2_vel,hl_joint2_torque,hl_joint3_pos,hl_joint3_vel,hl_joint3_torque,hr_joint1_pos,hr_joint1_vel,hr_joint1_torque,hr_joint2_pos,hr_joint2_vel,hr_joint2_torque,hr_joint3_pos,hr_joint3_vel,hr_joint3_torque,fl_force_x,fl_force_y,fl_force_z,fr_force_x,fr_force_y,fr_force_z,hl_force_x,hl_force_y,hl_force_z,hr_force_x,hr_force_y,hr_force_z,fl_hip_action,fl_thigh_action,fl_calf_action,fr_hip_action,fr_thigh_action,fr_calf_action,hl_hip_action,hl_thigh_action,hl_calf_action,hr_hip_action,hr_thigh_action,hr_calf_action
2025-06-06 17:13:18.453,-0.625429,-1.004408,6.057896,0.0021920113,0.0012732875,0.002438766,0.16632,-0.11961,9.758384,-0.0076675415,-0.019264221,0.3241005,-0.9843498,0.051994324,-0.4803543,1.9038112,0.038414,-4.761425,0.014152527,-0.015602112,-0.6732292,-0.98732525,0.0022506714,-0.28137589,1.9055151,-0.0146102905,-4.801708,-0.013999939,0.014305115,0.67811203,-0.9732937,0.008964539,-0.9759674,1.9373608,0.060768127,-6.3251686,0.013542175,0.012626648,-0.57312775,-0.9779307,-0.002632141,-0.71717453,1.9280218,-0.013389587,-5.8381004,0.0,0.0,0.0,0.0,0.0,0.0,0.0,0.0,0.0,0.0,0.0,0.0,-0.34953249,-0.25756735,-2.0,-2.0,0.5769495,0.16853552,1.4268354,-1.6686947,-2.0,0.01432283,-0.53768927,-2.0
2025-06-06 17:13:18.504,-0.797069,-1.730134,5.588368,0.08536232,-0.62005424,-0.61966103,3.056415,-3.8265,13.808348,-0.02155304,-0.24303436,0.67933273,-0.9980064,-0.71926117,-1.2738228,1.8439205,-1.8799973,-6.369114,-0.011787415,-0.75725555,-1.6278343,-0.9777885,0.2652359,2.8802948,1.8842291,-0.98789215,-0.9442291,-0.0019454956,0.5427933,1.2188911,-1.0408902,-1.6868973,-7.749752,1.9357586,-0.04802704,-12.201725,0.025291443,0.53668976,-1.641262,-0.99776715,-0.43453217,-3.0609589,1.9163488,-0.41194916,-10.847942,0.0,0.0,0.0,0.0,0.0,0.0,0.0,0.0,0.0,0.0,0.0,0.0,-2.0,0.49082538,-2.0,-2.0,0.9622503,2.0,-2.0,-2.0,-2.0,-0.42421913,-0.85946906,-2.0
2025-06-06 17:13:18.555,-1.345297,-3.668989,2.690902,-0.5397332,-0.6459253,-1.1404743,2.61357,-1.167446,9.682315,-0.085105896,-1.1446762,1.3946762,-1.007009,-0.31848907,4.1034546,1.7368801,-2.0457115,-2.4115372,-0.07198334,-0.7439804,0.8929596,-0.88921124,2.5263634,-0.83436203,1.9434332,1.5805435,0.436409,-0.006980896,0.076789856,-2.654461,-1.1384702,-1.8958664,-6.1896706,1.931181,-0.33000946,-11.708553,0.027427673,-0.1316452,-1.4215317,-1.0117289,-0.5160904,-4.6210403,1.8812536,-0.47138214,-9.696804,0.0,0.0,0.0,0.0,0.0,0.0,0.0,0.0,0.0,0.0,0.0,0.0,-2.0,1.8072692,-2.0,-2.0,1.831682,1.8258635,-2.0,-2.0,-1.9846224,-0.92521906,-0.61722785,-2.0
2025-06-06 17:13:18.606,-1.769837,-4.904712,0.436617,0.10235719,0.08451533,-0.45246223,1.803886,-0.747423,8.591855,-0.12401581,-0.2865219,1.7779808,-0.990377,0.31513214,11.325245,1.6479976,-1.525383,-0.2459755,-0.08945465,-0.24028778,0.6610222,-0.7173973,2.6937523,-1.281147,1.9719671,0.24700165,0.37292862,-0.009422302,-0.15872955,-2.383461,-1.1804318,-0.05344391,-7.099106,1.8893719,-1.3563156,-8.717785,0.017204285,-0.16971588,-1.6107407,-1.0233256,-0.24295807,-3.0926971,1.8539404,-0.63617706,-8.585945,0.0,0.0,0.0,0.0,0.0,0.0,0.0,0.0,0.0,0.0,0.0,0.0,-2.0,0.29837617,-2.0,-2.0,2.0,-2.0,-2.0,-2.0,1.2546494,-2.0,-0.69757134,-2.0
2025-06-06 17:13:18.657,-1.583554,-4.703781,-0.133032,-0.40926325,0.12070901,0.06958975,1.399753,2.343072,2.284608,-0.15506744,-0.6574631,3.5870895,-1.0202079,-0.6164932,3.215992,1.621371,0.10341644,-1.3617134,-0.09738922,0.12844086,0.2471962,-0.6285148,0.663414,-0.41565704,1.7384313,-4.4311943,0.4351883,-0.040779114,-0.58612823,-0.6585808,-1.2901425,-2.3773613,0.14953995,1.909132,0.046424866,0.5853348,-0.020332336,-0.65891266,-1.2127876,-1.0511729,-0.6241226,-2.0941467,1.8438696,0.07709503,-9.020523,0.0,0.0,0.0,0.0,0.0,0.0,0.0,0.0,0.0,0.0,0.0,0.0,-2.0,2.0,-2.0,-2.0,2.0,-2.0,-2.0,-2.0,1.0204346,-2.0,-1.8201714,-2.0
2025-06-06 17:13:18.708,-1.296137,-3.099449,0.532885,0.54436266,0.20351544,0.5980827,-2.464556,1.031356,16.426935,-0.16666412,0.2072525,2.420082,-1.0082297,0.15842438,13.527428,1.6298397,-0.09876251,-1.3824692,-0.076560974,0.5926895,-0.76966476,-0.6500297,-0.94371796,2.6617851,1.7227148,0.4970169,-5.338825,-0.062217712,-0.42308807,-0.044555664,-1.3580441,-0.51792145,-0.09460449,1.9060802,-0.035209656,0.1324501,-0.048332214,-0.63739777,-0.41077423,-1.1085459,-1.3566208,-6.574196,1.8679785,0.5183792,-10.456093,0.0,0.0,0.0,0.0,0.0,0.0,0.0,0.0,0.0,0.0,0.0,0.0,-2.0,2.0,-2.0,-2.0,2.0,-2.0,-2.0,-2.0,-2.0,-2.0,-2.0,-2.0
2025-06-06 17:13:18.759,-0.438556,-2.867923,3.137368,0.21470162,-0.1872032,1.1053653,-1.734748,1.163312,10.157351,-0.15254974,0.1228714,2.0648499,-0.97740704,0.749321,11.392387,1.6139705,-0.31040192,-0.56702423,-0.049934387,0.60092926,-2.089264,-0.6881767,-0.60367584,3.109787,1.7110418,-0.6580734,-3.4198532,-0.062446594,0.16857147,-1.0955963,-1.3597989,-0.1504898,-0.632946,1.7139721,-3.894085,0.6256218,-0.09738922,-1.093483,2.0978088,-1.1666857,-0.9315872,-6.3581276,1.8783544,0.06725311,-10.202183,0.0,0.0,0.0,0.0,0.0,0.0,0.0,0.0,0.0,0.0,0.0,0.0,-2.0,2.0,-2.0,-2.0,2.0,-2.0,-2.0,-2.0,-2.0,-2.0,-2.0,-2.0
2025-06-06 17:13:18.810,-0.39957,-2.91748,7.008932,0.20004122,0.01937551,1.227731,-1.38392,0.09459,9.139584,-0.13660431,0.558815,1.2640572,-0.9287315,0.9837723,9.644314,1.6106899,-0.007820129,-0.84534836,-0.019340515,0.6341934,-3.1720467,-0.6982475,0.03261566,2.896164,1.6831945,-0.38158417,-2.875412,-0.06626129,0.0012588501,-0.56946564,-1.3598752,0.06839752,-0.9808502,1.6317272,-0.5124283,-0.9723053,-0.1556015,-0.77632904,3.6603355,-1.1920153,-0.26622772,-6.4155045,1.87927,0.039787292,-10.222935,0.0,0.0,0.0,0.0,0.0,0.0,0.0,0.0,0.0,0.0,0.0,0.0,-2.0,2.0,-2.0,-2.0,2.0,-2.0,-2.0,-2.0,-2.0,-2.0,-2.0,-2.0
2025-06-06 17:13:18.861,-0.171965,-2.650975,10.040934,0.037846137,0.011222118,0.8806312,-0.537005,-0.492402,9.010454,-0.12195587,0.1304245,0.99671936,-0.87883526,0.75222015,8.054932,1.6157253,0.13195038,-1.2188911,0.002708435,0.30765533,-3.5590134,-0.6906944,0.25699615,2.3492775,1.6676306,-0.33123016,-2.3712502,-0.063438416,0.0522995,-0.6976433,-1.368115,-0.087394714,-0.4412918,1.6054821,-0.31993866,-0.21423721,-0.19687653,-0.6936264,4.8334465,-1.1909472,0.047721863,-6.8818207,1.8835424,0.09311676,-10.441444,0.0,0.0,0.0,0.0,0.0,0.0,0.0,0.0,0.0,0.0,0.0,0.0,-2.0,2.0,-2.0,-2.0,2.0,-2.0,-2.0,-2.0,-2.0,-2.0,-2.0,-2.0
2025-06-06 17:13:18.912,-0.339046,-2.694808,11.947625,0.014449616,-0.09022357,0.45298544,0.113587,-0.356825,9.352551,-0.115470886,0.17543793,0.6964226,-0.8421379,0.60588837,6.983139,1.6224391,-0.031929016,-1.2726021,0.014152527,0.31024933,-3.986267,-0.6729942,0.1821518,1.5289536,1.6564153,-0.037574768,-2.2796974,-0.067481995,-0.5678177,-0.23498917,-1.3650632,0.41843414,-1.1651802,1.6018963,0.27751923,-0.9051666,-0.22197723,-0.18527985,5.0348663,-1.1832415,-0.012550354,-7.041733,1.9033788,0.59329987,-12.000305,0.0,0.0,0.0,0.0,0.0,0.0,0.0,0.0,0.0,0.0,0.0,0.0,-2.0,2.0,-2.0,-2.0,2.0,-2.0,-2.0,-2.0,-2.0,-2.0,-2.0,-2.0
2025-06-06 17:13:18.963,0.218136,-3.029071,12.400745,0.033398133,-0.036033507,-0.10214197,1.356529,-0.032969,9.838411,-0.109443665,-0.08480072,0.92103577,-0.8163505,0.47229767,6.4106216,1.6220577,-0.087394714,-1.223774,0.0182724,-0.1606369,-3.4467087,-0.6475883,0.53424835,0.3668251,1.656339,-0.011100769,-2.363926,-0.068244934,0.03665924,-0.57068634,-1.3588071,-0.051383972,-0.91737366,1.6271496,0.5868149,-2.1698341,-0.22167206,0.025215149,4.785839,-1.1707293,0.42827606,-7.8583946,1.9277166,0.51433563,-12.41291,0.0,0.0,0.0,0.0,0.0,0.0,0.0,0.0,0.0,0.0,0.0,0.0,-2.0,2.0,-2.0,-2.0,2.0,-2.0,-2.0,-2.0,-2.0,-2.0,-2.0,-2.0
2025-06-06 17:13:19.014,0.475759,-3.288892,11.886804,0.06808447,-0.07970683,-0.17810425,1.90588,0.555637,9.728149,-0.11188507,-0.09662628,1.0101471,-0.8025413,0.124549866,6.2726784,1.6211421,-0.00049591064,-1.1541939,0.01247406,-0.06175995,-3.309986,-0.6253868,0.13484955,-0.07751465,1.6564153,-0.015983582,-2.407875,-0.061302185,0.13744354,-0.9649811,-1.3620114,-0.07144928,-0.7025261,1.6494274,0.37441254,-2.6617851,-0.21572113,0.12386322,4.5062943,-1.1592852,0.08350372,-8.013428,1.9440435,0.15270233,-12.592354,0.0,0.0,0.0,0.0,0.0,0.0,0.0,0.0,0.0,0.0,0.0,0.0,-2.0,2.0,-2.0,-2.0,2.0,-2.0,-2.0,-2.0,-2.0,-2.0,-2.0,-2.0
2025-06-06 17:13:19.065,0.605031,-3.499297,11.608883,0.0015420333,-0.0063214255,-0.016290903,2.041532,0.45331,10.401908,-0.11363983,0.048561096,1.0016022,-0.7948356,0.14240265,6.1359596,1.6212947,-0.037498474,-1.1651802,0.00995636,0.007133484,-3.342945,-0.6147018,0.031471252,-0.13489151,1.6564916,0.00995636,-2.383461,-0.059318542,0.05130768,-0.7928581,-1.3633084,-0.018424988,-0.75867844,1.6602612,0.056266785,-2.6800957,-0.21404266,-0.03162384,4.552681,-1.1515032,-0.0062179565,-8.14893,1.9495367,0.09586334,-12.685131,0.0,0.0,0.0,0.0,0.0,0.0,0.0,0.0,0.0,0.0,0.0,0.0,-2.0,2.0,-2.0,-2.0,2.0,-2.0,-2.0,-2.0,-2.0,-2.0,-2.0,-2.0
2025-06-06 17:13:19.117,0.626959,-3.63565,11.698259,-0.0115018245,0.023297753,0.044467464,1.58357,0.074438,9.764167,-0.11356354,-0.017585754,0.99549866,-0.79430157,-0.05092621,6.303196,1.6215999,0.03124237,-1.18227,0.011558533,0.00415802,-3.4589157,-0.61653286,-0.16933441,0.14587784,1.6564916,-0.040779114,-2.3822403,-0.060081482,-0.024147034,-0.84290695,-1.3633847,-0.03391266,-0.6964226,1.6608715,-0.020484924,-2.5287247,-0.2148056,-0.017356873,4.634472,-1.1527239,-0.11806488,-7.91333,1.9502233,0.0065994263,-12.660717,0.0,0.0,0.0,0.0,0.0,0.0,0.0,0.0,0.0,0.0,0.0,0.0,-2.0,2.0,-2.0,-2.0,2.0,-2.0,-2.0,-2.0,-2.0,-2.0,-2.0,-2.0
2025-06-06 17:13:19.171,0.573139,-3.670515,11.736968,-0.025278302,-0.028758435,-0.015447577,0.561341,0.11765,9.756873,-0.11341095,0.0052261353,1.0089264,-0.80193096,-0.18398285,6.712139,1.6216762,0.0749588,-1.1969185,0.012397766,-0.016441345,-3.412529,-0.62332684,-0.15003204,0.45105743,1.6565679,0.0047683716,-2.3602638,-0.059776306,-0.01903534,-0.8612175,-1.3691831,-0.24524689,-0.38269806,1.6582775,-0.05306244,-2.4383926,-0.21450043,0.09738922,4.5429153,-1.1609637,-0.23609161,-7.533684,1.9499944,0.04299164,-12.647289,0.0,0.0,0.0,0.0,0.0,0.0,0.0,0.0,0.0,0.0,0.0,0.0,-2.0,2.0,-2.0,-2.0,2.0,-2.0,-2.0,-2.0,-2.0,-2.0,-2.0,-2.0
2025-06-06 17:13:19.222,0.499623,-3.71956,11.681969,-0.032017924,-0.012967674,-0.014715761,0.44388,0.061604,9.723641,-0.11356354,0.0049972534,0.99671936,-0.8101707,-0.10204315,6.8952484,1.6222103,-0.0011825562,-1.2713814,0.01247406,0.008201599,-3.4137497,-0.6298118,-0.11959076,0.6317253,1.6566442,-0.027809143,-2.346836,-0.058403015,0.01865387,-0.9015045,-1.3745236,-0.09464264,-0.27405167,1.6556835,-0.07297516,-2.3602638,-0.21396637,-0.019569397,4.5783157,-1.1676775,-0.096702576,-7.4396896,1.9496893,-0.0035476685,-12.622871,0.0,0.0,0.0,0.0,0.0,0.0,0.0,0.0,0.0,0.0,0.0,0.0,-2.0,2.0,-2.0,-2.0,2.0,-2.0,-2.0,-2.0,-2.0,-2.0,-2.0,-2.0
2025-06-06 17:13:19.273,0.41594,-3.704995,11.662241,-0.015565021,-0.00033354986,0.0005968328,0.312852,-0.044302,9.755643,-0.11363983,-0.018043518,0.99549866,-0.81360394,-0.037574768,6.9770355,1.6228206,-0.015449524,-1.2457466,0.012626648,0.020866394,-3.421074,-0.63339764,0.0045394897,0.6952019,1.6565679,0.041999817,-2.351719,-0.058021545,-0.008583069,-0.87953186,-1.3767362,-0.023155212,-0.26062393,1.6536999,-0.049095154,-2.2821388,-0.2135849,0.00034332275,4.573433,-1.1716448,-0.051841736,-7.364002,1.9481634,-0.06526947,-12.554512,0.0,0.0,0.0,0.0,0.0,0.0,0.0,0.0,0.0,0.0,0.0,0.0,-2.0,2.0,-2.0,-2.0,2.0,-2.0,-2.0,-2.0,-2.0,-2.0,-2.0,-2.0
2025-06-06 17:13:19.324,0.368709,-3.673909,11.676635,-0.0013271483,0.0014803533,0.0052686427,0.364974,-0.081095,9.770801,-0.11348724,-0.01247406,1.0089264,-0.81482464,0.01613617,6.941635,1.6232021,0.022697449,-1.2494087,0.012702942,0.0032424927,-3.4149704,-0.63469464,0.013771057,0.6976433,1.6564916,0.0023269653,-2.41642,-0.058174133,0.021858215,-0.88075256,-1.3768888,0.08457184,-0.27771378,1.6526318,-0.015144348,-2.3053322,-0.2135086,0.013084412,4.5465775,-1.1723315,0.004081726,-7.3334846,1.947553,0.02254486,-12.561836,0.0,0.0,0.0,0.0,0.0,0.0,0.0,0.0,0.0,0.0,0.0,0.0,-2.0,2.0,-2.0,-2.0,2.0,-2.0,-2.0,-2.0,-2.0,-2.0,-2.0,-2.0
2025-06-06 17:13:19.375,0.364332,-3.657814,11.681659,0.009183294,-0.00017767452,-0.0021607,0.517221,-0.003947,9.759788,-0.11348724,0.059547424,0.99427795,-0.8142143,0.03993988,6.859844,1.6231258,0.030708313,-1.2652779,0.012626648,0.00064849854,-3.4259567,-0.63446575,-0.026664734,0.6280632,1.6565679,0.01964569,-2.3651466,-0.058174133,0.0046920776,-0.88075256,-1.3765073,0.011329651,-0.30212784,1.6526318,0.0018692017,-2.3199806,-0.21373749,0.020637512,4.552681,-1.1722552,0.060768127,-7.421379,1.947553,-0.018119812,-12.588692,0.0,0.0,0.0,0.0,0.0,0.0,0.0,0.0,0.0,0.0,0.0,0.0,-2.0,2.0,-2.0,-2.0,2.0,-2.0,-2.0,-2.0,-2.0,-2.0,-2.0,-2.0
2025-06-06 17:13:19.426,0.383935,-3.657603,11.682762,0.006085771,0.0054387776,-0.0031342448,0.69274,0.112656,9.773201,-0.11356354,0.01499176,1.0101471,-0.81345135,0.004081726,6.8512993,1.6230495,0.01750946,-1.2506294,0.012550354,0.00415802,-3.4100876,-0.63347393,0.0065994263,0.6646843,1.6566442,-0.005607605,-2.3749123,-0.058174133,-0.0010299683,-0.8880768,-1.3758969,0.036735535,-0.31799698,1.652708,-0.011940002,-2.3236427,-0.21389008,0.023460388,4.5831985,-1.1714159,-0.02773285,-7.4152756,1.947553,3.8146973e-05,-12.545967,0.0,0.0,0.0,0.0,0.0,0.0,0.0,0.0,0.0,0.0,0.0,0.0,-2.0,2.0,-2.0,-2.0,2.0,-2.0,-2.0,-2.0,-2.0,-2.0,-2.0,-2.0
2025-06-06 17:13:19.477,0.396085,-3.660388,11.68884,-0.0008933642,7.674212e-05,0.0011931594,0.673775,0.101762,9.775011,-0.11356354,0.0063705444,1.0003815,-0.8129936,-0.06725311,6.8830414,1.6230495,0.038414,-1.2396431,0.012550354,0.0052261353,-3.4174118,-0.63332134,0.057029724,0.64881516,1.6564916,0.06061554,-2.3749123,-0.058174133,0.04070282,-0.88197327,-1.3759732,0.023460388,-0.2911415,1.652708,0.014305115,-2.3089943,-0.2136612,0.020484924,4.561226,-1.1713396,-0.0047683716,-7.3945236,1.9474005,-0.0032424927,-12.556953,0.0,0.0,0.0,0.0,0.0,0.0,0.0,0.0,0.0,0.0,0.0,0.0,-2.0,2.0,-2.0,-2.0,2.0,-2.0,-2.0,-2.0,-2.0,-2.0,-2.0,-2.0
2025-06-06 17:13:19.528,0.387443,-3.657276,11.685016,-0.0028372945,0.0007403687,-0.002601989,0.562858,0.026363,9.769473,-0.11356354,-0.0020980835,0.99916077,-0.81322247,0.009651184,6.8915863,1.6231258,-0.021400452,-1.2555122,0.012702942,-0.00415802,-3.3966599,-0.6338554,-0.0104904175,0.64637375,1.6566442,0.0008773804,-2.3944473,-0.058174133,-0.01537323,-0.8892975,-1.3762021,0.023078918,-0.29846573,1.652708,-0.015602112,-2.306553,-0.2135849,-0.06259918,4.549019,-1.1712633,-0.017967224,-7.4103928,1.9474767,-0.012321472,-12.526436,0.0,0.0,0.0,0.0,0.0,0.0,0.0,0.0,0.0,0.0,0.0,0.0,-2.0,2.0,-2.0,-2.0,2.0,-2.0,-2.0,-2.0,-2.0,-2.0,-2.0,-2.0
2025-06-06 17:13:19.579,0.375624,-3.649654,11.679432,0.0024762207,-0.00010032152,-0.0007411017,0.547275,-0.010021,9.781115,-0.11356354,-0.007820129,1.0101471,-0.81329876,-0.028572083,6.8671684,1.6229732,0.025062561,-1.2384224,0.012779236,-0.011177063,-3.4186325,-0.6336265,-0.0045394897,0.6317253,1.6564916,-0.026130676,-2.420082,-0.058174133,-0.0090408325,-0.8685417,-1.3762784,-0.00957489,-0.29480362,1.6527843,-0.0157547,-2.289463,-0.2135849,0.0062942505,4.5673294,-1.1715685,0.01964569,-7.401848,1.947553,-0.010643005,-12.525215,0.0,0.0,0.0,0.0,0.0,0.0,0.0,0.0,0.0,0.0,0.0,0.0,-2.0,2.0,-2.0,-2.0,2.0,-2.0,-2.0,-2.0,-2.0,-2.0,-2.0,-2.0
2025-06-06 17:13:19.630,0.376728,-3.648133,11.683982,0.0041058348,0.00106404,0.000114982286,0.620752,0.051966,9.779316,-0.11363983,-0.022163391,1.0077057,-0.81322247,0.019111633,6.8512993,1.6231258,0.018196106,-1.2530708,0.012550354,0.00064849854,-3.4283981,-0.6336265,-0.06801605,0.64271164,1.6567205,0.030403137,-2.363926,-0.05832672,0.012931824,-0.87953186,-1.3759732,0.01209259,-0.30578995,1.6524792,-0.021476746,-2.2821388,-0.2135849,-0.03818512,4.5551224,-1.1715685,-0.025672913,-7.393303,1.9474767,-0.036125183,-12.575264,0.0,0.0,0.0,0.0,0.0,0.0,0.0,0.0,0.0,0.0,0.0,0.0,-2.0,2.0,-2.0,-2.0,2.0,-2.0,-2.0,-2.0,-2.0,-2.0,-2.0,-2.0
2025-06-06 17:13:19.681,0.386207,-3.645664,11.683627,0.0012736714,0.0020474282,-0.0017024814,0.608561,0.111539,9.778372,-0.11356354,0.032310486,1.0089264,-0.8129936,0.04840851,6.8708305,1.6229732,-0.028877258,-1.2677193,0.012702942,-0.026741028,-3.424736,-0.63347393,0.022163391,0.64393234,1.6565679,-0.0015640259,-2.3602638,-0.058250427,0.0034713745,-0.87342453,-1.3758206,0.036201477,-0.29968643,1.652708,0.022239685,-2.3004494,-0.2135086,-0.025978088,4.5587845,-1.1714922,-0.03276825,-7.3871994,1.9474767,-0.013465881,-12.577705,0.0,0.0,0.0,0.0,0.0,0.0,0.0,0.0,0.0,0.0,0.0,0.0,-2.0,2.0,-2.0,-2.0,2.0,-2.0,-2.0,-2.0,-2.0,-2.0,-2.0,-2.0
2025-06-06 17:13:19.732,0.386751,-3.641421,11.683996,-0.0022004587,-0.0009496162,0.00045156904,0.59695,0.075554,9.797231,-0.113716125,-0.0002670288,1.0003815,-0.81322247,-0.059547424,6.86961,1.6231258,-0.018882751,-1.2750435,0.012702942,-0.027809143,-3.3978806,-0.63339764,0.012779236,0.64393234,1.6565679,0.02773285,-2.41642,-0.058250427,-0.01247406,-0.8929596,-1.3759732,0.022850037,-0.29968643,1.652708,0.025520325,-2.3175392,-0.2136612,-0.021629333,4.549019,-1.1714922,-0.012016296,-7.4152756,1.9474767,-0.02155304,-12.566719,0.0,0.0,0.0,0.0,0.0,0.0,0.0,0.0,0.0,0.0,0.0,0.0,-2.0,2.0,-2.0,-2.0,2.0,-2.0,-2.0,-2.0,-2.0,-2.0,-2.0,-2.0
2025-06-06 17:13:19.783,0.375709,-3.64356,11.68416,0.00078312925,-0.0035116198,-0.00080269435,0.60287,0.008886,9.766698,-0.11363983,-0.011482239,1.0113678,-0.81329876,-0.025749207,6.859844,1.6232784,-0.016670227,-1.2713814,0.012626648,-0.018882751,-3.4393845,-0.6335502,0.023612976,0.64149094,1.6567205,0.00919342,-2.4151993,-0.058250427,-0.0011825562,-0.88197327,-1.3760495,0.0073623657,-0.30945206,1.6526318,-0.027503967,-2.3028908,-0.21335602,0.029182434,4.539253,-1.1715685,-0.013313293,-7.4030685,1.9474005,0.022697449,-12.537422,0.0,0.0,0.0,0.0,0.0,0.0,0.0,0.0,0.0,0.0,0.0,0.0,-2.0,2.0,-2.0,-2.0,2.0,-2.0,-2.0,-2.0,-2.0,-2.0,-2.0,-2.0
2025-06-06 17:13:19.834,0.372101,-3.636917,11.684543,0.0025445854,0.0012023922,1.1152653e-05,0.589279,0.036441,9.774322,-0.11356354,0.012016296,0.99427795,-0.8130699,0.047798157,6.843975,1.6230495,0.02254486,-1.2384224,0.012702942,-0.012931824,-3.4198532,-0.63347393,-0.029411316,0.65003586,1.6565679,-0.022010803,-2.3566017,-0.058250427,-0.0012588501,-0.88197327,-1.3761258,-0.040779114,-0.30334854,1.6526318,0.0030136108,-2.2882423,-0.2135849,-0.03391266,4.5587845,-1.1714159,0.0033950806,-7.377434,1.9473242,-0.0075149536,-12.530098,0.0,0.0,0.0,0.0,0.0,0.0,0.0,0.0,0.0,0.0,0.0,0.0,-2.0,2.0,-2.0,-2.0,2.0,-2.0,-2.0,-2.0,-2.0,-2.0,-2.0,-2.0
2025-06-06 17:13:19.885,0.37392,-3.632647,11.686785,0.0004610287,0.0016890947,-0.0012636009,0.618889,0.074921,9.802875,-0.113716125,-0.027656555,1.0077057,-0.812841,-0.001335144,6.847637,1.6231258,0.025138855,-1.2823677,0.012626648,0.0022506714,-3.4149704,-0.63347393,0.013999939,0.6549187,1.6565679,-0.0048446655,-2.3578224,-0.05832672,0.0017166138,-0.8844147,-1.3760495,-0.044059753,-0.29480362,1.6527843,-0.021629333,-2.3004494,-0.2135086,-0.050849915,4.5844193,-1.1714159,-0.013771057,-7.4067307,1.9474005,-0.011787415,-12.566719,0.0,0.0,0.0,0.0,0.0,0.0,0.0,0.0,0.0,0.0,0.0,0.0,-2.0,2.0,-2.0,-2.0,2.0,-2.0,-2.0,-2.0,-2.0,-2.0,-2.0,-2.0
2025-06-06 17:13:19.936,0.376809,-3.629605,11.685653,-0.0003865206,0.0034419463,-0.0017670237,0.604892,0.059952,9.787369,-0.11356354,0.008430481,0.99916077,-0.8129173,0.020637512,6.8915863,1.6232784,0.019798279,-1.2652779,0.012626648,-0.022621155,-3.4222946,-0.6336265,-0.116004944,0.64393234,1.6566442,0.008125305,-2.3700294,-0.058174133,-0.0034713745,-0.87342453,-1.3760495,-0.04863739,-0.30456924,1.6526318,-0.038414,-2.3114357,-0.21343231,0.008811951,4.5539017,-1.1715685,0.010871887,-7.396965,1.9474767,-0.03124237,-12.558174,0.0,0.0,0.0,0.0,0.0,0.0,0.0,0.0,0.0,0.0,0.0,0.0,-2.0,2.0,-2.0,-2.0,2.0,-2.0,-2.0,-2.0,-2.0,-2.0,-2.0,-2.0
2025-06-06 17:13:19.987,0.370332,-3.62254,11.686114,-0.0018614285,-0.00044792128,0.00012786282,0.572198,-0.002752,9.756441,-0.11356354,0.029716492,1.0150299,-0.8129936,-0.001411438,6.884262,1.6230495,-0.0012588501,-1.2408638,0.012626648,0.022468567,-3.424736,-0.6335502,0.059318542,0.6646843,1.6565679,0.012931824,-2.3651466,-0.058250427,0.0036239624,-0.8905182,-1.3760495,-0.011940002,-0.30701065,1.6527843,0.0052261353,-2.2674904,-0.21335602,-0.00034332275,4.5795364,-1.1714922,-0.06061554,-7.409172,1.9476293,-0.009727478,-12.582588,0.0,0.0,0.0,0.0,0.0,0.0,0.0,0.0,0.0,0.0,0.0,0.0,-2.0,2.0,-2.0,-2.0,2.0,-2.0,-2.0,-2.0,-2.0,-2.0,-2.0,-2.0
2025-06-06 17:13:20.039,0.365606,-3.62166,11.684258,0.0023612909,-0.00081208424,-0.0010021506,0.597032,0.044264,9.788391,-0.113716125,-0.013618469,1.0089264,-0.8130699,-0.109825134,6.8464165,1.6229732,0.011253357,-1.2420845,0.01247406,-0.008201599,-3.403984,-0.63347393,0.0422287,0.64027023,1.6564916,0.04611969,-2.3761368,-0.058250427,-0.0077438354,-0.88075256,-1.3759732,-0.002937317,-0.30212784,1.652708,-0.045280457,-2.3248634,-0.21343231,-0.0033950806,4.5380325,-1.1714922,-0.0062179565,-7.396965,1.9474767,0.01903534,-12.559395,0.0,0.0,0.0,0.0,0.0,0.0,0.0,0.0,0.0,0.0,0.0,0.0,-2.0,2.0,-2.0,-2.0,2.0,-2.0,-2.0,-2.0,-2.0,-2.0,-2.0,-2.0
2025-06-06 17:13:20.091,0.367198,-3.619394,11.685653,-0.0017600599,0.00035737362,0.0008202,0.611922,0.048636,9.755997,-0.11356354,0.030784607,0.99305725,-0.8129936,-0.03803253,6.861065,1.6232021,0.024757385,-1.2591743,0.012626648,0.009880066,-3.421074,-0.63347393,0.006904602,0.64393234,1.6566442,0.0060653687,-2.4103165,-0.058250427,-0.019721985,-0.8844147,-1.3762784,-0.01712799,-0.30701065,1.6526318,-0.027580261,-2.310215,-0.21327972,0.039100647,4.5294876,-1.1715685,0.02002716,-7.4042892,1.9474767,0.0033950806,-12.56794,0.0,0.0,0.0,0.0,0.0,0.0,0.0,0.0,0.0,0.0,0.0,0.0,-2.0,2.0,-2.0,-2.0,2.0,-2.0,-2.0,-2.0,-2.0,-2.0,-2.0,-2.0
2025-06-06 17:13:20.144,0.365569,-3.620929,11.682363,-0.0034316839,-0.0006107256,0.00086036004,0.583641,0.059888,9.785048,-0.11356354,0.018043518,1.0028229,-0.812841,0.01033783,6.876938,1.6230495,0.00995636,-1.2298775,0.012626648,-0.0062942505,-3.416191,-0.6337028,-0.04924774,0.64393234,1.6568731,0.007133484,-2.3810196,-0.058174133,0.0015640259,-0.8880768,-1.3761258,0.027885437,-0.29602432,1.6527843,0.030784607,-2.2967873,-0.21289825,-0.0016403198,4.5551224,-1.1715685,0.0008773804,-7.392082,1.947553,-0.029411316,-12.56916,0.0,0.0,0.0,0.0,0.0,0.0,0.0,0.0,0.0,0.0,0.0,0.0,-2.0,2.0,-2.0,-2.0,2.0,-2.0,-2.0,-2.0,-2.0,-2.0,-2.0,-2.0
2025-06-06 17:13:20.196,0.362062,-3.618504,11.680382,7.056366e-05,0.002583733,0.00026939157,0.571696,0.043457,9.778028,-0.11348724,-0.011177063,0.98695374,-0.8129173,0.0076675415,6.89769,1.6230495,-0.018730164,-1.2457466,0.012702942,0.021400452,-3.403984,-0.6336265,-0.008735657,0.64759445,1.6567205,-0.014076233,-2.4310684,-0.058250427,0.0030899048,-0.895401,-1.3761258,-0.05153656,-0.2923622,1.652708,-0.028038025,-2.3126564,-0.21320343,0.01712799,4.528267,-1.1715685,-0.0005722046,-7.40551,1.9474767,0.025596619,-12.552071,0.0,0.0,0.0,0.0,0.0,0.0,0.0,0.0,0.0,0.0,0.0,0.0,-2.0,2.0,-2.0,-2.0,2.0,-2.0,-2.0,-2.0,-2.0,-2.0,-2.0,-2.0
2025-06-06 17:13:20.248,0.363538,-3.613994,11.6782,0.004975532,0.0038111708,-0.0013915161,0.604002,0.04031,9.758011,-0.11356354,0.013542175,0.99671936,-0.8129173,-0.0016403198,6.873272,1.6229732,-0.0019454956,-1.2457466,0.012626648,-0.017433167,-3.4198532,-0.6336265,0.037345886,0.65003586,1.6566442,0.029563904,-2.3761368,-0.058250427,-0.01537323,-0.8892975,-1.3761258,-0.036506653,-0.31189346,1.6526318,0.01209259,-2.3114357,-0.21327972,-0.07236481,4.5636673,-1.1716448,0.004081726,-7.400627,1.9474767,0.0035476685,-12.543526,0.0,0.0,0.0,0.0,0.0,0.0,0.0,0.0,0.0,0.0,0.0,0.0,-2.0,2.0,-2.0,-2.0,2.0,-2.0,-2.0,-2.0,-2.0,-2.0,-2.0,-2.0
2025-06-06 17:13:20.301,0.366055,-3.614433,11.681483,-0.00094731234,0.0010301631,-0.0014304892,0.613624,0.041984,9.783203,-0.113716125,-0.007972717,1.0138092,-0.812841,0.014305115,6.8635063,1.6232784,0.094947815,-1.2335396,0.012550354,0.016746521,-3.424736,-0.6335502,-0.011634827,0.64515305,1.6564916,0.03299713,-2.3749123,-0.058250427,0.010414124,-0.8722038,-1.3761258,0.025596619,-0.30578995,1.652708,0.005378723,-2.2784767,-0.21335602,-0.013999939,4.5673294,-1.1715685,0.0025558472,-7.401848,1.9474767,-0.005378723,-12.565498,0.0,0.0,0.0,0.0,0.0,0.0,0.0,0.0,0.0,0.0,0.0,0.0,-2.0,2.0,-2.0,-2.0,2.0,-2.0,-2.0,-2.0,-2.0,-2.0,-2.0,-2.0
2025-06-06 17:13:20.354,0.365777,-3.609182,11.679483,-0.0006502573,-0.0006801897,-0.0015825772,0.593669,0.045244,9.7646,-0.11348724,0.0035476685,0.99916077,-0.8129173,-0.048484802,6.859844,1.6231258,0.030632019,-1.2591743,0.012702942,0.0002670288,-3.416191,-0.63347393,-0.0207901,0.6366081,1.6566442,-0.0002670288,-2.3907852,-0.058250427,-0.0021743774,-0.87342453,-1.3761258,-0.017585754,-0.29968643,1.652708,-0.028800964,-2.2882423,-0.21320343,0.04009247,4.547798,-1.1716448,-0.02368927,-7.414055,1.9474767,0.023841858,-12.578926,0.0,0.0,0.0,0.0,0.0,0.0,0.0,0.0,0.0,0.0,0.0,0.0,-2.0,2.0,-2.0,-2.0,2.0,-2.0,-2.0,-2.0,-2.0,-2.0,-2.0,-2.0
2025-06-06 17:13:20.409,0.358563,-3.602267,11.676071,0.0006384589,0.0019292171,-0.0028132962,0.582596,0.024645,9.777644,-0.11356354,0.0045394897,0.99671936,-0.8127647,0.018806458,6.8708305,1.6230495,0.0062942505,-1.2469673,0.012626648,-0.01537323,-3.4113083,-0.63339764,-0.010948181,0.64881516,1.6565679,-0.004005432,-2.404213,-0.058250427,0.0065994263,-0.88075256,-1.3760495,-0.008125305,-0.30456924,1.6526318,0.0005722046,-2.3175392,-0.21305084,0.032920837,4.539253,-1.1715685,0.011634827,-7.3908615,1.947553,0.043678284,-12.572823,0.0,0.0,0.0,0.0,0.0,0.0,0.0,0.0,0.0,0.0,0.0,0.0,-2.0,2.0,-2.0,-2.0,2.0,-2.0,-2.0,-2.0,-2.0,-2.0,-2.0,-2.0
2025-06-06 17:13:20.462,0.3584,-3.599646,11.676988,0.004071347,0.0028887119,0.0011351621,0.589157,0.043368,9.770225,-0.113716125,0.028953552,0.98817444,-0.812841,0.016899109,6.8512993,1.6232021,-0.0022506714,-1.2494087,0.012550354,-0.019493103,-3.4052048,-0.63339764,0.059700012,0.6243973,1.6566442,-0.014839172,-2.3785782,-0.058174133,0.001335144,-0.8722038,-1.3758969,0.040397644,-0.29724503,1.6526318,-0.011787415,-2.3297462,-0.21297455,0.0409317,4.5416946,-1.1715685,0.047950745,-7.393303,1.947553,-0.01499176,-12.56916,0.0,0.0,0.0,0.0,0.0,0.0,0.0,0.0,0.0,0.0,0.0,0.0,-2.0,2.0,-2.0,-2.0,2.0,-2.0,-2.0,-2.0,-2.0,-2.0,-2.0,-2.0
2025-06-06 17:13:20.516,0.356708,-3.599025,11.677897,0.0010826451,-0.0012275599,-0.001134656,0.584108,0.039776,9.761201,-0.11356354,-0.02445221,0.99794006,-0.8127647,0.024299622,6.8549614,1.6232021,0.037117004,-1.2445259,0.012626648,-0.031318665,-3.4149704,-0.63347393,0.008277893,0.6219559,1.6565679,0.032157898,-2.3944473,-0.05809784,0.039100647,-0.87831116,-1.3762021,-0.018501282,-0.31311417,1.652708,-0.040855408,-2.2748146,-0.21320343,0.012702942,4.514839,-1.1716448,-0.02910614,-7.409172,1.9474005,-0.020332336,-12.591133,0.0,0.0,0.0,0.0,0.0,0.0,0.0,0.0,0.0,0.0,0.0,0.0,-2.0,2.0,-2.0,-2.0,2.0,-2.0,-2.0,-2.0,-2.0,-2.0,-2.0,-2.0
2025-06-06 17:13:20.571,0.353972,-3.591633,11.681626,0.002889253,0.0027160987,-0.0014968117,0.584538,0.029908,9.809444,-0.11363983,0.024909973,0.9723053,-0.8127647,0.052986145,6.859844,1.6232784,0.018806458,-1.2664986,0.012550354,0.009346008,-3.3929977,-0.6336265,0.034980774,0.64393234,1.6567205,-0.008049011,-2.379799,-0.058250427,-0.0118637085,-0.8880768,-1.3760495,0.0007247925,-0.29968643,1.6525555,-0.014076233,-2.2870216,-0.21320343,-0.013923645,4.5136185,-1.1716448,-0.006980896,-7.409172,1.9474767,0.022468567,-12.565498,0.0,0.0,0.0,0.0,0.0,0.0,0.0,0.0,0.0,0.0,0.0,0.0,-2.0,2.0,-2.0,-2.0,2.0,-2.0,-2.0,-2.0,-2.0,-2.0,-2.0,-2.0
2025-06-06 17:13:20.624,0.35434,-3.588715,11.678819,0.0045561297,0.0012574573,0.000980142,0.57997,0.033625,9.80058,-0.11363983,-0.017204285,0.99794006,-0.812841,-0.0712204,6.859844,1.6230495,0.0009536743,-1.2140083,0.012702942,0.018424988,-3.4052048,-0.6335502,-0.004081726,0.64271164,1.6564916,-0.04261017,-2.3981094,-0.058174133,-0.011329651,-0.87831116,-1.3760495,0.003929138,-0.29846573,1.6527843,0.018348694,-2.310215,-0.21282196,0.027503967,4.51606,-1.1715685,-0.009346008,-7.409172,1.9474005,-0.03818512,-12.580147,0.0,0.0,0.0,0.0,0.0,0.0,0.0,0.0,0.0,0.0,0.0,0.0,-2.0,2.0,-2.0,-2.0,2.0,-2.0,-2.0,-2.0,-2.0,-2.0,-2.0,-2.0
2025-06-06 17:13:20.676,0.352106,-3.584475,11.679693,-8.285078e-05,0.001764493,-4.075344e-05,0.588601,0.048373,9.75844,-0.11356354,0.01865387,0.99671936,-0.8126884,-0.0016403198,6.873272,1.6232021,0.008735657,-1.26894,0.012626648,-0.03452301,-3.4235153,-0.6335502,0.041160583,0.6573601,1.6567968,0.028953552,-2.3407326,-0.058174133,0.013542175,-0.87464523,-1.3762021,-0.00064849854,-0.30212784,1.652708,-0.016059875,-2.3053322,-0.21297455,-0.057792664,4.531929,-1.1716448,-0.014457703,-7.384758,1.947553,-0.001411438,-12.528877,0.0,0.0,0.0,0.0,0.0,0.0,0.0,0.0,0.0,0.0,0.0,0.0,-2.0,2.0,-2.0,-2.0,2.0,-2.0,-2.0,-2.0,-2.0,-2.0,-2.0,-2.0
2025-06-06 17:13:20.730,0.352657,-3.582557,11.679194,0.0022983367,0.0012366356,-0.0039536767,0.598708,0.048311,9.762527,-0.11356354,0.033226013,0.99549866,-0.8126884,-0.002708435,6.8378716,1.6231258,0.011329651,-1.235981,0.012626648,-0.0008010864,-3.400322,-0.63339764,0.06252289,0.64149094,1.6567205,-0.017967224,-2.387123,-0.058250427,-0.0004196167,-0.8978424,-1.3760495,0.025672913,-0.30090714,1.6526318,0.023994446,-2.3126564,-0.21305084,-0.063591,4.519722,-1.1714922,0.028800964,-7.393303,1.947553,0.0032424927,-12.56916,0.0,0.0,0.0,0.0,0.0,0.0,0.0,0.0,0.0,0.0,0.0,0.0,-2.0,2.0,-2.0,-2.0,2.0,-2.0,-2.0,-2.0,-2.0,-2.0,-2.0,-2.0
2025-06-06 17:13:20.782,0.349476,-3.579986,11.678365,0.00048949505,0.0011156144,0.00025933847,0.598358,0.028352,9.78274,-0.11356354,0.01499176,1.0003815,-0.812841,-0.034980774,6.8549614,1.6232021,-0.014762878,-1.2396431,0.012702942,0.00415802,-3.4149704,-0.6336265,0.02872467,0.64759445,1.6565679,0.025596619,-2.3883438,-0.058250427,0.00034332275,-0.88197327,-1.3760495,-0.017585754,-0.30456924,1.6526318,0.0283432,-2.289463,-0.21327972,0.0308609,4.519722,-1.1717211,0.0030136108,-7.3871994,1.9474767,-0.024147034,-12.589912,0.0,0.0,0.0,0.0,0.0,0.0,0.0,0.0,0.0,0.0,0.0,0.0,-2.0,2.0,-2.0,-2.0,2.0,-2.0,-2.0,-2.0,-2.0,-2.0,-2.0,-2.0
2025-06-06 17:13:20.836,0.347573,-3.578876,11.680094,0.0029870088,0.0034886687,-0.000654865,0.603823,0.036956,9.773766,-0.11363983,0.0022506714,0.99061584,-0.8126884,0.008277893,6.864727,1.6230495,-0.052375793,-1.2530708,0.012779236,0.027885437,-3.4149704,-0.63347393,-0.02368927,0.65003586,1.6564916,-0.016288757,-2.4005508,-0.058250427,-0.02117157,-0.8709831,-1.3759732,0.004234314,-0.31189346,1.652708,-0.003929138,-2.3077736,-0.21305084,-0.04901886,4.5050735,-1.1717211,-0.009346008,-7.4201584,1.947553,-0.0046920776,-12.570381,0.0,0.0,0.0,0.0,0.0,0.0,0.0,0.0,0.0,0.0,0.0,0.0,-2.0,2.0,-2.0,-2.0,2.0,-2.0,-2.0,-2.0,-2.0,-2.0,-2.0,-2.0
2025-06-06 17:13:20.890,0.350006,-3.578303,11.680093,0.0023564736,0.0040399483,-0.002727269,0.58498,0.074008,9.749127,-0.11356354,0.011253357,1.0174713,-0.8127647,0.022621155,6.8708305,1.6231258,-0.020561218,-1.2494087,0.012550354,0.007286072,-3.421074,-0.63339764,-0.02483368,0.6341667,1.6564916,-0.005683899,-2.3846817,-0.058250427,-0.011100769,-0.8892975,-1.3761258,0.020103455,-0.30701065,1.6526318,0.011940002,-2.3236427,-0.21297455,-0.10494232,4.511177,-1.1717211,-0.011177063,-7.3835373,1.9474767,-0.0009536743,-12.560616,0.0,0.0,0.0,0.0,0.0,0.0,0.0,0.0,0.0,0.0,0.0,0.0,-2.0,2.0,-2.0,-2.0,2.0,-2.0,-2.0,-2.0,-2.0,-2.0,-2.0,-2.0
2025-06-06 17:13:20.943,0.350155,-3.575984,11.679675,0.0015725067,-0.00076185365,-0.0009415004,0.598471,0.035468,9.79458,-0.11363983,0.0024795532,0.98817444,-0.812841,0.017585754,6.859844,1.6230495,0.01209259,-1.2457466,0.01247406,-0.020866394,-3.433281,-0.63324505,0.0283432,0.64027023,1.6565679,-0.011100769,-2.3907852,-0.058250427,0.005302429,-0.8892975,-1.3761258,0.005836487,-0.30212784,1.6526318,-0.012550354,-2.313877,-0.21266937,0.04436493,4.514839,-1.1717211,-0.06298065,-7.3957443,1.947553,-0.0033187866,-12.565498,0.0,0.0,0.0,0.0,0.0,0.0,0.0,0.0,0.0,0.0,0.0,0.0,-2.0,2.0,-2.0,-2.0,2.0,-2.0,-2.0,-2.0,-2.0,-2.0,-2.0,-2.0
2025-06-06 17:13:20.995,0.349699,-3.577729,11.679662,-0.00016259486,8.40376e-05,0.0009656557,0.611185,0.042404,9.799505,-0.11356354,-0.008430481,0.98939514,-0.812841,-0.010795593,6.868389,1.6230495,0.0015640259,-1.2640572,0.012626648,0.0065994263,-3.4271774,-0.63347393,0.026283264,0.64637375,1.6564916,0.021324158,-2.3981094,-0.058250427,-0.010032654,-0.8661003,-1.3761258,0.021781921,-0.2923622,1.6526318,-0.014533997,-2.3260841,-0.21259308,0.07266998,4.49897,-1.1716448,0.002861023,-7.40551,1.947553,-0.04634857,-12.543526,0.0,0.0,0.0,0.0,0.0,0.0,0.0,0.0,0.0,0.0,0.0,0.0,-2.0,2.0,-2.0,-2.0,2.0,-2.0,-2.0,-2.0,-2.0,-2.0,-2.0,-2.0
2025-06-06 17:13:21.047,0.347293,-3.580176,11.678168,-0.00088695885,0.00088908814,-7.002261e-05,0.609317,0.066676,9.735469,-0.11356354,-0.0059890747,1.0040436,-0.8126884,0.019493103,6.868389,1.6231258,-0.021400452,-1.2274361,0.012550354,0.016975403,-3.424736,-0.63347393,0.056877136,0.64637375,1.6567205,-0.017967224,-2.4127579,-0.058174133,0.004386902,-0.8844147,-1.3760495,-0.0061416626,-0.30212784,1.6525555,-0.019569397,-2.2919044,-0.21274567,-0.0035476685,4.524605,-1.1716448,-0.015983582,-7.373768,1.947553,-0.0020217896,-12.552071,0.0,0.0,0.0,0.0,0.0,0.0,0.0,0.0,0.0,0.0,0.0,0.0,-2.0,2.0,-2.0,-2.0,2.0,-2.0,-2.0,-2.0,-2.0,-2.0,-2.0,-2.0
2025-06-06 17:13:21.100,0.346268,-3.576813,11.679248,0.00037405896,0.0020387366,-0.0004924272,0.601898,0.047276,9.751408,-0.113716125,-0.034065247,1.0040436,-0.8126884,0.038414,6.8635063,1.6230495,-0.019340515,-1.2469673,0.012702942,0.0033187866,-3.4137497,-0.63347393,0.036201477,0.64881516,1.6565679,-0.0014877319,-2.3883438,-0.058250427,-0.028266907,-0.87464523,-1.3761258,0.002861023,-0.29724503,1.652708,-0.015220642,-2.306553,-0.21282196,-0.06511688,4.5172806,-1.1716448,0.0062942505,-7.3871994,1.9474767,-0.0062942505,-12.575264,0.0,0.0,0.0,0.0,0.0,0.0,0.0,0.0,0.0,0.0,0.0,0.0,-2.0,2.0,-2.0,-2.0,2.0,-2.0,-2.0,-2.0,-2.0,-2.0,-2.0,-2.0
2025-06-06 17:13:21.152,0.346299,-3.57624,11.677883,-0.0019699181,-0.00024141393,-0.0015274074,0.595611,0.070692,9.821961,-0.11363983,-0.010871887,1.0016022,-0.8127647,0.0049972534,6.8378716,1.6229732,0.03276825,-1.2664986,0.012626648,-0.00995636,-3.4357224,-0.63339764,0.0052261353,0.6573601,1.6564916,-0.008506775,-2.4115372,-0.05832672,-0.00049591064,-0.8892975,-1.3760495,0.04459381,-0.30945206,1.652708,-0.0059890747,-2.2906837,-0.21259308,-0.030555725,4.490425,-1.1715685,0.010032654,-7.4103928,1.947553,0.018882751,-12.565498,0.0,0.0,0.0,0.0,0.0,0.0,0.0,0.0,0.0,0.0,0.0,0.0,-2.0,2.0,-2.0,-2.0,2.0,-2.0,-2.0,-2.0,-2.0,-2.0,-2.0,-2.0
2025-06-06 17:13:21.205,0.34292,-3.575264,11.673209,-0.0011933165,0.0030671367,-0.0011948175,0.600491,0.028196,9.775929,-0.11356354,0.0075912476,0.98939514,-0.8126121,-0.014762878,6.85252,1.6232021,0.03513336,-1.2591743,0.012626648,-0.013542175,-3.4345016,-0.63347393,-0.034828186,0.6353874,1.6564916,-0.027885437,-2.3627052,-0.058250427,-0.027122498,-0.8868561,-1.3760495,0.035820007,-0.30090714,1.652708,-0.00415802,-2.285801,-0.21289825,-0.037651062,4.528267,-1.1717211,-0.00995636,-7.396965,1.9474767,-0.014915466,-12.56916,0.0,0.0,0.0,0.0,0.0,0.0,0.0,0.0,0.0,0.0,0.0,0.0,-2.0,2.0,-2.0,-2.0,2.0,-2.0,-2.0,-2.0,-2.0,-2.0,-2.0,-2.0
2025-06-06 17:13:21.257,0.341098,-3.570115,11.675861,4.7577676e-05,0.0014941589,-0.003090594,0.603053,0.040978,9.750054,-0.11363983,0.01209259,0.99549866,-0.8126884,-0.01285553,6.86961,1.6231258,-0.0182724,-1.26894,0.012626648,-0.04184723,-3.436943,-0.63347393,0.026817322,0.6292839,1.6564916,-0.03261566,-2.3968887,-0.058174133,0.012702942,-0.88197327,-1.3761258,0.013771057,-0.30090714,1.652708,0.0308609,-2.3126564,-0.21266937,0.00415802,4.5453568,-1.1715685,0.011405945,-7.3871994,1.9474005,-0.021629333,-12.570381,0.0,0.0,0.0,0.0,0.0,0.0,0.0,0.0,0.0,0.0,0.0,0.0,-2.0,2.0,-2.0,-2.0,2.0,-2.0,-2.0,-2.0,-2.0,-2.0,-2.0,-2.0
2025-06-06 17:13:21.311,0.33836,-3.570356,11.676277,0.002240706,0.004844353,0.0004571541,0.597804,0.058966,9.762014,-0.11363983,-0.007209778,1.0040436,-0.8126121,-0.021247864,6.8537407,1.6230495,-0.029335022,-1.2628365,0.012550354,0.02407074,-3.4137497,-0.6336265,-0.052452087,0.64637375,1.6564916,-0.03025055,-2.379799,-0.058250427,-0.011940002,-0.8892975,-1.3761258,0.012168884,-0.30334854,1.652708,-0.059700012,-2.3199806,-0.21251678,-0.03803253,4.536812,-1.1716448,0.014305115,-7.396965,1.9474767,0.011482239,-12.564278,0.0,0.0,0.0,0.0,0.0,0.0,0.0,0.0,0.0,0.0,0.0,0.0,-2.0,2.0,-2.0,-2.0,2.0,-2.0,-2.0,-2.0,-2.0,-2.0,-2.0,-2.0
2025-06-06 17:13:21.371,0.335887,-3.569011,11.67807,-0.002291024,-0.002429097,0.0008530122,0.616714,0.046697,9.781051,-0.11356354,0.03139496,0.99794006,-0.8126121,0.006752014,6.868389,1.6232021,-0.038261414,-1.2249947,0.012626648,-0.023460388,-3.4222946,-0.6335502,-0.040626526,0.65125656,1.6566442,-0.0033187866,-2.383461,-0.058250427,-0.0104904175,-0.8929596,-1.3762784,0.033302307,-0.29358292,1.6527843,0.009269714,-2.2967873,-0.21244049,0.013542175,4.5172806,-1.1717211,0.0146102905,-7.392082,1.9474005,-0.005683899,-12.558174,0.0,0.0,0.0,0.0,0.0,0.0,0.0,0.0,0.0,0.0,0.0,0.0,-2.0,2.0,-2.0,-2.0,2.0,-2.0,-2.0,-2.0,-2.0,-2.0,-2.0,-2.0
2025-06-06 17:13:21.429,0.333625,-3.568634,11.678063,-0.0020386144,-0.0014164569,-0.0013395576,0.598759,0.04624,9.776083,-0.11348724,0.014839172,1.0077057,-0.8125358,0.037574768,6.856182,1.6231258,0.06587982,-1.2201118,0.012626648,-0.013008118,-3.4283981,-0.6336265,-0.025596619,0.6292839,1.6564916,-0.048484802,-2.407875,-0.058250427,0.008811951,-0.8722038,-1.3759732,-0.027427673,-0.31311417,1.6525555,-0.023078918,-2.3089943,-0.21259308,-0.083351135,4.535591,-1.1717211,0.014228821,-7.3994064,1.9474767,0.008354187,-12.556953,0.0,0.0,0.0,0.0,0.0,0.0,0.0,0.0,0.0,0.0,0.0,0.0,-2.0,2.0,-2.0,-2.0,2.0,-2.0,-2.0,-2.0,-2.0,-2.0,-2.0,-2.0
2025-06-06 17:13:21.483,0.333366,-3.567173,11.677126,-0.002317134,-0.003995687,0.001063656,0.591132,0.048493,9.771462,-0.11356354,0.011253357,0.98939514,-0.8126121,-0.04962921,6.843975,1.6232784,-0.00705719,-1.2579536,0.012702942,-0.0014877319,-3.4381638,-0.6335502,-0.034599304,0.6561394,1.6567205,0.023231506,-2.379799,-0.058250427,0.0015640259,-0.8844147,-1.3762021,-0.009880066,-0.30578995,1.6525555,0.00034332275,-2.313877,-0.21259308,-0.018119812,4.5307083,-1.1717974,0.007133484,-7.4116135,1.9474767,0.022163391,-12.580147,0.0,0.0,0.0,0.0,0.0,0.0,0.0,0.0,0.0,0.0,0.0,0.0,-2.0,2.0,-2.0,-2.0,2.0,-2.0,-2.0,-2.0,-2.0,-2.0,-2.0,-2.0
2025-06-06 17:13:21.536,0.330386,-3.563656,11.677136,-0.0011590731,0.0013335537,-0.0010631847,0.560371,0.04351,9.779749,-0.11348724,-0.016288757,0.99916077,-0.8126121,0.037879944,6.8512993,1.6231258,0.02254486,-1.2664986,0.012626648,0.030174255,-3.4149704,-0.6335502,-0.0422287,0.65247726,1.6566442,-0.0019454956,-2.3773575,-0.058174133,0.016822815,-0.88197327,-1.3761258,-0.062294006,-0.30456924,1.652708,-0.010719299,-2.3358498,-0.21251678,0.0132369995,4.486763,-1.1717211,0.011634827,-7.3957443,1.947553,0.008201599,-12.575264,0.0,0.0,0.0,0.0,0.0,0.0,0.0,0.0,0.0,0.0,0.0,0.0,-2.0,2.0,-2.0,-2.0,2.0,-2.0,-2.0,-2.0,-2.0,-2.0,-2.0,-2.0
2025-06-06 17:13:21.589,0.325675,-3.562751,11.676739,0.00041680207,-0.00066402793,0.0005772153,0.598543,0.018542,9.762295,-0.11363983,0.0283432,0.99305725,-0.8126884,-0.04261017,6.843975,1.6231258,-0.0075912476,-1.2762642,0.012550354,-0.011787415,-3.4076462,-0.6335502,-0.0016403198,0.6573601,1.6567968,0.047569275,-2.383461,-0.058250427,0.016746521,-0.8905182,-1.3760495,-0.027122498,-0.31067276,1.6526318,0.038642883,-2.2955666,-0.21259308,0.017280579,4.528267,-1.1717211,0.042152405,-7.376213,1.9474767,0.010108948,-12.566719,0.0,0.0,0.0,0.0,0.0,0.0,0.0,0.0,0.0,0.0,0.0,0.0,-2.0,2.0,-2.0,-2.0,2.0,-2.0,-2.0,-2.0,-2.0,-2.0,-2.0,-2.0
2025-06-06 17:13:21.643,0.321585,-3.564926,11.674583,-0.002420283,-0.0026799531,-1.1972958e-05,0.610938,0.054142,9.770761,-0.11356354,0.0157547,1.0003815,-0.8124595,0.043373108,6.856182,1.6231258,0.04322052,-1.248188,0.012702942,-0.0033187866,-3.4113083,-0.6336265,-0.03276825,0.64515305,1.6566442,0.025062561,-2.346836,-0.058250427,0.006904602,-0.8685417,-1.3762784,0.049858093,-0.29846573,1.652708,0.010261536,-2.306553,-0.21244049,-0.050239563,4.503853,-1.1717211,0.07915497,-7.3908615,1.9473242,0.012168884,-12.563057,0.0,0.0,0.0,0.0,0.0,0.0,0.0,0.0,0.0,0.0,0.0,0.0,-2.0,2.0,-2.0,-2.0,2.0,-2.0,-2.0,-2.0,-2.0,-2.0,-2.0,-2.0
2025-06-06 17:13:21.694,0.320314,-3.565019,11.674191,-0.0016734392,0.0018129433,-0.0022187848,0.605799,0.053353,9.778596,-0.11356354,-0.028190613,1.0016022,-0.8126121,-0.014228821,6.8537407,1.6230495,-0.015220642,-1.2506294,0.012626648,-0.010261536,-3.4198532,-0.63347393,0.028419495,0.64637375,1.6567205,0.0182724,-2.3736916,-0.058250427,0.0062179565,-0.8856354,-1.3761258,0.0037002563,-0.30456924,1.6526318,-0.010108948,-2.2992287,-0.21251678,0.0050735474,4.536812,-1.1718737,-0.03124237,-7.4238205,1.9473242,-0.03917694,-12.571602,0.0,0.0,0.0,0.0,0.0,0.0,0.0,0.0,0.0,0.0,0.0,0.0,-2.0,2.0,-2.0,-2.0,2.0,-2.0,-2.0,-2.0,-2.0,-2.0,-2.0,-2.0
2025-06-06 17:13:21.747,0.31703,-3.565519,11.671134,-0.0025176548,0.0012048705,-0.00086135487,0.610722,0.055088,9.802292,-0.11356354,0.044136047,1.0162506,-0.8126121,-0.004005432,6.857403,1.6230495,0.013694763,-1.2408638,0.012702942,0.026512146,-3.403984,-0.63324505,-0.04398346,0.64149094,1.6567205,-0.051841736,-2.4090958,-0.05832672,0.004234314,-0.88197327,-1.3760495,3.8146973e-05,-0.30701065,1.6527843,0.036354065,-2.3077736,-0.21259308,-0.055732727,4.527046,-1.1717211,0.00019073486,-7.368885,1.9474005,-0.019798279,-12.559395,0.0,0.0,0.0,0.0,0.0,0.0,0.0,0.0,0.0,0.0,0.0,0.0,-2.0,2.0,-2.0,-2.0,2.0,-2.0,-2.0,-2.0,-2.0,-2.0,-2.0,-2.0
2025-06-06 17:13:21.799,0.317441,-3.564434,11.671664,0.0005042954,0.003607351,0.0010827325,0.589768,0.044755,9.786671,-0.11356354,-0.019340515,0.99794006,-0.8125358,-0.0008773804,6.8220024,1.6229732,-0.0497818,-1.2518501,0.012550354,0.0048446655,-3.4308395,-0.6335502,-0.015296936,0.64271164,1.6567205,-0.02910614,-2.4115372,-0.058250427,0.013847351,-0.88075256,-1.3758206,0.001411438,-0.30456924,1.6526318,-0.015525818,-2.3028908,-0.21251678,-0.034370422,4.514839,-1.1717211,0.0048446655,-7.372547,1.9474767,-0.018806458,-12.556953,0.0,0.0,0.0,0.0,0.0,0.0,0.0,0.0,0.0,0.0,0.0,0.0,-2.0,2.0,-2.0,-2.0,2.0,-2.0,-2.0,-2.0,-2.0,-2.0,-2.0,-2.0
2025-06-06 17:13:21.850,0.314041,-3.561708,11.670824,-0.0021234897,-0.0019415391,0.0029384363,0.609866,0.052997,9.769916,-0.11363983,-0.004005432,1.0016022,-0.81238323,0.05252838,6.8134575,1.6231258,0.023612976,-1.2323189,0.012626648,-0.012779236,-3.4283981,-0.6335502,-0.053749084,0.64881516,1.6566442,0.01537323,-2.3810196,-0.058174133,-0.0035476685,-0.8648796,-1.3761258,-0.056266785,-0.2874794,1.6526318,-0.030097961,-2.285801,-0.2123642,-0.014381409,4.531929,-1.1717974,0.017204285,-7.409172,1.9474767,0.03452301,-12.578926,0.0,0.0,0.0,0.0,0.0,0.0,0.0,0.0,0.0,0.0,0.0,0.0,-2.0,2.0,-2.0,-2.0,2.0,-2.0,-2.0,-2.0,-2.0,-2.0,-2.0,-2.0
2025-06-06 17:13:21.901,0.313529,-3.563238,11.6722,0.0032344093,0.0011229449,-5.0614548e-05,0.603112,0.054766,9.784074,-0.11356354,0.0050735474,0.99427795,-0.8124595,0.0009536743,6.8537407,1.6230495,0.03566742,-1.2225533,0.012626648,0.002708435,-3.4100876,-0.6335502,-0.017662048,0.65369797,1.6564916,-0.054283142,-2.334629,-0.058250427,0.0062179565,-0.87953186,-1.3761258,-0.014915466,-0.30090714,1.6527843,-0.02986908,-2.343174,-0.21251678,-0.032081604,4.4892044,-1.17195,0.0011825562,-7.392082,1.9474767,-0.0182724,-12.565498,0.0,0.0,0.0,0.0,0.0,0.0,0.0,0.0,0.0,0.0,0.0,0.0,-2.0,2.0,-2.0,-2.0,2.0,-2.0,-2.0,-2.0,-2.0,-2.0,-2.0,-2.0
2025-06-06 17:13:21.952,0.312389,-3.5635,11.676755,-0.0016992001,-0.0016588132,-0.0007182728,0.597082,0.044575,9.76624,-0.11363983,-0.055503845,1.006485,-0.8126884,0.0024032593,6.8537407,1.6231258,-0.0009536743,-1.2103462,0.012626648,0.018196106,-3.4283981,-0.63339764,0.073280334,0.64393234,1.6567205,-0.044441223,-2.3993301,-0.058250427,0.016365051,-0.8636589,-1.3760495,-0.028572083,-0.30578995,1.6526318,-0.0022506714,-2.289463,-0.2123642,0.038719177,4.5172806,-1.1717974,0.026359558,-7.3859787,1.947553,-0.023231506,-12.5813675,0.0,0.0,0.0,0.0,0.0,0.0,0.0,0.0,0.0,0.0,0.0,0.0,-2.0,2.0,-2.0,-2.0,2.0,-2.0,-2.0,-2.0,-2.0,-2.0,-2.0,-2.0
2025-06-06 17:13:22.003,0.312324,-3.56384,11.674837,0.0009993929,-0.00089907146,-0.0020814796,0.592668,0.02809,9.759406,-0.11356354,-0.00415802,1.0052643,-0.8126121,0.0008010864,6.8390923,1.6230495,0.042381287,-1.2530708,0.012702942,0.0059890747,-3.4283981,-0.6335502,0.034446716,0.6243973,1.6567205,0.04360199,-2.3846817,-0.058174133,0.011634827,-0.87709045,-1.3762021,-0.07053375,-0.30334854,1.652708,0.017433167,-2.289463,-0.21244049,0.04436493,4.5087357,-1.1718737,-0.0157547,-7.38842,1.947553,0.0017166138,-12.575264,0.0,0.0,0.0,0.0,0.0,0.0,0.0,0.0,0.0,0.0,0.0,0.0,-2.0,2.0,-2.0,-2.0,2.0,-2.0,-2.0,-2.0,-2.0,-2.0,-2.0,-2.0
2025-06-06 17:13:22.054,0.310069,-3.563402,11.675306,4.141666e-05,-0.00059679785,6.054547e-05,0.592071,0.047514,9.752601,-0.113716125,-0.012245178,1.0113678,-0.8126884,0.015525818,6.86961,1.6231258,-0.017662048,-1.2555122,0.012702942,-0.0048446655,-3.408867,-0.63347393,-0.025215149,0.6341667,1.6567205,-0.005531311,-2.4151993,-0.058174133,0.016593933,-0.8929596,-1.3762021,-0.031089783,-0.29968643,1.652708,-0.037117004,-2.2931252,-0.21274567,-0.005455017,4.5209427,-1.1718737,-0.04535675,-7.4189377,1.9474767,0.0132369995,-12.5484085,0.0,0.0,0.0,0.0,0.0,0.0,0.0,0.0,0.0,0.0,0.0,0.0,-2.0,2.0,-2.0,-2.0,2.0,-2.0,-2.0,-2.0,-2.0,-2.0,-2.0,-2.0
2025-06-06 17:13:22.105,0.307079,-3.560584,11.675653,-0.0013952685,-0.0016098917,-0.00078396697,0.598317,0.0334,9.809963,-0.11363983,0.018959045,1.0113678,-0.8126121,0.04535675,6.864727,1.6232021,0.0050735474,-1.2677193,0.012702942,0.041542053,-3.4137497,-0.63324505,-0.0034713745,0.63904953,1.6567968,-0.039634705,-2.3749123,-0.058174133,0.0014877319,-0.87831116,-1.3762784,-0.04550934,-0.29602432,1.652708,0.036506653,-2.3248634,-0.21251678,-0.061302185,4.5050735,-1.1717211,0.035209656,-7.3871994,1.9474767,-0.00019073486,-12.519112,0.0,0.0,0.0,0.0,0.0,0.0,0.0,0.0,0.0,0.0,0.0,0.0,-2.0,2.0,-2.0,-2.0,2.0,-2.0,-2.0,-2.0,-2.0,-2.0,-2.0,-2.0
2025-06-06 17:13:22.156,0.306248,-3.560661,11.676672,-0.0015268489,0.0004992689,0.00053504814,0.603783,0.041676,9.779805,-0.11348724,-0.01651764,0.99794006,-0.8125358,-0.023384094,6.8427544,1.6230495,0.022850037,-1.2530708,0.012702942,0.05016327,-3.416191,-0.6336265,0.042686462,0.6634636,1.6567968,-0.008354187,-2.3749123,-0.05832672,0.007209778,-0.8892975,-1.3759732,0.016288757,-0.30212784,1.6526318,0.0005722046,-2.3053322,-0.21259308,0.0371933,4.5429153,-1.1717974,-0.019950867,-7.3859787,1.947553,0.012931824,-12.572823,0.0,0.0,0.0,0.0,0.0,0.0,0.0,0.0,0.0,0.0,0.0,0.0,-2.0,2.0,-2.0,-2.0,2.0,-2.0,-2.0,-2.0,-2.0,-2.0,-2.0,-2.0
2025-06-06 17:13:22.207,0.304259,-3.559258,11.677023,-0.0017159902,0.0005974611,-0.00028068383,0.606762,0.043825,9.764413,-0.11348724,0.005607605,1.0028229,-0.8125358,-0.06351471,6.861065,1.6229732,-0.0090408325,-1.2542915,0.012702942,0.024528503,-3.4149704,-0.6337791,-0.031013489,0.6292839,1.6566442,-0.0118637085,-2.3932266,-0.058250427,0.015220642,-0.87586975,-1.3760495,0.019340515,-0.31067276,1.652708,-0.0065994263,-2.3041115,-0.2122879,0.047416687,4.5416946,-1.1721026,-0.037727356,-7.3859787,1.9474005,0.010719299,-12.580147,0.0,0.0,0.0,0.0,0.0,0.0,0.0,0.0,0.0,0.0,0.0,0.0,-2.0,2.0,-2.0,-2.0,2.0,-2.0,-2.0,-2.0,-2.0,-2.0,-2.0,-2.0
2025-06-06 17:13:22.258,0.302122,-3.560266,11.673681,0.00177308,-0.0029879862,-0.00083543675,0.622139,0.042246,9.738441,-0.11348724,-0.012702942,1.0077057,-0.8126884,0.023994446,6.8537407,1.6231258,-0.0030899048,-1.2420845,0.012626648,0.0014877319,-3.4222946,-0.63347393,0.022239685,0.6256218,1.6565679,-0.0598526,-2.4139786,-0.05832672,-0.009803772,-0.8697624,-1.3759732,0.013008118,-0.30212784,1.652708,-0.0065994263,-2.313877,-0.21251678,0.11615753,4.552681,-1.17195,-0.06450653,-7.4030685,1.9474767,0.0033187866,-12.576485,0.0,0.0,0.0,0.0,0.0,0.0,0.0,0.0,0.0,0.0,0.0,0.0,-2.0,2.0,-2.0,-2.0,2.0,-2.0,-2.0,-2.0,-2.0,-2.0,-2.0,-2.0
2025-06-06 17:13:22.309,0.30014,-3.561901,11.673932,0.0001905725,0.0020412148,0.00211033,0.586443,0.049129,9.787151,-0.11348724,0.005455017,1.0028229,-0.8125358,-0.06832123,6.856182,1.6231258,0.05695343,-1.2457466,0.012626648,0.018806458,-3.416191,-0.6337028,0.017814636,0.64759445,1.6567205,0.050849915,-2.4017715,-0.058174133,-0.020332336,-0.87342453,-1.3760495,-0.020256042,-0.29968643,1.6526318,-0.03856659,-2.3089943,-0.21213531,0.060768127,4.5087357,-1.1721026,-0.059928894,-7.3994064,1.9474767,-0.010032654,-12.572823,0.0,0.0,0.0,0.0,0.0,0.0,0.0,0.0,0.0,0.0,0.0,0.0,-2.0,2.0,-2.0,-2.0,2.0,-2.0,-2.0,-2.0,-2.0,-2.0,-2.0,-2.0
2025-06-06 17:13:22.360,0.299313,-3.557135,11.675428,-0.0010431309,0.0008571486,-6.1365776e-05,0.59111,0.023729,9.780236,-0.113716125,-0.0002670288,0.99671936,-0.8124595,-0.024757385,6.843975,1.6231258,-0.047798157,-1.2591743,0.012702942,0.020484924,-3.4064255,-0.6336265,0.002708435,0.6622429,1.6565679,-0.029945374,-2.3761368,-0.05832672,-0.01613617,-0.88319397,-1.3761258,-0.020561218,-0.30212784,1.6527843,-0.025367737,-2.3089943,-0.2122879,0.039100647,4.503853,-1.17195,-0.045967102,-7.3908615,1.947553,-0.016899109,-12.545967,0.0,0.0,0.0,0.0,0.0,0.0,0.0,0.0,0.0,0.0,0.0,0.0,-2.0,2.0,-2.0,-2.0,2.0,-2.0,-2.0,-2.0,-2.0,-2.0,-2.0,-2.0
2025-06-06 17:13:22.411,0.295933,-3.559043,11.675846,0.00093767815,-0.0018991975,-0.00042982222,0.59588,0.052565,9.742623,-0.11356354,-0.021095276,0.98573303,-0.8126121,-0.011024475,6.856182,1.6232784,0.0023269653,-1.2713814,0.012702942,0.0059127808,-3.4113083,-0.63339764,0.048789978,0.64393234,1.6567205,-0.00034332275,-2.387123,-0.058250427,-0.011177063,-0.88075256,-1.3762021,0.0024795532,-0.30823135,1.6525555,-0.025215149,-2.2931252,-0.21244049,-0.05039215,4.5343704,-1.1721026,-0.032920837,-7.373768,1.9474767,-0.017662048,-12.541084,0.0,0.0,0.0,0.0,0.0,0.0,0.0,0.0,0.0,0.0,0.0,0.0,-2.0,2.0,-2.0,-2.0,2.0,-2.0,-2.0,-2.0,-2.0,-2.0,-2.0,-2.0
2025-06-06 17:13:22.462,0.2936,-3.560446,11.671449,0.00029511773,0.0013069549,-0.0005175425,0.597229,0.035267,9.753672,-0.11356354,-0.0012588501,0.99916077,-0.8124595,-0.008277893,6.8293266,1.6231258,0.0207901,-1.260395,0.012550354,0.0059127808,-3.4259567,-0.63347393,-0.07846832,0.6378288,1.6566442,-0.011253357,-2.3932266,-0.058174133,0.012397766,-0.88075256,-1.3762784,-0.014533997,-0.30334854,1.6526318,-0.009498596,-2.3004494,-0.2123642,-0.06969452,4.479439,-1.1721026,0.0021743774,-7.3701057,1.9474005,0.015449524,-12.583809,0.0,0.0,0.0,0.0,0.0,0.0,0.0,0.0,0.0,0.0,0.0,0.0,-2.0,2.0,-2.0,-2.0,2.0,-2.0,-2.0,-2.0,-2.0,-2.0,-2.0,-2.0
2025-06-06 17:13:22.513,0.289901,-3.555826,11.67212,0.0018562973,0.003924879,0.0006483549,0.601642,0.031706,9.782233,-0.11348724,-0.03604889,1.006485,-0.8126121,0.028266907,6.8744926,1.6230495,-0.008277893,-1.2518501,0.012626648,-0.021247864,-3.4198532,-0.6335502,-0.013923645,0.64881516,1.6564916,-0.016365051,-2.4005508,-0.058250427,0.0075912476,-0.87831116,-1.3762021,-0.026512146,-0.30578995,1.6527843,-0.005531311,-2.2967873,-0.21251678,-0.03314972,4.5307083,-1.1721026,0.05420685,-7.376213,1.9474767,-0.02117157,-12.528877,0.0,0.0,0.0,0.0,0.0,0.0,0.0,0.0,0.0,0.0,0.0,0.0,-2.0,2.0,-2.0,-2.0,2.0,-2.0,-2.0,-2.0,-2.0,-2.0,-2.0,-2.0
2025-06-06 17:13:22.564,0.287238,-3.554867,11.675609,-0.0018513056,0.004098085,0.0010303202,0.5969,0.05248,9.754003,-0.11363983,0.030021667,1.0040436,-0.8125358,-0.03665924,6.8183403,1.6229732,-0.043754578,-1.2494087,0.012626648,-0.007896423,-3.4015427,-0.6336265,-0.02117157,0.64027023,1.6565679,0.0075149536,-2.3895645,-0.05832672,-0.025291443,-0.87464523,-1.3760495,0.03139496,-0.30212784,1.6526318,-0.028877258,-2.2931252,-0.21244049,-0.073890686,4.5062943,-1.1718737,0.02735138,-7.372547,1.9474767,0.0019454956,-12.593575,0.0,0.0,0.0,0.0,0.0,0.0,0.0,0.0,0.0,0.0,0.0,0.0,-2.0,2.0,-2.0,-2.0,2.0,-2.0,-2.0,-2.0,-2.0,-2.0,-2.0,-2.0
2025-06-06 17:13:22.615,0.282542,-3.558677,11.674264,0.002063433,-0.0008889311,-0.0023939284,0.612028,0.042885,9.742441,-0.11363983,-0.0063705444,0.99916077,-0.8125358,-0.054130554,6.8512993,1.6230495,-0.035820007,-1.2701607,0.012626648,-0.023231506,-3.4149704,-0.63347393,0.054740906,0.65003586,1.6567205,0.0073623657,-2.4054337,-0.058250427,-0.022697449,-0.8941803,-1.3759732,0.034217834,-0.30456924,1.6526318,-0.021781921,-2.2882423,-0.2122879,0.04924774,4.5136185,-1.1721026,-0.043144226,-7.4030685,1.9473242,-0.009498596,-12.53376,0.0,0.0,0.0,0.0,0.0,0.0,0.0,0.0,0.0,0.0,0.0,0.0,-2.0,2.0,-2.0,-2.0,2.0,-2.0,-2.0,-2.0,-2.0,-2.0,-2.0,-2.0
2025-06-06 17:13:22.666,0.28235,-3.558033,11.676821,-0.0025985683,0.0033257946,-0.00044938736,0.59392,0.057472,9.76128,-0.11356354,-0.030708313,1.0077057,-0.8124595,0.03643036,6.856182,1.6230495,0.010719299,-1.2628365,0.01247406,0.010261536,-3.4100876,-0.63347393,0.07015228,0.6573601,1.6568731,-0.014076233,-2.3663673,-0.058174133,-0.0021743774,-0.88319397,-1.3760495,-0.009727478,-0.30701065,1.6526318,0.009727478,-2.285801,-0.2122879,-0.016746521,4.519722,-1.1721026,0.04840851,-7.3713264,1.9474005,-0.014381409,-12.589912,0.0,0.0,0.0,0.0,0.0,0.0,0.0,0.0,0.0,0.0,0.0,0.0,-2.0,2.0,-2.0,-2.0,2.0,-2.0,-2.0,-2.0,-2.0,-2.0,-2.0,-2.0
2025-06-06 17:13:22.717,0.282745,-3.55838,11.673166,-0.001731419,0.0017810562,0.00017840756,0.590882,0.037453,9.798361,-0.11348724,-0.0010299683,1.0028229,-0.8126121,0.030326843,6.861065,1.6231258,-0.03124237,-1.26894,0.012702942,0.019493103,-3.4100876,-0.6337028,-0.018043518,0.64149094,1.6566442,-0.028800964,-2.3968887,-0.058250427,-0.0008773804,-0.8929596,-1.3758969,-0.08647919,-0.29602432,1.6527843,0.015907288,-2.3077736,-0.21244049,-0.028800964,4.524605,-1.1721789,-0.025901794,-7.384758,1.9474767,-0.00064849854,-12.560616,0.0,0.0,0.0,0.0,0.0,0.0,0.0,0.0,0.0,0.0,0.0,0.0,-2.0,2.0,-2.0,-2.0,2.0,-2.0,-2.0,-2.0,-2.0,-2.0,-2.0,-2.0
2025-06-06 17:13:22.768,0.282204,-3.556935,11.671771,0.00023427555,0.0014660591,-0.0026142588,0.627209,0.035365,9.786103,-0.11356354,0.015144348,0.98817444,-0.8126121,0.067100525,6.8671684,1.6231258,-0.01712799,-1.2652779,0.012702942,0.060157776,-3.4186325,-0.6337028,0.016746521,0.64515305,1.6565679,-0.0025558472,-2.3712502,-0.058250427,0.0021743774,-0.87586975,-1.3759732,-0.03803253,-0.30212784,1.6526318,0.012397766,-2.313877,-0.2122879,-0.033607483,4.48188,-1.1721026,-0.027580261,-7.393303,1.947553,-0.034599304,-12.545967,0.0,0.0,0.0,0.0,0.0,0.0,0.0,0.0,0.0,0.0,0.0,0.0,-2.0,2.0,-2.0,-2.0,2.0,-2.0,-2.0,-2.0,-2.0,-2.0,-2.0,-2.0
2025-06-06 17:13:22.819,0.282603,-3.555322,11.670809,-0.0008202,0.0019648392,0.00030258772,0.599964,0.061711,9.760743,-0.11379242,-0.018730164,1.0052643,-0.81238323,0.054283142,6.83543,1.6232021,-0.003929138,-1.2921333,0.012626648,-0.0146102905,-3.4027634,-0.6335502,-0.020866394,0.63904953,1.6567205,-0.017738342,-2.3395119,-0.058174133,0.01033783,-0.8868561,-1.3759732,-0.045661926,-0.30456924,1.6527843,0.023002625,-2.30167,-0.21221161,-0.00064849854,4.512398,-1.1720263,-0.0064468384,-7.364002,1.9474767,0.022850037,-12.561836,0.0,0.0,0.0,0.0,0.0,0.0,0.0,0.0,0.0,0.0,0.0,0.0,-2.0,2.0,-2.0,-2.0,2.0,-2.0,-2.0,-2.0,-2.0,-2.0,-2.0,-2.0
2025-06-06 17:13:22.870,0.280856,-3.553091,11.670499,0.0014169979,0.0003436728,0.00025937337,0.606052,0.05825,9.762664,-0.11363983,-0.00415802,1.0016022,-0.81238323,-0.009422302,6.8500786,1.6230495,-0.0030136108,-1.2518501,0.012626648,0.0019454956,-3.4113083,-0.6335502,-0.06427765,0.6305046,1.6567205,-0.008201599,-2.367588,-0.05832672,0.0065231323,-0.88319397,-1.3760495,0.023765564,-0.30823135,1.6525555,-0.048484802,-2.3199806,-0.21244049,0.023384094,4.5258255,-1.1722552,-0.058555603,-7.4152756,1.947553,-0.0023269653,-12.577705,0.0,0.0,0.0,0.0,0.0,0.0,0.0,0.0,0.0,0.0,0.0,0.0,-2.0,2.0,-2.0,-2.0,2.0,-2.0,-2.0,-2.0,-2.0,-2.0,-2.0,-2.0
2025-06-06 17:13:22.921,0.283762,-3.555916,11.669178,-0.00055941293,0.0026714182,-0.0002729346,0.610577,0.062721,9.768734,-0.11356354,-0.025215149,1.0113678,-0.8124595,-0.00995636,6.828106,1.6230495,0.023612976,-1.2506294,0.012626648,0.0076675415,-3.416191,-0.6337028,0.0207901,0.64881516,1.6564916,0.015068054,-2.392006,-0.058174133,0.0146865845,-0.88197327,-1.3759732,0.008049011,-0.30578995,1.652708,0.008735657,-2.306553,-0.2123642,-0.08541107,4.503853,-1.1721789,-0.022163391,-7.3859787,1.9474767,0.004310608,-12.560616,0.0,0.0,0.0,0.0,0.0,0.0,0.0,0.0,0.0,0.0,0.0,0.0,-2.0,2.0,-2.0,-2.0,2.0,-2.0,-2.0,-2.0,-2.0,-2.0,-2.0,-2.0
2025-06-06 17:13:22.972,0.284337,-3.556135,11.668978,-0.0036985446,0.00030511845,-0.0025259627,0.610384,0.048605,9.792886,-0.11356354,0.014457703,1.0052643,-0.8127647,0.00019073486,6.86961,1.6229732,-0.0157547,-1.235981,0.012702942,0.010261536,-3.4308395,-0.6337791,-0.04901886,0.64515305,1.6567968,-0.013923645,-2.420082,-0.058250427,-0.027809143,-0.8941803,-1.3759732,-0.01247406,-0.31067276,1.6526318,-0.020561218,-2.2821388,-0.21266937,-0.04421234,4.5221634,-1.1721789,-0.02483368,-7.373768,1.947553,-0.0090408325,-12.578926,0.0,0.0,0.0,0.0,0.0,0.0,0.0,0.0,0.0,0.0,0.0,0.0,-2.0,0.8527772,-2.0,-2.0,0.26779038,-2.0,-2.0,-2.0,-2.0,-2.0,-2.0,-2.0
2025-06-06 17:13:23.023,0.245218,-4.09988,11.692878,-0.18271227,-0.45712313,0.037250545,4.648649,0.922874,9.73624,-0.1102829,0.001335144,0.91615295,-0.8471733,-0.6520462,1.1261177,1.6280849,-0.018959045,-1.4374008,-0.0008773804,-0.14743805,-2.7313652,-0.7195335,-1.2117386,-6.085907,1.6787695,0.37052155,-3.638363,-0.06587982,-0.09555817,-0.49378204,-1.3951993,-0.35816193,1.0662994,1.6569805,-0.031929016,-2.41642,-0.21152496,-0.2513504,4.8334465,-1.2006365,-0.97042084,-5.2680244,1.9541143,0.2048111,-13.067215,0.0,0.0,0.0,0.0,0.0,0.0,0.0,0.0,0.0,0.0,0.0,0.0,-2.0,-0.46289113,-2.0,-2.0,-0.26806527,1.0070838,-2.0,-2.0,-2.0,-2.0,-2.0,-2.0
2025-06-06 17:13:23.074,0.187324,-4.840333,11.936996,0.23764658,0.17622395,0.015338477,4.071743,0.330189,6.376137,-0.10120392,0.20069122,0.24353409,-0.9365135,-1.0609818,-4.0289917,1.6560085,0.69423676,-3.4015427,-0.054359436,-1.5891647,0.8599968,-0.9211784,-4.4562187,1.4618149,1.8259405,1.7807388,0.42176056,-0.056495667,0.8160782,-1.7755394,-1.4122891,0.036354065,0.9234772,1.6361523,-0.7669449,-0.72816086,-0.20267487,0.5990982,3.6054,-1.2416826,-0.33008575,-4.335392,1.9548773,-0.06778717,-12.782787,0.0,0.0,0.0,0.0,0.0,0.0,0.0,0.0,0.0,0.0,0.0,0.0,-2.0,-1.8975422,-2.0,2.0,1.8315972,2.0,-2.0,-2.0,-1.3016415,-2.0,-2.0,-2.0
2025-06-06 17:13:23.125,0.978262,-3.177434,11.21292,-0.01588988,0.6744234,-0.52718,3.55934,0.036561,6.870993,-0.098838806,-0.41599274,0.91004944,-1.0793357,-2.4397697,-6.6816216,1.731158,1.4264297,-6.753643,0.020332336,1.5398788,0.1690712,-0.77950054,4.952587,-1.8365746,1.9342016,2.0830193,0.08850098,-0.048789978,-0.19191742,-0.9784088,-1.4122128,-0.24646759,1.2115669,1.6349316,0.09799957,0.8172722,-0.1620102,1.1703873,1.1163483,-1.268767,-1.1548233,-2.5897598,1.9519018,0.038108826,-12.740063,0.0,0.0,0.0,0.0,0.0,0.0,0.0,0.0,0.0,0.0,0.0,0.0,-2.0,0.94447774,-2.0,2.0,2.0,2.0,-2.0,-2.0,2.0,-2.0,-2.0,-2.0
2025-06-06 17:13:23.176,1.14328,-1.181135,9.313923,0.85557294,0.9611964,-0.60453814,-0.062852,-2.777518,15.147225,-0.10929108,0.81043243,-0.22156143,-1.1309867,-1.531868,13.084305,1.7761714,0.36548615,-7.3017464,0.06259918,-0.08182526,0.44495392,-0.63965374,0.88314056,-0.46570587,1.9889044,0.40332794,0.27771378,-0.0422287,-0.21251678,-1.215229,-1.390698,1.4664078,-1.8561058,1.8636608,4.5971336,-0.7745476,-0.105400085,1.5537643,-1.408104,-1.3053118,-0.49167633,-2.0282288,1.9479345,-0.35022736,-12.205387,0.0,0.0,0.0,0.0,0.0,0.0,0.0,0.0,0.0,0.0,0.0,0.0,-2.0,-1.21971,-2.0,1.841138,2.0,-2.0,-2.0,-2.0,2.0,-2.0,-2.0,-2.0
2025-06-06 17:13:23.227,2.998669,0.798267,7.534379,-0.6520209,0.044603232,-0.7340318,-4.159031,1.631292,21.774658,-0.100746155,-0.9630203,1.8097191,-1.243444,-2.0910301,2.7924004,1.7793758,-0.67531586,-5.738003,0.056419373,-1.2718582,2.3248634,-0.64697796,-1.4046097,2.810711,1.9087957,-0.46527863,-10.38163,-0.078315735,-0.195961,0.38147736,-1.3849759,-0.3384781,0.7806511,1.9748211,0.5389023,0.34851456,-0.06450653,-0.23937225,-0.53650665,-1.3312517,-0.71567535,-1.0174713,1.9103216,-1.2843704,-9.440453,0.0,0.0,0.0,0.0,0.0,0.0,0.0,0.0,0.0,0.0,0.0,0.0,-2.0,-0.4679897,0.98832405,-2.0,2.0,-2.0,-2.0,-2.0,2.0,0.10713972,-2.0,-2.0
2025-06-06 17:13:23.278,0.159608,0.222606,5.602772,-1.5806139,-0.25982246,-0.5952805,-4.377995,3.65522,6.532538,-0.13813019,-1.0485458,2.9718475,-1.2977653,-1.318779,8.742199,1.7893703,-0.10372162,4.0216675,-0.03566742,-1.0793686,-0.3289833,-0.7041221,-0.532341,3.8043785,1.8726324,-0.9857559,-8.874035,-0.065193176,0.51792145,-0.92836,-1.3701749,0.14591217,-0.80994797,1.9928265,0.042152405,0.6012039,-0.06259918,-0.17299652,2.6129532,-1.34117,0.20801544,-1.9098206,1.8241094,-1.7219162,-6.1200867,0.0,0.0,0.0,0.0,0.0,0.0,0.0,0.0,0.0,0.0,0.0,0.0,-2.0,0.80518955,2.0,-2.0,-2.0,-2.0,-2.0,-2.0,-2.0,2.0,-2.0,-2.0
2025-06-06 17:13:23.329,-2.455654,-0.730831,5.12396,-0.1387098,-0.74759454,0.43157732,0.653095,2.920681,8.312969,-0.12348175,1.4631271,-0.20203018,-1.3133292,-0.058555603,16.441292,1.7936428,0.030708313,7.553215,-0.021781921,1.4463425,-4.110779,-0.9171348,-3.58601,-11.382622,1.8651556,0.103263855,-9.889679,-0.06931305,1.0375595,-1.830471,-1.364224,-0.6497574,0.033569336,1.8279552,-0.275383,-7.909668,-0.026435852,0.30353546,3.347828,-1.3703905,-0.5994797,0.6036453,1.7748998,-0.72155,-5.3510323,0.0,0.0,0.0,0.0,0.0,0.0,0.0,0.0,0.0,0.0,0.0,0.0,-2.0,2.0,2.0,-2.0,-0.45771003,-2.0,2.0,-2.0,-2.0,2.0,-2.0,2.0
2025-06-06 17:13:23.380,-1.531031,-0.038756,8.003784,0.2890478,0.5207204,1.1690456,-2.476114,-2.596721,10.928978,-0.06214142,0.863533,-1.8829651,-1.3053946,0.12119293,23.301746,1.8111904,0.7279587,6.035858,0.059700012,1.1063004,-6.688946,-0.96581036,-0.64792633,-3.5944138,1.8440984,-0.76213837,-7.758297,-0.033683777,-0.29003143,4.610054,-1.3293576,1.0268784,-3.46624,1.787672,-0.82912445,-5.995575,0.019493103,1.0822678,0.7025261,-1.3744341,0.81287384,-1.2042427,1.9077276,3.2648125,-0.436409,0.0,0.0,0.0,0.0,0.0,0.0,0.0,0.0,0.0,0.0,0.0,0.0,-2.0,2.0,2.0,-2.0,-0.5765155,-2.0,2.0,-2.0,-2.0,2.0,-2.0,2.0
2025-06-06 17:13:23.431,-2.34331,1.264388,11.124499,-0.28344938,0.1857514,0.95660603,-2.544498,-2.952965,9.435724,-0.0434494,0.10471344,-1.5912094,-1.3020377,0.06023407,23.195545,1.831332,0.2148056,5.962616,0.08930206,0.43338776,-6.680401,-0.99106365,-0.3017807,-3.6493492,1.8054937,-0.76213837,-6.8207817,-0.061912537,-0.3207016,5.5378036,-1.2920499,0.18474579,-3.7811852,1.7532635,-0.5096817,-5.0592804,0.054283142,0.43216705,0.5194168,-1.3712298,-0.02040863,-0.30456924,1.9830297,0.51296234,0.41687775,0.0,0.0,0.0,0.0,0.0,0.0,0.0,0.0,0.0,0.0,0.0,0.0,-2.0,2.0,2.0,-2.0,-0.6165223,-2.0,2.0,-2.0,-2.0,2.0,-2.0,2.0
2025-06-06 17:13:23.482,-3.226798,1.922805,13.403811,-0.009255515,0.055125367,0.6686818,-2.555531,-3.128577,9.175315,-0.04421234,0.10005951,-1.3434029,-1.2870841,0.27194977,23.049057,1.8429286,0.16819,5.5255966,0.09975433,0.06481171,-6.549782,-1.0051017,-0.19016266,-3.6127243,1.7874883,-0.07862091,-6.884262,-0.058174133,0.3207016,4.3952103,-1.2922788,-0.1330185,-2.957199,1.7281628,-0.5069351,-4.3378334,0.06603241,0.035438538,0.5889969,-1.372069,0.08892059,-0.45105743,1.9953893,0.17848969,0.39002228,0.0,0.0,0.0,0.0,0.0,0.0,0.0,0.0,0.0,0.0,0.0,0.0,-2.0,2.0,2.0,-2.0,-0.6014402,-2.0,2.0,-2.0,-2.0,2.0,-2.0,2.0
2025-06-06 17:13:23.533,-3.277326,2.253928,15.168471,0.06141302,-0.09909944,0.6080106,-2.636059,-1.999606,9.683434,-0.051383972,-0.040168762,-1.0540924,-1.2616019,0.7034683,21.747768,1.8546779,0.16918182,5.37545,0.10204315,0.042533875,-6.5998306,-1.0131125,-0.20160675,-3.273365,1.7885565,0.1329422,-7.228504,-0.06046295,-0.5598831,6.1127625,-1.2939572,0.30330658,-3.8422203,1.7224407,0.1984787,-4.8700676,0.06755829,0.170784,0.43030548,-1.373366,-0.29270172,-0.19836807,2.0011115,0.055351257,0.33996964,0.0,0.0,0.0,0.0,0.0,0.0,0.0,0.0,0.0,0.0,0.0,0.0,-2.0,2.0,2.0,-2.0,-0.7996477,-2.0,2.0,-2.0,-2.0,2.0,-2.0,2.0
2025-06-06 17:13:23.584,-2.202375,1.547375,16.95798,0.6141165,-0.49187,0.45124373,-2.24831,-1.373557,9.42873,-0.04764557,0.07663727,-1.3958969,-1.2163596,0.7564926,19.942322,1.8490322,-0.13233185,5.9479675,0.11127472,0.22434235,-7.082016,-1.0237937,-0.14438629,-4.3121986,1.8009161,0.2650833,-7.7070274,-0.08678436,-0.6319809,6.7548637,-1.2767148,0.104255676,-4.027771,1.734724,0.34564972,-5.7355614,0.0712204,0.07488251,0.40589142,-1.3751208,0.17848969,-0.37414932,2.0030951,0.020942688,0.33630753,0.0,0.0,0.0,0.0,0.0,0.0,0.0,0.0,0.0,0.0,0.0,0.0,-2.0,2.0,2.0,-2.0,-0.7620708,-2.0,2.0,-2.0,-2.0,2.0,-2.0,2.0
2025-06-06 17:13:23.635,-0.414257,-0.173719,18.19419,0.7115946,-0.79191417,0.3734638,-1.139034,-0.829371,9.174103,-0.05092621,-0.59719086,-0.68177414,-1.1228995,4.5558586,11.663387,1.8439205,0.5387497,5.036087,0.119132996,0.21053314,-7.3005257,-1.0300498,-0.10242462,-3.7994957,1.8180059,0.42507172,-8.687267,-0.116233826,-0.3042221,7.610588,-1.2709928,-0.038490295,-3.9545288,1.7659283,0.7085037,-7.3994064,0.071754456,0.062294006,0.4022293,-1.3744341,-0.045661926,-0.24475479,2.0036292,-0.02986908,0.33752823,0.0,0.0,0.0,0.0,0.0,0.0,0.0,0.0,0.0,0.0,0.0,0.0,-2.0,2.0,2.0,-2.0,-0.9666623,-2.0,2.0,-2.0,-2.0,2.0,-2.0,2.0
2025-06-06 17:13:23.686,2.002706,-3.466604,18.713173,0.86464816,-1.5531749,-0.091430925,2.749844,-1.789366,9.133993,-0.061912537,-0.44506073,-0.4022293,-0.7449394,5.5250206,-3.1989021,1.9434078,2.037243,-0.10070801,0.11928558,-0.6535721,-6.4924088,-1.050344,-0.27706146,-4.5343704,1.8313574,0.052223206,-8.55909,-0.13561249,-0.46398163,8.38941,-1.3179135,-1.2396622,-0.46814728,1.8245983,1.4947891,-10.340124,0.08594513,-0.14827728,-0.18371964,-1.4093004,-1.6495895,3.0634003,2.0400977,1.8764114,-3.3942184,0.0,0.0,0.0,0.0,0.0,0.0,0.0,0.0,0.0,0.0,0.0,0.0,-2.0,2.0,1.9695715,-2.0,-1.7518259,-2.0,0.5270228,-2.0,-2.0,2.0,-2.0,2.0
2025-06-06 17:13:23.737,2.905019,-6.465219,16.999182,0.16269018,-0.46525338,-0.8236873,5.298078,-0.393698,9.233487,-0.063056946,-0.0774765,-0.7367058,-0.62958294,0.5333328,-0.3228798,1.9854457,0.13652802,0.68055344,0.064888,-1.2251663,-3.8532066,-1.0601096,-0.025978088,-9.575951,1.8583654,0.4113388,-10.08255,-0.14469147,0.124549866,5.670864,-1.3650632,-0.6951523,0.04333496,1.8453503,-0.0308609,-9.052261,0.087776184,-0.0146865845,-0.1678505,-1.4365374,0.097465515,1.8268089,2.1012855,0.59101105,-3.8141441,0.0,0.0,0.0,0.0,0.0,0.0,0.0,0.0,0.0,0.0,0.0,0.0,-2.0,2.0,-2.0,-2.0,-1.7174267,-2.0,-2.0,-2.0,-2.0,2.0,-2.0,2.0
2025-06-06 17:13:23.788,3.276988,-7.529792,14.498584,-0.1607051,-0.23079887,-0.67621803,4.500635,0.756949,9.2279,-0.069236755,0.26241302,-0.9442291,-0.6121078,-0.21884918,-0.11047363,1.7341335,-4.40205,0.6024246,0.0052261353,-1.3280869,-1.5399399,-1.0720878,-0.32405853,-8.469978,1.8734716,0.31795502,-10.307163,-0.16208649,-0.18016815,2.9193573,-1.3968015,-0.66791534,1.3238716,1.8254375,-0.7594681,-7.487297,0.07923126,-0.29949188,0.5938797,-1.441115,-0.12348175,2.1686134,2.1116614,-0.0548172,-3.4503708,0.0,0.0,0.0,0.0,0.0,0.0,0.0,0.0,0.0,0.0,0.0,0.0,-2.0,2.0,-2.0,-2.0,-1.7695333,-2.0,-2.0,-2.0,-2.0,2.0,-2.0,2.0
2025-06-06 17:13:23.839,3.298239,-7.620381,12.926959,0.050959006,0.15887357,-0.44475466,3.071327,2.196875,8.602599,-0.062065125,-0.29140472,-0.38269806,-0.6237083,-0.12744904,0.35095596,1.6201503,-0.86925507,-0.042114258,-0.038642883,-0.46001434,-0.87586975,-1.1029105,-0.6407547,-7.283436,1.893308,0.39409637,-11.215382,-0.16765594,0.007972717,2.9510956,-1.4110684,-0.3269577,1.3214302,1.7831707,-0.93387604,-5.695278,0.066337585,0.0010299683,0.72816086,-1.451491,-0.35945892,2.8131523,2.1018195,-0.3748703,-2.7374687,0.0,0.0,0.0,0.0,0.0,0.0,0.0,0.0,0.0,0.0,0.0,0.0,-2.0,2.0,-2.0,-2.0,-1.6065677,-2.0,-2.0,-2.0,-2.0,2.0,-2.0,2.0
2025-06-06 17:13:23.890,3.93689,-7.152904,11.945808,0.15518805,0.18972892,-0.22681783,1.071674,2.506009,10.338366,-0.07923126,-0.10707855,0.026245117,-0.6550651,-0.68683624,2.2711525,1.6093929,-0.027046204,-0.7818718,-0.05558014,-0.21793365,-0.7782097,-1.1434226,-0.7011032,-4.724804,1.9086431,0.04299164,-11.33379,-0.16025543,0.31375885,2.3883438,-1.419003,-0.008506775,1.2774849,1.731596,-0.9543228,-3.7018394,0.06603241,-0.012779236,0.6720085,-1.4694964,-0.16757965,3.3002205,2.0795417,-0.6271744,-1.5655746,0.0,0.0,0.0,0.0,0.0,0.0,0.0,0.0,0.0,0.0,0.0,0.0,-2.0,2.0,-2.0,-2.0,-1.5870502,-2.0,-2.0,-2.0,-2.0,2.0,-2.0,2.0
2025-06-06 17:13:23.941,4.448281,-6.59217,11.557508,0.08924228,0.141594,-0.061516713,0.119024,1.981921,9.139293,-0.08365631,-0.004081726,-0.025024414,-0.68634564,-0.46886444,3.109787,1.6101558,0.009651184,-0.87709045,-0.057487488,0.1014328,-1.006485,-1.1766868,-0.6531906,-3.6896324,1.9080328,-0.048179626,-11.076218,-0.15079498,0.06397247,2.1271095,-1.4200711,0.013847351,1.235981,1.6870403,-0.7275772,-2.597084,0.06877899,0.116233826,0.4425125,-1.4822375,-0.22579193,3.7225914,2.0494056,-0.4569626,-0.5059891,0.0,0.0,0.0,0.0,0.0,0.0,0.0,0.0,0.0,0.0,0.0,0.0,-2.0,2.0,-2.0,-2.0,-1.5836365,-2.0,-2.0,-2.0,-2.0,2.0,-2.0,2.0
2025-06-06 17:13:23.992,4.619471,-6.060571,11.503781,-0.06684623,0.114082694,-0.004838594,-0.666944,1.291424,9.508623,-0.08434296,-0.00667572,-0.026245117,-0.7122856,-0.19939423,3.8788452,1.6201503,0.23197174,-1.5472641,-0.056037903,0.04398346,-1.0760651,-1.1989646,-0.25119781,-3.3344002,1.9042944,-0.0434494,-10.973679,-0.14598846,0.06465912,2.1246643,-1.4219785,-0.07030487,1.4068832,1.6591167,-0.36426544,-2.0184631,0.07221222,0.09807587,0.37170792,-1.4880358,-0.055274963,3.768978,2.0245337,-0.3685379,-0.032348633,0.0,0.0,0.0,0.0,0.0,0.0,0.0,0.0,0.0,0.0,0.0,0.0,-2.0,2.0,-2.0,-2.0,-1.6511612,-2.0,-2.0,-2.0,-2.0,2.0,-2.0,2.0
2025-06-06 17:13:24.044,4.433283,-5.58291,11.591333,-0.051701836,0.07985778,0.04171344,-0.750558,0.648864,9.715324,-0.08365631,-0.00415802,-0.056762695,-0.7283073,-0.12180328,4.1119995,1.6337306,0.22792816,-1.9842834,-0.052452087,0.03955841,-1.2384224,-1.2122397,-0.17726898,-3.375908,1.9022344,-0.044670105,-10.943161,-0.14415741,0.028648376,2.0611877,-1.4233518,-0.03643036,1.4068832,1.6479778,-0.026893616,-2.0538635,0.074043274,0.041389465,0.33874893,-1.488875,0.037727356,3.7457848,2.0130134,-0.1707077,0.23620987,0.0,0.0,0.0,0.0,0.0,0.0,0.0,0.0,0.0,0.0,0.0,0.0,-2.0,2.0,-2.0,-2.0,-1.6672281,-2.0,-2.0,-2.0,-2.0,2.0,-2.0,2.0
2025-06-06 17:13:24.096,4.245476,-5.335919,11.774334,-0.02347871,0.01684358,0.059445128,-0.397193,0.200098,10.03116,-0.08144379,0.045967102,-0.20325089,-0.73151165,0.102500916,3.9655151,1.6428096,0.08388519,-2.0453186,-0.048103333,0.09983063,-1.3934555,-1.2133842,0.0799942,-3.831234,1.9011663,-0.05290985,-10.946823,-0.14461517,-0.035057068,2.1588478,-1.4235806,0.06397247,1.2957954,1.6488171,0.08678436,-2.2943459,0.07480621,-0.0024032593,0.3277626,-1.4890276,0.00705719,3.6884117,2.0101905,0.01712799,0.099487305,0.0,0.0,0.0,0.0,0.0,0.0,0.0,0.0,0.0,0.0,0.0,0.0,-2.0,1.98238,-2.0,-2.0,-1.733427,-2.0,-2.0,-2.0,-2.0,2.0,-2.0,2.0
2025-06-06 17:13:24.147,4.149794,-5.326031,11.910178,0.005522728,-0.02814038,0.027801821,0.602499,0.215926,9.714236,-0.07839203,0.02368927,-0.26428604,-0.7257896,0.09044647,3.544365,1.6436489,-0.020942688,-1.9708557,-0.046577454,-0.04611969,-1.3665962,-1.2098746,0.05092621,-4.387886,1.9009374,-0.020713806,-10.95903,-0.14575958,-0.0022506714,2.2394142,-1.4225125,0.021781921,1.3128853,1.6555309,0.15476227,-2.6080704,0.07526398,0.033073425,0.3607216,-1.4877306,0.10311127,3.617607,2.0117164,0.030937195,0.049438477,0.0,0.0,0.0,0.0,0.0,0.0,0.0,0.0,0.0,0.0,0.0,0.0,-2.0,2.0,-2.0,-2.0,2.0,-2.0,-2.0,-2.0,-2.0,2.0,-2.0,2.0
2025-06-06 17:13:24.198,3.128009,-4.599679,11.610191,-0.8519203,0.37046075,-0.32436118,-2.609559,3.119313,14.672581,-0.099601746,-0.30338287,1.0296783,-0.6992393,0.5615616,1.7865257,1.6427333,-0.47634125,-1.3202095,-0.054359436,-1.042366,0.12756729,-1.0971122,1.8963242,14.333105,1.8748449,-0.45154572,-9.335468,-0.15216827,0.0062942505,2.4261856,-1.4050412,0.4330063,-0.07141113,1.661787,0.11394501,-2.8375664,0.05886078,0.19542694,0.72083664,-1.43669,2.1560326,-0.50232697,2.0091987,0.07534027,0.115356445,0.0,0.0,0.0,0.0,0.0,0.0,0.0,0.0,0.0,0.0,0.0,0.0,-2.0,2.0,-2.0,-2.0,0.3278308,-2.0,-2.0,-2.0,-2.0,0.17351128,-2.0,2.0
2025-06-06 17:13:24.249,1.940573,-4.105503,10.378087,-0.27594146,-0.22881995,-0.32476497,-0.120272,1.062175,7.360589,-0.101890564,0.5134964,0.1715126,-0.6501823,0.9127426,0.11657715,1.6099269,-0.43178558,-0.1727333,-0.07228851,0.36403656,-0.69276047,-1.0250144,1.1861801,1.4911118,1.8306707,-0.84537506,-7.2895393,-0.13240814,0.5725479,0.9820709,-1.3874173,0.06732941,0.04333496,1.6878033,0.8839035,-4.740673,0.022697449,-0.76877594,0.7013054,-1.3925921,0.2691269,-0.04699707,2.0114875,-0.015449524,0.07019043,0.0,0.0,0.0,0.0,0.0,0.0,0.0,0.0,0.0,0.0,0.0,0.0,-2.0,2.0,-2.0,-2.0,1.2455754,-2.0,-2.0,-2.0,-2.0,-2.0,-2.0,-1.8637335
2025-06-06 17:13:24.300,0.92211,-4.768211,9.735868,-1.5380073,0.25487766,-0.027560808,4.363345,2.460657,10.544184,-0.098991394,-0.36319733,0.87953186,-0.6100479,0.8585739,-1.4056625,1.607867,0.34511566,-1.2164497,-0.08945465,-0.7148361,1.1615181,-0.93430096,1.7506027,3.723812,1.7863439,-0.8073044,-5.9394226,-0.13965607,-0.70568085,2.8656425,-1.3845944,0.6545639,-0.9002838,1.7404461,0.6506729,-6.1213074,-0.020484924,-0.43468475,-1.3324165,-1.3172137,2.1980705,-5.1740303,1.9204687,-1.1722946,-9.59304,0.0,0.0,0.0,0.0,0.0,0.0,0.0,0.0,0.0,0.0,0.0,0.0,-2.0,0.7759636,-2.0,-2.0,-1.2392378,-2.0,-2.0,-2.0,-2.0,-2.0,-2.0,-2.0
2025-06-06 17:13:24.351,-1.272879,-5.08621,10.106434,-0.26858214,-0.5214374,0.3170612,5.330523,-0.278154,8.466153,-0.092430115,0.3887558,-0.083618164,-0.6808525,-1.2511826,-4.2108803,1.6360958,0.53943634,-2.4676895,-0.09113312,0.34297943,-0.23865128,-1.0019736,-1.9610214,-5.487755,1.7608618,-0.5498886,-5.166706,-0.14888763,-0.09181976,2.3627052,-1.3842893,-0.77251434,0.72938156,1.7724895,0.6624985,-7.2590218,-0.018348694,-0.08365631,-2.199131,-1.2924181,-0.3284073,-2.4237442,1.8985723,-0.122032166,-10.724651,0.0,0.0,0.0,0.0,0.0,0.0,0.0,0.0,0.0,0.0,0.0,0.0,-2.0,-0.7563451,-2.0,-2.0,-1.3018756,2.0,-2.0,-2.0,-2.0,-2.0,-2.0,-2.0
2025-06-06 17:13:24.402,-2.24603,-6.206212,11.24238,0.0018741171,0.19262946,0.2818779,3.876226,-1.820853,6.978352,-0.07892609,-0.06900787,-0.23254776,-0.82855755,-2.489437,-7.8352013,1.6967494,1.1098862,-5.307087,-0.09716034,0.059547424,0.40955353,-1.1681418,-2.5564232,0.6976433,1.9110082,2.447628,0.37781525,-0.14636993,0.20191193,1.903717,-1.4022946,-0.13652802,0.9039459,1.7779064,-0.33138275,-6.2153053,-0.0146102905,0.4314041,-2.8253593,-1.3135515,-0.13134003,-2.252842,1.8787359,-0.55057526,-9.18288,0.0,0.0,0.0,0.0,0.0,0.0,0.0,0.0,0.0,0.0,0.0,0.0,-1.7144444,-1.6650445,-2.0,2.0,2.0,2.0,-2.0,-2.0,-2.0,-2.0,-2.0,-2.0
2025-06-06 17:13:24.453,-3.060472,-5.172508,11.186352,-0.41837418,0.5339709,-0.25883245,4.609581,-2.479681,9.252854,-0.08228302,-0.35663605,0.5963211,-0.9438377,-2.4110832,-9.954376,1.7777736,1.3406754,-8.548103,0.016441345,1.4814377,0.18616104,-0.83717877,7.909973,-3.1049042,1.9615911,1.3874435,0.22766495,-0.13187408,0.56430817,1.2140083,-1.4299893,-1.1035538,3.2782478,1.7583752,-0.24318695,-5.5341415,3.8146973e-05,0.6416702,-3.6688805,-1.3150011,-0.5591202,-1.7206078,1.8384527,-0.84438324,-7.7058067,0.0,0.0,0.0,0.0,0.0,0.0,0.0,0.0,0.0,0.0,0.0,0.0,-2.0,0.20813462,-2.0,2.0,2.0,2.0,-2.0,-2.0,2.0,-2.0,-2.0,-2.0
2025-06-06 17:13:24.504,-3.48272,-4.015953,10.354942,0.14135912,0.43234688,0.0006023655,0.093991,-2.836393,10.84796,-0.09616852,0.038719177,0.29480362,-1.0167747,-1.9491196,4.5258255,1.8288143,0.780983,-9.4941635,0.044059753,0.04650116,1.2738228,-0.64484173,1.2699509,-0.69153976,1.9944738,0.0020217896,0.5999832,-0.0976944,0.6139755,-0.18249893,-1.429379,1.9190598,-0.9759674,1.9023418,3.130764,0.036010742,0.01865387,0.3168869,-3.8812866,-1.3568102,-0.78235626,0.12023926,1.811292,-0.30506134,-7.4726486,0.0,0.0,0.0,0.0,0.0,0.0,0.0,0.0,0.0,0.0,0.0,0.0,-2.0,-1.0446291,-2.0,1.8754015,2.0,-2.0,-2.0,-2.0,2.0,-2.0,-2.0,-2.0
2025-06-06 17:13:24.555,-3.951369,-3.925261,10.099077,-0.42973357,-0.25066012,-0.21662559,1.315553,-1.345851,8.961879,-0.11974335,-0.2891922,1.8927307,-1.1467795,-1.8642044,0.5951004,1.8527706,0.2890396,-9.628443,0.044670105,0.31780243,0.57801056,-0.6110397,-0.08769989,-0.119018555,1.7375158,-4.568447,0.7086296,-0.087776184,-0.37014008,0.8929596,-1.4163327,-1.9735336,3.8764038,1.9710827,0.012702942,1.3360786,0.015296936,-0.21030426,-3.1903572,-1.4337908,-1.5742874,3.8373375,1.7962621,-0.14072418,-6.996567,0.0,0.0,0.0,0.0,0.0,0.0,0.0,0.0,0.0,0.0,0.0,0.0,-2.0,-0.22569707,-2.0,-2.0,2.0,-2.0,-2.0,-2.0,2.0,-0.92518055,-2.0,-2.0
2025-06-06 17:13:24.606,-4.748007,-3.397332,9.051026,-0.5999289,0.19263141,-0.48722503,-4.107676,-1.224362,14.122066,-0.16002655,-0.76473236,3.4479294,-1.2106376,-0.8588791,6.729229,1.8415554,-1.040535,-7.65942,-0.0002670288,-1.0403824,-1.5069809,-0.6615501,-0.9421921,2.8155937,1.7399572,0.27088165,-5.6440086,-0.08670807,0.08327484,0.00061035156,-1.4357114,0.26073456,1.3702583,1.9723034,0.054588318,1.2530708,0.011329651,-0.32611847,-1.371479,-1.4481341,0.3520584,1.7816429,1.7434667,-1.3216019,-3.7225914,0.0,0.0,0.0,0.0,0.0,0.0,0.0,0.0,0.0,0.0,0.0,0.0,-2.0,-2.0,2.0,-2.0,-0.9299066,-2.0,-2.0,-2.0,-2.0,0.5070766,-2.0,-2.0
2025-06-06 17:13:24.657,-5.437251,-3.524462,7.952883,0.034520376,0.031954378,-0.2505826,4.595205,-0.105816,6.751938,-0.10875702,0.9560776,-0.76966476,-1.3320212,-1.5129471,0.060424805,1.9417293,1.6185379,0.41321564,-0.035972595,-0.21656036,-1.3775864,-0.796743,-1.8851852,-10.879684,1.769483,0.49129486,-7.024643,-0.099983215,-0.09235382,0.6939812,-1.4331174,-0.22571564,1.9342346,1.8786144,-1.6572189,-7.841305,0.016670227,-0.5891037,0.9808502,-1.4511095,-0.04169464,2.5421524,1.677854,-1.6456223,-1.0455475,0.0,0.0,0.0,0.0,0.0,0.0,0.0,0.0,0.0,0.0,0.0,0.0,-2.0,2.0,2.0,-2.0,-0.93082094,-2.0,2.0,-2.0,-2.0,2.0,-2.0,2.0
2025-06-06 17:13:24.708,-3.463425,-2.395577,8.736875,1.1771185,0.17021094,0.35561475,2.619708,0.661946,7.782457,-0.082969666,0.75756073,-1.3055611,-0.87540203,9.329422,-3.9069214,1.9689662,1.085701,0.19592667,0.007896423,1.0020828,-4.4281693,-0.90561444,-2.7501335,-5.5378036,1.8270849,0.851326,-9.093765,-0.066185,-0.029029846,5.3742256,-1.4262509,-0.75580597,2.4005508,1.7893505,-1.2903214,-5.310749,0.060310364,0.8143234,-0.6353874,-1.4301287,1.3419724,-0.14099503,1.8715643,4.34338,-0.6622429,0.0,0.0,0.0,0.0,0.0,0.0,0.0,0.0,0.0,0.0,0.0,0.0,-2.0,2.0,2.0,-2.0,-0.35867417,-2.0,2.0,-2.0,-2.0,2.0,-2.0,2.0
2025-06-06 17:13:24.759,-2.235279,-3.16959,9.64389,0.20115097,-0.32450193,0.1828098,1.344909,0.370449,9.486235,-0.058555603,-0.009727478,-0.9662018,-0.6504875,1.4652634,-1.0089264,1.9905574,0.101127625,0.60608673,0.029563904,0.36273956,-4.425728,-1.0326438,-2.8292503,2.3114357,1.8515753,0.5377579,-10.014191,-0.07976532,-0.14026642,6.0138855,-1.5005612,-1.5672684,6.002899,1.7434216,-1.1014938,-4.0631714,0.061149597,-0.40172577,1.170063,-1.3754259,0.5272293,-0.87831116,1.9757818,0.73711395,0.30945206,0.0,0.0,0.0,0.0,0.0,0.0,0.0,0.0,0.0,0.0,0.0,0.0,-2.0,2.0,-2.0,-2.0,-1.506627,-2.0,2.0,-2.0,-2.0,2.0,-2.0,2.0
2025-06-06 17:13:24.810,-1.338796,-3.599361,9.892441,0.16748816,0.07009616,-0.016396355,0.506575,-0.881396,8.613214,-0.0774765,-0.11714935,0.31189346,-0.62698895,-1.9842148,3.0926971,1.8114955,1.1252975,-9.2195015,0.04032135,0.2123642,-4.7638664,-1.1725669,-2.0989647,-1.2982368,1.8795751,0.39424896,-10.80888,-0.06855011,1.2698746,3.9594116,-1.5563321,-1.0081863,7.2236214,1.6763592,-1.7290115,-0.8722038,0.07274628,0.9686661,-0.2838173,-1.4160143,-0.97011566,2.6385918,1.981275,0.06473541,1.0406647,0.0,0.0,0.0,0.0,0.0,0.0,0.0,0.0,0.0,0.0,0.0,0.0,-2.0,2.0,-2.0,-2.0,-1.9899201,-2.0,-2.0,-2.0,-2.0,2.0,-2.0,2.0
2025-06-06 17:13:24.861,-0.609494,-3.505405,9.892119,0.013938758,-0.21646814,0.09555746,-4.409569,-2.244962,10.997194,-0.07846832,-0.27858734,0.017700195,-0.7207542,-1.1170578,5.314411,1.8228633,-0.24303436,-7.8864746,0.035591125,-0.49869537,-3.6444664,-1.2571006,-0.8868027,-3.1049042,1.8563055,-0.6586075,-8.467537,-0.09082794,-0.7161331,0.9625397,-1.561749,0.15155792,6.040741,1.5926647,-1.4925766,1.797512,0.0749588,-0.03627777,0.5255203,-1.450194,0.073661804,2.2662697,1.9749426,0.054740906,1.2347603,0.0,0.0,0.0,0.0,0.0,0.0,0.0,0.0,0.0,0.0,0.0,0.0,-2.0,1.7161509,-2.0,-2.0,-1.928669,2.0,-2.0,-2.0,-2.0,2.0,-2.0,2.0
2025-06-06 17:13:24.912,0.051911,-3.473765,10.593084,1.248176,0.2656372,0.14741592,-3.659712,-3.004914,4.406022,-0.06580353,0.5037308,-1.3287544,-0.75295025,0.07015228,2.8314629,1.8055446,0.04512787,-7.6789513,-0.024604797,-1.338234,-0.26428604,-1.3400321,-0.7679367,0.23620987,1.9549536,1.4210129,0.2105751,-0.10166168,0.24730682,0.20203018,-1.5190244,1.3884354,2.7545586,1.5398693,-0.116996765,1.6803246,0.079841614,0.20908356,-0.34973526,-1.4617144,-0.3207016,3.2465096,1.9774603,0.25585175,0.92103577,0.0,0.0,0.0,0.0,0.0,0.0,0.0,0.0,0.0,0.0,0.0,0.0,-0.28403115,-0.17490634,-2.0,2.0,0.27877504,2.0,-2.0,-2.0,-2.0,-2.0,-2.0,-2.0
2025-06-06 17:13:24.963,2.514107,-1.235703,10.168685,-0.5234582,0.9819196,-0.33673492,1.378385,3.697295,15.672553,-0.08556366,-1.3035965,4.2267494,-0.7874351,-0.09151459,-8.50782,1.8410213,0.07991791,-8.831312,-0.023536682,-1.1301804,5.166706,-1.3127189,0.47733307,12.310368,2.0031714,0.8106613,-0.6024246,-0.09563446,0.025672913,0.31189346,-1.4557767,1.1194229,1.0223541,1.5422344,0.07419586,1.486229,0.044822693,-0.4265976,-3.7433434,-1.4219652,1.2381363,-0.13489151,1.928861,-1.0407639,-10.355991,0.0,0.0,0.0,0.0,0.0,0.0,0.0,0.0,0.0,0.0,0.0,0.0,2.0,-0.97830147,-2.0,2.0,2.0,2.0,-2.0,-2.0,0.90457964,-2.0,-2.0,-2.0
2025-06-06 17:13:25.014,2.615338,0.877266,8.481709,-0.110260144,0.10082994,-0.546431,-1.541184,4.818389,14.096584,-0.09159088,0.41202545,5.3852158,-0.8454185,-2.1993675,-9.088884,1.8359096,-0.33039093,-8.225834,-0.043907166,-0.26493073,4.7956047,-1.2566428,1.1480331,20.899366,2.0010352,-1.0008621,1.8072777,-0.07236481,0.005836487,-0.45105743,-1.4053464,1.6521072,-1.5423813,1.7555523,4.2998924,-0.53894806,0.0447464,0.3019333,-5.145954,-1.3570391,1.0454941,-2.392006,1.8751501,-1.231041,-8.496834,0.0,0.0,0.0,0.0,0.0,0.0,0.0,0.0,0.0,0.0,0.0,0.0,2.0,-1.2476782,-2.0,2.0,2.0,2.0,-2.0,-2.0,2.0,-2.0,-2.0,-2.0
2025-06-06 17:13:25.065,2.482693,0.439417,6.731673,-0.41451308,-0.4299537,-0.57950115,-1.573247,2.963655,8.14892,-0.06641388,0.7442093,4.307316,-0.9618431,-2.1014824,-7.0063324,1.8114955,-0.6435776,-7.045395,-0.05054474,-0.052223206,4.76997,-1.2030082,1.2095261,19.070726,1.9333624,-1.3414383,4.391548,-0.06816864,-0.021705627,-0.49866486,-1.3750577,0.35060883,-0.7147331,1.9360638,2.3260918,-0.3619423,0.07282257,0.4226303,-6.143284,-1.3155352,0.6633377,-3.2684822,1.8194555,-0.84545135,-6.9452972,0.0,0.0,0.0,0.0,0.0,0.0,0.0,0.0,0.0,0.0,0.0,0.0,2.0,-1.1635834,-2.0,2.0,2.0,2.0,-2.0,-2.0,2.0,-2.0,-2.0,-2.0
2025-06-06 17:13:25.116,1.254069,-0.546582,5.167455,-0.6790506,-0.446414,-0.4122528,-0.694104,1.89875,5.763983,-0.061912537,-0.14995575,5.396202,-1.0059409,-0.88436127,-6.8329887,1.8037136,0.21976471,-7.8168907,-0.026054382,2.076992,1.1114655,-1.0606437,7.9126434,4.704052,1.903684,0.6435013,2.7215996,-0.07221222,-0.36823273,-0.07751465,-1.3750577,-0.16666412,-0.15442276,1.9882488,0.42110443,0.2923622,0.09716034,0.44612885,-7.1003265,-1.2911974,-0.06443024,-3.3246346,1.789472,-0.17162323,-6.9318695,0.0,0.0,0.0,0.0,0.0,0.0,0.0,0.0,0.0,0.0,0.0,0.0,2.0,-1.9478331,-2.0,2.0,2.0,2.0,-2.0,-2.0,2.0,-2.0,-2.0,-2.0
2025-06-06 17:13:25.167,-1.448421,-3.474767,4.500228,-1.2704959,-1.4457003,-0.0598006,4.661958,1.82914,8.197372,-0.07961273,-0.45574188,6.4606705,-1.0978751,-2.212719,-6.597389,1.8280513,0.6380844,-9.35256,0.029563904,0.43498993,1.4154282,-0.6997734,3.5294762,-1.924469,1.9719671,0.7464981,0.21667862,-0.08388519,-0.020103455,0.014038086,-1.402905,-3.128399,4.641796,1.9954967,1.0128403,-0.2825966,0.11165619,-0.0076675415,-6.9160004,-1.3620745,-2.4472466,2.4017715,1.8161749,0.846138,-9.091324,0.0,0.0,0.0,0.0,0.0,0.0,0.0,0.0,0.0,0.0,0.0,0.0,2.0,-1.7829529,-2.0,2.0,2.0,-0.3234223,-2.0,-2.0,2.0,-1.9419295,-2.0,-2.0
2025-06-06 17:13:25.218,-4.540878,-6.26544,5.251211,-0.47541878,0.15151422,0.54001707,3.273421,-2.432159,10.336433,-0.06465912,0.7640457,4.273136,-1.1629539,-0.8373642,-5.187458,1.8850429,1.1544418,-12.041809,0.06893158,-0.08022308,0.31189346,-0.6199699,0.34542084,-0.06774902,1.8555425,-2.534832,0.10925293,-0.09487152,0.20175934,0.31677628,-1.4853787,0.004005432,3.6322594,2.052412,0.062217712,-1.486229,0.10784149,-0.22922516,-6.2958717,-1.4104449,-0.015296936,1.0589752,1.8071722,-1.0215378,-6.413063,0.0,0.0,0.0,0.0,0.0,0.0,0.0,0.0,0.0,0.0,0.0,0.0,2.0,-2.0,-2.0,-2.0,2.0,-2.0,-2.0,-2.0,2.0,-1.3725404,-2.0,-2.0
2025-06-06 17:13:25.269,-5.769407,-5.457695,7.227988,-0.0073063844,0.1737126,0.7125796,2.244378,-2.64413,9.21713,-0.021018982,0.9781265,2.1808205,-1.2054496,-0.6256485,-5.2228584,1.92998,0.36518097,-12.624094,-0.032157898,-2.300991,1.3836899,-0.6169906,-0.11219025,0.06652832,1.678922,-2.6674309,0.25452042,-0.097846985,0.23906708,0.30334854,-1.4851499,0.05672455,3.416191,2.0406628,-0.47672272,-0.37659454,0.09540558,0.0037765503,-5.2961006,-1.4214312,-0.6321335,2.1063538,1.7546057,-0.75206757,-4.66621,0.0,0.0,0.0,0.0,0.0,0.0,0.0,0.0,0.0,0.0,0.0,0.0,-2.0,-2.0,2.0,-2.0,1.9854025,-2.0,-2.0,-2.0,2.0,0.13522758,-2.0,-2.0
2025-06-06 17:13:25.320,-7.803475,-4.277449,8.908803,-1.7189006,0.8043075,0.34723583,-1.426252,-0.428695,4.486212,-0.051841736,-0.6322861,-0.23010635,-1.2854819,-1.0845566,-1.9317932,2.027331,1.8883133,-2.9437714,-0.03551483,-0.30490875,-1.2579536,-0.64728314,-0.24082184,1.564354,1.6871618,0.8889389,-4.6771965,-0.14247894,-0.75984955,3.2782478,-1.488812,-0.0938797,3.654232,2.0315075,-0.017585754,-0.6683464,0.051994324,-1.0650253,-0.06652832,-1.4054857,0.5125046,-0.07019043,1.6873144,-1.2302017,-1.8939514,0.0,0.0,0.0,0.0,0.0,0.0,0.0,0.0,0.0,0.0,0.0,0.0,-2.0,2.0,2.0,-2.0,-1.9274874,-2.0,0.997724,-2.0,-2.0,2.0,-2.0,-2.0
2025-06-06 17:13:25.371,-8.245592,-1.663395,10.100507,1.9544781,0.71810794,0.661287,-1.077921,-5.432545,17.649244,-0.013084412,2.1601524,-5.515831,-1.2111716,1.1050034,19.515068,2.0536525,-0.0233078,-1.5155258,0.020637512,1.2804794,-5.3376045,-0.86632305,-4.2918816,-12.010071,1.805036,1.4650345,-9.232929,-0.10158539,0.6259537,3.9557495,-1.4277768,1.5700912,-0.65125656,1.953764,-2.055172,-10.199741,0.080070496,0.3320694,-0.47058868,-1.3923632,0.02292633,0.3289833,1.6477941,-0.7579422,-1.1139069,0.0,0.0,0.0,0.0,0.0,0.0,0.0,0.0,0.0,0.0,0.0,0.0,-2.0,2.0,2.0,-2.0,-0.68648344,-2.0,2.0,-2.0,-2.0,2.0,-2.0,2.0
2025-06-06 17:13:25.422,-5.387207,0.238115,12.769177,0.73098373,0.3212883,0.8129641,-1.782679,-5.485501,10.354902,0.03803253,0.18291473,-4.6442375,-1.1666923,0.99185944,17.820705,2.0266445,-0.48877716,0.095825195,0.05886078,0.116004944,-5.196003,-0.9212547,-0.40851593,-6.974594,1.8061041,-0.35511017,-7.119858,-0.09731293,-0.2651596,6.704815,-1.3353848,1.399498,-3.5040817,1.8573284,-1.8220901,-7.1357307,0.072135925,0.12622833,0.31799698,-1.385039,0.934639,-1.2408638,1.8719457,4.3383446,-0.6695671,0.0,0.0,0.0,0.0,0.0,0.0,0.0,0.0,0.0,0.0,0.0,0.0,-2.0,2.0,2.0,-2.0,-0.9480629,-2.0,2.0,-2.0,-2.0,2.0,-2.0,2.0
2025-06-06 17:13:25.473,-3.647091,0.212213,14.242089,0.8322141,-0.407565,0.22168912,-1.551578,-2.583613,6.984792,0.043678284,-0.09151459,-4.373234,-1.1222892,1.0387802,16.347294,1.959811,-1.2872696,3.3893356,0.058784485,0.041923523,-5.02388,-0.9630638,-0.44841766,-6.8329887,1.7940496,0.03490448,-7.208973,-0.10936737,-0.16162872,6.986801,-1.2980008,0.14400482,-3.388115,1.791029,-0.882988,-5.9723816,0.07534027,0.079460144,0.2825966,-1.3739,0.043907166,-0.26428604,1.9782995,0.68302155,0.33386612,0.0,0.0,0.0,0.0,0.0,0.0,0.0,0.0,0.0,0.0,0.0,0.0,-2.0,2.0,2.0,-2.0,-0.75404143,-2.0,2.0,-2.0,-2.0,2.0,-2.0,2.0
2025-06-06 17:13:25.524,-1.240634,-1.190081,14.36352,0.9604697,-0.79425114,-0.17888322,0.445509,-0.031376,7.809952,-0.010414124,-1.432457,-0.5865555,-0.9095054,8.425491,-0.2105751,1.941119,0.8522415,1.2762642,0.060539246,0.014381409,-5.1361885,-0.99617535,-0.9556961,-3.7994957,1.8074774,0.55316925,-8.401619,-0.115852356,-0.027503967,7.085678,-1.3119626,-1.1284256,-1.0626373,1.7743969,0.10196686,-6.734112,0.07785797,0.081977844,0.08972168,-1.3782488,-0.07442474,0.051879883,1.994016,0.1997757,0.39124298,0.0,0.0,0.0,0.0,0.0,0.0,0.0,0.0,0.0,0.0,0.0,0.0,-2.0,2.0,2.0,-2.0,-1.1550913,-2.0,2.0,-2.0,-2.0,2.0,-2.0,2.0
2025-06-06 17:13:25.575,2.166721,-4.92107,13.319745,1.088326,-1.1896511,-0.54660696,2.527312,-0.468543,7.662734,-0.052452087,-0.82683563,0.11291504,-0.6540733,2.1768608,-1.4251938,1.9896419,0.57720184,0.09338379,0.05672455,-0.62633514,-4.153507,-1.0719352,-1.0763931,-3.8873901,1.8405126,0.7767868,-9.788357,-0.10883331,0.2840805,6.466774,-1.4078641,-1.3584518,2.5555801,1.7975903,0.11425018,-7.306629,0.10219574,-0.0573349,-0.57190704,-1.435393,-1.418953,3.8764038,2.027967,1.2182236,-2.1283302,0.0,0.0,0.0,0.0,0.0,0.0,0.0,0.0,0.0,0.0,0.0,0.0,-2.0,2.0,-2.0,-2.0,-1.5181546,-2.0,1.5649147,-2.0,-2.0,2.0,-2.0,2.0
2025-06-06 17:13:25.626,3.846282,-6.056927,11.369063,0.26834962,-0.041666523,-0.77511644,3.356434,1.110786,10.275607,-0.071525574,0.32520294,-0.92836,-0.6120315,-0.27309418,-0.076293945,1.738406,-4.68655,0.88075256,0.008888245,-1.2181473,-1.7474632,-1.111608,-0.71331024,-5.589073,1.8843817,0.83927155,-11.447319,-0.09815216,0.26447296,5.3620186,-1.4373899,-0.2852249,2.4176407,1.7670727,-0.99933624,-5.003128,0.1052475,-0.007896423,-0.61707306,-1.4614855,-0.038337708,2.9193573,2.0495582,-0.021705627,-1.2213326,0.0,0.0,0.0,0.0,0.0,0.0,0.0,0.0,0.0,0.0,0.0,0.0,-2.0,2.0,-2.0,-2.0,-2.0,-2.0,-2.0,-2.0,-2.0,2.0,-2.0,2.0
2025-06-06 17:13:25.677,3.845986,-5.780496,9.429883,-0.49769652,0.0870391,-0.45048878,1.930178,2.430228,8.012109,-0.08647919,-0.80532074,1.2664986,-0.635305,-0.64273834,1.7999535,1.6393764,-0.04634857,-1.8329124,-0.049476624,-0.6283951,-0.31799698,-1.1561637,-0.8974838,-6.4557877,1.9124578,0.5843735,-12.199284,-0.12943268,-0.13568878,1.7987328,-1.4508176,-0.11554718,2.6422539,1.7236614,-0.750618,-3.6127243,0.08731842,-0.34801483,0.34363174,-1.4693438,-0.5837631,3.9960327,2.0387244,-0.27317047,-0.68299484,0.0,0.0,0.0,0.0,0.0,0.0,0.0,0.0,0.0,0.0,0.0,0.0,-2.0,2.0,-2.0,-2.0,-1.3943138,-2.0,-2.0,-2.0,-2.0,2.0,-2.0,2.0
2025-06-06 17:13:25.728,4.376843,-5.39602,8.940558,0.03561765,0.12515223,0.017865974,-0.00134,3.209388,11.375076,-0.09929657,-0.059165955,0.592659,-0.66498333,-0.38654327,2.223545,1.6363246,-0.085868835,-1.5582504,-0.059547424,-0.37807465,-0.57434845,-1.1890464,-0.5981827,-2.039215,1.9195532,0.019569397,-11.5852585,-0.13568878,-0.068626404,1.9440002,-1.4463162,0.28476715,1.79385,1.674223,-0.9106827,-1.760891,0.07549286,-0.13942719,0.61463165,-1.4965044,-0.20824432,4.335392,2.026441,-0.32154083,-0.042114258,0.0,0.0,0.0,0.0,0.0,0.0,0.0,0.0,0.0,0.0,0.0,0.0,-2.0,2.0,-2.0,-2.0,-1.7889317,-2.0,-2.0,-2.0,-2.0,2.0,-2.0,2.0
2025-06-06 17:13:25.779,4.898163,-4.983544,9.043441,0.12529925,0.08472826,0.05137256,-0.538775,1.804192,8.484884,-0.098838806,-0.12264252,0.49256134,-0.681768,-0.17726898,2.5629044,1.6335018,0.013389587,-1.6461449,-0.06122589,0.087394714,-1.0162506,-1.21697,-0.40668488,-3.6652184,1.9185613,-0.10761261,-11.487602,-0.13561249,0.010032654,1.830471,-1.4352536,0.04962921,1.7364769,1.6374493,-0.47908783,-1.1517525,0.07335663,0.017662048,0.41321564,-1.5058886,-0.11013031,4.564888,2.0114112,-0.18779755,0.37903595,0.0,0.0,0.0,0.0,0.0,0.0,0.0,0.0,0.0,0.0,0.0,0.0,-2.0,2.0,-2.0,-2.0,-1.5299978,-2.0,-2.0,-2.0,-2.0,2.0,-2.0,2.0
2025-06-06 17:13:25.830,5.01276,-4.675601,9.166614,-0.06528814,0.05294931,0.0039296434,-1.109838,1.483251,10.157583,-0.09838104,0.034980774,0.46326447,-0.6954246,-0.0687027,2.9694061,1.64136,0.14011383,-2.0746155,-0.05771637,0.17093658,-0.973526,-1.2258201,-0.019493103,-2.313877,1.9161962,-0.032157898,-11.38018,-0.1353836,-0.001411438,1.8072777,-1.4367032,-0.13889313,1.9000549,1.6266918,-0.071144104,-1.3800278,0.07419586,0.063819885,0.3704872,-1.5118395,-0.045051575,4.490425,2.000959,-0.1330185,0.61707306,0.0,0.0,0.0,0.0,0.0,0.0,0.0,0.0,0.0,0.0,0.0,0.0,-2.0,1.9797798,-2.0,-2.0,-1.7713315,-2.0,-2.0,-2.0,-2.0,2.0,-2.0,2.0
2025-06-06 17:13:25.881,4.85728,-4.572748,9.209194,-0.023847934,-0.06455324,0.05857557,-0.135456,0.681882,9.629629,-0.09334564,0.06023407,0.14953995,-0.69763714,0.043144226,2.6507988,1.6460903,0.11722565,-2.1881447,-0.054130554,0.18291473,-1.223774,-1.2277274,0.08563995,-3.9777222,1.9105505,-0.07823944,-11.09819,-0.13500214,0.031089783,1.8097191,-1.4403653,-0.018043518,1.990387,1.6311169,0.18825531,-1.7718773,0.07770538,0.0059127808,0.20447159,-1.5115343,-0.03894806,4.4769974,1.9984411,0.017433167,0.5255203,0.0,0.0,0.0,0.0,0.0,0.0,0.0,0.0,0.0,0.0,0.0,0.0,-2.0,1.9835817,-2.0,-2.0,-1.6711806,-2.0,-2.0,-2.0,-2.0,2.0,-2.0,2.0
2025-06-06 17:13:25.932,4.674406,-4.621142,9.477018,-0.06337884,-0.013033299,0.09716426,0.431208,0.435172,9.939722,-0.0875473,0.03513336,-0.012817383,-0.69008404,0.2904892,2.1197815,1.6495235,0.066719055,-2.1918068,-0.048942566,-0.008811951,-1.3434029,-1.2191062,0.17391205,-3.756771,1.9062017,-0.048332214,-11.082321,-0.13751984,-0.054359436,1.9659729,-1.439755,0.038108826,1.9073792,1.6414928,0.20404816,-2.1808205,0.076789856,-0.027427673,0.3241005,-1.50833,0.033988953,4.224308,1.9994329,0.08205414,0.42664337,0.0,0.0,0.0,0.0,0.0,0.0,0.0,0.0,0.0,0.0,0.0,0.0,-2.0,2.0,-2.0,-2.0,-1.8171763,-2.0,-2.0,-2.0,-2.0,2.0,-2.0,2.0
2025-06-06 17:13:25.984,4.516829,-4.716661,9.703939,0.012724044,-0.03394409,0.06407053,1.066345,0.464942,9.371836,-0.085105896,0.0674057,-0.029907227,-0.6814628,0.09304047,2.1063538,1.6497524,0.02735138,-2.1918068,-0.04512787,0.09540558,-1.52285,-1.2129264,0.0674057,-4.8407707,1.9049047,0.03452301,-11.070114,-0.13957977,-0.04459381,2.0172424,-1.438458,-0.015525818,1.8658714,1.6516399,0.20114899,-2.543373,0.07671356,0.029411316,0.27771378,-1.5052782,0.03955841,4.2389565,2.003858,0.09952545,0.21789932,0.0,0.0,0.0,0.0,0.0,0.0,0.0,0.0,0.0,0.0,0.0,0.0,-2.0,2.0,-2.0,-2.0,-1.7070181,-2.0,-2.0,-2.0,-2.0,2.0,-2.0,2.0
2025-06-06 17:13:26.035,4.426499,-4.795683,9.859994,-0.017645488,-0.0029283308,0.025849547,1.087661,0.550629,9.967005,-0.08350372,0.06587982,-0.061645508,-0.67383343,0.0077438354,1.8280296,1.6497524,-0.008506775,-2.1820412,-0.042915344,-0.016059875,-1.4703598,-1.2053733,0.056114197,-4.415962,1.9048284,0.0075912476,-11.054245,-0.14163971,-0.023536682,2.0782776,-1.4373899,0.013618469,1.7926292,1.659956,0.11180878,-2.715496,0.07572174,-0.028877258,0.33996964,-1.5023028,0.10799408,4.0509644,2.008741,0.03025055,0.07873535,0.0,0.0,0.0,0.0,0.0,0.0,0.0,0.0,0.0,0.0,0.0,0.0,-2.0,2.0,-2.0,-2.0,-1.794049,-2.0,-2.0,-2.0,-2.0,2.0,-2.0,2.0
2025-06-06 17:13:26.086,4.370481,-4.858389,9.875159,-0.00412355,-0.010041542,0.0019479096,1.405357,0.66027,9.597291,-0.08342743,-0.025367737,-0.055541992,-0.6694847,-0.020637512,1.79385,1.6494472,-0.013008118,-2.16251,-0.043144226,0.015525818,-1.465477,-1.2023978,0.031852722,-4.9652863,1.9049047,-0.00049591064,-11.073776,-0.14247894,-0.02117157,2.1161194,-1.436398,-0.16033173,1.8487816,1.663847,0.042381287,-2.7753105,0.07556915,-0.022315979,0.33874893,-1.5003191,0.038108826,4.1168823,2.011106,0.021247864,0.04699707,0.0,0.0,0.0,0.0,0.0,0.0,0.0,0.0,0.0,0.0,0.0,0.0,-2.0,2.0,-2.0,-2.0,-1.7106799,-2.0,-2.0,-2.0,-2.0,2.0,-2.0,2.0
2025-06-06 17:13:26.137,4.326742,-4.902948,9.90936,-0.012218247,0.0091977455,0.007325094,1.082025,0.76424,9.911999,-0.08358002,-0.014915466,-0.049438477,-0.6689506,-0.032310486,1.8292503,1.6493709,-0.024528503,-2.1637306,-0.04322052,-0.05443573,-1.4496078,-1.2009482,0.023002625,-4.4733353,1.9047521,-0.040245056,-11.056686,-0.14377594,0.085487366,2.1210022,-1.4362454,-0.09845734,1.8170433,1.6646862,-0.031929016,-2.736248,0.07450104,0.033607483,0.38880157,-1.5003954,0.014381409,4.1193237,2.0114112,0.034065247,0.056762695,0.0,0.0,0.0,0.0,0.0,0.0,0.0,0.0,0.0,0.0,0.0,0.0,-2.0,2.0,-2.0,-2.0,-1.7706792,-2.0,-2.0,-2.0,-2.0,2.0,-2.0,2.0
2025-06-06 17:13:26.188,4.322121,-4.913469,9.905167,-0.0011911523,-0.00026867597,-0.0032706074,0.857713,0.724179,9.679671,-0.08396149,-0.024986267,-0.037231445,-0.66963726,-0.021629333,1.8695335,1.6497524,0.025672913,-2.223545,-0.04322052,-0.016059875,-1.4789047,-1.2027793,-0.040550232,-4.773632,1.9046758,-0.004386902,-11.057907,-0.14369965,-0.024375916,2.1002502,-1.4368558,0.025520325,1.818264,1.6646862,-0.0046157837,-2.7167168,0.07488251,0.030708313,0.34485245,-1.500548,0.0182724,4.1071167,2.0114875,0.0073623657,0.07019043,0.0,0.0,0.0,0.0,0.0,0.0,0.0,0.0,0.0,0.0,0.0,0.0,-2.0,2.0,-2.0,-2.0,2.0,-2.0,-2.0,-2.0,-2.0,2.0,-2.0,2.0
2025-06-06 17:13:26.239,3.289008,-4.098764,9.521838,-0.89585096,0.41955906,-0.35209817,-2.957224,3.568102,14.460422,-0.10707855,-0.67813873,1.4959946,-0.65331036,0.51273346,0.5572586,1.6515071,-0.23136139,-1.8048363,-0.053367615,-1.0082626,0.2496376,-1.0987906,1.8130875,14.615091,1.8781255,-0.63991547,-9.196308,-0.14629364,0.035438538,2.1649513,-1.421597,0.61847687,0.3961258,1.6644573,0.02658844,-2.727703,0.058021545,0.023002625,0.8697624,-1.4546953,1.7433548,0.2471962,2.0028663,-0.014839172,0.3985672,0.0,0.0,0.0,0.0,0.0,0.0,0.0,0.0,0.0,0.0,0.0,0.0,-2.0,2.0,-2.0,-2.0,0.18134642,-2.0,-2.0,-2.0,-2.0,0.17400075,-2.0,2.0
2025-06-06 17:13:26.290,1.837213,-3.450381,8.184951,-0.25137004,-0.18213041,-0.32029316,0.481717,1.376912,7.530346,-0.11325836,0.28614044,0.4425125,-0.6211906,0.3685379,-0.44373322,1.6218288,-0.51013947,-0.6012039,-0.073280334,0.21083832,-0.5047684,-1.0340934,1.0704422,0.9649811,1.8334173,-0.84918976,-7.3554573,-0.1253128,0.6698227,0.6768913,-1.4043546,-0.03879547,0.75867844,1.6821575,0.6548691,-4.2755775,0.025749207,-1.2325668,0.7147331,-1.3994585,0.25424957,0.036010742,2.0088935,0.020332336,0.15320206,0.0,0.0,0.0,0.0,0.0,0.0,0.0,0.0,0.0,0.0,0.0,0.0,-2.0,2.0,-2.0,-2.0,1.279257,-2.0,-2.0,-2.0,-2.0,-2.0,-2.0,-2.0
2025-06-06 17:13:26.341,0.879171,-4.001073,7.696387,-1.4172524,0.25873706,0.085804015,4.166744,2.667884,11.147306,-0.11760712,-0.16544342,1.568016,-0.5907455,0.76351166,-2.1283302,1.6215236,0.35549164,-1.7108421,-0.082359314,-0.4317093,0.61951447,-0.94963604,1.4054489,4.995804,1.786115,-1.0175705,-5.6440086,-0.13027191,-0.6850052,2.506752,-1.403439,0.6001663,-0.10681152,1.7268658,0.27210236,-5.4316025,-0.018882751,-0.47672272,-1.4593735,-1.3188158,1.8428421,-4.802929,1.9117712,-1.2907791,-9.551537,0.0,0.0,0.0,0.0,0.0,0.0,0.0,0.0,0.0,0.0,0.0,0.0,-2.0,0.8068065,-2.0,-2.0,-1.1556782,-2.0,-2.0,-2.0,-2.0,-2.0,-2.0,-2.0
2025-06-06 17:13:26.392,-1.418304,-4.14378,8.340467,-0.35278282,-0.46675953,0.3662777,5.261834,-0.619117,8.047079,-0.104789734,0.37403107,0.22644424,-0.6577354,-1.4011002,-4.733349,1.6498287,0.46726227,-2.82658,-0.0838089,0.2387619,-0.40467072,-1.0215049,-1.9717789,-4.2426186,1.7491888,-0.9453201,-4.404976,-0.1417923,-0.08075714,2.1307716,-1.4026761,-0.70316315,1.4032211,1.7496014,0.4228592,-6.151829,-0.018730164,0.07587433,-2.2296486,-1.297835,-0.6335068,-2.3700294,1.8812536,-0.28720856,-9.932404,0.0,0.0,0.0,0.0,0.0,0.0,0.0,0.0,0.0,0.0,0.0,0.0,-2.0,-0.6484092,-2.0,-2.0,-1.3241148,2.0,-2.0,-2.0,-2.0,-2.0,-2.0,-2.0
2025-06-06 17:13:26.443,-2.400742,-5.218536,9.501212,-0.016809754,0.17222856,0.29568797,3.8989,-2.326113,7.020475,-0.08556366,0.06580353,-0.14099503,-0.7974296,-1.7756271,-9.123064,1.7139156,1.3624191,-6.209202,-0.09502411,-0.05619049,0.60730743,-1.1823325,-2.1183434,0.5633621,1.9055914,2.6643028,0.2899208,-0.13820648,0.33130646,1.5033188,-1.4224362,-0.19535065,1.6998558,1.7488384,-0.41500092,-5.122757,-0.013618469,0.19382477,-2.6898613,-1.3213335,-0.21259308,-1.7486839,1.8562292,-0.68279266,-8.446785,0.0,0.0,0.0,0.0,0.0,0.0,0.0,0.0,0.0,0.0,0.0,0.0,-1.4050744,-1.6289167,-2.0,2.0,2.0,2.0,-2.0,-2.0,-2.0,-2.0,-2.0,-2.0
2025-06-06 17:13:26.494,-3.263874,-4.302489,9.421645,-0.33300376,0.4172704,-0.27032414,5.404841,-2.35352,8.326668,-0.08350372,-0.25035858,1.2677193,-0.9198051,-2.4820366,-10.476845,1.7973812,1.3737869,-9.119402,0.017051697,0.78525543,0.6634636,-0.8320671,7.841461,-3.1854744,1.9628118,1.3702011,0.14831924,-0.12172699,0.3471756,0.88319397,-1.4556241,-1.1894608,4.3158607,1.7235088,-0.46489716,-4.048523,0.0035476685,0.38532257,-3.7763023,-1.3316332,-0.5636978,-0.87831116,1.813352,-0.7617569,-6.819561,0.0,0.0,0.0,0.0,0.0,0.0,0.0,0.0,0.0,0.0,0.0,0.0,-2.0,0.016387187,-2.0,2.0,2.0,2.0,-2.0,-2.0,2.0,-2.0,-2.0,-2.0
