openverse-orca/OrcaGym/envs/legged_gym/legged_real_env/logs/robot_log_20250604_093510.csv
timestamp,imu_angle_roll,imu_angle_pitch,imu_angle_yaw,imu_angular_velocity_roll,imu_angular_velocity_pitch,imu_angular_velocity_yaw,imu_acc_x,imu_acc_y,imu_acc_z,fl_joint1_pos,fl_joint1_vel,fl_joint1_torque,fl_joint1_temp,fl_joint2_pos,fl_joint2_vel,fl_joint2_torque,fl_joint2_temp,fl_joint3_pos,fl_joint3_vel,fl_joint3_torque,fl_joint3_temp,fr_joint1_pos,fr_joint1_vel,fr_joint1_torque,fr_joint1_temp,fr_joint2_pos,fr_joint2_vel,fr_joint2_torque,fr_joint2_temp,fr_joint3_pos,fr_joint3_vel,fr_joint3_torque,fr_joint3_temp,hl_joint1_pos,hl_joint1_vel,hl_joint1_torque,hl_joint1_temp,hl_joint2_pos,hl_joint2_vel,hl_joint2_torque,hl_joint2_temp,hl_joint3_pos,hl_joint3_vel,hl_joint3_torque,hl_joint3_temp,hr_joint1_pos,hr_joint1_vel,hr_joint1_torque,hr_joint1_temp,hr_joint2_pos,hr_joint2_vel,hr_joint2_torque,hr_joint2_temp,hr_joint3_pos,hr_joint3_vel,hr_joint3_torque,hr_joint3_temp,fl_force_x,fl_force_y,fl_force_z,fr_force_x,fr_force_y,fr_force_z,hl_force_x,hl_force_y,hl_force_z,hr_force_x,hr_force_y,hr_force_z,fl_hip_action,fl_thigh_action,fl_calf_action,fr_hip_action,fr_thigh_action,fr_calf_action,hl_hip_action,hl_thigh_action,hl_calf_action,hr_hip_action,hr_thigh_action,hr_calf_action
2025-06-04 09:35:46.739,-0.796874,-0.887417,0.160339,-0.0005568822,0.0013828941,0.0006557027,0.154043,-0.144122,9.783843,-0.011253357,0.0548172,0.4791336,-0.9864097,-0.00705719,-0.39246368,1.9044216,0.013999939,-4.8285637,0.012931824,0.030021667,-0.6219559,-0.9854942,-0.024528503,-0.38147736,1.9033788,0.017814636,-4.7553215,-0.011711121,0.03604889,0.5645828,-0.9757945,-0.08769989,-0.84656906,1.930962,-0.03627777,-6.0395203,0.015449524,0.028877258,-0.6646843,-0.9776952,0.03742218,-0.7061882,1.930649,-0.022850037,-5.945526,0.0,0.0,0.0,0.0,0.0,0.0,0.0,0.0,0.0,0.0,0.0,0.0,-1.0,1.0,-1.0,-1.0,1.0,1.0,1.0,-1.0,-1.0,1.0,1.0,-1.0
2025-06-04 09:35:46.792,-0.878198,0.295002,-0.947727,0.38394552,0.9608071,-1.4370694,-3.695821,-6.525216,14.652641,-0.051078796,-0.639534,0.036010742,-0.9085899,1.4278793,11.411919,1.8472774,-1.5794754,-7.40551,-0.018348694,-0.97270966,0.22156143,-0.8695274,4.0139427,-0.25940323,1.9500707,1.1109543,0.6317253,0.028877258,1.0321426,-0.8905182,-1.0590311,-3.1271782,-6.638897,1.8810657,-2.4390068,-5.2472725,0.050468445,1.001091,-1.0882721,-0.84402823,3.249096,0.40955353,1.845505,-2.119564,-4.925003,0.0,0.0,0.0,0.0,0.0,0.0,0.0,0.0,0.0,0.0,0.0,0.0,-1.0,1.0,-1.0,-1.0,1.0,1.0,1.0,-1.0,-1.0,1.0,-0.39657816,-1.0
2025-06-04 09:35:46.843,1.582672,1.679772,-5.168703,0.99118924,-0.11795588,-0.98447603,-0.697136,1.63849,7.023512,-0.06320953,-0.0032424927,-1.3055611,-0.84374005,0.8749008,10.294956,1.7518337,-1.8143845,-2.1234436,-0.06275177,-0.6232834,2.084381,-0.7234245,2.3777428,-1.215229,1.9917272,0.7052994,0.24109268,0.05519867,0.41736603,0.6305046,-1.2299334,-2.5990715,0.98939514,1.7455677,-2.1811333,0.0579834,0.0951767,0.61473846,-2.715496,-0.8542516,-0.12111664,-14.132908,1.8081973,-0.005607605,-12.334782,0.0,0.0,0.0,0.0,0.0,0.0,0.0,0.0,0.0,0.0,0.0,0.0,-1.0,-1.0,-1.0,-1.0,-1.0,1.0,1.0,-1.0,-1.0,1.0,1.0,-1.0
2025-06-04 09:35:46.893,2.691685,0.230869,-6.669755,-0.5288677,0.10432527,-0.8598419,-6.193992,-1.534163,0.1359,-0.092430115,-1.0123825,3.937439,-1.0150962,-2.3077812,-11.239796,1.7143734,0.002784729,-8.522469,-0.08983612,-0.22411346,-0.103149414,-0.96695477,-5.015377,-0.26184464,2.018125,0.41049957,0.57068634,0.07549286,0.04070282,-0.34241104,-1.3216387,-0.24959564,-5.477989,1.6729358,-0.22632599,-5.425499,0.10356903,-0.4201889,2.355381,-0.7585027,1.4844131,3.454033,1.7988894,-0.31711578,-10.058136,0.0,0.0,0.0,0.0,0.0,0.0,0.0,0.0,0.0,0.0,0.0,0.0,-1.0,-1.0,-1.0,1.0,-1.0,1.0,-1.0,-1.0,1.0,1.0,1.0,-1.0
2025-06-04 09:35:46.945,1.788937,1.021833,-11.136055,-0.21542554,0.14791235,-2.2316387,-0.204173,0.191479,9.233702,-0.14263153,-1.2066269,6.560768,-1.1196952,-1.8142319,-9.030289,1.7213161,0.059928894,-8.728771,-0.023460388,1.3087845,0.026245117,-1.1738639,-3.0492058,0.045776367,2.031095,0.0963974,0.7330437,0.020866394,-1.257515,0.018920898,-1.3803087,-1.139183,-0.11657715,1.805077,2.6245537,0.31311417,0.12088776,0.4870987,-3.186695,-0.66992545,1.4009476,-0.009155273,1.7924044,-0.08518219,-11.182423,0.0,0.0,0.0,0.0,0.0,0.0,0.0,0.0,0.0,0.0,0.0,0.0,1.0,-1.0,-1.0,1.0,0.38738286,1.0,-1.0,1.0,1.0,1.0,1.0,-1.0
2025-06-04 09:35:46.997,2.789224,1.798028,-19.875563,1.0498382,-0.26886803,-2.9234564,3.346182,4.047364,12.153028,-0.1430893,-0.08571625,11.365528,-1.2133079,-2.5482597,-2.1881447,1.7178829,-0.47397614,-6.2177467,0.023765564,-0.15827179,4.6161575,-1.090322,1.2343216,6.450905,2.0552802,0.8956528,-3.3844528,-0.032310486,-0.9440994,0.61096954,-1.0910746,5.725521,-0.31311417,1.9036487,1.5832901,0.11779785,0.18688202,1.5618515,-10.288853,-0.5687597,1.7621994,-5.6073837,1.7898104,-0.0046157837,-11.469292,0.0,0.0,0.0,0.0,0.0,0.0,0.0,0.0,0.0,0.0,0.0,0.0,1.0,-1.0,-1.0,1.0,-1.0,1.0,-1.0,1.0,1.0,1.0,1.0,-1.0
2025-06-04 09:35:47.047,4.128538,-0.594115,-27.914352,-0.14081566,-1.5223106,-2.359381,-0.122729,3.69031,8.259098,-0.14331818,-0.42179108,12.80476,-1.3192801,-2.3644676,2.3053322,1.6791255,-0.53531647,-4.351261,0.024909973,0.98674774,0.87342453,-1.1979728,-2.2574272,-1.6974144,2.0865607,-0.065956116,-0.80750656,-0.058250427,-0.027961731,-0.49988556,-0.8571574,3.448986,0.08117676,1.9643024,1.1481857,0.38269806,0.26302338,1.168251,-12.426338,-0.5132177,0.77136993,-3.851986,1.7924807,0.010948181,-11.544975,0.0,0.0,0.0,0.0,0.0,0.0,0.0,0.0,0.0,0.0,0.0,0.0,1.0,1.0,1.0,1.0,-1.0,1.0,-1.0,1.0,-1.0,1.0,1.0,-1.0
2025-06-04 09:35:47.099,4.529255,-0.795305,-32.988026,1.0541306,2.0569556,-0.19654325,-0.587956,1.909758,12.418348,-0.14408112,0.31856537,10.061798,-1.2837272,2.0101585,23.665524,1.7786891,2.5482597,1.9476624,0.06931305,0.41591644,-1.2323189,-1.2727408,-0.38074493,-7.9279785,2.1174598,1.0062027,-6.975815,-0.039787292,0.37067413,-5.3583565,-0.75332135,3.3935966,-3.4503708,1.9038776,-2.0480766,-8.260014,0.29010773,-0.20893097,-7.1772346,-0.43967035,0.83004,-6.5265884,1.7714999,-0.8459854,-7.139393,0.0,0.0,0.0,0.0,0.0,0.0,0.0,0.0,0.0,0.0,0.0,0.0,-1.0,1.0,-1.0,-1.0,1.0,-1.0,1.0,-1.0,-1.0,1.0,-1.0,-1.0
2025-06-04 09:35:47.149,3.652001,1.498812,-28.970037,-1.0600405,-1.5318877,1.8054695,-3.901479,0.013066,33.195404,-0.16735077,0.3195572,1.3702583,-1.1643271,2.9525414,15.779659,1.7148311,-3.2474174,5.3302803,0.06702423,-0.84156036,-5.654995,-1.1597495,1.8822098,21.097124,1.9645666,-4.658169,0.50354767,-0.037727356,-0.11112213,7.0673676,-0.8509013,-3.0034294,-14.937361,1.8709949,-0.40836334,-12.731518,0.25211334,-0.81912994,-2.3443947,-0.62193656,-4.089016,-19.898376,1.7769167,0.2663803,-11.949036,0.0,0.0,0.0,0.0,0.0,0.0,0.0,0.0,0.0,0.0,0.0,0.0,-1.0,-1.0,1.0,-1.0,1.0,-1.0,1.0,-1.0,-1.0,1.0,-1.0,-1.0
2025-06-04 09:35:47.200,2.049984,-6.410189,-25.501995,0.05096761,-3.6079512,0.88394797,5.227999,0.999126,6.861722,-0.12477875,0.040397644,-0.30945206,-1.2436728,-2.7557793,-0.13489151,1.8195827,2.452282,0.34973526,0.0060653687,-1.1744308,0.21667862,-0.93460613,4.261135,-0.9417877,1.7797064,-2.628292,0.2508583,-0.051994324,-0.07419586,7.287098,-1.0095164,-2.9819145,-7.384758,1.8490986,-0.29956818,-12.918287,0.21968842,0.14606476,-5.966278,-0.84517264,-4.444088,-8.914322,1.7949984,0.69568634,-14.78233,0.0,0.0,0.0,0.0,0.0,0.0,0.0,0.0,0.0,0.0,0.0,0.0,-1.0,1.0,1.0,-1.0,1.0,-1.0,1.0,-1.0,-1.0,1.0,-1.0,-1.0
2025-06-04 09:35:47.251,3.938365,-16.959309,-23.709858,0.16121805,-2.7023926,0.72386664,6.413316,1.169904,5.143745,-0.12042999,0.67180634,-0.6549187,-1.0063224,5.071224,-0.5645828,1.9125087,1.4916611,-0.12512589,-0.050621033,-0.6315994,0.7086296,-0.7614189,2.5960197,0.1678505,1.6834234,-1.5350723,-0.10681152,-0.0358963,0.18489838,5.81979,-1.1450182,-2.5090446,-4.9103546,1.8156055,-0.60962677,-9.666285,0.23197174,0.09227753,-5.7965965,-1.0424688,-3.4376945,-4.9921417,1.8085024,-0.31719208,-11.302052,0.0,0.0,0.0,0.0,0.0,0.0,0.0,0.0,0.0,0.0,0.0,0.0,-1.0,1.0,1.0,-1.0,1.0,-1.0,1.0,-1.0,-1.0,1.0,-1.0,-1.0
2025-06-04 09:35:47.302,3.764823,-23.396633,-22.505596,0.21046898,-1.6283963,0.40185416,3.208443,0.752612,3.734558,-0.10951996,0.012016296,-0.14953995,-0.8052116,2.8853264,-0.2105751,1.9688137,0.78136444,0.53528595,-0.07381439,-0.58856964,0.3314247,-0.65971905,1.3846207,-0.06286621,1.6292547,-0.8388901,-0.3680458,-0.03276825,0.16979218,5.5841904,-1.2507616,-1.8187332,-2.7350273,1.7799,-0.60009,-8.098879,0.2299881,0.021324158,-5.6049423,-1.1796453,-2.075161,-4.711376,1.782181,-0.76343536,-7.9328613,0.0,0.0,0.0,0.0,0.0,0.0,0.0,0.0,0.0,0.0,0.0,0.0,-1.0,1.0,-1.0,-1.0,1.0,-1.0,1.0,-1.0,-1.0,1.0,-1.0,-1.0
2025-06-04 09:35:47.354,3.60361,-27.011093,-21.57022,0.020491684,-0.7300103,0.3141355,4.264633,-0.020452,2.384812,-0.107307434,0.06473541,-0.37170792,-0.6855827,1.7953873,0.6036453,1.8203456,-2.9943504,-0.07019043,-0.08869171,-0.44239044,0.26672745,-0.5999771,0.91220856,-0.3265419,1.5957617,-0.4050827,-0.6634636,-0.02872467,0.050315857,5.8551903,-1.3205706,-0.9519577,-2.990158,1.7480854,-0.37319183,-7.606926,0.2311325,-0.05420685,-5.5597763,-1.2707403,-1.5872574,-3.3221931,1.7504427,-0.50144196,-7.1784554,0.0,0.0,0.0,0.0,0.0,0.0,0.0,0.0,0.0,0.0,0.0,0.0,1.0,1.0,-1.0,-1.0,1.0,-1.0,1.0,-1.0,-1.0,-1.0,1.0,-1.0
2025-06-04 09:35:47.405,2.50958,-26.804758,-20.966251,-1.4913213,1.7792943,-0.4344801,1.907181,0.162223,0.994451,-0.04550934,1.6625595,0.012817383,-0.61561733,1.1910629,-0.21545792,1.7130764,-1.6730881,-0.6756706,-0.10684967,0.046272278,0.40711212,-0.55725247,0.12401581,-0.08483887,1.580808,-0.43323517,-0.61341095,-0.0207901,0.329628,3.5431442,-1.3317858,-0.15270233,-6.118866,1.7253498,-0.36693573,-6.355686,0.17398834,-2.5519218,-1.4288559,-1.0895422,5.8263054,0.6720085,1.6739962,-1.3014603,-0.09338379,0.0,0.0,0.0,0.0,0.0,0.0,0.0,0.0,0.0,0.0,0.0,0.0,1.0,1.0,-1.0,-1.0,1.0,-1.0,1.0,-1.0,-1.0,-1.0,1.0,-1.0
2025-06-04 09:35:47.461,-0.721893,-21.270481,-24.17891,-0.4652969,1.4662777,-1.458019,3.069877,-2.535324,2.540394,0.025749207,0.8949661,-0.45960236,-0.5805221,0.54584503,0.1336708,1.6386898,-0.90335846,-0.13611221,-0.10082245,0.10005951,-0.3289833,-0.54596096,0.29857635,-0.19104385,1.5663885,-0.080070496,-0.80018234,0.013694763,1.0200882,-0.14343643,-1.3381182,-0.23036957,-5.6610985,1.7309192,0.6962967,-11.853819,0.06351471,-0.6102371,-3.2379646,-0.84990287,3.248867,0.11047363,1.6248629,-0.22731781,-2.3846817,0.0,0.0,0.0,0.0,0.0,0.0,0.0,0.0,0.0,0.0,0.0,0.0,-1.0,1.0,-1.0,1.0,1.0,-1.0,1.0,-1.0,-1.0,-1.0,0.73047006,-1.0
2025-06-04 09:35:47.514,-2.320576,-14.958593,-28.956251,-1.5153339,2.67212,-1.2559344,3.295239,-2.277552,5.142957,-0.016059875,-0.5824661,-0.048217773,-0.55244595,0.35449982,0.2874794,1.5972621,-0.7539749,0.11413574,-0.039024353,1.7023087,-0.436409,-0.53352505,0.11669159,0.41809845,1.5565466,-0.24112701,-0.2911415,0.04688263,-0.14774323,2.195469,-1.3375078,0.06320953,-6.7475395,1.7853931,0.8134842,-15.149767,0.04512787,-0.7994461,-4.0704956,-0.7275274,1.7786789,-5.578087,1.6195223,0.07129669,-3.9569702,0.0,0.0,0.0,0.0,0.0,0.0,0.0,0.0,0.0,0.0,0.0,0.0,-1.0,1.0,1.0,-1.0,1.0,-1.0,1.0,-1.0,-1.0,-1.0,-1.0,-1.0
2025-06-04 09:35:47.565,-5.936571,-8.371419,-32.441887,-1.0678254,2.2857988,-0.61356974,7.70339,0.242256,9.872422,-0.038108826,-0.43132782,-1.6473656,-0.5418411,0.34427643,-1.1236725,1.7520626,3.3349266,0.39124298,-0.054740906,-0.5334854,0.0982666,-0.53360134,-0.014228821,0.5059891,1.5503668,-0.11806488,-0.22888565,0.038871765,-0.097846985,3.4637985,-1.3640581,-0.9204483,-1.0870514,1.8259052,0.29003143,-14.466164,0.019874573,-0.44971466,-4.0045776,-0.8080938,-1.5750504,-22.431374,1.6941378,1.8440628,-15.29015,0.0,0.0,0.0,0.0,0.0,0.0,0.0,0.0,0.0,0.0,0.0,0.0,-1.0,1.0,-1.0,-1.0,1.0,-1.0,1.0,-1.0,-1.0,-1.0,-1.0,-1.0
2025-06-04 09:35:47.615,-8.043617,-2.723836,-33.42751,-0.25248837,0.42843482,0.33767322,-13.682703,2.312167,41.28674,-0.079307556,-0.117378235,0.8526726,-0.5822769,-1.692543,12.218815,1.7712886,0.06649017,-11.057907,-0.057182312,0.06351471,-2.141758,-0.6441551,-2.2787132,15.985962,1.6676306,0.8162308,-10.437782,0.018959045,0.18405914,3.1635017,-1.4314257,-0.8586502,1.0553131,1.8036274,-1.5998459,-4.712597,-0.010032654,-0.1492691,-3.416191,-0.926502,-2.6132622,-13.012283,1.744797,0.090522766,-9.760281,0.0,0.0,0.0,0.0,0.0,0.0,0.0,0.0,0.0,0.0,0.0,0.0,1.0,1.0,-1.0,1.0,1.0,-1.0,1.0,-1.0,-1.0,-1.0,1.0,-1.0
2025-06-04 09:35:47.667,-7.127303,-1.390732,-32.648453,0.2433911,0.7661318,0.008323876,-6.706191,-0.278418,5.564085,-0.019950867,1.2022781,1.1493111,-0.6221824,0.46787262,2.6007462,1.7503841,-0.22686005,-8.264896,-0.018196106,0.67653656,2.4872208,-0.6731468,0.77854156,4.9970245,1.6229986,-0.9051132,-0.079956055,0.0548172,1.0267258,-1.6131821,-1.4420305,-0.15087128,-1.2396431,1.706963,-1.5542221,-0.49256134,-0.020637512,-0.87551117,-0.31067276,-0.8217504,3.2466545,0.33874893,1.6681979,-1.1220932,-0.21667862,0.0,0.0,0.0,0.0,0.0,0.0,0.0,0.0,0.0,0.0,0.0,0.0,1.0,1.0,-1.0,1.0,1.0,-1.0,1.0,-1.0,-1.0,-1.0,-1.0,-1.0
2025-06-04 09:35:47.717,-4.705736,-0.046197,-31.930704,0.5242305,-0.25607112,0.2054643,-4.086218,-0.766383,7.25071,0.037345886,0.8120346,-0.39124298,-0.6131759,-0.028572083,4.610054,1.7072017,-0.5636978,-5.1642647,0.03238678,0.49411774,0.9295807,-0.6714683,-0.14789581,7.3249397,1.58859,-1.0309219,1.248188,0.068855286,0.52394867,0.23254776,-1.464461,-0.4203415,0.7000847,1.6401294,-1.0375595,-0.514534,-0.0409317,-0.2816391,-1.4544907,-0.96724296,-3.8670769,-8.012207,1.66095,-0.1278305,-4.975052,0.0,0.0,0.0,0.0,0.0,0.0,0.0,0.0,0.0,0.0,0.0,0.0,1.0,1.0,-1.0,1.0,1.0,-1.0,1.0,-1.0,-1.0,-1.0,-1.0,-1.0
2025-06-04 09:35:47.769,-4.678174,-1.612251,-30.70038,-0.1245521,-1.1554719,0.68760353,-0.518494,0.913872,8.537086,0.065345764,0.56072235,-0.3253212,-0.6298881,-0.62236786,6.9806976,1.6837795,-0.26699066,-5.380333,0.053215027,0.40958405,0.9271393,-0.61935955,1.2308121,-0.06896973,1.5663885,-0.10631561,-0.5499344,0.0825119,0.28354645,0.547493,-1.4698015,0.01903534,-0.111694336,1.5999988,-0.7013321,-0.12390137,-0.0522995,-0.41683197,-0.7476921,-1.1109045,-2.4570122,-6.569313,1.6920779,1.3962173,-12.611885,0.0,0.0,0.0,0.0,0.0,0.0,0.0,0.0,0.0,0.0,0.0,0.0,1.0,1.0,-1.0,1.0,1.0,-1.0,1.0,-1.0,-1.0,-1.0,-1.0,-1.0
2025-06-04 09:35:47.819,-4.694154,-3.709495,-28.100065,0.49193105,-0.15143916,0.7732793,3.652336,-2.090372,11.990012,0.109443665,1.0769272,-5.246052,-0.6317192,0.093421936,4.589302,1.675082,-0.15537262,-5.6525536,0.068855286,-0.090675354,1.9378967,-0.5757919,0.5020523,0.41687775,1.5586065,-0.09365082,-0.2923622,0.0674057,-0.15758514,2.122223,-1.4800249,-0.10631561,-0.14099503,1.6096119,0.045280457,-3.716488,-0.0636673,-0.039100647,-1.6046371,-1.1908605,-1.2495804,-8.478523,1.7409823,0.47786713,-11.176319,0.0,0.0,0.0,0.0,0.0,0.0,0.0,0.0,0.0,0.0,0.0,0.0,1.0,1.0,-1.0,1.0,1.0,-1.0,1.0,-1.0,-1.0,-1.0,-1.0,-1.0
2025-06-04 09:35:47.872,-3.992513,-4.310058,-26.169716,0.26562762,-0.19245246,0.42800876,1.318843,-1.728254,9.691083,0.14873505,0.536232,-4.466011,-0.6363731,-0.31627655,6.405739,1.6701229,-0.053596497,-5.762417,0.073280334,0.059547424,1.0821686,-0.5514541,0.33275604,0.06652832,1.552503,-0.123786926,-0.40711212,0.058937073,-0.16674042,2.539711,-1.4860522,-0.2603531,0.84534836,1.6092304,-0.05886078,-3.0255585,-0.06526947,-0.060157776,-1.6119614,-1.2381628,-0.7229233,-7.1174164,1.757004,0.2274704,-10.777142,0.0,0.0,0.0,0.0,0.0,0.0,0.0,0.0,0.0,0.0,0.0,0.0,1.0,1.0,-1.0,1.0,1.0,-1.0,1.0,-1.0,-1.0,-1.0,-1.0,-1.0
2025-06-04 09:35:47.923,-3.554193,-4.625284,-25.150782,0.19620995,-0.07578646,0.24052198,0.473719,-1.425885,9.729286,0.17093658,0.50418854,-4.4061966,-0.64819866,-0.37212372,6.8806,1.6690547,0.013008118,-6.1567116,0.07602692,0.07572174,1.145649,-0.5376449,0.18245697,-0.23987198,1.5490698,-0.058784485,-0.35950089,0.05382538,-0.07274628,2.9645233,-1.4911638,-0.12462616,0.5987625,1.601067,-0.1543808,-2.3846817,-0.06626129,0.09197235,-2.3578224,-1.2715032,-0.46833038,-7.1418343,1.7628024,0.11348724,-10.462196,0.0,0.0,0.0,0.0,0.0,0.0,0.0,0.0,0.0,0.0,0.0,0.0,1.0,1.0,-1.0,1.0,1.0,-1.0,1.0,-1.0,-1.0,-1.0,-1.0,-1.0
2025-06-04 09:35:47.975,-3.226533,-4.753181,-24.687296,0.116381295,-0.05001836,0.074601986,0.465539,-0.960313,9.659301,0.17978668,0.014762878,-3.5944138,-0.6600242,-0.24974823,7.073471,1.6686733,0.0258255,-6.106659,0.07770538,0.036888123,0.9723053,-0.52826077,0.17421722,-0.24109268,1.5463995,-0.016670227,-0.29846573,0.051689148,0.038261414,2.482338,-1.4939867,-0.08945465,0.855114,1.589928,-0.2577591,-1.5899887,-0.06755829,0.03391266,-1.760891,-1.293781,-0.54698944,-6.717022,1.7654727,0.015220642,-10.619667,0.0,0.0,0.0,0.0,0.0,0.0,0.0,0.0,0.0,0.0,0.0,0.0,1.0,1.0,-1.0,1.0,1.0,-1.0,1.0,-1.0,-1.0,-1.0,-1.0,-1.0
2025-06-04 09:35:48.027,-2.943126,-4.844418,-24.603231,0.10580858,-0.030363249,-0.0073265606,0.343473,-0.644108,9.573972,0.18100739,0.04673004,-3.2184334,-0.66864544,-0.19763947,7.311512,1.6681392,0.067863464,-6.0505066,0.07900238,-0.0036239624,1.0565338,-0.5227676,0.058174133,-0.14099503,1.5444158,-0.022621155,-0.22522354,0.05153656,0.028648376,2.465248,-1.4963518,-0.064201355,0.87586975,1.5818409,-0.1896286,-1.4215317,-0.06771088,0.22846222,-1.9549866,-1.3070562,-0.13645172,-6.96727,1.769211,0.1807785,-10.868694,0.0,0.0,0.0,0.0,0.0,0.0,0.0,0.0,0.0,0.0,0.0,0.0,1.0,1.0,-1.0,1.0,1.0,-1.0,1.0,-1.0,-1.0,-1.0,-1.0,-1.0
2025-06-04 09:35:48.079,-2.640397,-4.870671,-24.639975,0.11971927,-0.015507354,-0.020202134,0.405347,-0.554105,9.660364,0.1807785,-0.015907288,-3.3991013,-0.67352825,-0.07785797,7.099106,1.6680629,-0.00919342,-6.0749207,0.08014679,0.114097595,0.867321,-0.5204025,-0.12981415,-0.049438477,1.5431188,-0.008888245,-0.2471962,0.051841736,0.04535675,2.4347305,-1.497954,-0.19435883,0.665905,1.5769581,-0.050621033,-1.6339378,-0.06755829,0.32520294,-2.6800957,-1.3165166,-0.2109909,-6.9196625,1.7762301,0.17284393,-11.562065,0.0,0.0,0.0,0.0,0.0,0.0,0.0,0.0,0.0,0.0,0.0,0.0,1.0,1.0,-1.0,1.0,1.0,-1.0,1.0,-1.0,-1.0,-1.0,-1.0,-1.0
2025-06-04 09:35:48.131,-2.254383,-4.841861,-24.707422,0.12385111,0.007274026,-0.02858207,0.560773,-0.414947,9.748453,0.18001556,0.033988953,-3.2440681,-0.67474896,-0.05558014,7.1870003,1.6681392,-0.027885437,-6.024872,0.0799942,-0.011253357,0.9710846,-0.5191055,-0.01651764,-0.032348633,1.5423559,-0.0036239624,-0.23743057,0.052604675,0.30200958,2.298008,-1.4969622,-0.08975983,0.60852814,1.5737537,-0.059013367,-1.6583519,-0.068473816,-0.57704926,-1.9183655,-1.322849,-0.2537918,-6.475319,1.7845461,0.065574646,-11.64996,0.0,0.0,0.0,0.0,0.0,0.0,0.0,0.0,0.0,0.0,0.0,0.0,1.0,1.0,-1.0,1.0,1.0,-1.0,1.0,-1.0,-1.0,-1.0,-1.0,-1.0
2025-06-04 09:35:48.185,-1.910603,-4.81711,-24.812416,0.11059711,0.010099051,-0.03736879,0.832838,-0.262359,9.769223,0.17734528,0.10387421,-3.3258553,-0.6739097,0.06160736,6.7646294,1.6681392,-0.0010299683,-6.0737,0.080451965,-0.024375916,0.7757683,-0.51849514,0.034217834,0.015258789,1.542127,-0.022087097,-0.22522354,0.05306244,0.557518,2.527504,-1.4955126,-0.03452301,0.33630753,1.5718464,-0.0037765503,-1.5875473,-0.06908417,-0.77724457,-1.7547874,-1.3273504,-0.21160126,-6.4191666,1.7924044,0.07045746,-11.938049,0.0,0.0,0.0,0.0,0.0,0.0,0.0,0.0,0.0,0.0,0.0,0.0,1.0,1.0,-1.0,1.0,1.0,-1.0,1.0,-1.0,-1.0,-1.0,-1.0,-1.0
2025-06-04 09:35:48.236,-1.617208,-4.763882,-24.9311,0.065178744,0.029263673,-0.038851168,1.017877,0.001587,9.991337,0.17391205,-0.119132996,-2.8009453,-0.6731468,-0.023231506,6.9648285,1.6680629,0.002632141,-6.0297546,0.080070496,-0.0636673,1.334858,-0.51834255,0.061454773,0.01159668,1.5417455,-0.035820007,-0.23376846,0.053367615,-0.0674057,2.1722755,-1.4929949,0.05191803,0.31555557,1.5690235,-0.1039505,-1.248188,-0.06893158,0.20542145,-1.0894928,-1.327503,0.084724426,-6.8830414,1.7947695,0.07511139,-11.840389,0.0,0.0,0.0,0.0,0.0,0.0,0.0,0.0,0.0,0.0,0.0,0.0,1.0,1.0,-1.0,1.0,1.0,-1.0,1.0,-1.0,-1.0,-1.0,-1.0,-1.0
2025-06-04 09:35:48.288,-1.391426,-4.709849,-25.050875,0.03639287,0.022327717,-0.030706467,0.843031,0.073684,9.721863,0.17093658,-0.08152008,-2.82658,-0.6732231,-0.04299164,6.876938,1.6676815,-0.017051697,-6.044403,0.08075714,-0.008430481,0.99549866,-0.51834255,0.030479431,-0.018920898,1.5415167,0.001335144,-0.2496376,0.05367279,0.035209656,2.2845802,-1.4910113,0.11974335,0.24475479,1.5653614,-0.06755829,-1.0858307,-0.06977081,0.0661087,-1.5020981,-1.3275793,-0.05596161,-6.811016,1.7960665,0.012245178,-11.79034,0.0,0.0,0.0,0.0,0.0,0.0,0.0,0.0,0.0,0.0,0.0,0.0,1.0,1.0,-1.0,1.0,1.0,-1.0,1.0,-1.0,-1.0,-1.0,-1.0,-1.0
2025-06-04 09:35:48.340,-1.242747,-4.660158,-25.117765,0.020377854,0.0115094865,-0.014723982,0.783287,0.011912,9.791143,0.16902924,-0.072898865,-2.838787,-0.67383343,-0.011405945,6.9123383,1.667834,0.036125183,-6.024872,0.08075714,0.11806488,0.91127014,-0.51826626,0.042915344,-0.055541992,1.5415167,0.001335144,-0.23987198,0.054283142,0.02193451,2.6959648,-1.4897906,-0.098991394,0.30823135,1.5620044,-0.012168884,-0.99305725,-0.069999695,-0.004005432,-2.4298477,-1.3283422,-0.012779236,-6.859844,1.7963717,0.0020217896,-11.721981,0.0,0.0,0.0,0.0,0.0,0.0,0.0,0.0,0.0,0.0,0.0,0.0,1.0,1.0,-1.0,1.0,1.0,-1.0,1.0,-1.0,-1.0,-1.0,-1.0,-1.0
2025-06-04 09:35:48.392,-1.155716,-4.637506,-25.136326,0.010499604,0.0032115106,0.002047376,0.69048,-0.046644,9.728579,0.16834259,-0.116233826,-2.6166153,-0.67474896,-0.13515472,7.1821175,1.6676815,-0.018424988,-6.037079,0.08075714,0.0011825562,1.2127876,-0.5188766,-0.13866425,0.010375977,1.5415167,-0.01941681,-0.2459755,0.054893494,-0.14781952,1.9708557,-1.4890276,0.07030487,0.330204,1.560326,-0.026283264,-1.1322212,-0.070381165,0.42453766,-0.8685417,-1.329334,0.11592865,-6.7682915,1.796448,0.00034332275,-11.745174,0.0,0.0,0.0,0.0,0.0,0.0,0.0,0.0,0.0,0.0,0.0,0.0,1.0,1.0,-1.0,1.0,1.0,-1.0,1.0,-1.0,-1.0,-1.0,-1.0,-1.0
2025-06-04 09:35:48.445,-1.123311,-4.635228,-25.12431,0.0027683366,-0.0036852278,0.0035336635,0.729677,-0.122364,9.815626,0.16872406,-0.03513336,-3.3380623,-0.67490155,0.073890686,6.6865044,1.6677577,0.0074386597,-6.00412,0.08075714,-0.07068634,1.0101471,-0.51841885,-0.016365051,-0.09094238,1.5414404,-0.00415802,-0.21912003,0.05519867,0.14431,1.6974144,-1.4889513,-0.020179749,0.35705948,1.5599445,0.012702942,-1.1334419,-0.07129669,-0.16002655,-0.57312775,-1.330631,-0.22251129,-5.807583,1.7965243,0.0077438354,-11.765926,0.0,0.0,0.0,0.0,0.0,0.0,0.0,0.0,0.0,0.0,0.0,0.0,1.0,1.0,-1.0,1.0,1.0,-1.0,1.0,-1.0,-1.0,-1.0,-1.0,-1.0
2025-06-04 09:35:48.496,-1.118243,-4.643109,-25.109146,-0.0018281102,-0.0034784062,0.0040072585,0.783085,-0.145845,9.758516,0.16887665,0.06969452,-2.6349297,-0.6752067,-0.09525299,7.069809,1.6676815,0.010032654,-6.015106,0.080833435,0.024528503,0.95765686,-0.51818997,-0.0548172,-0.15442276,1.5413641,-0.0090408325,-0.24109268,0.05504608,0.050315857,2.92424,-1.4891802,0.05672455,0.33386612,1.5600208,-0.0023269653,-1.2188911,-0.07061005,-0.04749298,-2.5079727,-1.3309362,-0.01247406,-7.122299,1.796448,-0.0063705444,-11.731747,0.0,0.0,0.0,0.0,0.0,0.0,0.0,0.0,0.0,0.0,0.0,0.0,1.0,1.0,-1.0,1.0,1.0,-1.0,1.0,-1.0,-1.0,-1.0,-1.0,-1.0
2025-06-04 09:35:48.548,-1.129442,-4.650008,-25.09265,-0.0037108317,-0.0026717326,0.0032374111,0.826833,-0.197166,9.753677,0.16925812,-0.068473816,-2.8155937,-0.67505413,-0.040626526,6.83543,1.6674526,0.01285553,-5.991913,0.08098602,0.09227753,1.0199127,-0.51826626,0.032691956,-0.1312294,1.5413641,0.04398346,-0.24475479,0.0548172,-0.18878937,2.6617851,-1.4892565,0.0938797,0.37414932,1.5600208,0.025672913,-1.1944771,-0.07030487,0.5717087,-2.1637306,-1.3307836,0.13080597,-6.8097954,1.7963717,-0.0019454956,-11.718319,0.0,0.0,0.0,0.0,0.0,0.0,0.0,0.0,0.0,0.0,0.0,0.0,1.0,1.0,-1.0,1.0,1.0,-1.0,1.0,-1.0,-1.0,-1.0,-1.0,-1.0
2025-06-04 09:35:48.600,-1.136992,-4.658675,-25.08155,0.0018935426,-0.0017737607,0.0026441389,0.817925,-0.212865,9.760509,0.16925812,-0.09410858,-2.8888397,-0.67467266,0.11791229,6.884262,1.6674526,-0.011940002,-6.0138855,0.08068085,-0.008506775,1.0418854,-0.51841885,0.08090973,0.07507324,1.5412878,-0.009117126,-0.23254776,0.054893494,-0.221138,2.228428,-1.4894091,-0.023460388,0.3704872,1.5600971,-0.014839172,-1.1895943,-0.07061005,0.31147003,-1.1297798,-1.3313177,0.099372864,-6.7389946,1.7965243,-0.011253357,-11.751278,0.0,0.0,0.0,0.0,0.0,0.0,0.0,0.0,0.0,0.0,0.0,0.0,1.0,1.0,-1.0,1.0,1.0,-1.0,1.0,-1.0,-1.0,-1.0,-1.0,-1.0
2025-06-04 09:35:48.652,-1.13148,-4.658337,-25.07912,0.003284186,0.0014089519,-0.002203007,0.799102,-0.173132,9.762188,0.1694107,0.09098053,-2.953537,-0.67497784,0.050315857,6.9062347,1.6673,-0.008430481,-6.0382996,0.08052826,0.010643005,1.1322212,-0.51841885,-0.057029724,0.005493164,1.5412115,-0.025749207,-0.21423721,0.054969788,-0.044441223,1.9732971,-1.4894091,-0.039634705,0.39124298,1.5599445,-0.058174133,-1.1310005,-0.070991516,0.1404953,-0.95887756,-1.331394,0.0104904175,-6.5705338,1.796448,0.008888245,-11.684139,0.0,0.0,0.0,0.0,0.0,0.0,0.0,0.0,0.0,0.0,0.0,0.0,1.0,1.0,-1.0,1.0,1.0,-1.0,1.0,-1.0,-1.0,-1.0,-1.0,-1.0
2025-06-04 09:35:48.704,-1.118056,-4.656707,-25.08452,0.00406173,0.0016143597,-0.0027231325,0.797753,-0.177002,9.766464,0.16925812,0.078697205,-3.1342049,-0.67467266,0.10555267,6.8720512,1.6675289,0.01613617,-5.9980164,0.08075714,-0.0020980835,1.1432076,-0.5180374,0.18276215,-0.005493164,1.5412115,0.008888245,-0.23620987,0.055274963,0.059700012,1.7633324,-1.4891802,-0.0308609,0.35583878,1.5599445,-0.0033950806,-1.1541939,-0.0712204,-0.16040802,-0.76722336,-1.3313177,-0.009117126,-6.4435806,1.7963717,-0.030021667,-11.757381,0.0,0.0,0.0,0.0,0.0,0.0,0.0,0.0,0.0,0.0,0.0,0.0,1.0,1.0,-1.0,1.0,1.0,-1.0,1.0,-1.0,-1.0,-1.0,-1.0,-1.0
2025-06-04 09:35:48.755,-1.103096,-4.656471,-25.08578,-1.6196655e-05,-0.001115213,-0.0003061133,0.786019,-0.141549,9.786789,0.16910553,-0.009803772,-2.7924004,-0.67505413,-0.058021545,6.966049,1.6675289,0.018424988,-6.027313,0.08075714,0.021705627,1.0528717,-0.51849514,-0.116233826,-0.012817383,1.5412115,0.020484924,-0.22888565,0.05542755,0.2363205,2.3492775,-1.4895617,-0.087013245,0.34241104,1.5599445,0.012779236,-1.2005806,-0.071144104,-0.27683258,-1.8878479,-1.3313177,-0.020866394,-6.5595474,1.7963717,0.012168884,-11.77203,0.0,0.0,0.0,0.0,0.0,0.0,0.0,0.0,0.0,0.0,0.0,0.0,1.0,1.0,-1.0,1.0,1.0,-1.0,1.0,-1.0,-1.0,-1.0,-1.0,-1.0
2025-06-04 09:35:48.805,-1.099997,-4.657849,-25.085016,0.001671205,-0.0019620468,0.0018289479,0.775962,-0.160327,9.765491,0.16895294,-0.13057709,-2.7215996,-0.67497784,-0.17047882,7.011215,1.6674526,0.0005722046,-5.9809265,0.080833435,-0.01903534,1.0345612,-0.5180374,-0.08098602,-0.01159668,1.5412115,0.013618469,-0.22522354,0.054969788,-0.08403778,2.581215,-1.4891039,0.07106781,0.34729385,1.5599445,0.03643036,-1.1285591,-0.07083893,0.23456573,-1.9916077,-1.3314703,-0.0035476685,-6.7890434,1.7963717,0.012626648,-11.769588,0.0,0.0,0.0,0.0,0.0,0.0,0.0,0.0,0.0,0.0,0.0,0.0,1.0,1.0,-1.0,1.0,1.0,-1.0,1.0,-1.0,-1.0,-1.0,-1.0,-1.0
2025-06-04 09:35:48.857,-1.099852,-4.654719,-25.078812,-0.0013755987,-0.0014038904,-0.0017219244,0.793627,-0.184598,9.761642,0.16933441,-0.014152527,-2.7643242,-0.67467266,0.030403137,6.7804985,1.6673763,-0.0358963,-6.0749207,0.080833435,0.035209656,1.0370026,-0.5179611,-0.05596161,-0.14709854,1.5412878,0.028953552,-0.22644424,0.055122375,-0.16750336,2.3883438,-1.4893328,0.059013367,0.3680458,1.5599445,0.021400452,-1.1212311,-0.07091522,0.22052765,-1.4972153,-1.3313177,0.04245758,-6.7304497,1.796448,-0.0046920776,-11.740292,0.0,0.0,0.0,0.0,0.0,0.0,0.0,0.0,0.0,0.0,0.0,0.0,1.0,1.0,-1.0,1.0,1.0,-1.0,1.0,-1.0,-1.0,-1.0,-1.0,-1.0
2025-06-04 09:35:48.908,-1.103906,-4.655787,-25.073233,-0.0016406269,-0.0016659517,0.0010862929,0.780422,-0.184293,9.761678,0.16902924,0.019111633,-2.8302422,-0.67505413,-0.015602112,7.2468147,1.6675289,0.042762756,-5.995575,0.08090973,0.034370422,1.0003815,-0.51826626,0.022773743,-0.095825195,1.5412115,0.027427673,-0.23620987,0.05504608,-0.08205414,2.515297,-1.4893328,0.025215149,0.37659454,1.5600971,-0.027656555,-1.2262154,-0.070762634,0.20915985,-1.9769592,-1.331394,0.020484924,-6.7438774,1.7965243,-0.0118637085,-11.735409,0.0,0.0,0.0,0.0,0.0,0.0,0.0,0.0,0.0,0.0,0.0,0.0,1.0,1.0,-1.0,1.0,1.0,-1.0,1.0,-1.0,-1.0,-1.0,-1.0,-1.0
2025-06-04 09:35:48.959,-1.107991,-4.660298,-25.074642,0.00058634335,-0.00013660692,-0.0011039906,0.809009,-0.237428,9.760197,0.16902924,-0.048179626,-2.9144745,-0.67459637,0.032691956,6.746319,1.6674526,-0.027046204,-6.05661,0.08090973,0.065727234,1.18227,-0.5181137,0.11325836,-0.025024414,1.5412115,0.031700134,-0.21789932,0.055122375,-0.055732727,2.16251,-1.4892565,-0.008277893,0.40467072,1.5598682,-0.08899689,-1.1602974,-0.07061005,0.23555756,-1.2433052,-1.3314703,0.00011444092,-6.659649,1.7966006,0.009880066,-11.675594,0.0,0.0,0.0,0.0,0.0,0.0,0.0,0.0,0.0,0.0,0.0,0.0,1.0,1.0,-1.0,1.0,1.0,-1.0,1.0,-1.0,-1.0,-1.0,-1.0,-1.0
2025-06-04 09:35:49.010,-1.102795,-4.657639,-25.073366,0.003278985,0.00093546155,-0.00096876244,0.792899,-0.173641,9.712971,0.16918182,0.09548187,-3.109787,-0.6745201,0.09441376,6.929428,1.6673763,-0.03856659,-6.0431824,0.08090973,-0.023155212,1.1358833,-0.51841885,-0.124931335,-0.021362305,1.5412115,-0.034217834,-0.22156143,0.05519867,-0.052757263,2.178379,-1.4894854,0.008049011,0.3949051,1.5598682,-0.04535675,-1.1334419,-0.07091522,0.08724213,-1.2982368,-1.3314703,0.02544403,-6.590065,1.796448,-0.011253357,-11.710995,0.0,0.0,0.0,0.0,0.0,0.0,0.0,0.0,0.0,0.0,0.0,0.0,1.0,1.0,-1.0,1.0,1.0,-1.0,1.0,-1.0,-1.0,-1.0,-1.0,-1.0
2025-06-04 09:35:49.061,-1.096945,-4.658939,-25.07568,0.0014412755,0.0003833441,-0.0011553556,0.811672,-0.150125,9.750663,0.16887665,-0.05580902,-2.995041,-0.6744438,0.11943817,6.659649,1.6673,-0.012931824,-6.049286,0.080833435,0.033683777,0.9381256,-0.5181137,0.011711121,-0.05065918,1.5412115,0.002708435,-0.22400284,0.055274963,-0.07518768,2.440834,-1.4894091,0.002708435,0.33264542,1.5599445,0.032081604,-1.1688423,-0.07091522,0.19802094,-1.6974144,-1.3314703,0.042915344,-6.614479,1.7965243,-0.008125305,-11.730526,0.0,0.0,0.0,0.0,0.0,0.0,0.0,0.0,0.0,0.0,0.0,0.0,1.0,1.0,-1.0,1.0,1.0,-1.0,1.0,-1.0,-1.0,-1.0,-1.0,-1.0
2025-06-04 09:35:49.112,-1.089841,-4.658543,-25.076004,0.0002234196,-0.0005745624,0.0027350008,0.809417,-0.153502,9.763812,0.16887665,-0.07770538,-2.974289,-0.6745201,0.0104904175,6.864727,1.6673763,0.030937195,-6.015106,0.08075714,0.011329651,1.0345612,-0.51849514,0.088386536,0.07507324,1.5412115,-0.0045394897,-0.22400284,0.054969788,-0.1140213,2.4896622,-1.4894091,0.07236481,0.34485245,1.5599445,-0.022315979,-1.170063,-0.07083893,0.1631546,-1.7682152,-1.3315465,-0.013542175,-6.688946,1.7965243,0.015220642,-11.713436,0.0,0.0,0.0,0.0,0.0,0.0,0.0,0.0,0.0,0.0,0.0,0.0,1.0,1.0,-1.0,1.0,1.0,-1.0,1.0,-1.0,-1.0,-1.0,-1.0,-1.0
2025-06-04 09:35:49.165,-1.088717,-4.659944,-25.072752,0.0018817092,-0.0006968227,0.0017832203,0.812318,-0.176179,9.787143,0.16872406,-0.15743256,-2.838787,-0.6743675,-0.030326843,7.044174,1.6672237,0.0073623657,-5.9858093,0.08090973,-0.048789978,1.0467682,-0.5181137,-0.15415192,0.045776367,1.5412115,-0.024299622,-0.23987198,0.05519867,-0.040473938,2.5714493,-1.4892565,-0.018501282,0.34119034,1.5598682,0.010261536,-1.1956978,-0.07053375,0.27507782,-2.1026917,-1.3315465,0.0047683716,-6.67918,1.7966006,0.03917694,-11.729305,0.0,0.0,0.0,0.0,0.0,0.0,0.0,0.0,0.0,0.0,0.0,0.0,1.0,1.0,-1.0,1.0,1.0,-1.0,1.0,-1.0,-1.0,-1.0,-1.0,-1.0
2025-06-04 09:35:49.219,-1.084346,-4.659013,-25.070038,-0.0026851017,-0.0010263409,0.0010183996,0.796513,-0.203769,9.756448,0.16910553,0.105018616,-3.113449,-0.6745201,0.12699127,6.96727,1.6673763,-0.0037002563,-6.0212097,0.080833435,0.00667572,1.0138092,-0.5179611,-0.057029724,-0.033569336,1.5411352,0.017814636,-0.21912003,0.055351257,0.12889862,2.240635,-1.4893328,-0.028800964,0.40467072,1.5597156,-0.02735138,-1.2164497,-0.071372986,-0.3737259,-1.3153267,-1.3316228,-0.053749084,-6.5217056,1.796448,-0.011100769,-11.761044,0.0,0.0,0.0,0.0,0.0,0.0,0.0,0.0,0.0,0.0,0.0,0.0,1.0,1.0,-1.0,1.0,1.0,-1.0,1.0,-1.0,-1.0,-1.0,-1.0,-1.0
2025-06-04 09:35:49.272,-1.082401,-4.658707,-25.066618,0.0034577067,0.0045194775,0.0005659928,0.802442,-0.173637,9.763607,0.16902924,-0.015068054,-2.8082695,-0.67459637,-0.11791229,7.0148773,1.6673,0.014228821,-5.9858093,0.08090973,-0.0009536743,0.9454498,-0.51826626,0.13484955,-0.032348633,1.5412115,-0.005455017,-0.23254776,0.055122375,-0.10234833,2.3883438,-1.4893328,0.034980774,0.39124298,1.5598682,-0.01537323,-1.0955963,-0.07068634,0.24791718,-1.7267113,-1.3315465,0.0623703,-6.692608,1.796448,0.033302307,-11.723202,0.0,0.0,0.0,0.0,0.0,0.0,0.0,0.0,0.0,0.0,0.0,0.0,1.0,1.0,-1.0,1.0,1.0,-1.0,1.0,-1.0,-1.0,-1.0,-1.0,-1.0
2025-06-04 09:35:49.326,-1.080736,-4.659132,-25.067558,-0.0035298585,-0.0010712307,-0.0026179939,0.772444,-0.143921,9.773108,0.16887665,-0.03276825,-3.0951385,-0.6741386,0.21274567,6.8464165,1.6673,-0.004463196,-6.0346375,0.080833435,-0.062065125,1.0882721,-0.51818997,0.0059127808,0.023803711,1.5412115,0.008964539,-0.21667862,0.055351257,0.02254486,1.9610901,-1.4894854,-0.026359558,0.38636017,1.5600208,-0.016822815,-1.1981392,-0.071372986,-0.2273941,-1.215229,-1.3316991,-0.085868835,-6.5668716,1.796448,-0.03314972,-11.715878,0.0,0.0,0.0,0.0,0.0,0.0,0.0,0.0,0.0,0.0,0.0,0.0,1.0,1.0,-1.0,1.0,1.0,-1.0,1.0,-1.0,-1.0,-1.0,-1.0,-1.0
2025-06-04 09:35:49.380,-1.075782,-4.661748,-25.06897,0.0007732856,0.0013168509,0.000570775,0.821206,-0.18772,9.748276,0.16872406,0.06778717,-2.6019669,-0.6745201,-0.08579254,7.0307465,1.6673763,-0.05344391,-6.035858,0.080833435,0.00705719,1.0894928,-0.5181137,0.15506744,-0.014038086,1.5411352,-0.0014877319,-0.24353409,0.055351257,0.042762756,2.2052345,-1.4894091,-0.09181976,0.3619423,1.5597919,0.018348694,-1.1651802,-0.0712204,-0.15209198,-1.2860298,-1.3316991,0.011253357,-6.6291313,1.796448,0.015068054,-11.691463,0.0,0.0,0.0,0.0,0.0,0.0,0.0,0.0,0.0,0.0,0.0,0.0,1.0,1.0,-1.0,1.0,1.0,-1.0,1.0,-1.0,-1.0,-1.0,-1.0,-1.0
2025-06-04 09:35:49.431,-1.069347,-4.658077,-25.06913,-0.0010340203,0.0019300374,0.0015580903,0.799262,-0.175552,9.730164,0.16902924,-0.04283905,-2.9694061,-0.6743675,0.048332214,6.9367523,1.6672237,-0.010566711,-6.0663757,0.08106232,0.049171448,1.0150299,-0.5179611,0.22182465,-0.023803711,1.5412115,-0.00034332275,-0.21545792,0.055274963,0.052223206,2.3285255,-1.4894091,-0.030632019,0.33630753,1.5600208,-0.004463196,-1.18227,-0.07106781,-0.074653625,-1.6681175,-1.3316991,-0.027580261,-6.6730766,1.796448,-0.0090408325,-11.746395,0.0,0.0,0.0,0.0,0.0,0.0,0.0,0.0,0.0,0.0,0.0,0.0,1.0,1.0,-1.0,1.0,1.0,-1.0,1.0,-1.0,-1.0,-1.0,-1.0,-1.0
2025-06-04 09:35:49.484,-1.067257,-4.656576,-25.067291,7.045894e-05,0.0026842116,-0.0014077651,0.788523,-0.190982,9.762527,0.16910553,-0.020332336,-2.8912811,-0.6743675,-0.11074066,6.9477386,1.6673,0.055274963,-5.982147,0.08090973,0.025520325,0.99549866,-0.51818997,0.037345886,0.06530762,1.5412115,0.0118637085,-0.23498917,0.05519867,0.0409317,2.2943459,-1.4894854,-0.024528503,0.37537384,1.5599445,-0.027275085,-1.1859322,-0.07129669,-0.03276825,-1.5240707,-1.3317754,-0.07961273,-6.625469,1.7963717,-0.011177063,-11.761044,0.0,0.0,0.0,0.0,0.0,0.0,0.0,0.0,0.0,0.0,0.0,0.0,1.0,1.0,-1.0,1.0,1.0,-1.0,1.0,-1.0,-1.0,-1.0,-1.0,-1.0
2025-06-04 09:35:49.537,-1.068654,-4.656155,-25.067232,-0.00023495621,0.00057494635,-0.0015557166,0.778194,-0.17086,9.75946,0.16880035,-0.0065994263,-3.002365,-0.6742912,0.059928894,6.8500786,1.6673,-0.0049972534,-6.032196,0.08068085,-0.027122498,1.0528717,-0.5178848,-0.08358002,0.005493164,1.5411352,-0.0021743774,-0.24231339,0.055274963,0.11417389,2.240635,-1.4894091,-0.04070282,0.35583878,1.5598682,0.012550354,-1.1712837,-0.070991516,-0.012550354,-1.0662994,-1.3317754,-0.020637512,-6.536354,1.796448,0.005378723,-11.774471,0.0,0.0,0.0,0.0,0.0,0.0,0.0,0.0,0.0,0.0,0.0,0.0,1.0,1.0,-1.0,1.0,1.0,-1.0,1.0,-1.0,-1.0,-1.0,-1.0,-1.0
2025-06-04 09:35:49.589,-1.064227,-4.658648,-25.067642,-0.00024066344,0.0013222614,0.00027417377,0.786405,-0.154169,9.768379,0.16902924,0.076560974,-2.8644218,-0.6742912,0.10837555,7.066147,1.6674526,-0.043907166,-6.0737,0.08090973,-0.035820007,1.030899,-0.5178848,-0.0422287,-0.040893555,1.5412115,0.037345886,-0.22400284,0.05519867,0.018959045,2.2748146,-1.4892565,0.01865387,0.34119034,1.5600208,0.039100647,-1.1773872,-0.07091522,-0.020332336,-1.7425804,-1.3318517,0.025138855,-6.7609673,1.796448,0.033226013,-11.725643,0.0,0.0,0.0,0.0,0.0,0.0,0.0,0.0,0.0,0.0,0.0,0.0,1.0,1.0,-1.0,1.0,1.0,-1.0,1.0,-1.0,-1.0,-1.0,-1.0,-1.0
2025-06-04 09:35:49.641,-1.062553,-4.659694,-25.065826,-0.0012746488,-0.0008236383,-0.00013850932,0.770709,-0.153253,9.7676,0.16887665,-0.077934265,-3.1354256,-0.6743675,-0.033836365,6.712139,1.6675289,-0.042533875,-6.061493,0.08090973,0.0014877319,1.0565338,-0.5181137,-0.079841614,-0.15320206,1.5413641,0.01499176,-0.23498917,0.055503845,-0.029792786,2.3199806,-1.4891802,0.02872467,0.39124298,1.5599445,0.0020217896,-1.1725044,-0.07106781,0.06725311,-1.33852,-1.3316991,0.030632019,-6.7426567,1.796448,0.030174255,-11.751278,0.0,0.0,0.0,0.0,0.0,0.0,0.0,0.0,0.0,0.0,0.0,0.0,1.0,1.0,-1.0,1.0,1.0,-1.0,1.0,-1.0,-1.0,-1.0,-1.0,-1.0
2025-06-04 09:35:49.695,-1.055774,-4.654779,-25.062487,0.0024305803,0.0011813436,-0.0023743808,0.785249,-0.162913,9.774224,0.16857147,-0.07518768,-2.560463,-0.6743675,-0.115852356,6.7438774,1.6674526,0.012779236,-6.0102234,0.08075714,-0.021705627,1.0736237,-0.5178848,-0.024757385,-0.10803223,1.5411352,-0.017585754,-0.22644424,0.055274963,0.07434845,2.2699318,-1.4894091,0.022315979,0.35583878,1.5598682,0.006752014,-1.1566353,-0.071144104,-0.12210846,-1.3849106,-1.3320806,-0.03551483,-6.6364555,1.7965243,-0.0076675415,-11.756161,0.0,0.0,0.0,0.0,0.0,0.0,0.0,0.0,0.0,0.0,0.0,0.0,1.0,1.0,-1.0,1.0,1.0,-1.0,1.0,-1.0,-1.0,-1.0,-1.0,-1.0
2025-06-04 09:35:49.747,-1.056103,-4.65591,-25.06235,-9.412561e-05,0.00012960815,-0.00048258353,0.809277,-0.178074,9.780442,0.16895294,-0.037956238,-2.7264824,-0.6743675,-0.14606476,6.85252,1.6674526,0.040397644,-6.002899,0.08068085,0.003929138,1.0003815,-0.5180374,0.07686615,-0.036010742,1.5411352,0.007286072,-0.23132706,0.055351257,0.029411316,2.1551857,-1.4894854,-0.028495789,0.37659454,1.5599445,-0.006752014,-1.1615181,-0.07091522,0.0548172,-1.314106,-1.3317754,0.06160736,-6.638897,1.796448,0.0065994263,-11.763485,0.0,0.0,0.0,0.0,0.0,0.0,0.0,0.0,0.0,0.0,0.0,0.0,1.0,1.0,-1.0,1.0,1.0,-1.0,1.0,-1.0,-1.0,-1.0,-1.0,-1.0
2025-06-04 09:35:49.798,-1.05822,-4.658513,-25.05908,-0.00090594805,-2.7576201e-05,-0.0020916897,0.796698,-0.172259,9.770408,0.16902924,0.011024475,-2.8339043,-0.6744438,-0.0712204,6.9562836,1.6674526,0.0011825562,-6.0553894,0.08090973,0.024604797,1.0138092,-0.51826626,0.081596375,-0.10681152,1.5411352,-0.022621155,-0.23987198,0.055351257,0.00019073486,2.3590431,-1.4893328,-0.08274078,0.34973526,1.5599445,-0.012931824,-1.1920357,-0.07106781,-0.11348724,-1.5802231,-1.3318517,0.010261536,-6.532692,1.796448,0.013999939,-11.743954,0.0,0.0,0.0,0.0,0.0,0.0,0.0,0.0,0.0,0.0,0.0,0.0,1.0,1.0,-1.0,1.0,1.0,-1.0,1.0,-1.0,-1.0,-1.0,-1.0,-1.0
2025-06-04 09:35:49.849,-1.055745,-4.66097,-25.058176,-0.0004858822,-9.894271e-05,0.0005359033,0.78017,-0.181309,9.747873,0.16902924,0.034370422,-3.0096893,-0.6742149,-0.009269714,7.011215,1.6673,-0.010871887,-5.9687195,0.080833435,-0.043678284,1.1322212,-0.51841885,-0.16025543,0.06652832,1.5411352,-0.02407074,-0.23376846,0.05519867,0.025749207,2.3773575,-1.4891802,0.011634827,0.33508682,1.5598682,-0.031852722,-1.1395454,-0.0712204,-0.14461517,-1.5448227,-1.3318517,0.037498474,-6.474098,1.7965243,-0.0074386597,-11.73785,0.0,0.0,0.0,0.0,0.0,0.0,0.0,0.0,0.0,0.0,0.0,0.0,1.0,1.0,-1.0,1.0,1.0,-1.0,1.0,-1.0,-1.0,-1.0,-1.0,-1.0
2025-06-04 09:35:49.901,-1.051289,-4.663529,-25.057234,0.0017042966,0.0005700071,-0.0016204334,0.791337,-0.175896,9.78107,0.16887665,-0.03513336,-2.8900604,-0.6742149,-0.0762558,7.0673676,1.6673763,0.006752014,-6.0993347,0.080833435,0.026893616,1.1310005,-0.51818997,-0.021324158,0.032348633,1.5412115,-0.004463196,-0.23376846,0.055274963,-0.002937317,2.2760353,-1.4892565,-0.01865387,0.33996964,1.5599445,-0.009880066,-1.1920357,-0.07091522,0.038337708,-1.7669945,-1.3320806,-0.025215149,-6.6132584,1.796448,-0.006904602,-11.726864,0.0,0.0,0.0,0.0,0.0,0.0,0.0,0.0,0.0,0.0,0.0,0.0,1.0,1.0,-1.0,1.0,1.0,-1.0,1.0,-1.0,-1.0,-1.0,-1.0,-1.0
2025-06-04 09:35:49.952,-1.045763,-4.663167,-25.058165,0.00040893065,0.0017949315,-0.002283676,0.797611,-0.169431,9.786698,0.16872406,-0.04611969,-2.9193573,-0.6741386,-0.05443573,6.920883,1.6674526,-0.023460388,-6.065155,0.08098602,0.03643036,1.0955963,-0.5180374,0.107917786,0.00793457,1.5412878,0.010414124,-0.21789932,0.05519867,0.0019454956,2.3041115,-1.4894854,0.04863739,0.37659454,1.5599445,0.027656555,-1.1676216,-0.07091522,0.23654938,-1.752346,-1.331928,0.06832123,-6.577858,1.7966006,-0.0011825562,-11.695126,0.0,0.0,0.0,0.0,0.0,0.0,0.0,0.0,0.0,0.0,0.0,0.0,1.0,1.0,-1.0,1.0,1.0,-1.0,1.0,-1.0,-1.0,-1.0,-1.0,-1.0
2025-06-04 09:35:50.003,-1.043303,-4.658778,-25.056446,0.00054827775,0.00011363839,0.00093315775,0.780218,-0.187252,9.764517,0.16887665,0.0051498413,-3.1366463,-0.673986,0.05001068,6.8549614,1.6675289,0.011787415,-5.9882507,0.08090973,0.00667572,0.98695374,-0.5179611,0.14522552,-0.064086914,1.5412115,0.033454895,-0.2117958,0.055351257,-0.005836487,2.3004494,-1.4892565,0.039405823,0.37414932,1.5598682,0.008964539,-1.145649,-0.07091522,0.043373108,-1.5130844,-1.3321569,-0.02872467,-6.5668716,1.7963717,-0.0049972534,-11.729305,0.0,0.0,0.0,0.0,0.0,0.0,0.0,0.0,0.0,0.0,0.0,0.0,1.0,1.0,-1.0,1.0,1.0,-1.0,1.0,-1.0,-1.0,-1.0,-1.0,-1.0
2025-06-04 09:35:50.053,-1.040868,-4.661187,-25.056555,-0.00032780773,0.0007491826,0.0007498632,0.808896,-0.178743,9.718722,0.16887665,-0.011405945,-2.9596405,-0.6743675,-0.042152405,6.963608,1.6675289,-0.042686462,-6.035858,0.08090973,-0.027122498,0.9832916,-0.51826626,-0.108299255,-0.1312294,1.5411352,0.0018692017,-0.23376846,0.055351257,-0.068092346,2.256504,-1.4893328,-0.023460388,0.38513947,1.5597919,-0.018424988,-1.1407661,-0.07083893,0.017356873,-1.5704575,-1.3321569,-0.027961731,-6.5668716,1.7965243,-0.023002625,-11.757381,0.0,0.0,0.0,0.0,0.0,0.0,0.0,0.0,0.0,0.0,0.0,0.0,1.0,1.0,-1.0,1.0,1.0,-1.0,1.0,-1.0,-1.0,-1.0,-1.0,-1.0
2025-06-04 09:35:50.104,-1.037485,-4.658023,-25.05651,-0.00021181315,0.0036050996,-0.0012121835,0.788041,-0.152864,9.756513,0.16857147,0.020256042,-2.789959,-0.6742912,-0.098838806,6.966049,1.6671474,-0.043067932,-6.078583,0.08090973,-0.007286072,1.0235748,-0.5181137,0.058021545,-0.19226456,1.5412115,0.023765564,-0.22278214,0.055351257,-0.0005722046,2.2845802,-1.4891802,-0.043907166,0.38636017,1.5600208,0.0033187866,-1.1883736,-0.070991516,-0.022010803,-1.5606918,-1.3320043,0.026283264,-6.836651,1.796448,-0.0059890747,-11.742733,0.0,0.0,0.0,0.0,0.0,0.0,0.0,0.0,0.0,0.0,0.0,0.0,1.0,1.0,-1.0,1.0,1.0,-1.0,1.0,-1.0,-1.0,-1.0,-1.0,-1.0
2025-06-04 09:35:50.157,-1.035335,-4.656497,-25.054142,0.0020373927,0.0038309454,-0.0014721154,0.781373,-0.169497,9.773211,0.16895294,0.04283905,-2.8925018,-0.673986,-0.002937317,6.974594,1.6673763,0.0146865845,-6.0260925,0.08075714,-0.022621155,1.1444283,-0.51849514,-0.09952545,0.09460449,1.5411352,0.019340515,-0.21667862,0.055274963,-0.018119812,2.0257874,-1.4894854,0.009880066,0.39246368,1.5598682,-0.014305115,-1.1969185,-0.0712204,-0.012321472,-1.3226509,-1.3320806,0.11425018,-6.5424576,1.796448,0.031318665,-11.743954,0.0,0.0,0.0,0.0,0.0,0.0,0.0,0.0,0.0,0.0,0.0,0.0,1.0,1.0,-1.0,1.0,1.0,-1.0,1.0,-1.0,-1.0,-1.0,-1.0,-1.0
2025-06-04 09:35:50.209,-1.031104,-4.655634,-25.055193,0.00014114477,0.0015327656,-0.00027111944,0.793989,-0.146257,9.747941,0.16887665,-0.022392273,-3.056076,-0.6741386,-0.013465881,6.675518,1.6673763,0.017204285,-5.983368,0.08068085,0.035820007,1.1468697,-0.5181137,-0.10089874,0.05432129,1.5412115,0.007133484,-0.22766495,0.055351257,-0.036201477,2.4444962,-1.4894854,-0.02254486,0.35950089,1.5599445,-0.012321472,-1.1651802,-0.07091522,0.037345886,-1.5692368,-1.3320043,0.06656647,-6.680401,1.7963717,-0.007209778,-11.72076,0.0,0.0,0.0,0.0,0.0,0.0,0.0,0.0,0.0,0.0,0.0,0.0,1.0,1.0,-1.0,1.0,1.0,-1.0,1.0,-1.0,-1.0,-1.0,-1.0,-1.0
2025-06-04 09:35:50.261,-1.031829,-4.656671,-25.052752,-5.7351517e-05,0.0007038215,0.00053208106,0.781573,-0.19259,9.773739,0.16887665,-0.0046157837,-2.9816132,-0.673986,-0.05466461,6.7975883,1.6674526,-0.013465881,-6.0663757,0.080833435,-0.0018692017,1.039444,-0.5179611,0.026741028,0.048217773,1.5412115,0.019187927,-0.21545792,0.055274963,0.06397247,2.2345314,-1.4895617,-0.012397766,0.37903595,1.5597919,0.019569397,-1.2103462,-0.071144104,-0.05001068,-1.3641548,-1.3321569,0.0009536743,-6.6095963,1.7965243,-0.009269714,-11.764706,0.0,0.0,0.0,0.0,0.0,0.0,0.0,0.0,0.0,0.0,0.0,0.0,1.0,1.0,-1.0,1.0,1.0,-1.0,1.0,-1.0,-1.0,-1.0,-1.0,-1.0
2025-06-04 09:35:50.312,-1.029276,-4.657586,-25.05031,9.2048664e-05,-0.0010790672,-0.00054157566,0.774904,-0.167144,9.777127,0.16902924,0.11112213,-3.2355232,-0.673986,0.24356842,6.930649,1.6674526,-0.011558533,-5.990692,0.080833435,0.013771057,1.1737251,-0.51818997,0.11829376,0.12390137,1.5412115,0.018043518,-0.20569229,0.055274963,0.04940033,2.1637306,-1.4894091,0.0008010864,0.34607315,1.5598682,-0.012397766,-1.1566353,-0.07106781,0.0825119,-1.4129868,-1.3324621,-0.047416687,-6.6095963,1.796448,0.0018692017,-11.750057,0.0,0.0,0.0,0.0,0.0,0.0,0.0,0.0,0.0,0.0,0.0,0.0,1.0,1.0,-1.0,1.0,1.0,-1.0,1.0,-1.0,-1.0,-1.0,-1.0,-1.0
2025-06-04 09:35:50.363,-1.031172,-4.655604,-25.049906,0.0014645581,0.0030905767,-0.0013326112,0.798889,-0.189415,9.76131,0.16880035,0.010948181,-2.9681854,-0.6741386,0.059318542,6.828106,1.6673763,0.010566711,-6.037079,0.08075714,-0.006980896,1.1444283,-0.51864773,-0.06679535,0.13611221,1.5411352,0.011482239,-0.22278214,0.055351257,0.03551483,2.235752,-1.489638,-0.04032135,0.3692665,1.5598682,-0.003929138,-1.1737251,-0.07106781,-0.0838089,-1.411766,-1.3323095,-0.059318542,-6.4313736,1.796448,-0.025215149,-11.785458,0.0,0.0,0.0,0.0,0.0,0.0,0.0,0.0,0.0,0.0,0.0,0.0,1.0,1.0,-1.0,1.0,1.0,-1.0,1.0,-1.0,-1.0,-1.0,-1.0,-1.0
2025-06-04 09:35:50.414,-1.033078,-4.657362,-25.051964,4.6146506e-05,-0.00090589566,-0.00227008,0.799032,-0.13706,9.771943,0.16895294,0.112724304,-2.7789726,-0.67459637,-0.122032166,7.1052094,1.6674526,0.0104904175,-5.9235535,0.08090973,0.04245758,0.9820709,-0.51818997,0.112342834,-0.044555664,1.5410589,0.033607483,-0.22644424,0.055351257,0.08075714,2.0709534,-1.489638,-0.0146102905,0.37292862,1.5600208,0.039253235,-1.145649,-0.07106781,0.10066986,-1.4312973,-1.3324621,-0.06023407,-6.610817,1.7963717,-0.0283432,-11.762264,0.0,0.0,0.0,0.0,0.0,0.0,0.0,0.0,0.0,0.0,0.0,0.0,1.0,1.0,-1.0,1.0,1.0,-1.0,1.0,-1.0,-1.0,-1.0,-1.0,-1.0
2025-06-04 09:35:50.465,-1.033927,-4.66023,-25.056011,-0.00031614894,-0.0014614689,-0.00010964158,0.801,-0.172502,9.749867,0.16895294,0.053596497,-3.2184334,-0.6742912,0.096092224,6.7719536,1.6672237,0.011711121,-6.0309753,0.08075714,0.029945374,0.9649811,-0.51834255,0.13217926,0.037231445,1.5411352,-0.0065231323,-0.22766495,0.055351257,0.0037002563,2.383461,-1.4894854,-0.027809143,0.38269806,1.5598682,-0.004005432,-1.1639595,-0.07091522,0.061073303,-1.600975,-1.3327672,-0.15544891,-6.52903,1.796448,-0.017051697,-11.7488365,0.0,0.0,0.0,0.0,0.0,0.0,0.0,0.0,0.0,0.0,0.0,0.0,1.0,1.0,-1.0,1.0,1.0,-1.0,1.0,-1.0,-1.0,-1.0,-1.0,-1.0
2025-06-04 09:35:50.516,-1.035442,-4.65734,-25.053116,0.0008946034,-0.0010040181,-0.0013797525,0.760019,-0.1696,9.788347,0.16880035,0.08205414,-3.1525154,-0.6740623,0.014457703,6.8989105,1.6674526,0.04207611,-5.9198914,0.08075714,0.043373108,1.0931549,-0.5181137,-0.23097992,-0.020141602,1.5411352,0.005378723,-0.23987198,0.055351257,0.062217712,2.3566017,-1.4894091,0.0146102905,0.38513947,1.5599445,0.030174255,-1.1932564,-0.07106781,0.039024353,-1.543602,-1.3327672,-0.15720367,-6.757305,1.7965243,-0.0011825562,-11.718319,0.0,0.0,0.0,0.0,0.0,0.0,0.0,0.0,0.0,0.0,0.0,0.0,1.0,1.0,-1.0,1.0,1.0,-1.0,1.0,-1.0,-1.0,-1.0,-1.0,-1.0
2025-06-04 09:35:50.567,-1.037232,-4.662962,-25.055395,0.003171874,-0.00057957147,0.000859627,0.766592,-0.16516,9.768462,0.16887665,0.063438416,-2.835125,-0.6743675,-0.13072968,7.323719,1.6672237,0.0024795532,-6.0260925,0.08090973,-0.010871887,1.0296783,-0.5180374,-0.046653748,-0.061645508,1.5411352,0.022163391,-0.22278214,0.05542755,0.07160187,2.2748146,-1.4894091,0.023918152,0.3228798,1.5599445,-0.0033187866,-1.1480904,-0.07106781,0.03528595,-1.4886703,-1.3322332,0.022697449,-6.537575,1.796448,-0.028572083,-11.770809,0.0,0.0,0.0,0.0,0.0,0.0,0.0,0.0,0.0,0.0,0.0,0.0,1.0,1.0,-1.0,1.0,1.0,-1.0,1.0,-1.0,-1.0,-1.0,-1.0,-1.0
2025-06-04 09:35:50.618,-1.035974,-4.662944,-25.053518,0.0030329633,0.0020688435,0.00097563904,0.789873,-0.179127,9.764711,0.16864777,-0.10601044,-2.8986053,-0.6742149,0.030708313,6.6608696,1.6674526,-0.010185242,-6.0419617,0.080833435,0.024757385,0.9832916,-0.5177322,0.09464264,0.009155273,1.5412115,0.006980896,-0.23376846,0.055274963,0.043144226,2.2516212,-1.4894854,-0.009422302,0.37781525,1.5599445,0.028877258,-1.1517525,-0.071144104,0.04398346,-1.4874496,-1.3325384,0.0812912,-6.428932,1.796448,0.0019454956,-11.745174,0.0,0.0,0.0,0.0,0.0,0.0,0.0,0.0,0.0,0.0,0.0,0.0,1.0,1.0,-1.0,1.0,1.0,-1.0,1.0,-1.0,-1.0,-1.0,-1.0,-1.0
2025-06-04 09:35:50.669,-1.030066,-4.658301,-25.056068,-0.00011044443,-0.004049129,-0.004031239,0.789618,-0.154698,9.774868,0.16887665,0.123786926,-2.9913788,-0.6741386,0.03681183,7.064926,1.6674526,0.032234192,-6.052948,0.08090973,-0.0233078,1.0479889,-0.5181137,-0.08457184,0.033569336,1.5412115,-0.023765564,-0.23743057,0.055274963,0.057792664,2.4176407,-1.4892565,0.076560974,0.35828018,1.5598682,0.028419495,-1.1346626,-0.070762634,0.009269714,-1.5301743,-1.3327672,-0.103263855,-6.7109184,1.7965243,-0.007820129,-11.735409,0.0,0.0,0.0,0.0,0.0,0.0,0.0,0.0,0.0,0.0,0.0,0.0,1.0,1.0,-1.0,1.0,1.0,-1.0,1.0,-1.0,-1.0,-1.0,-1.0,-1.0
2025-06-04 09:35:50.720,-1.032386,-4.659576,-25.057652,-0.0022762408,0.0001270076,9.487609e-05,0.77142,-0.165863,9.756373,0.16887665,-0.095329285,-2.802166,-0.673986,-0.19130707,6.942856,1.6673763,-0.0019454956,-6.052948,0.080833435,-0.045661926,1.0797272,-0.5180374,0.047950745,-0.004272461,1.5412115,-0.013923645,-0.206913,0.055274963,-0.06938934,2.3614845,-1.4894854,0.022087097,0.35461807,1.5597156,-0.07144928,-1.117569,-0.070991516,-0.0024795532,-1.3861313,-1.3323095,0.15743256,-6.905014,1.7965243,0.024528503,-11.707333,0.0,0.0,0.0,0.0,0.0,0.0,0.0,0.0,0.0,0.0,0.0,0.0,1.0,1.0,-1.0,1.0,1.0,-1.0,1.0,-1.0,-1.0,-1.0,-1.0,-1.0
2025-06-04 09:35:50.770,-1.035326,-4.661146,-25.057629,-0.0018281277,0.001834533,-0.001229567,0.775231,-0.174117,9.717457,0.16864777,0.056114197,-2.8253593,-0.6741386,-0.024147034,6.920883,1.6673763,0.03681183,-6.0224304,0.08060455,-0.02193451,1.0894928,-0.51826626,-0.031013489,0.012817383,1.5411352,-0.047798157,-0.20569229,0.05542755,0.0045394897,2.1466408,-1.4895617,0.00995636,0.35095596,1.5598682,0.025291443,-1.1602974,-0.0712204,0.031013489,-1.1688423,-1.332691,0.10684967,-6.6730766,1.7965243,-0.016365051,-11.7817955,0.0,0.0,0.0,0.0,0.0,0.0,0.0,0.0,0.0,0.0,0.0,0.0,1.0,1.0,-1.0,1.0,1.0,-1.0,1.0,-1.0,-1.0,-1.0,-1.0,-1.0
2025-06-04 09:35:50.821,-1.029141,-4.653365,-25.057793,0.0057952437,0.0038512435,0.0015786503,0.761271,-0.167741,9.775073,0.16849518,-0.12058258,-2.8937225,-0.6742149,0.056037903,6.670635,1.6672237,-0.002708435,-6.023651,0.08090973,0.001335144,1.0662994,-0.51826626,-0.10089874,0.06774902,1.5411352,0.021705627,-0.22034073,0.05542755,0.079689026,2.113678,-1.4897143,-0.052604675,0.42542267,1.5598682,-0.04497528,-1.1395454,-0.07106781,0.0075912476,-1.347065,-1.3328435,0.0687027,-6.216526,1.7965243,-0.021400452,-11.795223,0.0,0.0,0.0,0.0,0.0,0.0,0.0,0.0,0.0,0.0,0.0,0.0,1.0,1.0,-1.0,1.0,1.0,-1.0,1.0,-1.0,-1.0,-1.0,-1.0,-1.0
2025-06-04 09:35:50.872,-1.026477,-4.652717,-25.05802,0.0011906985,4.8851765e-05,0.00045336672,0.813546,-0.195478,9.760444,0.16857147,-0.10311127,-2.5128555,-0.6745201,-0.0447464,7.245594,1.6674526,0.0062179565,-5.995575,0.08090973,-0.018806458,1.0284576,-0.51826626,0.09288788,0.103149414,1.5411352,-0.030784607,-0.22644424,0.055503845,-0.0022506714,2.2259865,-1.4894854,-0.0573349,0.38269806,1.5598682,0.01964569,-1.1493111,-0.07129669,-0.07854462,-1.4007797,-1.3327672,0.099220276,-6.430153,1.796448,-0.03704071,-11.706112,0.0,0.0,0.0,0.0,0.0,0.0,0.0,0.0,0.0,0.0,0.0,0.0,1.0,1.0,-1.0,1.0,1.0,-1.0,1.0,-1.0,-1.0,-1.0,-1.0,-1.0
2025-06-04 09:35:50.924,-1.02884,-4.655035,-25.054056,-0.0036160778,0.000496808,-0.0008727519,0.79094,-0.171255,9.732031,0.16887665,-0.037269592,-2.8656425,-0.673986,0.07083893,6.6657524,1.6673763,-0.042152405,-6.052948,0.08075714,0.030403137,1.0662994,-0.51826626,-0.13874054,-0.020141602,1.5410589,0.009803772,-0.2117958,0.055274963,-0.0017929077,2.3736916,-1.4897143,0.00034332275,0.37170792,1.5598682,-0.00019073486,-1.1346626,-0.071144104,-0.056114197,-1.3922348,-1.3328435,-0.016288757,-6.516823,1.7966006,-0.012245178,-11.735409,0.0,0.0,0.0,0.0,0.0,0.0,0.0,0.0,0.0,0.0,0.0,0.0,1.0,1.0,-1.0,1.0,1.0,-1.0,1.0,-1.0,-1.0,-1.0,-1.0,-1.0
2025-06-04 09:35:50.975,-1.028365,-4.654154,-25.053465,0.00037594393,0.001507947,0.0011504861,0.802295,-0.186466,9.7766,0.16887665,-0.13439178,-2.8802948,-0.6742149,0.018730164,6.610817,1.6672237,-0.06816864,-6.0541687,0.08068085,-0.014457703,1.1261177,-0.5176559,0.049552917,-0.18249893,1.5409826,-0.0048446655,-0.22766495,0.055351257,-0.014915466,2.4176407,-1.489638,0.0358963,0.40589142,1.5599445,0.035820007,-1.1688423,-0.07091522,-0.020103455,-1.543602,-1.3328435,-0.09944916,-6.540016,1.796448,-0.016365051,-11.765926,0.0,0.0,0.0,0.0,0.0,0.0,0.0,0.0,0.0,0.0,0.0,0.0,1.0,1.0,-1.0,1.0,1.0,-1.0,1.0,-1.0,-1.0,-1.0,-1.0,-1.0
2025-06-04 09:35:51.025,-1.027454,-4.649107,-25.052841,-0.00048082074,0.0020136037,-0.0005821895,0.802391,-0.155051,9.773486,0.16849518,-0.10700226,-2.7191582,-0.6740623,0.013847351,6.7475395,1.6673763,0.045814514,-5.983368,0.08090973,-0.0019454956,0.9808502,-0.5178085,0.0838089,-0.092163086,1.5412115,-0.00019073486,-0.23254776,0.05519867,0.028953552,2.2577248,-1.4895617,0.0522995,0.35583878,1.5598682,-0.039405823,-1.1541939,-0.070991516,-0.040626526,-1.5753403,-1.3329961,0.05268097,-6.4313736,1.7965243,0.010643005,-11.768368,0.0,0.0,0.0,0.0,0.0,0.0,0.0,0.0,0.0,0.0,0.0,0.0,1.0,1.0,-1.0,1.0,1.0,-1.0,1.0,-1.0,-1.0,-1.0,-1.0,-1.0
2025-06-04 09:35:51.076,-1.026487,-4.647437,-25.055641,-9.098401e-05,0.002307273,0.002371815,0.790637,-0.17198,9.756095,0.16887665,0.07808685,-2.822918,-0.6740623,0.08075714,6.9770355,1.6674526,0.038871765,-5.9772644,0.08075714,-0.04299164,1.0870514,-0.5179611,-0.02948761,0.15686417,1.5410589,-0.006980896,-0.22400284,0.055274963,0.072135925,2.1271095,-1.4894854,0.023231506,0.37537384,1.5600208,0.01247406,-1.2164497,-0.070991516,0.028800964,-1.4496078,-1.332691,0.09990692,-6.6694145,1.796448,0.0046920776,-11.764706,0.0,0.0,0.0,0.0,0.0,0.0,0.0,0.0,0.0,0.0,0.0,0.0,1.0,1.0,-1.0,1.0,1.0,-1.0,1.0,-1.0,-1.0,-1.0,-1.0,-1.0
2025-06-04 09:35:51.127,-1.026485,-4.649192,-25.057173,-0.0011478681,-0.0036521887,0.0012409639,0.75789,-0.153459,9.747746,0.16880035,0.017204285,-2.850994,-0.6740623,0.0046157837,6.8830414,1.6672237,-0.013923645,-5.9845886,0.080833435,0.017433167,0.9344635,-0.5179611,0.29613495,-0.11413574,1.5411352,0.046806335,-0.23498917,0.055351257,0.053749084,2.195469,-1.4895617,0.030326843,0.3668251,1.5599445,0.01209259,-1.2079048,-0.07106781,-0.065956116,-1.6021957,-1.3329198,0.009422302,-6.454567,1.7963717,0.0021743774,-11.756161,0.0,0.0,0.0,0.0,0.0,0.0,0.0,0.0,0.0,0.0,0.0,0.0,1.0,1.0,-1.0,1.0,1.0,-1.0,1.0,-1.0,-1.0,-1.0,-1.0,-1.0
2025-06-04 09:35:51.179,-1.03062,-4.651414,-25.055758,-0.0020306208,0.0028212897,-0.0027870464,0.79579,-0.179131,9.760694,0.16872406,-0.042762756,-2.772869,-0.6740623,0.07183075,6.889145,1.6673763,-0.0062942505,-6.0309753,0.08075714,0.011329651,1.1712837,-0.51826626,0.027656555,0.13855362,1.5411352,-0.0031661987,-0.21667862,0.05542755,0.107154846,2.1258888,-1.4895617,-0.045661926,0.37781525,1.5598682,0.011253357,-1.1602974,-0.071144104,0.002784729,-1.4508286,-1.3328435,0.1391983,-6.565651,1.796448,-0.009117126,-11.704891,0.0,0.0,0.0,0.0,0.0,0.0,0.0,0.0,0.0,0.0,0.0,0.0,1.0,1.0,-1.0,1.0,1.0,-1.0,1.0,-1.0,-1.0,-1.0,-1.0,-1.0
2025-06-04 09:35:51.230,-1.028223,-4.655347,-25.057997,-0.00094521797,-0.0011647454,-0.0003272667,0.780067,-0.142295,9.753384,0.16864777,-0.14842987,-2.7875175,-0.6740623,-0.010108948,6.8171196,1.6675289,-0.020866394,-5.945526,0.08098602,0.012550354,1.0003815,-0.5181137,-0.13431549,0.049438477,1.5411352,0.00667572,-0.2105751,0.055274963,0.011024475,2.313877,-1.4895617,-0.057792664,0.3692665,1.5598682,-0.035591125,-1.1419868,-0.07091522,0.08831024,-1.4764633,-1.3324621,0.10128021,-6.5107193,1.7965243,0.018043518,-11.723202,0.0,0.0,0.0,0.0,0.0,0.0,0.0,0.0,0.0,0.0,0.0,0.0,1.0,1.0,-1.0,1.0,1.0,-1.0,1.0,-1.0,-1.0,-1.0,-1.0,-1.0
2025-06-04 09:35:51.281,-1.03107,-4.656924,-25.056622,-0.00070994755,0.00259883,0.00054202945,0.768286,-0.163708,9.75106,0.16849518,-0.0522995,-2.781414,-0.6740623,-0.07320404,6.790264,1.6672237,-0.01499176,-6.089569,0.08075714,-0.020942688,1.0370026,-0.5179611,-0.017280579,-0.09460449,1.5411352,-0.011329651,-0.22034073,0.055503845,-0.03299713,2.2833595,-1.4895617,-0.022163391,0.3643837,1.5597919,0.0060653687,-1.1712837,-0.071144104,0.039024353,-1.489891,-1.3328435,0.00049591064,-6.5473404,1.796448,-0.01903534,-11.747616,0.0,0.0,0.0,0.0,0.0,0.0,0.0,0.0,0.0,0.0,0.0,0.0,1.0,1.0,-1.0,1.0,1.0,-1.0,1.0,-1.0,-1.0,-1.0,-1.0,-1.0
2025-06-04 09:35:51.332,-1.033779,-4.657292,-25.05933,-0.0021886602,0.0026531972,0.0003438124,0.813033,-0.161531,9.768226,0.16834259,-0.10486603,-2.7313652,-0.6742912,-0.053901672,6.995346,1.6673763,0.055885315,-5.9967957,0.08075714,-0.06793976,1.1554146,-0.51826626,-0.050315857,0.08239746,1.5411352,-0.0104904175,-0.23865128,0.05542755,0.052833557,2.235752,-1.4893328,0.005683899,0.35705948,1.5599445,0.020256042,-1.1920357,-0.071144104,0.052223206,-1.7535667,-1.3327672,0.07083893,-6.6987114,1.796448,-0.014152527,-11.768368,0.0,0.0,0.0,0.0,0.0,0.0,0.0,0.0,0.0,0.0,0.0,0.0,1.0,1.0,-1.0,1.0,1.0,-1.0,1.0,-1.0,-1.0,-1.0,-1.0,-1.0
2025-06-04 09:35:51.383,-1.035637,-4.658612,-25.059034,0.00019076449,-0.0012284674,0.0014933561,0.81485,-0.16442,9.72584,0.16864777,-0.061836243,-2.6520195,-0.6744438,-0.1771164,6.884262,1.6674526,-0.039711,-6.045624,0.08060455,-0.08693695,1.109024,-0.5180374,0.013618469,-0.049438477,1.5410589,-0.010643005,-0.2105751,0.055503845,0.034828186,2.2186623,-1.4895617,-0.0049972534,0.39246368,1.5598682,-0.0059890747,-1.1395454,-0.07106781,0.011711121,-1.4544907,-1.3329961,-0.032539368,-6.454567,1.796448,0.0061416626,-11.740292,0.0,0.0,0.0,0.0,0.0,0.0,0.0,0.0,0.0,0.0,0.0,0.0,1.0,1.0,-1.0,1.0,1.0,-1.0,1.0,-1.0,-1.0,-1.0,-1.0,-1.0
2025-06-04 09:35:51.434,-1.033112,-4.657506,-25.057674,0.0017231461,0.0019955745,0.0002739294,0.808677,-0.134758,9.772532,0.16849518,-0.057640076,-2.7057304,-0.67375714,-0.03803253,6.909897,1.6673,-0.0008773804,-6.032196,0.08090973,-0.011405945,1.1016998,-0.51818997,-0.18978119,0.06530762,1.5411352,0.038337708,-0.21912003,0.05542755,-0.015220642,2.0294495,-1.489638,-0.028648376,0.3607216,1.5600208,-0.00049591064,-1.18227,-0.071144104,-0.13233185,-1.5057602,-1.3328435,-0.051002502,-6.6608696,1.7965243,0.016746521,-11.678036,0.0,0.0,0.0,0.0,0.0,0.0,0.0,0.0,0.0,0.0,0.0,0.0,1.0,1.0,-1.0,1.0,1.0,-1.0,1.0,-1.0,-1.0,-1.0,-1.0,-1.0
2025-06-04 09:35:51.485,-1.033403,-4.658885,-25.058601,0.002064323,-0.0014032621,-0.002868274,0.797377,-0.167212,9.76531,0.16880035,0.031929016,-2.7997246,-0.6742149,0.04261017,7.1577034,1.6671474,-0.066337585,-6.05661,0.08075714,-0.023460388,1.0199127,-0.5176559,-0.08266449,-0.10925293,1.5411352,0.016365051,-0.21301651,0.055656433,0.08113861,2.166172,-1.4894854,0.012931824,0.35217667,1.5599445,-0.037651062,-1.1273384,-0.071144104,-0.04146576,-1.4496078,-1.3329961,0.020332336,-6.4570084,1.796448,-0.0021743774,-11.728085,0.0,0.0,0.0,0.0,0.0,0.0,0.0,0.0,0.0,0.0,0.0,0.0,1.0,1.0,-1.0,1.0,1.0,-1.0,1.0,-1.0,-1.0,-1.0,-1.0,-1.0
2025-06-04 09:35:51.536,-1.031672,-4.656348,-25.062624,-0.0042903507,-0.00010857693,-0.00043429027,0.788894,-0.165636,9.7674,0.16864777,0.10242462,-2.8912811,-0.6740623,-0.03238678,7.1052094,1.6672237,-0.014839172,-6.045624,0.08098602,0.052757263,0.95155334,-0.5179611,0.062446594,-0.19348526,1.5411352,0.008659363,-0.22278214,0.055274963,-0.012931824,2.3089943,-1.4894091,0.046195984,0.41199493,1.5597919,-0.027122498,-1.1676216,-0.070991516,0.03704071,-1.4642563,-1.3329961,-0.02735138,-6.593727,1.7963717,-0.02368927,-11.728085,0.0,0.0,0.0,0.0,0.0,0.0,0.0,0.0,0.0,0.0,0.0,0.0,1.0,1.0,-1.0,1.0,1.0,-1.0,1.0,-1.0,-1.0,-1.0,-1.0,-1.0
2025-06-04 09:35:51.586,-1.031411,-4.655789,-25.064676,-0.00066249206,-0.00010302678,2.2060962e-05,0.780794,-0.178561,9.763444,0.16880035,0.0038528442,-2.7948418,-0.6740623,0.024147034,6.9391937,1.6673763,0.02696991,-5.9687195,0.08075714,0.0012588501,1.0870514,-0.5181137,-0.15369415,-0.042114258,1.5411352,0.011711121,-0.2459755,0.05558014,0.061073303,2.2101173,-1.489638,-0.04512787,0.33996964,1.5598682,0.05252838,-1.109024,-0.07106781,0.0018692017,-1.5057602,-1.3327672,0.1581192,-6.717022,1.796448,0.019569397,-11.717098,0.0,0.0,0.0,0.0,0.0,0.0,0.0,0.0,0.0,0.0,0.0,0.0,1.0,1.0,-1.0,1.0,1.0,-1.0,1.0,-1.0,-1.0,-1.0,-1.0,-1.0
2025-06-04 09:35:51.637,-1.032116,-4.659056,-25.064745,-0.0011450755,-0.0018571699,-0.0022750192,0.793045,-0.175998,9.745251,0.16864777,-0.087013245,-2.8888397,-0.673986,0.061454773,6.9806976,1.6671474,0.022468567,-6.0627136,0.08098602,-0.042686462,1.0443268,-0.51834255,-0.17223358,-0.01159668,1.5412115,-0.008277893,-0.25452042,0.055274963,0.008583069,2.3358498,-1.4893328,0.013084412,0.33874893,1.5599445,-0.008964539,-1.1920357,-0.071144104,-0.10593414,-1.4483871,-1.3328435,-0.0447464,-6.5058365,1.7963717,-0.0063705444,-11.690243,0.0,0.0,0.0,0.0,0.0,0.0,0.0,0.0,0.0,0.0,0.0,0.0,1.0,1.0,-1.0,1.0,1.0,-1.0,1.0,-1.0,-1.0,-1.0,-1.0,-1.0
2025-06-04 09:35:51.689,-1.028686,-4.654642,-25.065746,0.00056923914,0.0033789398,-0.00081766926,0.804919,-0.192357,9.715775,0.16880035,-0.004310608,-3.023117,-0.67383343,0.11745453,6.71336,1.6672237,-0.0033187866,-6.0090027,0.08090973,0.0233078,0.9454498,-0.5179611,0.18787384,-0.20325089,1.5410589,0.002708435,-0.21789932,0.055503845,0.028038025,2.1795998,-1.4894854,-0.08426666,0.3985672,1.5598682,-0.010108948,-1.1529732,-0.07106781,0.06565094,-1.375145,-1.3330724,-0.09929657,-6.4655533,1.796448,-0.014381409,-11.73785,0.0,0.0,0.0,0.0,0.0,0.0,0.0,0.0,0.0,0.0,0.0,0.0,1.0,1.0,-1.0,1.0,1.0,-1.0,1.0,-1.0,-1.0,-1.0,-1.0,-1.0
2025-06-04 09:35:51.739,-1.029115,-4.655906,-25.069271,-0.0009853605,0.0017195332,-3.60585e-05,0.791561,-0.170333,9.773326,0.16857147,-0.106163025,-2.9230194,-0.6741386,0.024604797,6.774395,1.6674526,0.015907288,-6.077362,0.080833435,-0.0016403198,0.99916077,-0.5180374,0.15399933,-0.010375977,1.5411352,-0.0005722046,-0.23865128,0.05542755,-0.010948181,2.351719,-1.4897143,-0.02193451,0.3668251,1.5599445,0.05252838,-1.2005806,-0.071144104,-0.077171326,-1.5777817,-1.3328435,-0.027198792,-6.504616,1.7965243,0.008811951,-11.706112,0.0,0.0,0.0,0.0,0.0,0.0,0.0,0.0,0.0,0.0,0.0,0.0,1.0,1.0,-1.0,1.0,1.0,-1.0,1.0,-1.0,-1.0,-1.0,-1.0,-1.0
2025-06-04 09:35:51.791,-1.026666,-4.656736,-25.06755,-0.0007704756,0.004109744,0.0019018678,0.799895,-0.142499,9.802233,0.16880035,0.010948181,-2.781414,-0.6739097,-0.018577576,7.0014496,1.6675289,0.011100769,-5.979706,0.08075714,-0.061454773,1.0943756,-0.51834255,-0.047721863,-0.18127823,1.5410589,0.015449524,-0.23743057,0.055351257,-0.054283142,2.1368752,-1.4897143,-0.058631897,0.3656044,1.5597919,0.03162384,-1.1847115,-0.07106781,-0.037879944,-1.3897934,-1.3329198,-0.009346008,-6.6157,1.796448,-0.022468567,-11.739071,0.0,0.0,0.0,0.0,0.0,0.0,0.0,0.0,0.0,0.0,0.0,0.0,1.0,1.0,-1.0,1.0,1.0,-1.0,1.0,-1.0,-1.0,-1.0,-1.0,-1.0
2025-06-04 09:35:51.841,-1.028743,-4.658263,-25.064766,-0.0027025898,0.0012641595,-0.00026460935,0.809221,-0.14114,9.764243,0.16895294,0.20275116,-3.1805916,-0.6741386,0.010414124,7.028305,1.6674526,-0.012702942,-6.0712585,0.08098602,0.017204285,0.9747467,-0.51818997,-0.056495667,-0.1312294,1.5411352,0.01789093,-0.23376846,0.055351257,0.0018692017,2.4237442,-1.4892565,0.10334015,0.37537384,1.5600208,0.012550354,-1.1725044,-0.07106781,0.031700134,-1.5289536,-1.333225,-0.113716125,-6.703594,1.796448,0.012550354,-11.709774,0.0,0.0,0.0,0.0,0.0,0.0,0.0,0.0,0.0,0.0,0.0,0.0,1.0,1.0,-1.0,1.0,1.0,-1.0,1.0,-1.0,-1.0,-1.0,-1.0,-1.0
2025-06-04 09:35:51.893,-1.032402,-4.658822,-25.06383,-0.0009719564,-0.002455748,0.00042615703,0.801163,-0.18465,9.771147,0.16880035,0.11287689,-3.031662,-0.673986,0.052375793,7.0637054,1.6673,-0.016670227,-6.019989,0.08075714,0.012626648,1.0565338,-0.5180374,0.07480621,-0.029907227,1.5411352,-0.011634827,-0.22400284,0.055351257,-0.039787292,2.2613869,-1.4894854,-0.012168884,0.37537384,1.5599445,-0.033454895,-1.1798286,-0.070991516,0.054588318,-1.4593735,-1.3330724,-0.0075149536,-6.486305,1.796448,-0.039634705,-11.750057,0.0,0.0,0.0,0.0,0.0,0.0,0.0,0.0,0.0,0.0,0.0,0.0,1.0,1.0,-1.0,1.0,1.0,-1.0,1.0,-1.0,-1.0,-1.0,-1.0,-1.0
2025-06-04 09:35:51.943,-1.03145,-4.658761,-25.061178,-0.0013318956,-9.494591e-06,-0.0008726821,0.789822,-0.154494,9.746362,0.16895294,0.13629913,-3.1476326,-0.6740623,0.05382538,6.9037933,1.6673763,0.05558014,-6.048065,0.08090973,-0.004081726,1.0589752,-0.5180374,-0.058250427,-0.01159668,1.5411352,-0.008125305,-0.23743057,0.05519867,0.01285553,2.3004494,-1.4895617,-0.050621033,0.35095596,1.5597156,0.008811951,-1.1480904,-0.071144104,-0.03238678,-1.564354,-1.333225,-0.007896423,-6.6987114,1.796448,-0.019111633,-11.7488365,0.0,0.0,0.0,0.0,0.0,0.0,0.0,0.0,0.0,0.0,0.0,0.0,1.0,1.0,-1.0,1.0,1.0,-1.0,1.0,-1.0,-1.0,-1.0,-1.0,-1.0
2025-06-04 09:35:51.995,-1.028273,-4.657341,-25.05989,-0.00084997533,-0.0024793972,0.0030244286,0.788797,-0.181519,9.75347,0.16880035,-0.03429413,-2.9999237,-0.6740623,-0.006904602,6.9452972,1.6673763,-0.04169464,-6.0395203,0.080833435,0.0358963,1.0650787,-0.51826626,0.057411194,0.044555664,1.5412115,-0.012702942,-0.23620987,0.05519867,-0.06694794,2.4225235,-1.4894854,0.012016296,0.41077423,1.5599445,0.027885437,-1.157856,-0.071144104,0.06175995,-1.5240707,-1.3330724,-0.032539368,-6.594948,1.7963717,0.00011444092,-11.729305,0.0,0.0,0.0,0.0,0.0,0.0,0.0,0.0,0.0,0.0,0.0,0.0,1.0,1.0,-1.0,1.0,1.0,-1.0,1.0,-1.0,-1.0,-1.0,-1.0,-1.0
2025-06-04 09:35:52.045,-1.027435,-4.657223,-25.061878,-0.00047342054,5.784021e-05,3.057817e-05,0.799221,-0.166665,9.734298,0.16880035,0.04245758,-2.9925995,-0.67375714,0.08594513,6.876938,1.6673763,-0.03162384,-6.0431824,0.08090973,-0.0077438354,0.9723053,-0.5180374,-0.115623474,-0.14099503,1.5411352,-0.040550232,-0.23743057,0.055351257,-0.032844543,2.207676,-1.4895617,-0.0017929077,0.38147736,1.5599445,0.032463074,-1.145649,-0.07106781,0.022163391,-1.4764633,-1.3329961,-3.8146973e-05,-6.59861,1.7965243,-0.057640076,-11.768368,0.0,0.0,0.0,0.0,0.0,0.0,0.0,0.0,0.0,0.0,0.0,0.0,1.0,1.0,-1.0,1.0,1.0,-1.0,1.0,-1.0,-1.0,-1.0,-1.0,-1.0
2025-06-04 09:35:52.096,-1.025594,-4.656346,-25.064354,-0.0014065434,0.002145952,0.002179253,0.805925,-0.144219,9.731687,0.16895294,0.00667572,-2.736248,-0.6740623,-0.04634857,7.08934,1.6673,-0.0023269653,-6.0212097,0.08090973,0.015296936,1.0272369,-0.5177322,0.18390656,-0.012817383,1.5410589,0.021095276,-0.22278214,0.055503845,0.0749588,2.3712502,-1.4895617,-0.036506653,0.33752823,1.5598682,-0.0346756,-1.1688423,-0.07106781,0.10883331,-1.6021957,-1.3328435,0.09197235,-6.658428,1.7965243,-0.012321472,-11.678036,0.0,0.0,0.0,0.0,0.0,0.0,0.0,0.0,0.0,0.0,0.0,0.0,1.0,1.0,-1.0,1.0,1.0,-1.0,1.0,-1.0,-1.0,-1.0,-1.0,-1.0
2025-06-04 09:35:52.147,-1.024019,-4.659377,-25.062832,0.0009404008,0.00046801002,-0.0005119923,0.776308,-0.174754,9.767766,0.16887665,0.20412445,-3.0829315,-0.67383343,0.04398346,6.9977875,1.6671474,-0.05504608,-6.061493,0.08068085,-0.017051697,1.0540924,-0.5181137,0.07320404,-0.0018310547,1.5410589,-0.0060653687,-0.21789932,0.055351257,-0.07129669,2.2626076,-1.489638,-0.045433044,0.37537384,1.5599445,-0.0004196167,-1.1126862,-0.071372986,-0.06061554,-1.3336372,-1.3331487,0.020561218,-6.6034927,1.7963717,-0.014457703,-11.750057,0.0,0.0,0.0,0.0,0.0,0.0,0.0,0.0,0.0,0.0,0.0,0.0,1.0,1.0,-1.0,1.0,1.0,-1.0,1.0,-1.0,-1.0,-1.0,-1.0,-1.0
2025-06-04 09:35:52.199,-1.025772,-4.661175,-25.065134,-0.0016318829,0.00020376718,-0.0005985083,0.775439,-0.180011,9.777681,0.16880035,0.070762634,-2.9755096,-0.6739097,0.052986145,6.9562836,1.6671474,-0.0422287,-6.045624,0.08075714,-0.025520325,1.1151276,-0.51826626,-0.060768127,0.04333496,1.5411352,0.036582947,-0.22034073,0.055503845,-0.0016403198,2.2589455,-1.4895617,0.031318665,0.4010086,1.5597156,-0.029563904,-1.1920357,-0.070991516,0.17269135,-1.4752426,-1.3331487,0.031547546,-6.692608,1.7965243,-0.0037002563,-11.718319,0.0,0.0,0.0,0.0,0.0,0.0,0.0,0.0,0.0,0.0,0.0,0.0,1.0,1.0,-1.0,1.0,1.0,-1.0,1.0,-1.0,-1.0,-1.0,-1.0,-1.0
2025-06-04 09:35:52.249,-1.025871,-4.661172,-25.06772,7.2326446e-05,0.0003085393,0.00022884757,0.800122,-0.16214,9.757082,0.16887665,-0.01033783,-2.9584198,-0.6739097,0.065574646,6.900131,1.6673,-0.01613617,-6.0212097,0.08075714,-0.01903534,1.0113678,-0.51834255,-0.022621155,-0.040893555,1.5411352,0.023078918,-0.22522354,0.05519867,0.007286072,2.2577248,-1.4894854,0.022315979,0.37170792,1.5598682,-0.021018982,-1.1627388,-0.0712204,-0.14720917,-1.5631332,-1.3330724,-0.04009247,-6.4533463,1.796448,0.001335144,-11.731747,0.0,0.0,0.0,0.0,0.0,0.0,0.0,0.0,0.0,0.0,0.0,0.0,1.0,-1.0,-1.0,1.0,-1.0,-1.0,-1.0,-1.0,-1.0,-1.0,-1.0,-1.0
2025-06-04 09:35:52.300,-1.566889,-6.052452,-25.051577,-0.49268502,-0.79002887,-0.010719236,3.147178,-1.715579,7.572896,0.15705109,-0.4958725,0.2484169,-0.8579307,-3.245205,-14.573587,1.6925533,0.47389984,-9.020523,0.07518768,0.09990692,1.0980377,-0.8218437,-5.261196,-5.7318993,1.5533422,0.14163971,-1.6192856,-0.004234314,-0.85948944,-0.41321564,-1.5228258,-0.93982697,6.618141,1.5571216,-0.27225494,-0.14587784,-0.077552795,-0.43117523,0.5206375,-1.3721349,-1.0560989,-0.30823135,1.8017123,-0.1997757,-10.990768,0.0,0.0,0.0,0.0,0.0,0.0,0.0,0.0,0.0,0.0,0.0,0.0,1.0,-1.0,-1.0,1.0,1.0,1.0,-1.0,-1.0,1.0,-1.0,-1.0,-1.0
2025-06-04 09:35:52.351,-3.654301,-7.267511,-25.821047,-0.45864448,-0.64298934,-0.5799371,6.390626,1.026439,10.743821,0.12966156,-0.5144882,1.3629341,-0.99617535,-2.959713,-8.800793,1.7133815,-0.05832672,-8.042725,0.08289337,-0.25302887,1.9916077,-0.76912457,2.7220573,-0.5462723,1.7232488,3.4165611,-0.1300087,-0.04283905,-0.49526215,-0.4010086,-1.5396868,-1.0234451,6.4350357,1.7150501,2.3555412,5.175251,-0.0863266,0.30124664,-2.334629,-1.4115789,-1.2617111,2.0196838,1.7746279,-0.2651596,-9.853054,0.0,0.0,0.0,0.0,0.0,0.0,0.0,0.0,0.0,0.0,0.0,0.0,1.0,-1.0,-1.0,1.0,1.0,1.0,-1.0,1.0,1.0,-1.0,-1.0,-1.0
2025-06-04 09:35:52.403,-4.39291,-7.227003,-27.378841,0.2213191,1.2217771,0.11622021,1.083978,-1.85249,10.15797,0.12180328,0.55171967,-3.589531,-1.0817771,-0.80654144,-13.998627,1.7574794,1.1455154,-14.285496,0.09403229,0.17009735,0.16662979,-0.66467816,1.1557388,0.3253212,1.8582128,1.7130661,2.089264,-0.070991516,-0.41858673,0.99427795,-1.3808428,5.66975,12.07843,1.7807392,1.0493851,7.158924,-0.07778168,0.11264801,-1.7022972,-1.4299657,-0.06587982,-2.6813164,1.7319033,-1.2623978,-3.5223923,0.0,0.0,0.0,0.0,0.0,0.0,0.0,0.0,0.0,0.0,0.0,0.0,1.0,-1.0,-1.0,1.0,1.0,-1.0,-1.0,1.0,1.0,1.0,-1.0,-1.0
2025-06-04 09:35:52.453,-2.034353,-5.035573,-26.641327,1.1095629,0.23585196,0.21238276,3.974609,-1.035039,4.454576,0.16490936,0.8067703,-5.7013817,-1.1492972,-1.4767075,-8.814222,1.7883785,0.4870224,-13.116045,0.09159088,-0.66646576,1.6998558,-0.604631,0.3447342,1.694973,1.7576574,-2.492031,-0.14709854,-0.092048645,0.41339874,-0.436409,-1.1228129,6.304596,0.012817383,1.855431,1.9212723,1.0333405,-0.00957489,0.5560684,0.30945206,-1.4505651,-0.8250046,2.4505997,1.6838381,-0.57437897,-4.5758743,0.0,0.0,0.0,0.0,0.0,0.0,0.0,0.0,0.0,0.0,0.0,0.0,1.0,1.0,1.0,1.0,1.0,-1.0,-1.0,-1.0,-1.0,-1.0,-1.0,-1.0
2025-06-04 09:35:52.504,-0.338765,-4.346126,-27.084618,0.17659914,1.1794375,-0.55112857,-0.466711,-3.612513,8.463483,0.1568222,-0.3498459,-1.1334419,-1.1690574,-1.9659042,22.5803,1.8764217,1.3358688,2.7850761,0.087013245,0.3093338,-0.10681152,-0.5622116,0.28209686,-0.11657715,1.6747259,-0.4794693,-3.0878143,-0.09410858,-0.012626648,-0.632946,-1.1443316,-1.7295456,-7.94751,1.8189625,-1.6314316,-6.048065,-0.020637512,-0.2084732,-2.699627,-1.4906957,-0.044441223,-0.12756729,1.6589663,-0.96637726,-1.4569321,0.0,0.0,0.0,0.0,0.0,0.0,0.0,0.0,0.0,0.0,0.0,0.0,-1.0,-1.0,1.0,-1.0,-1.0,-1.0,1.0,-1.0,-1.0,1.0,-1.0,-1.0
2025-06-04 09:35:52.555,-0.623687,-2.397209,-27.77528,-0.09803011,-1.0021986,-0.06307951,2.723479,2.809208,13.910588,0.086250305,-1.9649887,-0.7000847,-1.2953238,-1.8973923,-1.0138092,1.939822,1.0464859,0.87831116,0.04940033,-0.10814667,-7.0026703,-0.7309776,-3.2962456,-18.39933,1.743543,0.92121124,-13.258869,-0.091362,0.070991516,9.402609,-1.2753283,-2.4165764,1.9562073,1.7802051,-0.019721985,-11.013962,0.021247864,1.1427689,-0.21667862,-1.5103796,-1.9298172,10.080111,1.6117404,-0.5842972,-0.0030517578,0.0,0.0,0.0,0.0,0.0,0.0,0.0,0.0,0.0,0.0,0.0,0.0,-1.0,1.0,1.0,-1.0,-1.0,-1.0,1.0,-1.0,-1.0,1.0,-1.0,1.0
2025-06-04 09:35:52.606,1.632154,-5.051205,-27.74703,0.10335339,-0.9039615,-0.21640597,4.856302,-0.696094,10.146035,0.0051498413,-0.7690811,-0.64271164,-1.0401206,5.264477,0.020141602,1.9846065,0.80883026,0.06774902,0.050239563,-0.32115936,-5.983368,-0.8869987,-2.911419,-13.673916,1.7802404,0.14888763,-11.831844,-0.07938385,0.19512177,8.142824,-1.382445,-2.4575462,5.4145126,1.7370228,-1.0138321,-5.1728096,0.056419373,0.69667816,-1.3910141,-1.5781286,-0.6205368,7.5434494,1.7177126,2.46426,4.879837,0.0,0.0,0.0,0.0,0.0,0.0,0.0,0.0,0.0,0.0,0.0,0.0,-1.0,1.0,1.0,-1.0,-1.0,-1.0,-1.0,-1.0,-1.0,1.0,-1.0,1.0
2025-06-04 09:35:52.657,1.572098,-6.766277,-28.670094,-0.4239718,-0.38786158,-0.21584894,2.27379,2.741518,8.211197,-0.032463074,-0.330925,-1.7987328,-0.8201652,2.9842033,-0.46326447,2.011233,0.1796341,1.1688423,0.020561218,-0.5131149,-3.3282967,-1.026464,-2.7288475,-9.103531,1.7963384,0.1846695,-12.746166,-0.11844635,-0.60001373,3.8055992,-1.479262,-1.5187454,7.3823166,1.6731647,-1.2030411,-0.92836,0.07221222,0.04535675,0.75745773,-1.5856817,-0.17063141,5.823452,1.8205569,1.4643478,4.5661087,0.0,0.0,0.0,0.0,0.0,0.0,0.0,0.0,0.0,0.0,0.0,0.0,-1.0,1.0,1.0,-1.0,-1.0,-1.0,-1.0,-1.0,-1.0,1.0,-1.0,1.0
2025-06-04 09:35:52.708,0.465627,-7.490021,-28.347591,-0.47208437,-0.16991109,0.37462106,1.70473,2.853042,9.571002,-0.05329132,-0.56804657,-0.75867844,-0.69626385,2.0371666,-0.37414932,2.0271022,0.19824982,0.87709045,-0.0015640259,-0.4163742,-3.6493492,-1.1641746,-2.7228203,-2.41642,1.8012975,0.0046157837,-11.919739,-0.16155243,-0.8246231,6.0065613,-1.5451037,-1.1629105,7.6777306,1.6144184,-1.239357,1.806057,0.08075714,-0.3572464,1.7108421,-1.5589788,0.38547516,2.2381935,1.9024966,0.99315643,2.5006485,0.0,0.0,0.0,0.0,0.0,0.0,0.0,0.0,0.0,0.0,0.0,0.0,-1.0,1.0,-1.0,-1.0,-1.0,-1.0,-1.0,-1.0,-1.0,1.0,-1.0,1.0
2025-06-04 09:35:52.759,-0.417694,-7.629981,-27.338291,-0.32597774,0.007305477,0.31930926,0.230781,1.171048,5.882836,-0.06916046,-0.21656036,-0.42542267,-0.6216484,0.98300934,-0.03845215,1.8568904,-3.3374443,-0.07873535,-0.008125305,0.046195984,-4.231632,-1.283956,-1.9864273,0.103149414,1.8012213,-0.022697449,-11.889221,-0.19412994,-0.4567337,6.5766373,-1.590346,-0.6193161,7.532463,1.5494922,-1.3505936,4.8285637,0.08541107,0.16819,0.2484169,-1.5449407,0.3256607,1.6766624,1.9502566,0.9859085,1.0174713,0.0,0.0,0.0,0.0,0.0,0.0,0.0,0.0,0.0,0.0,0.0,0.0,1.0,-1.0,-1.0,-1.0,-1.0,-1.0,-1.0,-1.0,-1.0,1.0,-1.0,-1.0
2025-06-04 09:35:52.811,-1.938902,-7.009028,-26.854921,-0.8491882,0.10788257,-0.0803612,-1.478797,1.142929,23.052929,-0.03314972,0.88718414,2.7106133,-0.8226066,-3.0130424,-15.182726,1.8269832,0.88588715,-17.154192,-0.0090408325,-0.05016327,-4.424507,-1.3749747,-1.529808,1.3324165,1.7856573,-0.8546066,-7.4238205,-0.20397186,0.678215,2.548256,-1.6327654,-0.56316376,9.951935,1.4956287,-0.9245682,5.249714,0.10532379,1.2327957,-3.8739586,-1.5444067,-0.8236313,6.503395,1.853287,-1.9641495,-6.0761414,0.0,0.0,0.0,0.0,0.0,0.0,0.0,0.0,0.0,0.0,0.0,0.0,1.0,1.0,-1.0,1.0,-1.0,1.0,-1.0,-1.0,1.0,-1.0,-1.0,-1.0
2025-06-04 09:35:52.863,-1.787244,-6.029673,-27.178474,0.8952542,0.78476745,0.5051125,-6.267198,-3.113437,14.441255,-0.005607605,1.3947678,-0.7830925,-0.8316856,-0.12004852,14.656597,1.8317897,-0.3473282,-11.604792,0.031852722,0.8173752,1.3495064,-1.4154868,-0.5979538,-1.0785065,1.8720983,1.974678,0.19226456,-0.15758514,0.94524384,-1.1993599,-1.5991961,1.7511368,-2.1515236,1.6702656,4.2297783,-0.5999832,0.08396149,-0.86307526,-6.7927055,-1.546314,0.44979095,1.1749458,1.7467043,-1.9644547,-1.0943756,0.0,0.0,0.0,0.0,0.0,0.0,0.0,0.0,0.0,0.0,0.0,0.0,1.0,1.0,-1.0,1.0,1.0,1.0,-1.0,-1.0,1.0,-1.0,-1.0,-1.0
2025-06-04 09:35:52.915,-0.85941,-4.052312,-24.44066,0.39414006,0.1447665,1.1757747,-3.046284,-3.19122,9.749741,0.055351257,1.0815048,-2.7191582,-0.80582196,0.6822586,9.226826,1.7963893,-1.1197281,-6.6938286,0.057640076,0.08289337,0.6707878,-1.1057334,5.914501,-0.84656906,1.9450353,0.8097458,0.73182297,-0.13118744,0.18489838,-0.25452042,-1.5445696,0.9215164,-1.0553131,1.8332294,2.447857,0.14953995,0.027427673,-1.1951828,-0.5438309,-1.5292242,-0.10845184,2.4005508,1.6636965,-1.1049271,-1.1261177,0.0,0.0,0.0,0.0,0.0,0.0,0.0,0.0,0.0,0.0,0.0,0.0,1.0,-1.0,-1.0,1.0,1.0,1.0,-1.0,-1.0,1.0,-1.0,-1.0,-1.0
2025-06-04 09:35:52.966,-0.037398,-4.338499,-21.617117,0.22119358,-0.567455,0.43393293,4.936097,-2.161168,7.3132,0.082969666,0.05657196,1.1993599,-0.9298759,-2.7431908,-13.983978,1.7834194,-0.011253357,-11.242237,0.06374359,0.03932953,1.0614166,-0.86533123,3.961834,-0.7550163,1.9860815,0.5976486,0.61463165,-0.120277405,0.92105865,-1.1004791,-1.5233599,0.48542023,0.006713867,1.9198993,1.3982773,0.4425125,-0.017967224,-0.9027481,-1.1297798,-1.557224,-0.87558746,7.7802696,1.6430209,-0.06900787,-4.569771,0.0,0.0,0.0,0.0,0.0,0.0,0.0,0.0,0.0,0.0,0.0,0.0,1.0,1.0,-1.0,1.0,1.0,-1.0,-1.0,-1.0,1.0,-1.0,-1.0,-1.0
2025-06-04 09:35:53.016,0.030441,-5.037698,-21.774244,0.702318,0.5338314,-0.1786516,-2.918569,-0.416489,10.278352,0.056114197,0.21297455,1.6937523,-0.89142376,0.3194809,14.527199,1.7673976,-0.2528,-9.40505,0.08090973,0.3346634,0.3643837,-0.7157951,1.9271469,-0.5584793,1.8376898,-3.1293907,-0.23254776,-0.09685516,0.18001556,-1.7132835,-1.4907061,-0.0636673,-0.50232697,1.9752887,0.7265091,0.53162384,-0.035438538,-0.0065994263,-2.8863983,-1.5839269,0.22502899,3.6859703,1.6333315,-0.28118134,-3.44915,0.0,0.0,0.0,0.0,0.0,0.0,0.0,0.0,0.0,0.0,0.0,0.0,1.0,1.0,-1.0,1.0,1.0,-1.0,-1.0,-1.0,-1.0,-1.0,-1.0,-1.0
2025-06-04 09:35:53.067,3.332308,-2.601438,-21.31912,1.1064215,0.8066452,0.4156169,-3.56864,0.071419,12.89537,0.08182526,0.1051712,-0.17395401,-0.84114605,1.0935593,9.650417,1.7541988,-0.24120331,-9.146257,0.09120941,0.899086,-1.0540924,-0.64194256,0.5738449,3.3612556,1.7510198,-0.5036545,-8.255131,-0.09777069,-0.026893616,0.38513947,-1.4833056,-0.30216217,0.9832916,1.8266681,-3.0562248,-0.1324501,-0.04070282,-0.5421066,-0.3277626,-1.5566137,0.80013275,0.41931915,1.627228,-0.19580841,-3.5248337,0.0,0.0,0.0,0.0,0.0,0.0,0.0,0.0,0.0,0.0,0.0,0.0,1.0,1.0,1.0,1.0,1.0,-1.0,1.0,-1.0,-1.0,-1.0,-1.0,-1.0
2025-06-04 09:35:53.118,4.03791,-1.232327,-19.772753,-0.20168898,0.204379,0.6141904,-0.680179,3.326028,6.942603,0.093193054,0.47389984,-0.57556915,-0.73280865,2.306713,-1.0492096,1.855746,2.193798,0.14099503,0.088005066,-0.29827118,2.4347305,-0.6047073,0.6383896,1.0553131,1.7285894,-0.33161163,-6.93309,-0.023002625,1.6695786,-1.2433052,-1.4822375,-0.15018463,-0.099487305,1.7109302,-1.731987,-0.25940323,-0.08563995,-1.158638,3.35149,-1.5241125,0.41172028,0.15686417,1.6263888,0.30582428,-5.4242783,0.0,0.0,0.0,0.0,0.0,0.0,0.0,0.0,0.0,0.0,0.0,0.0,1.0,1.0,-1.0,1.0,1.0,-1.0,1.0,-1.0,-1.0,-1.0,-1.0,-1.0
2025-06-04 09:35:53.169,3.589573,-1.234683,-18.549654,-0.5119165,0.14728822,0.21548119,2.123585,3.915611,6.801362,0.09952545,0.3975296,-0.92103577,-0.6468254,1.1730576,0.27038956,1.7609127,-2.3415031,0.04333496,0.07572174,-0.54943085,2.6971855,-0.5744949,0.7438278,-0.015258789,1.7200445,-0.074272156,-8.085449,0.033683777,1.0184097,-0.6549187,-1.4788042,0.052375793,-0.25452042,1.6429523,-1.1026382,-0.079956055,-0.12851715,-0.8346176,4.6576653,-1.5156438,0.33000946,0.5572586,1.653168,0.59604645,-7.958496,0.0,0.0,0.0,0.0,0.0,0.0,0.0,0.0,0.0,0.0,0.0,0.0,1.0,1.0,-1.0,1.0,1.0,-1.0,1.0,-1.0,-1.0,-1.0,-1.0,-1.0
2025-06-04 09:35:53.220,2.738492,-1.068555,-17.989922,-0.17411244,-0.22293857,0.18920916,0.167577,2.0475,13.167986,0.09967804,0.08419037,-0.34607315,-0.60432583,0.40447235,1.2457466,1.7393978,-0.16880035,-8.145266,0.07648468,0.031471252,0.50232697,-0.5432907,0.55339813,-1.45327,1.7015814,-1.0121536,-3.5590134,0.070762634,0.6637955,-0.28015518,-1.4754473,0.20053864,-0.80628586,1.6009907,-0.50670624,-0.49500275,-0.143013,0.06336212,2.0209045,-1.5144994,0.0075912476,1.432518,1.68483,0.2854538,-8.581062,0.0,0.0,0.0,0.0,0.0,0.0,0.0,0.0,0.0,0.0,0.0,0.0,1.0,1.0,-1.0,1.0,1.0,-1.0,1.0,-1.0,-1.0,-1.0,-1.0,-1.0
2025-06-04 09:35:53.271,1.675776,-1.639587,-17.834204,-0.45660484,-0.21460862,0.02645886,1.120362,0.245697,8.98947,0.10608673,0.21968842,-0.8514519,-0.58395535,0.33794403,1.6473656,1.7295558,-0.10852814,-8.352789,0.07961273,0.21297455,0.49744415,-0.51689297,0.7109451,-2.7142754,1.6588567,-0.8650589,-1.8316917,0.08716583,0.18657684,-0.004272461,-1.4765154,0.0038528442,-0.0982666,1.5880207,0.2677536,-3.6444664,-0.14003754,0.27622223,0.8184929,-1.5099981,0.099220276,0.7476921,1.6961215,0.06656647,-7.56176,0.0,0.0,0.0,0.0,0.0,0.0,0.0,0.0,0.0,0.0,0.0,0.0,1.0,1.0,-1.0,1.0,1.0,-1.0,1.0,-1.0,-1.0,-1.0,-1.0,-1.0
2025-06-04 09:35:53.323,0.565702,-2.012247,-18.000769,-0.22132432,-0.069701955,-0.03615385,1.747375,-1.384422,9.337248,0.11714935,0.23792267,-1.6693382,-0.5697647,0.2551651,1.6449242,1.7226131,-0.1367569,-8.087893,0.087394714,0.03261566,0.22278214,-0.49835354,0.2652359,-2.101471,1.6233038,-0.5070114,-1.8451195,0.10234833,0.13408661,-0.6317253,-1.4768969,-0.034370422,0.060424805,1.59977,0.040550232,-3.4552536,-0.1253891,0.065345764,-0.05432129,-1.4948156,0.19695282,-0.1312294,1.6914675,-0.22975922,-6.256809,0.0,0.0,0.0,0.0,0.0,0.0,0.0,0.0,0.0,0.0,0.0,0.0,1.0,1.0,-1.0,1.0,1.0,-1.0,1.0,-1.0,-1.0,-1.0,-1.0,-1.0
2025-06-04 09:35:53.373,0.055742,-2.184148,-17.93945,-0.043095652,-0.011822877,0.05246294,0.871366,-1.45866,9.592889,0.1240921,0.50128937,-1.674221,-0.5683151,0.27446747,3.207447,1.7200954,-0.009117126,-8.220951,0.09349823,0.041999817,0.033569336,-0.49339443,-0.0020980835,-1.2774849,1.6064428,-0.21511078,-1.9671936,0.10852814,0.0573349,-0.3680458,-1.4788042,-0.05832672,0.06774902,1.6014484,-0.010185242,-3.0218964,-0.11859894,0.11638641,0.3253212,-1.4885595,0.06984711,0.079956055,1.6832278,-0.093193054,-6.2055397,0.0,0.0,0.0,0.0,0.0,0.0,0.0,0.0,0.0,0.0,0.0,0.0,1.0,1.0,-1.0,1.0,1.0,-1.0,1.0,-1.0,-1.0,-1.0,-1.0,-1.0
2025-06-04 09:35:53.424,-0.05677,-2.281953,-17.818464,0.06039249,-0.04210713,0.02337619,0.222935,-0.960144,9.504523,0.12615204,-0.45131683,-0.37170792,-0.57113796,-0.20053864,3.3173103,1.7167385,-0.07915497,-7.9645996,0.09830475,0.07671356,-0.079956055,-0.49423367,-0.017051697,-1.0650787,1.599729,-0.015144348,-2.7862968,0.110206604,0.022392273,-0.31311417,-1.4802538,0.06565094,0.064086914,1.6000751,-0.08136749,-2.6800957,-0.11722565,0.0825119,0.53894806,-1.4878728,-0.083732605,0.38513947,1.6791842,-0.0023269653,-6.3337135,0.0,0.0,0.0,0.0,0.0,0.0,0.0,0.0,0.0,0.0,0.0,0.0,1.0,1.0,-1.0,1.0,1.0,-1.0,1.0,-1.0,-1.0,-1.0,-1.0,-1.0
2025-06-04 09:35:53.475,0.112406,-2.296825,-17.8552,0.10652549,-0.018197238,-0.026034657,0.277329,-0.065113,9.910194,0.1253128,-0.053977966,-0.5865555,-0.5705276,-0.12958527,2.2845802,1.7101772,-0.1757431,-7.163807,0.09944916,-0.039634705,0.26306534,-0.49461514,0.09975433,-1.0870514,1.5996526,0.017204285,-2.8949432,0.11127472,0.10234833,-0.3668251,-1.4806353,-0.061836243,-0.017700195,1.5949634,-0.12729645,-2.3199806,-0.11692047,0.031166077,0.53040314,-1.4887121,-0.021095276,0.49134064,1.6790316,0.029640198,-6.4533463,0.0,0.0,0.0,0.0,0.0,0.0,0.0,0.0,0.0,0.0,0.0,0.0,1.0,1.0,-1.0,1.0,1.0,-1.0,1.0,-1.0,-1.0,-1.0,-1.0,-1.0
2025-06-04 09:35:53.526,0.409058,-2.350178,-17.898994,0.088138565,-0.032282606,-0.0061933184,0.53704,0.306472,9.66012,0.123786926,0.017356873,-0.7391472,-0.56755215,0.099601746,2.0526428,1.701556,-0.10967255,-6.9721527,0.098228455,-0.120277405,0.40467072,-0.49469143,0.08289337,-1.1041412,1.5996526,-0.08075714,-2.9010468,0.11135101,0.06931305,-0.21789932,-1.4787279,-0.018043518,-0.31067276,1.5901569,-0.04573822,-2.0990295,-0.11714935,0.031166077,0.58045197,-1.4900091,-0.12012482,0.68787766,1.6790316,0.016288757,-6.4655533,0.0,0.0,0.0,0.0,0.0,0.0,0.0,0.0,0.0,0.0,0.0,0.0,1.0,1.0,-1.0,1.0,1.0,-1.0,1.0,-1.0,-1.0,-1.0,-1.0,-1.0
2025-06-04 09:35:53.577,0.656687,-2.417586,-17.942167,0.042950526,-0.021450952,-0.015032538,0.410196,0.508388,9.699997,0.12187958,0.035057068,-0.6756706,-0.5670944,0.02773285,2.2882423,1.6959865,-0.120277405,-6.941635,0.09738922,-0.05367279,0.33996964,-0.4949203,-0.05443573,-0.9747467,1.5995764,-0.006904602,-2.850994,0.1115036,0.01964569,-0.23620987,-1.477202,-0.01033783,-0.22156143,1.5869526,-0.017433167,-2.2479591,-0.11722565,-0.064964294,0.57068634,-1.4906194,0.0009536743,0.5853348,1.6792605,-0.03124237,-6.4887466,0.0,0.0,0.0,0.0,0.0,0.0,0.0,0.0,0.0,0.0,0.0,0.0,1.0,1.0,-1.0,1.0,1.0,-1.0,1.0,-1.0,-1.0,-1.0,-1.0,-1.0
2025-06-04 09:35:53.628,0.752358,-2.448204,-17.971521,0.0046342155,0.00054599135,-0.00282684,0.3826,0.393221,9.63492,0.121269226,0.005683899,-0.7403679,-0.5671707,0.0031661987,2.1466408,1.6947658,-0.033302307,-7.1699104,0.09677887,0.008506775,0.24231339,-0.49575955,-0.12584686,-0.92836,1.5996526,0.02292633,-2.9034882,0.1115036,0.03391266,-0.25574112,-1.4768969,-0.01033783,-0.206913,1.5858082,-0.03681183,-2.313877,-0.11722565,-0.0850296,0.5548172,-1.4911535,-0.012168884,0.54016876,1.6791079,0.041389465,-6.5021744,0.0,0.0,0.0,0.0,0.0,0.0,0.0,0.0,0.0,0.0,0.0,0.0,1.0,1.0,-1.0,1.0,1.0,-1.0,1.0,-1.0,-1.0,-1.0,-1.0,-1.0
2025-06-04 09:35:53.680,0.74384,-2.44785,-17.974237,-0.0064459196,-0.0026942822,0.00060913735,0.443666,0.102417,9.865778,0.12111664,-0.056800842,-0.7367058,-0.56739956,-0.008735657,2.0758362,1.6946895,-0.0422287,-7.2980843,0.09700775,-0.03932953,0.3277626,-0.49568325,0.029792786,-1.2005806,1.5992712,-0.04787445,-2.8204765,0.1115036,0.011100769,-0.27038956,-1.4768206,-0.012550354,-0.19348526,1.586037,0.048713684,-2.3724709,-0.11684418,-0.0146102905,0.53406525,-1.4911535,-0.03276825,0.5072098,1.6791079,-0.00415802,-6.3910904,0.0,0.0,0.0,0.0,0.0,0.0,0.0,0.0,0.0,0.0,0.0,0.0,1.0,1.0,-1.0,1.0,1.0,-1.0,1.0,-1.0,-1.0,-1.0,-1.0,-1.0
2025-06-04 09:35:53.730,0.709823,-2.460523,-17.97587,-0.0023166104,-0.0008274606,-0.0053037237,0.467152,-0.053504,9.760657,0.121650696,0.03566742,-0.76111984,-0.56755215,0.030708313,2.1368752,1.6946895,0.026283264,-7.191883,0.09731293,0.0020980835,0.2471962,-0.49545437,0.01865387,-1.1383247,1.5990423,0.06137848,-2.8412285,0.11165619,0.009651184,-0.2923622,-1.4768969,-0.0019454956,-0.1715126,1.586037,-0.0104904175,-2.3602638,-0.11646271,-0.0146102905,0.49988556,-1.4912298,-0.056495667,0.4791336,1.6790316,-0.011482239,-6.4814224,0.0,0.0,0.0,0.0,0.0,0.0,0.0,0.0,0.0,0.0,0.0,0.0,1.0,1.0,-1.0,1.0,1.0,-1.0,1.0,-1.0,-1.0,-1.0,-1.0,-1.0
2025-06-04 09:35:53.782,0.701542,-2.465534,-17.980972,0.0026839674,-0.0011181103,0.0015853174,0.409352,0.060822,9.75705,0.1215744,-0.011329651,-0.8123894,-0.567247,-0.041160583,2.1161194,1.6946132,0.022010803,-7.257801,0.09738922,-0.048179626,0.34607315,-0.49537808,0.0812912,-1.0357819,1.5988134,0.029716492,-2.7557793,0.11173248,-0.008888245,-0.25696182,-1.4770495,-0.023536682,-0.18982315,1.5859607,0.0010299683,-2.3761368,-0.11638641,0.0497818,0.5951004,-1.4910009,-0.038871765,0.54261017,1.678879,-0.00705719,-6.4936295,0.0,0.0,0.0,0.0,0.0,0.0,0.0,0.0,0.0,0.0,0.0,0.0,1.0,1.0,-1.0,1.0,1.0,-1.0,1.0,-1.0,-1.0,-1.0,-1.0,-1.0
2025-06-04 09:35:53.833,0.7157,-2.463577,-17.98174,-0.00090474373,0.0017417164,-0.0024120624,0.442767,0.210854,9.788379,0.12149811,0.021705627,-0.8319206,-0.5669418,0.015525818,2.0965881,1.6947658,0.048332214,-7.2480354,0.09723663,0.03681183,0.27283096,-0.49560696,-0.16468048,-1.1432076,1.598966,0.019493103,-2.7862968,0.11173248,-0.019874573,-0.26306534,-1.4768969,0.03513336,-0.18494034,1.5858845,-0.041923523,-2.3663673,-0.11669159,-0.013847351,0.61096954,-1.4911535,0.05634308,0.57801056,1.6791842,-0.024223328,-6.4069595,0.0,0.0,0.0,0.0,0.0,0.0,0.0,0.0,0.0,0.0,0.0,0.0,1.0,1.0,-1.0,1.0,1.0,-1.0,1.0,-1.0,-1.0,-1.0,-1.0,-1.0
2025-06-04 09:35:53.883,0.722049,-2.46154,-17.984362,-0.0031786284,0.000848038,-0.0025804867,0.465363,0.172103,9.806514,0.12134552,-0.06252289,-0.7830925,-0.56732327,-0.030403137,2.0184631,1.6943843,0.027122498,-7.1906624,0.09716034,-0.06946564,0.35095596,-0.49537808,0.08350372,-1.1871529,1.5988134,-0.004463196,-2.8497734,0.11180878,0.006980896,-0.27283096,-1.4769732,0.040779114,-0.18371964,1.5858845,-0.06649017,-2.3932266,-0.11676788,-0.022773743,0.5658035,-1.4910772,0.051078796,0.514534,1.6789553,-0.018730164,-6.4533463,0.0,0.0,0.0,0.0,0.0,0.0,0.0,0.0,0.0,0.0,0.0,0.0,1.0,1.0,-1.0,1.0,1.0,-1.0,1.0,-1.0,-1.0,-1.0,-1.0,-1.0
2025-06-04 09:35:53.934,0.710425,-2.464175,-17.98557,-0.001639667,-0.0022226768,-0.0018100111,0.420276,0.054643,9.786461,0.1215744,0.041542053,-0.8294792,-0.567247,0.06351471,2.0489807,1.6943843,0.03314972,-7.2236214,0.09754181,0.010414124,0.20080948,-0.49560696,-0.1795578,-0.7843132,1.598966,0.028114319,-2.802166,0.11173248,-0.012702942,-0.26428604,-1.4771258,-0.04070282,-0.1715126,1.5861133,0.020484924,-2.4139786,-0.11669159,-0.0012588501,0.6036453,-1.4910772,-0.025901794,0.5523758,1.6791842,0.033073425,-6.5217056,0.0,0.0,0.0,0.0,0.0,0.0,0.0,0.0,0.0,0.0,0.0,0.0,1.0,1.0,-1.0,1.0,1.0,-1.0,1.0,-1.0,-1.0,-1.0,-1.0,-1.0
2025-06-04 09:35:53.985,0.705472,-2.463469,-17.98658,-0.00063222804,0.0016713273,0.0014723074,0.430103,0.08019,9.775113,0.12149811,0.06336212,-0.7525749,-0.56732327,-0.045433044,2.0697327,1.6944606,-0.047721863,-7.2553596,0.097465515,0.06725311,0.2862587,-0.4952255,-0.0036239624,-1.5423813,1.5988897,-0.016593933,-2.8155937,0.11188507,0.0011825562,-0.27038956,-1.4769732,0.0031661987,-0.1727333,1.5858845,-0.046272278,-2.3883438,-0.116539,-0.013923645,0.547493,-1.4910009,0.027275085,0.5645828,1.6791079,-0.0447464,-6.4679947,0.0,0.0,0.0,0.0,0.0,0.0,0.0,0.0,0.0,0.0,0.0,0.0,1.0,1.0,-1.0,1.0,1.0,-1.0,1.0,-1.0,-1.0,-1.0,-1.0,-1.0
2025-06-04 09:35:54.036,0.711954,-2.465164,-17.990782,-0.00035691983,3.5011304e-05,0.0022634477,0.453352,0.192156,9.795682,0.12134552,0.07144928,-0.8245964,-0.56732327,0.030479431,2.1759377,1.6944606,0.045890808,-7.250477,0.097465515,-0.06626129,0.2825966,-0.49568325,-0.24463654,-0.64149094,1.5988134,0.025138855,-2.8461113,0.11188507,0.0049209595,-0.2508583,-1.4769732,0.018043518,-0.19470596,1.5859607,0.031700134,-2.3407326,-0.11669159,-0.08090973,0.5584793,-1.4910772,-0.036964417,0.5889969,1.6791842,0.004081726,-6.461891,0.0,0.0,0.0,0.0,0.0,0.0,0.0,0.0,0.0,0.0,0.0,0.0,1.0,1.0,-1.0,1.0,1.0,-1.0,1.0,-1.0,-1.0,-1.0,-1.0,-1.0
2025-06-04 09:35:54.088,0.717648,-2.469143,-17.993994,0.0010362718,0.0068963715,0.00019036306,0.438829,0.18029,9.801155,0.121421814,-0.0333786,-0.7025261,-0.5671707,-0.09151459,2.3150978,1.6945369,0.05039215,-7.212635,0.09738922,0.076408386,0.3228798,-0.4952255,-0.03376007,-1.3604927,1.5988134,0.018196106,-2.7887383,0.11173248,-0.0010299683,-0.26184464,-1.4770495,0.022773743,-0.1678505,1.5858082,-0.03551483,-2.3114357,-0.11669159,0.005836487,0.5572586,-1.4910009,-0.014305115,0.45227814,1.6791842,-0.04245758,-6.428932,0.0,0.0,0.0,0.0,0.0,0.0,0.0,0.0,0.0,0.0,0.0,0.0,1.0,1.0,-1.0,1.0,1.0,-1.0,1.0,-1.0,-1.0,-1.0,-1.0,-1.0
2025-06-04 09:35:54.139,0.715709,-2.471631,-17.995907,-0.00080285146,0.0005024977,0.0017478948,0.446624,0.111697,9.795335,0.12134552,-0.018501282,-0.71961594,-0.56732327,-0.061302185,2.0343323,1.6945369,0.013999939,-7.22118,0.09723663,-0.06290436,0.33996964,-0.49537808,0.013847351,-0.8624382,1.5988897,0.05504608,-2.887619,0.11188507,-0.008735657,-0.27038956,-1.4771258,-0.017433167,-0.18494034,1.5861133,-0.06084442,-2.3212013,-0.116539,-0.06320953,0.5535965,-1.4910772,0.052452087,0.5963211,1.6791079,0.0023269653,-6.4350357,0.0,0.0,0.0,0.0,0.0,0.0,0.0,0.0,0.0,0.0,0.0,0.0,1.0,1.0,-1.0,1.0,1.0,-1.0,1.0,-1.0,-1.0,-1.0,-1.0,-1.0
2025-06-04 09:35:54.189,0.707667,-2.476068,-17.997272,-0.000657291,-0.001420506,-0.0023904203,0.452739,0.070953,9.784713,0.12134552,0.04459381,-0.84778976,-0.567247,0.053749084,2.1039124,1.6944606,-0.044898987,-7.2309456,0.097465515,0.040397644,0.26794815,-0.49553066,-0.17910004,-0.64271164,1.5987371,0.0076675415,-2.8766327,0.11173248,-0.001411438,-0.25696182,-1.4770495,0.006752014,-0.16052628,1.586037,-0.00705719,-2.2833595,-0.116539,-0.00034332275,0.5560379,-1.4910772,-0.046195984,0.61219025,1.6791079,-0.0075912476,-6.426491,0.0,0.0,0.0,0.0,0.0,0.0,0.0,0.0,0.0,0.0,0.0,0.0,1.0,1.0,-1.0,1.0,1.0,-1.0,1.0,-1.0,-1.0,-1.0,-1.0,-1.0
2025-06-04 09:35:54.240,0.708778,-2.478393,-17.9969,0.0015562228,0.0007253239,0.0007374539,0.462356,0.145452,9.766949,0.12149811,0.052375793,-0.7476921,-0.5670944,-0.08869171,2.277256,1.6945369,-0.0033950806,-7.249256,0.097465515,0.18314362,0.30578995,-0.49484402,0.21472931,-1.6913109,1.5988897,-0.004386902,-2.7838554,0.11180878,-0.008811951,-0.26916885,-1.4770495,-0.005302429,-0.18127823,1.586037,0.091056824,-2.313877,-0.116615295,-0.08556366,0.5072098,-1.4908483,0.06603241,0.4388504,1.6789553,-0.015144348,-6.4203873,0.0,0.0,0.0,0.0,0.0,0.0,0.0,0.0,0.0,0.0,0.0,0.0,1.0,1.0,-1.0,1.0,1.0,-1.0,1.0,-1.0,-1.0,-1.0,-1.0,-1.0
2025-06-04 09:35:54.292,0.71084,-2.484023,-17.996138,-0.0006673266,-0.0016598256,0.0009934937,0.463009,0.146038,9.780211,0.121421814,0.011634827,-0.8709831,-0.567247,0.032234192,2.0160217,1.694308,0.008735657,-7.2138557,0.09723663,-0.03803253,0.30823135,-0.49553066,0.048179626,-0.71839523,1.5987371,0.006828308,-2.7948418,0.11180878,-0.002708435,-0.26184464,-1.4770495,-0.0019454956,-0.19592667,1.5858082,-0.018424988,-2.355381,-0.11646271,0.02658844,0.57923126,-1.4909246,0.009269714,0.61341095,1.6791079,-0.013999939,-6.4606705,0.0,0.0,0.0,0.0,0.0,0.0,0.0,0.0,0.0,0.0,0.0,0.0,1.0,1.0,-1.0,1.0,1.0,-1.0,1.0,-1.0,-1.0,-1.0,-1.0,-1.0
2025-06-04 09:35:54.342,0.708472,-2.4864,-17.995768,-0.0014462322,0.0016007287,-0.0028017946,0.433069,0.116953,9.765132,0.1215744,0.013313293,-0.7464714,-0.567247,0.030555725,2.1734962,1.6943843,-0.033988953,-7.2651253,0.09731293,0.0008773804,0.285038,-0.49537808,-0.041007996,-0.8917389,1.5988134,-0.06755829,-2.8534355,0.11180878,-0.022773743,-0.26794815,-1.4769732,0.012245178,-0.17395401,1.5861133,-0.0008773804,-2.3810196,-0.116615295,-0.08068085,0.54138947,-1.4910009,0.08350372,0.5255203,1.6791842,0.03177643,-6.426491,0.0,0.0,0.0,0.0,0.0,0.0,0.0,0.0,0.0,0.0,0.0,0.0,1.0,1.0,-1.0,1.0,1.0,-1.0,1.0,-1.0,-1.0,-1.0,-1.0,-1.0
2025-06-04 09:35:54.393,0.702276,-2.487522,-17.995653,-0.0006002885,-0.0033933565,-0.00034192746,0.451573,0.080828,9.783851,0.12149811,-0.02696991,-0.76234055,-0.56732327,-0.001411438,2.0587463,1.6943843,0.008888245,-7.1577034,0.09731293,0.07526398,0.29602432,-0.4949966,0.10707855,-1.4398422,1.5986608,0.011329651,-2.7545586,0.11188507,0.010032654,-0.26672745,-1.4771258,-0.021324158,-0.19226456,1.5859607,-0.016822815,-2.4029922,-0.11638641,0.052833557,0.57678986,-1.490772,0.108680725,0.46936798,1.6792605,-0.004310608,-6.49485,0.0,0.0,0.0,0.0,0.0,0.0,0.0,0.0,0.0,0.0,0.0,0.0,1.0,1.0,-1.0,1.0,1.0,-1.0,1.0,-1.0,-1.0,-1.0,-1.0,-1.0
2025-06-04 09:35:54.444,0.696009,-2.490193,-17.997496,-0.0021666342,0.0015216653,0.0034220496,0.45463,0.129753,9.783113,0.121421814,-0.1203537,-0.7721062,-0.5671707,0.082969666,2.0636292,1.6944606,-0.017814636,-7.2321663,0.097465515,0.023994446,0.35950089,-0.4950729,0.17131805,-1.1541939,1.5988897,-0.001335144,-2.8009453,0.11188507,0.019569397,-0.27038956,-1.4770495,-0.016593933,-0.19714737,1.5858845,-0.038414,-2.3736916,-0.11638641,0.0032424927,0.56702423,-1.4911535,-0.006980896,0.5621414,1.6791079,-0.013160706,-6.413063,0.0,0.0,0.0,0.0,0.0,0.0,0.0,0.0,0.0,0.0,0.0,0.0,1.0,1.0,-1.0,1.0,1.0,-1.0,1.0,-1.0,-1.0,-1.0,-1.0,-1.0
2025-06-04 09:35:54.495,0.699038,-2.489761,-17.99818,0.0010731855,-0.0010621899,-0.00052103313,0.453031,0.155291,9.799302,0.12134552,0.028266907,-0.7879753,-0.5670944,0.009803772,2.122223,1.6943843,-0.05657196,-7.250477,0.097465515,0.07953644,0.21912003,-0.49530178,-0.14072418,-1.1651802,1.5988134,-0.0004196167,-2.8253593,0.11180878,0.010871887,-0.2532997,-1.4769732,0.005302429,-0.18616104,1.5858845,0.005760193,-2.3273048,-0.11638641,-0.0076675415,0.5877762,-1.4911535,-0.0073623657,0.5865555,1.6791079,-0.017662048,-6.4692154,0.0,0.0,0.0,0.0,0.0,0.0,0.0,0.0,0.0,0.0,0.0,0.0,1.0,1.0,-1.0,1.0,1.0,-1.0,1.0,-1.0,-1.0,-1.0,-1.0,-1.0
2025-06-04 09:35:54.546,0.697683,-2.494694,-18.00219,-0.00085444335,0.0011847644,0.0021586232,0.444502,0.147473,9.764232,0.12149811,0.015220642,-0.7757683,-0.5670944,0.002861023,1.9830627,1.6943843,-0.046806335,-7.229725,0.09731293,-0.028877258,0.33752823,-0.4952255,0.22716522,-0.9442291,1.5988134,0.0017929077,-2.822918,0.11173248,-0.0030899048,-0.27527237,-1.4770495,-0.05695343,-0.16052628,1.5859607,0.0077438354,-2.351719,-0.116233826,0.08037567,0.56824493,-1.4910009,-0.011253357,0.4779129,1.6791079,0.0004196167,-6.4802017,0.0,0.0,0.0,0.0,0.0,0.0,0.0,0.0,0.0,0.0,0.0,0.0,1.0,1.0,-1.0,1.0,1.0,-1.0,1.0,-1.0,-1.0,-1.0,-1.0,-1.0
2025-06-04 09:35:54.597,0.694951,-2.498514,-18.002789,0.00061238365,-0.0016326682,-0.0027125033,0.43595,0.105028,9.784925,0.1215744,0.004310608,-0.7830925,-0.567247,0.009803772,2.2552834,1.6945369,0.040168762,-7.1564827,0.09754181,0.042381287,0.24231339,-0.49545437,-0.24578094,-1.2103462,1.5988134,-0.015602112,-2.7924004,0.11180878,-0.012321472,-0.27649307,-1.4771258,-0.03513336,-0.18860245,1.5861133,-0.0064468384,-2.367588,-0.11638641,0.049858093,0.5877762,-1.4909246,-0.034065247,0.5633621,1.6791079,0.03528595,-6.4521255,0.0,0.0,0.0,0.0,0.0,0.0,0.0,0.0,0.0,0.0,0.0,0.0,1.0,1.0,-1.0,1.0,1.0,-1.0,1.0,-1.0,-1.0,-1.0,-1.0,-1.0
2025-06-04 09:35:54.648,0.692858,-2.500791,-18.00477,-0.001058647,-0.0026165277,0.00020046851,0.426366,0.095678,9.79635,0.121421814,-0.0258255,-0.7745476,-0.567247,-0.0434494,2.1771584,1.694308,0.031547546,-7.2553596,0.09731293,-0.023765564,0.34241104,-0.4949966,0.16162872,-1.0321198,1.5988134,0.04673004,-2.7985039,0.11180878,0.02292633,-0.26306534,-1.4769732,-0.051002502,-0.16662979,1.5861133,0.017356873,-2.3028908,-0.11646271,-0.034217834,0.53284454,-1.4913824,-0.0024795532,0.48523712,1.6791079,0.004005432,-6.4985123,0.0,0.0,0.0,0.0,0.0,0.0,0.0,0.0,0.0,0.0,0.0,0.0,1.0,1.0,-1.0,1.0,1.0,-1.0,1.0,-1.0,-1.0,-1.0,-1.0,-1.0
2025-06-04 09:35:54.699,0.695584,-2.501719,-18.007236,-0.00026001915,0.00080728455,0.00047787113,0.453209,0.109491,9.76992,0.1215744,0.0010299683,-0.7501335,-0.567247,0.023612976,2.1918068,1.6944606,-0.041923523,-7.3224983,0.097465515,0.069618225,0.23254776,-0.49583584,-0.37174225,-1.0760651,1.5988134,-0.047187805,-2.8607597,0.11188507,-0.004386902,-0.26916885,-1.4770495,0.009498596,-0.1678505,1.5859607,-0.028648376,-2.3236427,-0.11615753,0.026283264,0.481575,-1.4913061,-0.08274078,0.61341095,1.6791079,0.021858215,-6.4679947,0.0,0.0,0.0,0.0,0.0,0.0,0.0,0.0,0.0,0.0,0.0,0.0,1.0,1.0,-1.0,1.0,1.0,-1.0,1.0,-1.0,-1.0,-1.0,-1.0,-1.0
2025-06-04 09:35:54.750,0.694793,-2.504867,-18.007233,-0.0027034278,-0.0020675694,-0.00034018213,0.440904,0.123209,9.775296,0.12134552,-0.048561096,-0.698864,-0.5670944,-0.013999939,2.0941467,1.6944606,0.014305115,-7.1784554,0.09731293,-0.0358963,0.35217667,-0.4951492,0.09876251,-1.1297798,1.5987371,-0.0075149536,-2.7716484,0.11188507,0.027503967,-0.27893448,-1.477202,-0.025978088,-0.17395401,1.5858845,0.00049591064,-2.367588,-0.11615753,-0.023612976,0.5914383,-1.4910772,0.004386902,0.42053986,1.6790316,-0.022468567,-6.4557877,0.0,0.0,0.0,0.0,0.0,0.0,0.0,0.0,0.0,0.0,0.0,0.0,1.0,1.0,-1.0,1.0,1.0,-1.0,1.0,-1.0,-1.0,-1.0,-1.0,-1.0
2025-06-04 09:35:54.801,0.689165,-2.509368,-18.010742,-0.0020570974,-0.0006740287,-0.00025857054,0.434519,0.136868,9.794637,0.1215744,0.021705627,-0.8648796,-0.56732327,0.015144348,2.0917053,1.6944606,0.031929016,-7.1650276,0.09754181,0.058784485,0.21912003,-0.49545437,-0.17658234,-0.8917389,1.5988134,-0.016822815,-2.8570976,0.11180878,0.00705719,-0.2496376,-1.4771258,0.04787445,-0.18494034,1.5859607,-0.030937195,-2.3907852,-0.11615753,0.09197235,0.49866486,-1.4913824,-0.07892609,0.61096954,1.6791079,0.023765564,-6.4533463,0.0,0.0,0.0,0.0,0.0,0.0,0.0,0.0,0.0,0.0,0.0,0.0,1.0,1.0,-1.0,1.0,1.0,-1.0,1.0,-1.0,-1.0,-1.0,-1.0,-1.0
