openverse-orca/OrcaGym/envs/legged_gym/legged_real_env/logs/robot_log_20250604_182750.csv
timestamp,imu_angle_roll,imu_angle_pitch,imu_angle_yaw,imu_angular_velocity_roll,imu_angular_velocity_pitch,imu_angular_velocity_yaw,imu_acc_x,imu_acc_y,imu_acc_z,fl_joint1_pos,fl_joint1_vel,fl_joint1_torque,fl_joint2_pos,fl_joint2_vel,fl_joint2_torque,fl_joint3_pos,fl_joint3_vel,fl_joint3_torque,fr_joint1_pos,fr_joint1_vel,fr_joint1_torque,fr_joint2_pos,fr_joint2_vel,fr_joint2_torque,fr_joint3_pos,fr_joint3_vel,fr_joint3_torque,hl_joint1_pos,hl_joint1_vel,hl_joint1_torque,hl_joint2_pos,hl_joint2_vel,hl_joint2_torque,hl_joint3_pos,hl_joint3_vel,hl_joint3_torque,hr_joint1_pos,hr_joint1_vel,hr_joint1_torque,hr_joint2_pos,hr_joint2_vel,hr_joint2_torque,hr_joint3_pos,hr_joint3_vel,hr_joint3_torque,fl_force_x,fl_force_y,fl_force_z,fr_force_x,fr_force_y,fr_force_z,hl_force_x,hl_force_y,hl_force_z,hr_force_x,hr_force_y,hr_force_z,fl_hip_action,fl_thigh_action,fl_calf_action,fr_hip_action,fr_thigh_action,fr_calf_action,hl_hip_action,hl_thigh_action,hl_calf_action,hr_hip_action,hr_thigh_action,hr_calf_action
2025-06-04 18:28:44.415,-0.506662,-0.484669,-0.031501,-0.0013816899,-0.00028399998,-0.0005375614,0.075542,-0.101581,9.801902,-0.01811324,-0.03955841,0.7867546,-0.98635316,-0.012321472,-0.41199493,1.9024379,0.002784729,-4.741894,0.015824422,-0.053749084,-0.75623703,-0.9896206,0.051994324,-0.18249893,1.9024633,-0.046577454,-4.7150383,-0.011940002,0.021018982,0.54138947,-0.974279,0.020256042,-0.9454498,1.9302089,0.025749207,-5.9894714,0.016288757,-0.0048446655,-0.6964226,-0.98014325,0.004386902,-0.60974884,1.926267,0.0075912476,-5.738003,0.0,0.0,0.0,0.0,0.0,0.0,0.0,0.0,0.0,0.0,0.0,0.0,0.54264486,0.32468084,-0.58494633,-0.7014384,0.2555175,0.32401586,-0.47800952,-0.7342266,-0.192708,0.3842759,-0.044930488,-0.24803403
2025-06-04 18:28:44.466,-0.436377,-0.963349,-0.354976,0.17075275,-0.41206378,-0.43137702,0.138606,-2.642607,11.875612,-0.017426595,-0.07434845,3.8092613,-0.9722388,-0.12577057,5.9687195,1.8634517,-1.0976791,-5.0788116,-0.0011891272,-0.3308487,-1.5545883,-0.97542995,0.46718597,2.8314629,1.9036077,-0.028572083,-0.2874794,-0.012702942,0.11615753,-2.2699318,-1.0352378,-0.84575653,-10.221714,1.9329555,-0.005607605,-8.286869,0.030479431,0.32245636,-0.6256218,-0.9873912,-0.24959564,-1.0614166,1.9225286,0.011482239,-8.3466835,0.0,0.0,0.0,0.0,0.0,0.0,0.0,0.0,0.0,0.0,0.0,0.0,0.3414085,0.2789422,-0.48436543,-0.94626004,-0.36739647,0.26817465,-0.8521763,-0.93363297,-0.81327796,0.838851,-0.712214,-0.7043458
2025-06-04 18:28:44.517,0.163125,-2.920772,-1.962471,0.3620591,-0.8478713,-0.3138817,3.598281,1.030402,9.698044,-0.024598226,0.026817322,2.7191582,-0.9831488,-0.21434784,6.7280083,1.7973049,-1.2378311,-0.15930557,-0.04322709,-0.9580612,0.43030548,-1.0453916,-1.3966751,0.19836807,1.892774,-0.16513824,-0.10559082,-0.0076675415,0.061683655,-4.080261,-1.1035972,-1.2669754,-10.281528,1.9244106,-0.28751373,-14.496681,0.05657196,0.31520844,0.17517471,-1.0469767,-1.17733,-8.729992,1.9212316,0.04550934,-14.098724,0.0,0.0,0.0,0.0,0.0,0.0,0.0,0.0,0.0,0.0,0.0,0.0,-0.49689794,0.14409482,0.25852966,-0.90006655,0.080329806,-0.6764364,-0.6623619,-0.8821491,-0.9603106,0.904057,-0.63260734,-0.47957915
2025-06-04 18:28:44.568,0.536578,-4.698253,-2.022346,-0.036164075,-0.32465252,-0.007911403,4.949017,-0.352192,8.20029,-0.033906087,0.11638641,-0.4412918,-0.97254395,0.5598831,-0.29358292,1.8077571,0.67554474,0.2117958,-0.05863847,0.0724411,-1.7084007,-1.0446286,-1.0149765,5.889374,1.8115209,-1.2119675,-2.9474335,-0.014457703,-0.38951874,-0.7843132,-1.152883,-1.1139297,-7.008774,1.9022853,-0.3598404,-14.291599,0.05130768,-0.38524628,3.5468063,-1.1041209,-1.1009598,-4.384224,1.9187139,-0.33519745,-9.336689,0.0,0.0,0.0,0.0,0.0,0.0,0.0,0.0,0.0,0.0,0.0,0.0,-0.5795507,-0.3068034,0.86549324,-0.9283298,0.37331784,-0.82137984,0.29849625,-0.7518633,-0.9343856,0.9426956,-0.813286,-0.011181178
2025-06-04 18:28:44.619,-0.207328,-5.136135,-2.94737,-0.106855616,0.04124131,-0.5011979,-0.940468,0.291754,10.177288,-0.036805257,-0.18184662,-0.30701065,-1.0284674,-1.1340714,-0.34363174,1.8847377,1.2746048,0.39124298,-0.07374467,-0.69683075,0.6256218,-1.0537076,-0.1140213,11.19585,1.7610906,-0.7682419,-5.1850166,-0.0033950806,0.40981293,0.40467072,-1.2068229,-0.69934845,-3.601738,1.8694026,-0.6723404,-11.038376,0.050849915,0.2627182,0.95765686,-1.1891161,-1.9766617,-0.42542267,1.892011,-1.0209274,-0.17395401,0.0,0.0,0.0,0.0,0.0,0.0,0.0,0.0,0.0,0.0,0.0,0.0,-0.7737499,0.15289754,0.8951155,-0.8306199,-0.07198539,-0.7500424,0.86064094,-0.8385986,-0.8434314,0.98682886,-0.7862754,0.06879307
2025-06-04 18:28:44.670,-0.506241,-4.406866,-4.837948,0.029644033,0.08155501,-0.66671306,1.253539,0.165989,7.23412,-0.047944173,-0.24051666,-0.34485245,-0.99779725,0.4732132,-0.38758087,1.9404323,0.7816696,0.330204,-0.09159745,-0.046195984,0.7916374,-1.0810208,-0.54309845,4.232853,1.7437719,-0.20320892,-5.46212,0.027122498,0.7578659,0.40711212,-1.2485557,-1.1920547,-2.4298477,1.8338497,-0.52165985,-9.499046,0.07160187,0.28697968,0.017700195,-1.2667834,-0.96782684,-0.09460449,1.862409,-0.427742,-0.04699707,0.0,0.0,0.0,0.0,0.0,0.0,0.0,0.0,0.0,0.0,0.0,0.0,-0.89543295,0.59972864,0.77074844,-0.24431661,-0.12112704,-0.6810945,0.939155,-0.82301235,-0.8335422,0.9602663,-0.3562744,0.36512995
2025-06-04 18:28:44.721,-0.185252,-3.9477,-6.612409,0.03017915,0.17941642,-0.5481975,0.940518,1.372164,9.63985,-0.06007491,-0.31978607,-1.3043404,-0.8914435,1.806984,-0.4766922,1.9621761,0.36182404,0.3619423,-0.08534135,0.11257172,2.1441994,-1.113522,-0.94753265,5.962616,1.7443823,0.017204285,-5.611046,0.058937073,0.39478302,-0.27893448,-1.2921195,-0.7038498,-0.6305046,1.8120296,-0.304451,-9.2524605,0.07709503,0.04573822,0.68665695,-1.2367235,0.79517365,-0.5853348,1.8697332,0.23685455,0.23498917,0.0,0.0,0.0,0.0,0.0,0.0,0.0,0.0,0.0,0.0,0.0,0.0,-0.8978179,0.6918638,0.4122323,0.19333749,0.1231965,-0.546626,0.95086294,-0.8255152,-0.83661044,0.87101126,-0.030918032,0.6994996
2025-06-04 18:28:44.772,-0.139826,-3.216102,-7.584879,-0.19045138,0.4658749,-0.20605136,-0.265637,1.940891,10.741987,-0.06747542,-0.11249542,-0.92836,-0.8003485,1.6968155,-0.41077423,1.946841,-0.4101944,-0.17395401,-0.070540324,-0.34671783,4.2511635,-1.1330533,-0.5006027,10.548866,1.7475866,0.017356873,-4.003357,0.08480072,0.2930832,-1.0797272,-1.3230186,-0.7651901,-1.5118637,1.7929561,-0.43071747,-7.9572754,0.07457733,-0.0037765503,0.8282585,-1.1508166,1.4089584,-0.8270378,1.9060491,0.6296158,0.43152618,0.0,0.0,0.0,0.0,0.0,0.0,0.0,0.0,0.0,0.0,0.0,0.0,-0.7776156,0.7222909,-0.8272518,0.31113243,0.30876204,0.36678565,0.93257165,-0.9421573,-0.8931058,0.83101445,-0.15672183,0.6598282
2025-06-04 18:28:44.823,-0.716529,-1.73569,-7.934487,-0.3456504,0.75516295,-0.15810971,-0.506148,0.608106,4.302596,-0.07075606,-0.051460266,-0.18249893,-0.73954225,0.93349457,0.37781525,1.8187435,-2.072033,-0.8282585,-0.059172526,0.14713287,3.1854744,-1.1462522,-0.3017807,14.932478,1.7909979,0.81508636,1.0382233,0.107917786,0.31383514,-2.4933243,-1.3362937,-0.058021545,-5.2668037,1.7767818,-0.35640717,-8.57374,0.072135925,-0.12706757,0.9393463,-1.1105295,0.345726,-0.38880157,1.9310735,0.25974274,0.5987625,0.0,0.0,0.0,0.0,0.0,0.0,0.0,0.0,0.0,0.0,0.0,0.0,0.28606415,0.52239186,-0.99618113,0.72231424,0.44556254,0.98815054,0.15393512,-0.96888834,0.035686277,0.9317021,-0.7092332,-0.4916588
2025-06-04 18:28:44.874,-1.66645,0.750763,-8.773366,0.62528616,0.274871,-0.19085829,-8.874945,-2.08508,17.306349,-0.054734334,1.0765457,-0.04333496,-0.74434876,-0.713768,1.5460434,1.7969234,0.5426407,-13.85214,-0.029875651,0.998497,0.1727333,-1.1627316,-0.17635345,17.668116,1.8588995,0.89481354,5.3339424,0.1027298,-0.6659317,-1.4190903,-1.3656669,-1.0648727,-0.776989,1.7943294,0.045890808,0.3619423,0.085487366,0.41179657,-0.33386612,-1.1875902,-1.447792,0.42298126,1.8466161,-1.7414474,0.119018555,0.0,0.0,0.0,0.0,0.0,0.0,0.0,0.0,0.0,0.0,0.0,0.0,0.87427247,0.30883232,-0.9944572,0.79158187,0.6659316,0.9808092,-0.94983625,-0.9400189,0.90866363,0.96886075,-0.7316123,-0.75686055
2025-06-04 18:28:44.925,0.715828,0.59411,-11.554426,0.83780813,-0.59772116,-1.5684094,-4.983977,-0.800862,9.603478,-0.012314901,-0.027503967,4.5099564,-0.7694495,-0.2692032,-2.8668633,1.7840297,-0.47756195,-9.346457,0.012391195,0.11188507,2.757,-1.132443,0.93860626,15.413443,1.8930792,0.45627594,5.475548,0.027503967,-1.680336,1.0113678,-1.401525,-0.45024872,-0.15442276,1.8773372,1.5563583,0.16174698,0.11127472,1.6741562,-6.978256,-1.2251269,0.5070877,-7.528801,1.7877935,0.4430008,-10.518349,0.0,0.0,0.0,0.0,0.0,0.0,0.0,0.0,0.0,0.0,0.0,0.0,0.7405993,0.6897529,-0.9342688,-0.24392904,0.68921727,0.91720146,-0.9911804,-0.95522124,0.456747,0.836775,-0.8294749,-0.9176922
2025-06-04 18:28:44.976,0.778216,-1.564264,-15.067109,-0.5375542,-1.3161815,-0.603631,1.483172,4.047677,10.59711,-0.02894698,-0.17185211,5.581749,-0.7576239,0.0233078,4.102234,1.7555721,-0.6017685,-6.2641335,-0.0082844645,-0.37044525,1.4972153,-0.97817653,3.3748283,-1.2506294,1.9355749,0.97637177,0.34851456,-0.024223328,-0.7880783,0.26062393,-1.4228873,-0.35663605,-0.040893555,1.899615,0.23983002,0.115356445,0.17108917,0.7172775,-6.757305,-1.2182604,-0.7556534,-5.6159286,1.8196844,0.91365814,-15.489128,0.0,0.0,0.0,0.0,0.0,0.0,0.0,0.0,0.0,0.0,0.0,0.0,0.14127314,0.5394997,-0.62458885,-0.8458444,0.07098484,-0.33728272,-0.98060566,-0.97398597,-0.5857814,0.94778407,-0.65238714,-0.79256094
2025-06-04 18:28:45.027,-0.956656,-4.790468,-14.638159,-0.1429592,0.13973582,0.46982703,5.182379,-1.923127,11.122744,-0.022843465,0.6873703,-0.5914383,-0.74305177,0.7896805,-3.0939178,1.7505367,0.0037765503,-5.2521553,-0.041701213,-0.7336807,1.6302757,-0.94636196,-0.43590546,1.1810493,1.872022,-1.6294479,0.00061035156,-0.05695343,0.09548187,-1.4020004,-1.4212089,0.7406235,-5.036087,1.9077022,0.0052261353,-12.017395,0.17490387,-0.23166656,-2.310215,-1.2220751,0.3926468,-5.237507,1.8379186,-0.3320694,-9.700466,0.0,0.0,0.0,0.0,0.0,0.0,0.0,0.0,0.0,0.0,0.0,0.0,-0.46045816,-0.07073895,0.15835308,-0.9366497,0.29657555,-0.6949142,-0.7583475,-0.914858,-0.973627,0.95710856,-0.77065516,-0.46292967
2025-06-04 18:28:45.078,-1.983179,-5.313328,-13.082254,-0.31172788,-0.02867644,0.46808472,5.61068,-2.791753,7.72763,-0.014451131,-0.48625946,-0.4754715,-0.8002722,-1.8364334,-3.2709236,1.7929561,0.86933136,-1.6986351,-0.059325114,-0.076179504,-3.236744,-0.9331631,-0.16284943,3.5370407,1.7945074,-0.7683182,-4.5868607,-0.07236481,-0.5434036,2.5629044,-1.4032035,0.04901886,-1.9745178,1.9027431,-0.14507294,-15.418325,0.15666962,-0.55713654,-0.25574112,-1.237868,-0.9167862,-3.834896,1.8278478,-0.38318634,-5.269245,0.0,0.0,0.0,0.0,0.0,0.0,0.0,0.0,0.0,0.0,0.0,0.0,-0.31260887,-0.3343439,0.7161541,-0.9588056,0.49634883,-0.6768137,0.35121197,-0.7250221,-0.9143931,0.95201033,-0.8277193,0.062423505
2025-06-04 18:28:45.129,-3.113478,-4.892722,-12.245353,0.04939158,0.5983797,0.06282527,-0.792227,-1.109854,8.914405,-0.0154429525,-0.08571625,-0.33386612,-0.9218085,-2.5175896,-0.5206375,1.8649013,1.102562,0.14465714,-0.05093278,0.37899017,-2.3126564,-0.9356808,0.18924713,7.0807953,1.7807745,0.15270233,-7.4653244,-0.066337585,0.24723053,2.6446953,-1.3827567,0.8359146,-1.2091255,1.8697841,-1.0162735,-10.139925,0.12874603,-0.546608,1.0833893,-1.2808214,-1.0709,-0.47058868,1.8257879,-0.01285553,-0.07141113,0.0,0.0,0.0,0.0,0.0,0.0,0.0,0.0,0.0,0.0,0.0,0.0,-0.314259,0.09398121,0.5103508,-0.89242905,0.056071732,-0.36544186,0.873538,-0.82633966,-0.6603985,0.9868285,-0.7730759,-0.13377936
2025-06-04 18:28:45.180,-3.072878,-3.081656,-13.114276,0.13997751,0.30531344,-0.4362715,1.313001,-0.490392,6.912727,-0.017960653,-0.04436493,-0.3607216,-0.94874024,-0.069999695,-0.57068634,1.8909938,0.31238556,0.3314247,-0.056654826,-0.035209656,-1.7450218,-0.95269436,-0.18352509,0.41565704,1.8013738,0.26294708,-5.979706,-0.030784607,0.6674576,2.3297462,-1.3739066,-0.21595001,-0.08239746,1.8385036,-0.31223297,-8.181887,0.11684418,-0.106544495,0.2874794,-1.3203417,-0.40584564,0.128788,1.8058752,-0.4150772,-0.13611221,0.0,0.0,0.0,0.0,0.0,0.0,0.0,0.0,0.0,0.0,0.0,0.0,-0.238693,0.5047766,-0.00016675494,-0.6528408,-0.121471465,0.02453066,0.9295543,-0.85617834,-0.38347748,0.9554593,-0.5679464,-0.0037218216
2025-06-04 18:28:45.231,-2.612073,-2.453256,-14.32584,0.35457927,0.43317297,-0.34466767,0.213699,-0.20404,7.318401,-0.019181356,0.1026535,-0.2484169,-0.91990113,-0.15010834,8.441902,1.873904,0.18344879,-4.1730385,-0.046812907,0.49266815,-2.9925995,-0.9871792,-0.9428024,-0.022583008,1.8512701,1.1538315,-6.668194,0.010566711,0.7010269,-0.006713867,-1.3942771,-0.7551956,0.8697624,1.8375881,-0.046272278,-6.2177467,0.10471344,-0.023002625,0.4351883,-1.3032519,0.26988983,-0.40833282,1.8032049,0.0077438354,-0.115356445,0.0,0.0,0.0,0.0,0.0,0.0,0.0,0.0,0.0,0.0,0.0,0.0,0.57498026,0.4236515,-0.69968385,-0.6302246,-0.23429945,0.6944517,0.8581792,-0.8793937,0.41064745,0.8885681,-0.55471146,0.08791724
2025-06-04 18:28:45.282,-0.825946,-1.787938,-14.731218,0.7728216,-0.23869216,-0.048883792,-3.149802,-3.414874,9.044231,0.0075978185,0.34435272,0.6952019,-0.93348145,-0.11692047,6.245823,1.8598659,-0.03391266,-10.727093,-0.032469645,-0.0033950806,-1.5790024,-1.0306668,-0.52944183,-0.68421555,1.9141363,0.6823349,-0.29846573,0.04535675,0.2199173,0.3643837,-1.4177756,-0.45230865,1.7792015,1.8634517,0.44254303,0.07507324,0.11226654,0.6544876,-2.3285255,-1.3032519,-0.25051117,2.8094902,1.8153356,0.47595978,-1.5838852,0.0,0.0,0.0,0.0,0.0,0.0,0.0,0.0,0.0,0.0,0.0,0.0,0.9909546,0.33641207,-0.97218335,-0.7270396,-0.5232752,0.9832754,-0.3387741,-0.9455243,0.9800541,0.9841796,-0.67133874,-0.7111705
2025-06-04 18:28:45.333,0.40835,-1.938371,-14.947999,0.60811085,-0.12832431,-0.043871224,0.137933,-0.110432,11.568203,0.017439738,0.08609772,3.847103,-0.9217322,0.2588272,1.6998558,1.8379695,-0.62000275,-10.803997,-0.051466838,-0.60085297,0.5084305,-1.0982633,-1.281929,-1.5143051,1.968839,0.9154892,0.21423721,0.0283432,-0.6368637,-0.76111984,-1.4263968,-0.06893158,-0.9271393,1.9279964,1.3323593,0.042114258,0.13118744,0.5223465,-2.68742,-1.31523,-0.060386658,0.21423721,1.8274664,0.4314041,-11.687801,0.0,0.0,0.0,0.0,0.0,0.0,0.0,0.0,0.0,0.0,0.0,0.0,0.72872615,0.7697159,-0.6226541,-0.86791056,-0.28130543,0.48387927,-0.94223857,-0.975309,0.14772904,0.9594074,-0.4405463,-0.757418
2025-06-04 18:28:45.384,1.827863,-1.628975,-15.341761,0.40155658,0.5292563,-0.15870167,-0.619984,1.216946,8.632141,0.014311686,0.07823944,2.346836,-0.8699286,1.0194778,6.000458,1.817599,-0.3129959,-6.7316704,-0.06519975,0.010795593,-0.91859436,-1.1121488,0.20648956,-2.298008,1.9690679,0.26439667,-3.0621796,-0.0074386597,-0.73719025,-1.0504303,-1.4340262,-0.3217697,-0.7098503,1.9083889,-0.5900192,-0.09460449,0.13446808,0.018119812,-1.5667953,-1.2816607,0.81043243,-0.5218582,1.8286108,-0.12294769,-9.475853,0.0,0.0,0.0,0.0,0.0,0.0,0.0,0.0,0.0,0.0,0.0,0.0,0.21757874,0.56567633,-0.28749773,-0.94919705,0.33780533,-0.67561245,-0.973989,-0.9731051,-0.9700999,0.9579783,-0.69612205,-0.7215917
2025-06-04 18:28:45.435,2.312512,-0.667059,-15.225392,-0.737165,-0.2987155,0.14091048,-0.868679,3.740984,12.61102,0.0036305336,-0.27744293,1.8902893,-0.8400214,0.13019562,3.3124275,1.8065364,-0.56697845,-1.1322212,-0.069395915,-0.56224823,0.19470596,-1.0427213,1.0703659,6.044403,1.9130682,-1.2921524,-7.533684,-0.047416687,-0.1883316,-0.40833282,-1.4501243,-0.18024445,-0.35339737,1.7774684,-2.4836388,-0.025024414,0.11165619,-0.49907684,2.3419533,-1.2683855,-0.100364685,-2.9999237,1.8189977,-0.2425003,-8.48951,0.0,0.0,0.0,0.0,0.0,0.0,0.0,0.0,0.0,0.0,0.0,0.0,-0.33237967,-0.423996,0.08048898,-0.92395276,0.13892071,-0.5391797,-0.6631899,-0.8206891,-0.9647145,0.97149056,-0.8415047,-0.45330527
2025-06-04 18:28:45.486,0.405725,-2.664515,-14.490724,-0.8893597,-0.77975744,0.1542883,0.05878,3.073769,5.396175,-0.010331258,-0.3445053,-0.21423721,-0.9533179,-1.9417953,-2.1515236,1.8133266,0.4769516,-1.0589752,-0.086790934,0.08098602,0.37659454,-1.0238004,0.3130722,3.0255585,1.8466924,-1.0586166,-3.99115,-0.059547424,-0.6090927,2.494545,-1.4379172,-0.12622833,2.4798965,1.6964443,-0.012397766,-6.937973,0.08419037,-0.25211334,2.2552834,-1.2966906,-0.52303314,-1.8365746,1.8318914,0.39455414,-8.5774,0.0,0.0,0.0,0.0,0.0,0.0,0.0,0.0,0.0,0.0,0.0,0.0,-0.032335896,-0.21607785,0.44166473,-0.9700204,0.24818562,-0.3629423,0.1304051,-0.7665708,-0.90316594,0.95661795,-0.83164024,-0.006827865
2025-06-04 18:28:45.537,-0.650961,-3.164222,-14.284899,-0.262076,0.33698076,0.119000874,2.103049,-0.542545,7.948821,-0.004456625,0.14415741,-0.35583878,-1.0077155,-0.6481552,-1.387352,1.8510158,0.84064484,-0.22034073,-0.07351579,0.2161026,-2.1588478,-1.0011411,0.14316559,4.536812,1.8405126,0.015220642,-6.2677956,-0.042686462,0.12638092,1.5814438,-1.4294486,0.22670746,1.5741196,1.7075069,0.17047882,-7.4738693,0.079460144,-0.052833557,1.0028229,-1.3115679,-0.82302094,-0.49134064,1.8376135,-0.4241562,0.08850098,0.0,0.0,0.0,0.0,0.0,0.0,0.0,0.0,0.0,0.0,0.0,0.0,0.27030972,0.20163547,0.04414684,-0.9588521,-0.13467458,0.11002454,0.66546667,-0.8405171,-0.669199,0.9782298,-0.7228851,-0.18782595
2025-06-04 18:28:45.588,-1.310199,-1.873366,-14.100445,0.22955963,0.3238591,-0.0054299287,0.686053,-1.800316,10.111649,0.0060719396,0.079307556,0.26916885,-0.9920752,-0.037879944,4.215763,1.8711574,0.40164948,-4.5539017,-0.06298722,0.2640915,-3.7921715,-1.0135007,-0.37845612,-0.91737366,1.8731664,0.5942917,-4.6271477,-0.014762878,0.36808014,1.2970161,-1.4213614,-0.12844086,0.76844406,1.7188747,0.07839203,-4.863964,0.08831024,-0.19771576,0.37903595,-1.3296496,-0.05886078,-0.03479004,1.8074011,-0.5879593,-0.34119034,0.0,0.0,0.0,0.0,0.0,0.0,0.0,0.0,0.0,0.0,0.0,0.0,0.7091669,0.31012568,-0.65983355,-0.81097627,-0.34611803,0.76804626,0.81477875,-0.87843823,0.26863125,0.9318447,-0.63740873,-0.13279392
2025-06-04 18:28:45.639,-0.025096,-1.730873,-14.284029,0.88880306,-0.19079775,-0.07964112,-1.64574,-3.039115,9.840223,0.029951945,0.05847931,0.5047684,-0.9907019,0.16513824,6.0212097,1.8581874,-0.04749298,-10.553749,-0.052534953,-0.1971817,-0.88197327,-1.0538602,-0.6293106,-2.6312675,1.9334387,0.9206009,-1.0992584,0.023918152,0.5282974,0.11657715,-1.4431052,-0.46611786,2.4213028,1.7661006,0.6192398,1.89151,0.10349274,-0.36663055,-1.0601959,-1.3307177,-0.13408661,1.3067818,1.8105291,0.5951309,-4.072937,0.0,0.0,0.0,0.0,0.0,0.0,0.0,0.0,0.0,0.0,0.0,0.0,0.9837268,0.3373224,-0.9641775,-0.7020609,-0.59959316,0.97687435,-0.17557769,-0.952595,0.96929514,0.98245597,-0.6869638,-0.66011524
2025-06-04 18:28:45.690,1.2482,-1.732032,-14.450123,0.60939056,-0.085735075,-0.022442613,0.094415,-0.642626,12.086568,0.043303385,-0.08319855,1.6815453,-0.9717047,0.2236557,4.0595093,1.8382747,-0.57987213,-10.861372,-0.06550492,-0.18390656,0.44373322,-1.1295438,-1.5433121,-0.88197327,1.9811224,0.6695938,0.73182297,0.021018982,-0.12088776,-1.3031197,-1.443563,0.03665924,-0.87953186,1.8670375,1.9253922,0.13733292,0.124320984,0.21839142,-1.7755394,-1.3356005,-0.07266998,0.49622345,1.8243383,0.35137177,-10.408485,0.0,0.0,0.0,0.0,0.0,0.0,0.0,0.0,0.0,0.0,0.0,0.0,0.8120091,0.73897815,-0.7340406,-0.79995215,-0.29511073,0.7096348,-0.92845315,-0.974455,0.42229018,0.9572891,-0.5364921,-0.75029117
2025-06-04 18:28:45.741,2.627573,-1.468533,-14.882332,0.5467165,0.41169378,-0.15014982,-0.540331,0.70664,8.861365,0.04337968,0.81775665,0.5108719,-0.9166205,1.3007736,7.086899,1.8094356,-0.5942154,-6.741436,-0.07389726,-0.30902863,0.22034073,-1.1380887,0.09586334,-0.5438309,1.9886755,0.047721863,-0.004272461,-0.010643005,-0.6121445,-0.8844147,-1.4436393,-0.11356354,-0.7354851,1.8909938,0.08327484,0.45105743,0.12973785,0.15491486,-1.8927307,-1.3044726,0.7871628,-1.576561,1.8241857,-0.037117004,-9.550316,0.0,0.0,0.0,0.0,0.0,0.0,0.0,0.0,0.0,0.0,0.0,0.0,0.3186073,0.66947776,-0.35791263,-0.9307594,0.3049293,-0.5973859,-0.98143715,-0.9767023,-0.943298,0.9575705,-0.663545,-0.77923334
2025-06-04 18:28:45.792,3.562221,-0.33392,-14.763569,-0.72629064,-0.10401618,0.120810136,-1.777941,3.561767,14.373205,0.034605876,-0.33771515,1.3299751,-0.8664191,1.0139847,4.888382,1.7961605,-0.65273285,-1.510643,-0.07992448,-0.86833954,0.8697624,-1.0684323,1.1182022,4.990921,1.9274877,-1.1078262,-7.857174,-0.04962921,-0.7204819,-0.12390137,-1.4550834,-0.013313293,-0.23620987,1.7735775,-2.159008,-0.064086914,0.112342834,-0.594368,2.0294495,-1.2728869,0.6951523,-4.3378334,1.8148779,-0.29987335,-8.521248,0.0,0.0,0.0,0.0,0.0,0.0,0.0,0.0,0.0,0.0,0.0,0.0,-0.35781324,-0.39201707,-0.037990283,-0.9080689,0.10604788,-0.52123713,-0.74843776,-0.85013735,-0.9708257,0.9721915,-0.83943194,-0.51376384
2025-06-04 18:28:45.843,2.126544,-1.873876,-13.975816,-0.6393331,-0.79177135,0.24855033,0.711511,2.974348,4.984963,0.011641398,-0.47031403,-0.16540909,-0.9679663,-2.1904411,0.48889923,1.7921932,-0.013923645,-0.048217773,-0.09770097,-0.11997223,1.301899,-1.0424924,0.5377579,1.7242699,1.8648504,-1.1426163,-4.392769,-0.057106018,-0.11508942,-0.29602432,-1.440206,0.5122757,-0.1312294,1.6830928,-1.4638901,-0.2117958,0.08190155,-0.50167084,3.7140465,-1.2931048,-0.35945892,-2.84367,1.8273138,0.41461945,-9.173115,0.0,0.0,0.0,0.0,0.0,0.0,0.0,0.0,0.0,0.0,0.0,0.0,-0.12091165,-0.2362211,0.43455243,-0.9653516,0.25931758,-0.45338982,-0.03286075,-0.774136,-0.9166787,0.9499742,-0.839917,-0.04147592
2025-06-04 18:28:45.894,0.358783,-3.521368,-13.697135,-0.030795723,0.156293,-0.18094708,3.531057,0.478532,8.137961,0.0048512365,0.017280579,-0.30456924,-1.0250342,-0.90869904,-0.21912003,1.8346126,0.74596405,0.05432129,-0.09579362,0.33435822,-1.7254906,-1.0138059,0.5651474,3.5223923,1.8408178,-0.0005722046,-7.3054085,-0.04825592,0.30467987,0.6305046,-1.4281516,0.08350372,2.3175392,1.6836269,0.5713272,-8.340582,0.07144928,0.16368866,0.84534836,-1.3085161,0.01033783,-4.7345695,1.8582891,0.03139496,-3.1781502,0.0,0.0,0.0,0.0,0.0,0.0,0.0,0.0,0.0,0.0,0.0,0.0,0.13830143,0.14482348,0.28437835,-0.9670217,-0.052176684,-0.08908448,0.5647293,-0.8396582,-0.77822566,0.9791684,-0.7678737,-0.14017063
2025-06-04 18:28:45.945,-0.430213,-2.559131,-13.412166,-0.17322221,0.5122442,0.17294265,1.925373,-1.502184,8.270818,0.012862101,-0.19863129,-0.68787766,-1.0055792,0.25615692,1.8487816,1.8584926,0.7469559,-2.658123,-0.08007707,0.36533356,-2.868084,-1.0130429,0.06046295,-1.08461,1.8634008,0.48892975,-6.0627136,-0.021858215,0.37425995,2.2101173,-1.4238791,0.24089813,0.14099503,1.7096431,0.39066315,-7.085678,0.078315735,0.23258209,0.32043839,-1.3267504,-0.4921341,-0.23620987,1.8269323,-0.58856964,-0.3265419,0.0,0.0,0.0,0.0,0.0,0.0,0.0,0.0,0.0,0.0,0.0,0.0,0.44865578,0.39244914,-0.33807436,-0.8711481,-0.2819238,0.5069068,0.8027014,-0.86823773,-0.24386993,0.94837266,-0.6292143,-0.12846518
2025-06-04 18:28:45.996,-0.194226,-1.838204,-13.147351,0.6242298,-0.0272208,0.0141735915,-1.714333,-3.954717,10.471411,0.033461466,0.21976471,-0.84656906,-0.9942877,0.4367447,7.8706017,1.8646724,0.16399384,-8.078127,-0.06153764,0.56072235,-2.8522148,-1.0379148,-0.7114792,-2.736248,1.913297,0.6179428,-1.871975,0.010032654,0.846138,1.0089264,-1.4312034,-0.24089813,1.9855042,1.7409999,0.31276703,-2.1710548,0.0938797,0.7160568,-1.256733,-1.3253008,0.058174133,1.0003815,1.8153356,0.2551651,-3.1195526,0.0,0.0,0.0,0.0,0.0,0.0,0.0,0.0,0.0,0.0,0.0,0.0,0.9187386,0.27212197,-0.910414,-0.66524804,-0.5225198,0.92440504,0.46235988,-0.9334455,0.8411156,0.95589566,-0.689005,-0.4023928
2025-06-04 18:28:46.047,0.755517,-1.866162,-13.230867,0.6659692,-0.1610556,-0.0908942,-0.906982,-2.091737,11.113402,0.054137126,0.052375793,1.5338364,-0.9842169,0.21938324,3.158619,1.8459804,-0.4959488,-11.144579,-0.06718339,-0.32230377,1.0699615,-1.1019254,-1.1546707,-1.4056625,1.9634985,0.5047989,0.3961258,0.02948761,0.31871796,-0.7745476,-1.4376884,0.18863678,-1.5716782,1.835757,1.9620895,0.06896973,0.115852356,0.6004715,-1.9293518,-1.3297259,-0.04360199,0.4412918,1.8293737,0.47771454,-8.155033,0.0,0.0,0.0,0.0,0.0,0.0,0.0,0.0,0.0,0.0,0.0,0.0,0.9746492,0.5373459,-0.94095844,-0.6902855,-0.5227577,0.96882856,-0.77346504,-0.9626063,0.95275575,0.979175,-0.65754676,-0.74664956
2025-06-04 18:28:46.099,1.678446,-2.34239,-13.628273,0.31952003,0.030497551,-0.16584855,0.050174,0.638527,11.173235,0.05268754,0.012931824,2.0794983,-0.9495795,0.921669,5.569542,1.8124111,-0.84156036,-8.480965,-0.07252397,-0.111198425,0.29724503,-1.1567807,-0.85430145,-0.60974884,1.9955419,0.54164886,0.3997879,0.004081726,-0.84575653,-1.0223541,-1.4379172,-0.14789581,-0.84778976,1.9173915,1.3147354,0.33508682,0.12592316,0.23555756,-1.4959946,-1.3250719,0.38906097,-0.7818718,1.8353246,-0.0045394897,-10.469521,0.0,0.0,0.0,0.0,0.0,0.0,0.0,0.0,0.0,0.0,0.0,0.0,0.5203751,0.78926253,-0.44195887,-0.887829,0.16393247,-0.19421013,-0.9813352,-0.9763505,-0.6886763,0.9505068,-0.55935574,-0.8276643
2025-06-04 18:28:46.150,2.851032,-1.457392,-13.968647,0.33434,0.44224706,0.04119991,0.302314,2.082742,7.289455,0.048949137,0.16376495,0.6231766,-0.8903754,1.0903549,7.5922775,1.7955501,-0.15163422,-4.491646,-0.07649125,0.33168793,-1.4435043,-1.0804868,1.333046,1.2750435,1.9306921,-0.26348114,-6.5436783,-0.033226013,-0.582695,-0.37781525,-1.4447074,-0.31642914,-0.2887001,1.8197353,-1.997261,-0.11657715,0.12271881,-0.032310486,-0.18249893,-1.277083,0.9746933,-3.1903572,1.8246435,-0.20130157,-10.075226,0.0,0.0,0.0,0.0,0.0,0.0,0.0,0.0,0.0,0.0,0.0,0.0,-0.2854771,-0.20302193,-0.09699562,-0.92235154,0.15811995,-0.6628488,-0.8734424,-0.9290313,-0.97909987,0.9676796,-0.8378095,-0.57764035
2025-06-04 18:28:46.201,1.964195,-1.750053,-13.414071,-0.8573965,-0.804473,0.20914403,1.907349,2.741162,9.293545,0.02384843,-0.61100006,-0.2508583,-0.94225526,-1.3899612,-0.95155334,1.8023403,-0.13103485,-1.0113678,-0.093199626,-0.7727432,2.080719,-1.0428739,0.73070526,3.2721443,1.8714117,-1.4107132,-5.253376,-0.058250427,0.046195984,-1.6205063,-1.4512687,0.02368927,0.03112793,1.7113979,-1.8947983,0.18738174,0.093803406,-0.64136505,3.3783493,-1.2857805,-0.6342697,-2.5983047,1.8287634,0.26096344,-9.524681,0.0,0.0,0.0,0.0,0.0,0.0,0.0,0.0,0.0,0.0,0.0,0.0,-0.20811073,-0.33991057,0.4570451,-0.9610125,0.28261924,-0.5221933,-0.17783874,-0.7566261,-0.93097216,0.95278263,-0.8526225,-0.06611947
2025-06-04 18:28:46.252,-0.184315,-3.791132,-13.346074,-0.103976995,0.15527959,-0.24638782,2.529346,0.266111,7.387078,0.01187028,-0.25295258,-0.44861603,-1.0204566,-1.4614487,-0.45594025,1.8424709,0.722847,0.24353409,-0.10220231,0.21030426,-0.57923126,-1.0183072,0.71689606,4.298771,1.8363165,-0.013389587,-7.958496,-0.051689148,0.17726898,0.23132706,-1.4373069,0.16635895,2.4139786,1.6891963,0.26729584,-7.3054085,0.075416565,-3.8146973e-05,1.1505318,-1.3095843,0.1115036,-4.9726105,1.8582891,0.008964539,-3.4381638,0.0,0.0,0.0,0.0,0.0,0.0,0.0,0.0,0.0,0.0,0.0,0.0,0.10824417,0.050692722,0.41205156,-0.9740023,0.043013275,-0.18623538,0.49878642,-0.82161415,-0.8154694,0.9798389,-0.7997206,-0.07121853
2025-06-04 18:28:46.303,-0.559284,-2.801125,-13.191987,-0.10965933,0.5233151,0.19059186,1.911899,-0.806745,7.663877,0.013472453,-0.03993988,-0.80994797,-1.0158026,-0.022773743,0.99794006,1.8663509,0.4391861,-0.061645508,-0.08946122,0.20252228,-1.7535667,-1.0093808,0.11165619,0.46204376,1.8543218,0.328331,-6.3300514,-0.025596619,0.24280548,2.4640274,-1.424871,0.4517746,0.010375977,1.7053707,0.33779144,-7.0307465,0.07976532,0.15323639,0.6671257,-1.3331591,-0.51670074,-0.42664337,1.832044,-0.3800583,-0.24475479,0.0,0.0,0.0,0.0,0.0,0.0,0.0,0.0,0.0,0.0,0.0,0.0,0.3578495,0.40503824,-0.18522578,-0.90465665,-0.25597316,0.37672752,0.7957816,-0.86741173,-0.41900367,0.96376306,-0.63450503,-0.16732833
2025-06-04 18:28:46.354,-0.744136,-1.712573,-12.866096,0.6143751,0.16174234,0.070426024,-1.470629,-3.00374,11.371751,0.029799357,0.6935501,-2.3724709,-0.99413514,0.058631897,8.417488,1.8716152,0.15804291,-6.028534,-0.06985368,0.5276108,-3.80682,-1.0326505,-0.20450592,-1.9684143,1.9029974,0.7101822,-3.383232,0.004310608,0.34542084,0.7879753,-1.4245658,-0.085487366,0.6610222,1.7326839,0.43880463,-3.572441,0.08853912,0.3306961,0.33996964,-1.3281237,0.01964569,0.24231339,1.8074011,0.03314972,-1.5338364,0.0,0.0,0.0,0.0,0.0,0.0,0.0,0.0,0.0,0.0,0.0,0.0,0.8587364,0.26856315,-0.85511136,-0.6672437,-0.44852096,0.88268524,0.6649544,-0.917727,0.7203195,0.9436696,-0.67385054,-0.26625547
2025-06-04 18:28:46.406,0.47646,-1.799326,-12.915344,0.6554917,-0.13581672,-0.09892568,-1.02902,-2.332816,11.214124,0.054366007,0.5313492,0.07019043,-0.98795533,0.1014328,4.0338745,1.8548305,-0.5564499,-10.710003,-0.06802262,-0.13492584,0.6646843,-1.0882688,-1.1055374,-1.223774,1.9556402,0.8350754,0.111694336,0.032081604,0.145607,-0.39002228,-1.438909,0.48877716,-0.65369797,1.8190486,1.744194,0.5523758,0.1128006,0.8262253,-2.9791718,-1.3335406,-0.20298004,1.281147,1.8244146,0.49137115,-6.270237,0.0,0.0,0.0,0.0,0.0,0.0,0.0,0.0,0.0,0.0,0.0,0.0,0.98843646,0.414366,-0.9659174,-0.65543634,-0.5567324,0.98210746,-0.63634574,-0.9539742,0.9791232,0.98546994,-0.69824535,-0.7472156
2025-06-04 18:28:46.462,1.423922,-2.349381,-13.34516,0.2384866,-0.106290355,-0.20899805,0.428632,0.441079,11.721794,0.054747477,-0.08266449,2.5238419,-0.9597266,0.8675766,4.11322,1.8233211,-0.70545197,-9.190205,-0.073668376,-0.13561249,0.34485245,-1.1530423,-1.1071396,-0.5255203,1.9924139,0.61138153,0.4339676,0.010108948,-0.111579895,-1.6681175,-1.4373069,-0.1467514,-0.8648796,1.9104488,1.3316727,0.6243973,0.1266098,0.0004196167,-1.326313,-1.3339983,0.26576996,-1.1676216,1.834104,0.09777069,-10.890671,0.0,0.0,0.0,0.0,0.0,0.0,0.0,0.0,0.0,0.0,0.0,0.0,0.59511364,0.78601575,-0.50007325,-0.86399263,0.0372457,0.04737508,-0.9720847,-0.9747686,-0.46411,0.94551104,-0.5341078,-0.8037635
2025-06-04 18:28:46.516,2.374818,-1.912421,-13.955063,0.17637824,0.41624364,-0.113813214,-0.02215,1.487662,7.039713,0.04879655,0.15460968,0.26428604,-0.9005225,1.0445023,7.692379,1.7994411,-0.27462006,-5.031204,-0.08015336,-0.28202057,0.30212784,-1.0994077,1.1190414,0.029907227,1.9393896,-0.55294037,-2.5458145,-0.02658844,-0.53813934,-1.0199127,-1.4424186,-0.16536713,-0.64271164,1.8426235,-1.7184067,-0.026245117,0.12706757,-0.0035476685,-1.3336372,-1.2863909,0.99552155,-2.9974823,1.8257879,-0.14827728,-10.164341,0.0,0.0,0.0,0.0,0.0,0.0,0.0,0.0,0.0,0.0,0.0,0.0,-0.1562259,0.028794724,-0.16987805,-0.9263896,0.19972569,-0.6856597,-0.92461425,-0.9493237,-0.9776823,0.96228653,-0.8119993,-0.6063874
2025-06-04 18:28:46.569,2.130658,-1.494348,-13.575623,-0.9404036,-0.61993563,0.15756705,1.620386,3.203433,10.932087,0.02735795,-0.63129425,0.15930557,-0.9111273,-0.69568634,-1.7438011,1.8041713,-0.06252289,-1.5741196,-0.09121598,-0.73612213,2.285801,-1.0468411,0.39180756,4.035095,1.8797277,-1.4671707,-5.441368,-0.058555603,0.34137726,-0.98695374,-1.4537864,0.29338837,-0.14221573,1.7239101,-1.6876602,-0.033569336,0.10097504,-0.48297882,3.0658417,-1.2824999,-0.5588913,-2.5738907,1.8270849,0.1896286,-9.187763,0.0,0.0,0.0,0.0,0.0,0.0,0.0,0.0,0.0,0.0,0.0,0.0,-0.24116153,-0.3704792,0.33148697,-0.9503047,0.23036395,-0.52008784,-0.36549777,-0.7625089,-0.93818796,0.9563874,-0.85355985,-0.17188565
2025-06-04 18:28:46.622,-0.351115,-3.800506,-13.448472,-0.19237238,0.09042788,-0.19067438,2.832272,0.63157,7.6199,0.012328044,-0.7439041,-0.12145996,-0.99802613,-1.7388535,-0.95033264,1.8337734,0.4629898,0.061645508,-0.10395707,0.31116486,-0.776989,-1.0249448,0.65380096,4.17548,1.8379949,0.017280579,-7.94751,-0.057106018,0.5574417,0.20203018,-1.4382987,0.70858,1.7206078,1.6928585,0.169487,-7.2138557,0.07976532,-0.09738922,1.0711823,-1.3079821,0.18535614,-5.2216377,1.8530248,0.05947113,-4.372013,0.0,0.0,0.0,0.0,0.0,0.0,0.0,0.0,0.0,0.0,0.0,0.0,0.12534529,-0.038776264,0.3718196,-0.9746091,0.099902906,-0.23005392,0.3423716,-0.7822372,-0.84419686,0.97231245,-0.81736696,-0.039873123
2025-06-04 18:28:46.674,-0.78228,-2.93989,-13.234409,-0.2265309,0.5012691,0.23916754,1.478639,-1.099427,7.060814,0.014616862,0.20458221,-0.6744499,-1.0144293,-0.1518631,-0.33752823,1.8620784,0.8171463,-1.6046371,-0.090071574,0.47618866,-2.223545,-1.0122037,0.39447784,1.5851059,1.8492101,0.2538681,-5.9943542,-0.033683777,0.118370056,2.625164,-1.422277,0.21144867,0.48523712,1.7046077,0.22686005,-6.5595474,0.081977844,0.09967804,0.61585236,-1.3331591,-0.4781723,-0.1702919,1.8322729,-0.32917023,-0.19104385,0.0,0.0,0.0,0.0,0.0,0.0,0.0,0.0,0.0,0.0,0.0,0.0,0.3800275,0.32752803,-0.1436267,-0.9323375,-0.23732255,0.3300698,0.7297023,-0.85627735,-0.5236206,0.9697483,-0.65612185,-0.21188031
2025-06-04 18:28:46.726,-1.096572,-1.860083,-12.956339,0.5189293,0.20451292,0.010179999,-0.738499,-2.334322,9.760042,0.030409709,0.6584549,-2.1698341,-0.99398255,-0.001335144,6.666973,1.8710048,0.1051712,-5.5585556,-0.07389726,0.7556534,-3.9398804,-1.0366178,-0.12744904,-2.04776,1.892774,0.71300507,-3.0841522,-0.0023269653,0.7840347,0.68055344,-1.4214377,-0.08983612,0.95887756,1.721545,0.24456024,-3.9777222,0.088768005,-0.13248444,0.88319397,-1.3317858,0.031852722,-0.004272461,1.8022131,-0.5436325,-0.41809845,0.0,0.0,0.0,0.0,0.0,0.0,0.0,0.0,0.0,0.0,0.0,0.0,0.815177,0.28607464,-0.81345004,-0.69736814,-0.4037621,0.86134046,0.71517396,-0.9084658,0.5817691,0.9360052,-0.6681434,-0.22786862
2025-06-04 18:28:46.779,0.220498,-1.814811,-13.138217,0.63725823,-0.085749544,-0.06090499,-1.287495,-2.539053,11.564047,0.05230607,0.09754181,0.3253212,-0.99016786,0.18222809,4.883499,1.8558986,-0.35816193,-10.6038,-0.067870036,-0.17169952,0.49256134,-1.0817838,-0.921669,-1.0907135,1.947019,0.884285,0.28137589,0.02986908,0.39409637,-0.9625397,-1.4384513,0.3836441,-0.5511551,1.7958553,1.4445877,0.7354851,0.10990143,0.7856369,-1.4728012,-1.3350664,-0.30406952,1.945221,1.8161749,0.45261383,-5.8417625,0.0,0.0,0.0,0.0,0.0,0.0,0.0,0.0,0.0,0.0,0.0,0.0,0.9891146,0.36573294,-0.9693981,-0.64774525,-0.56854486,0.9826249,-0.548013,-0.9512522,0.9802325,0.9851476,-0.71504563,-0.73866785
2025-06-04 18:28:46.831,1.511636,-2.241094,-13.563589,0.33808795,-0.08795421,-0.2224605,0.770977,0.461903,11.472922,0.056044474,0.015220642,2.2919044,-0.9668982,0.5144119,3.6347008,1.8263729,-0.7134628,-9.958038,-0.07420243,0.11051178,0.09094238,-1.1510587,-1.0815048,-0.10437012,1.9881414,0.7315445,0.5157547,0.012702942,-0.46031952,-1.3824692,-1.4375358,-0.0012588501,-0.87709045,1.89519,1.5139389,0.42053986,0.12676239,0.030555725,-1.3275337,-1.3401781,0.051002502,-0.19836807,1.8291448,0.23647308,-10.934616,0.0,0.0,0.0,0.0,0.0,0.0,0.0,0.0,0.0,0.0,0.0,0.0,0.6380224,0.77856284,-0.5473234,-0.84500325,-0.04773138,0.2180259,-0.96436876,-0.97412914,-0.27289534,0.94626343,-0.5196796,-0.7801228
2025-06-04 18:28:46.884,2.475009,-1.682486,-14.150205,0.3407571,0.51052636,-0.15686361,-0.322654,1.355483,7.336409,0.04826249,0.06275177,0.41931915,-0.9092963,0.9936142,7.4616623,1.8049343,-0.17971039,-5.5878525,-0.079466715,-0.25341034,0.076293945,-1.1074185,0.9946823,-0.5865555,1.9534277,-0.11074066,-3.638363,-0.021629333,-0.4985428,-0.8856354,-1.4413505,-0.28118134,-0.711071,1.846133,-1.2795639,0.009155273,0.1266861,-0.02483368,-1.2176704,-1.2944018,0.8710098,-2.343174,1.822965,-0.11501312,-9.795681,0.0,0.0,0.0,0.0,0.0,0.0,0.0,0.0,0.0,0.0,0.0,0.0,-0.018149052,0.22245985,-0.22510582,-0.9316898,0.230417,-0.68523437,-0.947806,-0.9601953,-0.9736714,0.9579595,-0.78509414,-0.6301916
2025-06-04 18:28:46.938,2.606686,-1.072202,-13.917578,-0.85982347,-0.5201526,0.17441824,0.302937,3.565904,10.349469,0.028960124,-0.4404831,0.632946,-0.89968324,0.066719055,0.14343643,1.8004329,-0.4528427,-1.2494087,-0.08755387,-0.32100677,1.3824692,-1.0510373,0.581398,4.5917435,1.8967413,-1.3689804,-6.4777603,-0.05657196,-0.020637512,-0.711071,-1.4538627,0.04764557,0.07873535,1.7313106,-1.9542313,0.29846573,0.10158539,-0.94905853,2.5775528,-1.2857805,-0.65509796,-2.7252617,1.8221258,0.0358963,-8.467537,0.0,0.0,0.0,0.0,0.0,0.0,0.0,0.0,0.0,0.0,0.0,0.0,-0.28578565,-0.3632082,0.23876235,-0.93766636,0.1992472,-0.5258134,-0.47496688,-0.7698437,-0.9477821,0.9604138,-0.83748925,-0.2557227
2025-06-04 18:28:46.992,0.491805,-3.142002,-13.625988,-0.92407054,-0.6684308,-0.04530456,-0.217335,3.240143,4.867258,0.011412516,-0.11920929,-1.1651802,-0.98765016,-1.591301,-1.2909126,1.8204982,0.45497894,-0.012817383,-0.10708512,0.11753082,0.6939812,-1.0299802,0.33023834,3.141529,1.843717,-0.15911102,-7.462883,-0.05756378,-0.08823395,0.2874794,-1.4353995,0.1002121,2.5470352,1.6849239,0.32138824,-7.5764084,0.076179504,-0.034217834,1.371479,-1.3123308,-0.008659363,-4.105896,1.8465399,0.22968292,-6.5180435,0.0,0.0,0.0,0.0,0.0,0.0,0.0,0.0,0.0,0.0,0.0,0.0,0.04738044,-0.08686038,0.42105716,-0.9726649,0.16098572,-0.27355266,0.28068823,-0.7779317,-0.87498844,0.9667675,-0.81743556,-0.022437671
2025-06-04 18:28:47.046,-0.221098,-3.000064,-13.449165,-0.20440213,0.33144695,0.23794165,1.555343,-0.913602,7.49666,0.012099162,-0.010185242,-0.53528595,-1.0129035,-0.13904572,-0.83680344,1.8538387,0.49938202,0.19592667,-0.09175004,0.31528473,-2.543373,-1.01228,0.66516876,2.7472343,1.849439,0.23090363,-5.9443054,-0.035743713,0.10471344,2.437172,-1.4227347,0.5025101,0.61219025,1.6997249,0.26073456,-6.8915863,0.07709503,-0.018806458,1.215229,-1.3249956,-0.70713043,-0.44495392,1.837766,-0.38059235,-0.060424805,0.0,0.0,0.0,0.0,0.0,0.0,0.0,0.0,0.0,0.0,0.0,0.0,0.29912436,0.32500324,-0.052625827,-0.94178635,-0.21503621,0.23256949,0.705732,-0.8542697,-0.6081215,0.9741123,-0.66883534,-0.21074858
2025-06-04 18:28:47.100,-0.815615,-1.718698,-13.083423,0.41378957,0.25103498,0.03839911,-0.489217,-1.982797,10.407094,0.024992839,0.47603607,-1.2176704,-0.989939,-0.006752014,6.426491,1.8689449,0.2212143,-4.7309074,-0.07664384,0.56308746,-2.8668633,-1.0323453,-0.40409088,-1.072403,1.8913244,0.6482315,-4.093689,-0.0060653687,0.5157852,0.9332428,-1.417623,0.015525818,0.25818253,1.7164333,0.13446808,-4.265812,0.08693695,-0.022773743,0.65125656,-1.3299547,-0.047416687,0.016479492,1.8036627,-0.46756744,-0.28015518,0.0,0.0,0.0,0.0,0.0,0.0,0.0,0.0,0.0,0.0,0.0,0.0,0.74952424,0.30217993,-0.73832333,-0.73239625,-0.35784152,0.80952895,0.7672848,-0.89449865,0.4219195,0.9253299,-0.6517312,-0.15655248
2025-06-04 18:28:47.153,0.41095,-1.699772,-13.188722,0.61689895,-0.063419804,-0.042521227,-1.47441,-2.798659,10.696763,0.047957316,0.04383087,0.12512589,-0.9885657,0.12821198,5.236286,1.8561275,-0.13187408,-10.851606,-0.06664933,-0.091056824,-0.38513947,-1.0694242,-0.7316208,-1.5631332,1.9457983,0.7759476,-0.08239746,0.027503967,0.3911209,0.20325089,-1.4386039,-0.025367737,1.2140083,1.7792232,1.2535477,1.0540924,0.10723114,0.98781586,-2.4603653,-1.3325487,0.041999817,1.7340355,1.8163275,0.4796219,-4.9652863,0.0,0.0,0.0,0.0,0.0,0.0,0.0,0.0,0.0,0.0,0.0,0.0,0.9883621,0.32397375,-0.97032773,-0.65748197,-0.57985544,0.9818117,-0.42160136,-0.949885,0.97846717,0.9849723,-0.7117522,-0.71283185
2025-06-04 18:28:47.206,1.511081,-1.954859,-13.490645,0.3621763,-0.19352645,-0.13326035,0.446336,-0.186437,12.165544,0.05482377,0.048484802,2.5043106,-0.9695685,0.17894745,3.6578941,1.8317134,-0.6798172,-10.18387,-0.07397355,0.049171448,0.1715126,-1.1408353,-1.1324692,-0.7782097,1.9871496,0.7780075,0.4791336,0.016059875,-0.23723602,-1.3092232,-1.4379935,-0.016593933,-0.6317253,1.8802364,1.7419052,0.3973465,0.12447357,0.25867462,-2.1258888,-1.3384997,-0.06481171,-0.30701065,1.8304418,0.27820587,-11.106735,0.0,0.0,0.0,0.0,0.0,0.0,0.0,0.0,0.0,0.0,0.0,0.0,0.70467436,0.76791644,-0.6177665,-0.8270289,-0.15647553,0.4364424,-0.95347536,-0.97383165,0.0033532106,0.94952697,-0.51932305,-0.7653972
2025-06-04 18:28:47.259,2.544465,-1.715688,-14.183301,0.28700435,0.45779562,-0.220029,-0.71833,1.061558,7.834657,0.046355143,0.029182434,0.9698639,-0.917536,1.1268234,8.074463,1.8078334,-0.3460312,-5.795376,-0.07931413,-0.35053253,0.29480362,-1.1261106,0.7613754,-0.61829376,1.9728826,-0.3609848,-0.5658035,-0.014915466,-0.59856415,-0.8990631,-1.4397483,-0.088157654,-0.58045197,1.870013,-0.6202316,-0.40467072,0.12683868,0.08968353,-1.52285,-1.3015734,1.0013199,-2.0379944,1.8275427,-0.18283844,-9.492943,0.0,0.0,0.0,0.0,0.0,0.0,0.0,0.0,0.0,0.0,0.0,0.0,0.13306913,0.45409536,-0.2957172,-0.9340027,0.26784202,-0.66934013,-0.9701571,-0.970099,-0.967913,0.958218,-0.74334455,-0.70319605
2025-06-04 18:28:47.312,3.031261,-0.781326,-14.111984,-0.83150417,-0.36503062,0.12158934,-0.876036,3.218886,12.61156,0.033079997,-0.21572113,0.76844406,-0.88289857,0.4364395,2.7460136,1.7979915,-0.62381744,-1.1981392,-0.08732499,-0.38097382,1.773098,-1.0614133,0.9128189,4.8053703,1.9103216,-1.4417648,-7.0478363,-0.05344391,0.1530838,-0.68787766,-1.4542441,-0.28354645,-0.21667862,1.7515285,-2.1194878,0.014038086,0.10738373,-0.7052231,2.9401093,-1.2799059,-0.123176575,-3.1195526,1.8238043,-0.04245758,-9.167011,0.0,0.0,0.0,0.0,0.0,0.0,0.0,0.0,0.0,0.0,0.0,0.0,-0.34744826,-0.39277595,0.11907399,-0.9217145,0.14502165,-0.5427678,-0.6141056,-0.80841166,-0.9605785,0.9669819,-0.83751017,-0.3996941
2025-06-04 18:28:47.364,1.262735,-2.694763,-13.55277,-0.8024008,-0.70485884,0.10874756,0.097531,3.536514,5.087554,0.008665934,-0.29148102,-0.072631836,-0.9836829,-2.0454063,0.19348526,1.8056209,0.15644073,0.06774902,-0.10815324,-0.24044037,1.4728012,-1.0383725,0.113105774,4.22797,1.8459295,-0.9673691,-4.3988724,-0.058250427,-1.221962,2.5323868,-1.435247,-0.13843536,2.268711,1.6761501,0.09326935,-6.1982155,0.077934265,-0.29842377,2.9401093,-1.3050829,-0.5083847,-1.7181664,1.8425726,0.5074692,-8.480965,0.0,0.0,0.0,0.0,0.0,0.0,0.0,0.0,0.0,0.0,0.0,0.0,-0.04381929,-0.1941684,0.47221807,-0.9691278,0.24175213,-0.36789492,0.19242404,-0.7758378,-0.89607036,0.95695037,-0.8294329,-0.009313275
2025-06-04 18:28:47.417,0.068786,-3.225068,-13.314145,-0.27824703,0.2501323,0.19617413,2.358119,-0.285231,8.958156,0.007063761,0.12760162,-0.7061882,-1.0287726,-0.59490204,-0.46326447,1.8468196,0.6797409,0.4791336,-0.092818156,0.32138824,-1.7486839,-1.0114408,0.15583038,3.8263512,1.8410467,-0.013389587,-6.2812233,-0.040168762,0.2678299,1.6046371,-1.426702,0.3422165,1.1236725,1.6946132,0.37517548,-7.624016,0.07518768,-0.01285553,1.18227,-1.3156878,-0.6431198,-0.5181961,1.8491338,-0.44750214,-0.25940323,0.0,0.0,0.0,0.0,0.0,0.0,0.0,0.0,0.0,0.0,0.0,0.0,0.20107721,0.25243977,0.10438669,-0.95438015,-0.14791,0.06830508,0.69329333,-0.8566885,-0.67543674,0.97917247,-0.7236757,-0.19648121
2025-06-04 18:28:47.471,-0.635717,-1.98262,-12.869345,0.11666522,0.43392518,0.09906793,1.045236,-1.775747,9.189445,0.01515092,0.11631012,-1.2249947,-1.003443,0.111961365,5.6989403,1.8613918,0.53813934,-3.9935913,-0.07633866,0.8671951,-2.944992,-1.0202146,-0.25234222,-1.8500023,1.8750738,0.7405472,-5.5255966,-0.013465881,0.4945755,2.3688087,-1.4181571,0.04924774,0.053100586,1.7152889,0.29491425,-5.807583,0.08480072,0.41492462,0.17395401,-1.3314043,-0.23281097,0.46204376,1.8123602,-0.58971405,-0.2508583,0.0,0.0,0.0,0.0,0.0,0.0,0.0,0.0,0.0,0.0,0.0,0.0,0.62090856,0.35529724,-0.56375444,-0.80344677,-0.33278596,0.69541615,0.8198754,-0.88409936,0.15279184,0.93306816,-0.6383542,-0.105909176
2025-06-04 18:28:47.525,0.274438,-1.763541,-12.828782,0.58734006,-0.10233115,-0.03438063,-1.806131,-3.087382,10.166919,0.039259806,0.34236908,-0.30578995,-0.99924684,0.4213333,6.421608,1.85834,0.08113861,-9.859159,-0.06214799,-0.11188507,-0.33386612,-1.0528684,-0.26966095,-2.7069511,1.9311498,0.68660736,-1.3372993,0.021781921,0.47496796,0.80018234,-1.4360862,-0.28949738,1.4105453,1.7644222,0.7009506,0.13733292,0.1014328,0.11035919,-1.8316917,-1.3323961,0.14392853,1.2628365,1.814649,0.5185318,-4.07782,0.0,0.0,0.0,0.0,0.0,0.0,0.0,0.0,0.0,0.0,0.0,0.0,0.9764113,0.30935195,-0.955988,-0.6740713,-0.5746589,0.9674809,-0.03333797,-0.94707996,0.9564248,0.9782161,-0.6826526,-0.5936739
2025-06-04 18:28:47.579,1.475265,-1.838835,-13.065721,0.4501237,-0.14080593,-0.13016327,-0.428478,-0.91293,11.920995,0.05383195,-0.04032135,2.068512,-0.9779608,0.53546906,3.150074,1.8359859,-0.6255722,-10.706341,-0.071532145,-0.631752,0.6366081,-1.125195,-0.9683609,-1.6046371,1.979978,0.6218338,0.526741,0.023918152,0.14583588,-0.9027252,-1.4392142,-0.038719177,-0.6952019,1.8671138,1.7894363,0.2874794,0.12271881,-0.057868958,-1.8939514,-1.3332354,-0.109825134,0.15808487,1.8308996,0.4191208,-10.11673,0.0,0.0,0.0,0.0,0.0,0.0,0.0,0.0,0.0,0.0,0.0,0.0,0.8798256,0.70342577,-0.80116403,-0.78380877,-0.36788,0.8276147,-0.9050926,-0.97185725,0.659032,0.96194065,-0.5467943,-0.748823
2025-06-04 18:28:47.631,2.540652,-1.807983,-13.674864,0.46421224,0.34080774,-0.19909228,-0.293392,0.986142,9.369538,0.04917802,0.17765045,1.2713814,-0.9241736,1.3831711,6.76585,1.8032558,-0.6447983,-6.922104,-0.07649125,-0.26439667,0.11779785,-1.1480069,-0.14492035,-0.604866,1.9952368,0.062217712,0.61829376,-0.006904602,-0.5738449,-0.96009827,-1.4407401,-0.111961365,-0.5938797,1.9121273,0.38921356,0.5999832,0.12851715,0.068473816,-1.498436,-1.3030993,0.8626938,-1.7181664,1.832807,-0.046272278,-10.133823,0.0,0.0,0.0,0.0,0.0,0.0,0.0,0.0,0.0,0.0,0.0,0.0,0.40219304,0.7276269,-0.38138002,-0.9256201,0.28401226,-0.5448129,-0.98478246,-0.97796917,-0.9070776,0.9571231,-0.6362338,-0.82260627
2025-06-04 18:28:47.684,3.727199,-0.617702,-13.707429,-0.5980582,0.1028567,0.1018416,-1.863912,3.584439,14.331918,0.041930094,-0.34435272,1.2628365,-0.8673346,0.64655304,5.936981,1.7917354,-0.454216,-2.1075745,-0.0809163,-0.33184052,0.3216591,-1.0766721,1.233635,4.695507,1.9254278,-0.9833908,-7.680172,-0.047187805,-0.5138016,-0.35828018,-1.453176,-0.12592316,0.23620987,1.7940242,-2.409481,0.08850098,0.11608124,-0.397377,1.9330139,-1.2627398,0.6005478,-4.5453568,1.8235754,-0.2981949,-9.459984,0.0,0.0,0.0,0.0,0.0,0.0,0.0,0.0,0.0,0.0,0.0,0.0,-0.38658032,-0.39241952,-0.031198109,-0.90599173,0.10948435,-0.5759804,-0.78361475,-0.8734175,-0.9742382,0.9714872,-0.8519598,-0.5684476
2025-06-04 18:28:47.739,2.168855,-1.994446,-12.799101,-0.7052421,-0.80487365,0.305174,1.021669,3.471916,5.471358,0.016447917,-0.5863571,-0.38391876,-0.9646094,-2.4388542,0.65125656,1.7891414,-0.02407074,0.15686417,-0.09907426,-0.27736664,1.4142075,-1.0449338,0.2904892,2.715496,1.8587469,-1.2135696,-3.7421227,-0.058555603,-0.110588074,-0.77088547,-1.443563,0.08281708,-0.06896973,1.6920192,-1.6135025,0.103149414,0.08281708,-0.560112,3.007248,-1.2787615,-0.598259,-3.0414276,1.8329595,0.32367706,-9.976349,0.0,0.0,0.0,0.0,0.0,0.0,0.0,0.0,0.0,0.0,0.0,0.0,-0.19080624,-0.286745,0.50159174,-0.963721,0.28880093,-0.50738215,0.018243259,-0.77153623,-0.9181148,0.94747925,-0.84897697,-0.009597862
2025-06-04 18:28:47.794,0.31159,-3.612763,-12.373106,-0.12938595,0.29506847,-0.067787156,3.468228,0.78256,9.728288,0.004088297,-0.045051575,-0.20447159,-1.0391486,-0.77754974,-0.08605957,1.8372066,0.80249786,0.6976433,-0.09373368,0.47916412,-2.7167168,-1.0132718,0.50029755,4.794384,1.8298315,0.0031661987,-7.3139534,-0.048332214,0.32398224,0.5987625,-1.4308982,0.17635345,2.1649513,1.6882808,0.4679489,-7.869381,0.06855011,0.11844635,1.0699615,-1.2976061,-0.25371552,-4.1767006,1.8653845,-0.065574646,-2.8973846,0.0,0.0,0.0,0.0,0.0,0.0,0.0,0.0,0.0,0.0,0.0,0.0,0.030232258,0.16531304,0.42312086,-0.96674776,-0.03312759,-0.17852527,0.61852753,-0.8484228,-0.7824815,0.981933,-0.78063965,-0.11623803
2025-06-04 18:28:47.846,-0.613687,-2.39855,-11.957768,-0.20284906,0.5218491,0.1384372,2.404924,-0.733693,8.451909,0.0060719396,0.17642975,-0.56824493,-1.0145056,0.24524689,3.572441,1.8667324,0.65509796,-0.18494034,-0.076186076,0.8421707,-3.137867,-1.0069394,-0.013084412,-0.6720085,1.8519567,0.4605484,-6.619362,-0.023078918,0.1430893,3.073166,-1.4211326,0.27866364,-0.27038956,1.7139919,0.4227829,-7.49218,0.07732391,0.048103333,0.57434845,-1.3281237,-0.23303986,-0.2459755,1.8299841,-0.562706,-0.08117676,0.0,0.0,0.0,0.0,0.0,0.0,0.0,0.0,0.0,0.0,0.0,0.0,0.23412077,0.47648847,-0.12914781,-0.86030746,-0.22212236,0.34148473,0.8305647,-0.87444645,-0.3937905,0.952986,-0.6021191,-0.08336028
2025-06-04 18:28:47.898,-0.738646,-1.323462,-11.680005,0.54299855,0.09772592,0.055083986,-1.760428,-4.106101,12.119145,0.022246256,0.4831314,-2.4689102,-0.99779725,0.048103333,10.120392,1.876498,0.15033722,-5.5719833,-0.053526774,0.85453033,-3.777523,-1.0234952,-0.63396454,-2.5824356,1.8995641,0.651741,-3.0048065,0.009727478,0.8006668,1.2518501,-1.4222007,-0.22281647,0.74403,1.7424495,0.38173676,-3.9801636,0.08495331,-0.13027191,0.30578995,-1.3177477,0.2376175,0.049438477,1.8111395,-0.22014618,-0.46814728,0.0,0.0,0.0,0.0,0.0,0.0,0.0,0.0,0.0,0.0,0.0,0.0,0.84157616,0.28804922,-0.8516494,-0.6544076,-0.41173676,0.86142,0.7030846,-0.9134015,0.7099651,0.9323484,-0.6682411,-0.21382642
2025-06-04 18:28:47.949,0.314549,-1.608496,-11.774954,0.666691,-0.19455688,-0.043559,-1.500824,-2.480995,10.998934,0.04917802,0.4529953,0.055541992,-0.9893286,0.4441452,3.9435425,1.8545253,-0.58956146,-10.220493,-0.05634965,-0.096092224,0.72938156,-1.0752225,-1.0396957,-1.0772858,1.9507574,0.79753876,0.22034073,0.036201477,0.42865753,-0.7525749,-1.4382987,0.016899109,-0.21545792,1.824847,1.517067,0.65003586,0.10723114,0.6571579,-2.7228203,-1.3219439,-0.07526398,0.5658035,1.8313574,0.6467056,-6.7267876,0.0,0.0,0.0,0.0,0.0,0.0,0.0,0.0,0.0,0.0,0.0,0.0,0.99028397,0.3832023,-0.9679721,-0.6387397,-0.542524,0.9830801,-0.60488546,-0.9490791,0.98243785,0.9857528,-0.70350325,-0.7487892
2025-06-04 18:28:48.000,1.524094,-2.226403,-12.18751,0.28724122,-0.16664317,-0.16487217,0.498623,0.224477,11.575618,0.049864665,-0.09654999,2.7399101,-0.9615576,0.7252121,3.1671638,1.8226345,-0.6359482,-9.342794,-0.06626786,-0.083732605,0.34485245,-1.1397672,-0.98934174,-0.9759674,1.9884466,0.807991,0.46082306,0.014152527,-0.24791718,-1.498436,-1.4361625,-0.064201355,-0.84168625,1.9106777,1.340065,0.64515305,0.12180328,0.19756317,-0.855114,-1.3246905,0.13149261,-1.1566353,1.8454717,0.2526474,-12.300602,0.0,0.0,0.0,0.0,0.0,0.0,0.0,0.0,0.0,0.0,0.0,0.0,0.5974742,0.777238,-0.51406807,-0.8572373,-0.023143431,0.09644701,-0.9695346,-0.9739911,-0.36300927,0.946079,-0.5239705,-0.79876244
2025-06-04 18:28:48.051,2.492297,-1.958367,-12.795454,0.12393621,0.38748327,-0.20861977,-0.609655,1.624844,7.163152,0.04337968,0.14133453,0.11779785,-0.9067023,1.2131119,7.1406136,1.8014247,-0.49617767,-4.8749504,-0.07397355,-0.070762634,0.017700195,-1.1003995,0.7767868,-0.27771378,1.9447302,-0.49480438,-2.8497734,-0.019874573,-0.57857513,-1.1993599,-1.4405112,-0.10257721,-0.5621414,1.8536861,-1.5749741,-0.1727333,0.12180328,-0.07633209,-0.91127014,-1.2815844,1.0355759,-3.4467087,1.839826,-0.091285706,-10.683147,0.0,0.0,0.0,0.0,0.0,0.0,0.0,0.0,0.0,0.0,0.0,0.0,-0.12631579,0.093132734,-0.16129059,-0.9275577,0.23198223,-0.7117888,-0.9315623,-0.95287323,-0.9772627,0.9598927,-0.8022768,-0.6133961
2025-06-04 18:28:48.102,2.40688,-1.521,-12.51013,-0.9166426,-0.5892385,0.16418837,0.988916,3.273041,10.587642,0.023772135,-0.53676605,0.5096512,-0.90975404,-0.2035904,-1.2188911,1.8027217,-0.23410797,-1.0174713,-0.08358659,-0.4644394,1.5289536,-1.0443234,0.3911209,4.867626,1.8848394,-1.4565659,-5.8466454,-0.05619049,-0.069618225,-0.26062393,-1.4530234,-0.088005066,0.045776367,1.7340572,-2.2155418,0.48645782,0.09723663,-0.52776337,3.1512947,-1.2747179,-0.18947601,-2.9828339,1.8392919,0.09502411,-9.445335,0.0,0.0,0.0,0.0,0.0,0.0,0.0,0.0,0.0,0.0,0.0,0.0,-0.27819434,-0.39201075,0.3835411,-0.94810265,0.26221713,-0.5523742,-0.36926186,-0.76646245,-0.94437724,0.95765233,-0.8472744,-0.17701049
2025-06-04 18:28:48.153,0.009903,-3.655166,-12.301025,-0.40450644,-0.20676468,-0.057238754,2.590777,0.701839,6.738562,0.010191813,-0.65631866,-0.10925293,-1.0002387,-1.9192886,-0.7745476,1.8367488,0.5914688,0.14343643,-0.09831132,0.009422302,-1.260395,-1.0203671,0.4227829,4.26215,1.839063,-0.021629333,-8.078125,-0.055885315,0.19184113,0.18616104,-1.439672,0.16605377,1.957428,1.6978176,0.1607132,-7.417717,0.074043274,-0.07061005,1.5606918,-1.2989794,0.17910004,-5.4157333,1.861646,0.002708435,-5.0959015,0.0,0.0,0.0,0.0,0.0,0.0,0.0,0.0,0.0,0.0,0.0,0.0,-0.8289446,0.85996383,0.95712274,-0.9651861,-0.5753634,-0.54109114,-0.21149504,-0.9725731,-0.993969,0.9930924,-0.63241875,-0.19677499
2025-06-04 18:28:48.204,-0.339425,-3.203874,-11.848318,-0.18722752,-0.062965006,0.47540382,6.817663,-0.231838,9.471082,-0.021622762,-0.39028168,-0.9356842,-0.86779237,2.82864,-0.35950089,1.9087703,1.3389206,0.26550674,-0.087019816,0.17543793,-2.3395119,-1.0575986,-0.6998825,-6.134739,1.8396734,-0.10219574,-7.8376427,-0.05092621,-0.2135086,2.1112366,-1.4438682,-0.4782486,0.48645782,1.7112453,0.3987503,-9.607691,0.08243561,0.17513275,0.5584793,-1.2979876,-0.39859772,1.5460434,1.8365453,-0.17421722,-2.8082695,0.0,0.0,0.0,0.0,0.0,0.0,0.0,0.0,0.0,0.0,0.0,0.0,-0.9810632,0.96407247,0.9468137,-0.90827113,-0.8974014,-0.8001052,-0.4223707,-0.9514537,-0.99494874,0.98389894,0.342035,0.74813247
2025-06-04 18:28:48.255,-1.327472,-3.104704,-10.41198,-0.59033597,0.58215106,0.3326685,2.764846,0.289601,10.028205,-0.050080404,-0.4554367,-1.5179672,-0.73801637,2.0669975,-0.06896973,1.9602687,0.6773758,0.8709831,-0.07130326,0.087394714,-1.3556099,-1.1061215,-1.0750961,-10.33646,1.8470739,0.2210617,-12.519112,-0.0687027,-0.2613449,3.577324,-1.4511161,-0.2601242,0.9015045,1.7125423,-0.034828186,-7.892578,0.08937836,-0.08167267,-0.9015045,-1.1843096,3.3872643,1.1725044,1.8717932,1.133995,0.80628586,0.0,0.0,0.0,0.0,0.0,0.0,0.0,0.0,0.0,0.0,0.0,0.0,-0.9818941,0.99015087,-0.1257897,-0.9311937,-0.87602854,-0.667832,-0.92540854,-0.9362694,-0.99869674,0.9988292,0.9284851,0.96160895
2025-06-04 18:28:48.306,-2.982348,-2.718219,-9.137108,-0.41828397,0.1570981,0.54592013,3.441423,-0.488993,10.339685,-0.06282149,-0.03429413,-1.8402367,-0.64997315,1.0638809,0.2508583,1.8996913,-1.2794876,-0.045776367,-0.060545817,0.17398834,-3.1671638,-1.1825681,-1.7952347,-3.2587166,1.856687,0.025901794,-10.443886,-0.10662079,-0.73833466,3.9349976,-1.4844565,-0.86566925,4.646679,1.7004116,-0.3660202,-6.0517273,0.091056824,0.12622833,0.76111984,-0.9527537,4.5612755,-2.0526428,1.9336675,1.159935,0.015258789,0.0,0.0,0.0,0.0,0.0,0.0,0.0,0.0,0.0,0.0,0.0,0.0,-0.98629713,0.98925567,-0.99132216,0.2853331,-0.081109345,0.99694645,-0.9930835,-0.9704993,-0.99949247,0.99866533,0.7008352,0.0065869424
2025-06-04 18:28:48.357,-3.262668,-1.822566,-7.189329,0.6686884,0.6101127,0.5401454,-8.069973,-5.814699,16.888859,-0.067704305,0.5321121,-3.6798668,-0.6278479,-0.5881119,6.680401,1.8504817,0.48259735,-16.127565,-0.0047749425,0.9404373,-2.059967,-1.2384152,-0.8073807,13.672693,1.9215368,0.7897568,3.2904549,-0.12020111,0.15750885,-0.018920898,-1.4989524,0.54706573,0.14465714,1.6640956,-0.8904648,-1.8414574,0.092430115,0.23029327,-0.11657715,-0.8231303,0.86338043,3.1061249,1.9012426,-0.29651642,-2.7374687,0.0,0.0,0.0,0.0,0.0,0.0,0.0,0.0,0.0,0.0,0.0,0.0,-0.9806435,0.86580235,-0.99916965,0.9989827,0.96742904,0.9999284,-0.989472,-0.972518,-0.97233367,0.94167197,-0.774346,-0.95932007
2025-06-04 18:28:48.408,-2.885666,-0.110896,-7.720911,-0.016528303,-0.112576194,-0.5282096,-4.703048,-0.575164,12.838312,-0.07335006,-0.19939423,-0.40833282,-0.6403601,-0.090675354,2.5568008,1.8369014,-1.2501144,-7.777828,0.022996053,0.39608002,0.092163086,-1.1036801,6.452835,-2.5873184,1.9407629,1.2873459,0.2825966,-0.10684967,0.029563904,0.19470596,-1.4851432,-0.029029846,0.29480362,1.6277034,-0.3813553,-2.1710548,0.10845184,0.009269714,-1.9623108,-0.9225413,-2.0730247,-10.699017,1.8614935,-0.46764374,-12.300602,0.0,0.0,0.0,0.0,0.0,0.0,0.0,0.0,0.0,0.0,0.0,0.0,-0.15792014,-0.032987505,-0.99368596,0.99759144,0.9823373,0.99045396,-0.99106705,-0.82678634,-0.7682117,0.9342944,-0.81672233,-0.8466656
2025-06-04 18:28:48.459,-2.524857,-2.782931,-8.282115,0.56202996,-1.0254091,0.21056792,4.384106,0.510411,8.687856,-0.0564128,0.45124054,-0.27649307,-0.7237494,-1.5478134,-7.5068283,1.7688472,-1.0568619,-6.057831,0.04786788,0.1317215,1.2225533,-0.863583,3.9680138,-1.4801254,1.9857763,0.92746735,0.31067276,-0.11615753,-0.23586273,1.6400414,-1.508184,-0.43750763,6.602272,1.6202266,-0.24097443,-0.14099503,0.117836,0.3258133,-1.7010765,-1.0015055,-1.5678787,-10.878464,1.881864,0.5422592,-15.717403,0.0,0.0,0.0,0.0,0.0,0.0,0.0,0.0,0.0,0.0,0.0,0.0,0.8665593,-0.55382323,-0.99155957,0.99414253,0.9879904,0.9790592,-0.9949648,-0.29635316,0.6299406,0.96761084,-0.7298634,-0.8406555
2025-06-04 18:28:48.510,-0.772696,-4.750549,-7.152423,0.58182424,-0.08616692,0.4469504,4.609094,1.205878,8.406747,-0.012620077,0.7404709,1.1273384,-0.82407594,-2.0024529,-12.368963,1.7534359,-0.023002625,-9.746853,0.064423665,0.29315948,0.9625397,-0.72320217,1.9615555,-0.19714737,2.010038,0.34816742,0.91737366,-0.122413635,-0.21411896,1.3226509,-1.45783,1.3362503,8.668957,1.6926296,1.5485764,5.61837,0.12271881,0.12180328,-1.5997543,-1.0721537,-1.40522,-6.8806,1.8896459,-0.025291443,-14.018158,0.0,0.0,0.0,0.0,0.0,0.0,0.0,0.0,0.0,0.0,0.0,0.0,0.9880808,-0.6767506,-0.9787456,0.9768587,0.9775512,0.96171093,-0.9971324,0.28365695,0.9908746,0.94227695,-0.8701556,-0.95901954
2025-06-04 18:28:48.561,0.693149,-5.021144,-5.990166,0.4248325,0.076257184,0.4548085,4.487108,1.207974,8.563501,0.026671305,0.63488007,0.32043839,-0.8999121,-1.739769,-12.609446,1.7548091,-0.03643036,-9.709011,0.07205306,-0.12439728,1.5191879,-0.6443905,0.8863449,0.21789932,2.0236182,-0.0075912476,1.0614166,-0.12607574,0.2841568,0.14587784,-1.3102012,3.4545555,4.6271477,1.7943294,1.9563675,3.5968552,0.13195038,0.3094864,-2.944992,-1.1556231,-1.8647385,-3.9996948,1.8843054,-0.3460312,-14.049896,0.0,0.0,0.0,0.0,0.0,0.0,0.0,0.0,0.0,0.0,0.0,0.0,0.9636159,-0.5313618,-0.886979,0.94681937,0.9779906,0.2947661,-0.9967398,0.58541095,0.9726696,0.8841107,-0.95062417,-0.9929252
2025-06-04 18:28:48.612,1.267076,-5.505702,-5.16724,-0.006148306,-0.040397897,0.23201987,2.869253,1.166184,8.301065,0.047881022,0.8936691,0.60608673,-0.9858954,-1.6779709,-5.1215363,1.7599208,0.01941681,-8.96315,0.07556258,-0.48297882,0.46082306,-0.59602016,0.42682648,0.5987625,1.9786047,-1.0208511,-0.5242996,-0.12310028,0.42583466,-0.111694336,-1.1226707,4.3274345,-0.10925293,1.8791683,1.8310165,0.39124298,0.13866425,0.109443665,-2.4762344,-1.251372,-1.6184616,-2.6117325,1.8623327,-0.6231308,-11.524223,0.0,0.0,0.0,0.0,0.0,0.0,0.0,0.0,0.0,0.0,0.0,0.0,0.34279343,-0.52667964,-0.25630295,0.93018705,0.9758584,-0.96303684,-0.99254936,0.4160394,-0.7418152,0.794791,-0.99509925,-0.9989464
2025-06-04 18:28:48.663,0.706303,-5.89805,-4.907806,0.12845358,0.6869457,0.18605848,1.879662,-0.635015,5.379107,0.0468892,0.35877228,-1.4520493,-1.081034,-0.8812332,-3.0450897,1.7889125,0.9620285,-6.59861,0.08532821,-0.059928894,-0.026245117,-0.56473964,0.5698776,-0.5450516,1.8246435,-2.690014,-0.03112793,-0.12447357,0.31665802,-0.09460449,-1.0367637,0.7303238,7.949951,1.8223293,-1.7708206,-2.3395119,0.1330185,-0.56468964,-0.37170792,-1.3227068,-0.49816132,-5.5878525,1.8141912,-1.7035294,-5.1740303,0.0,0.0,0.0,0.0,0.0,0.0,0.0,0.0,0.0,0.0,0.0,0.0,-0.9656293,-0.018401057,0.9851375,0.7241342,0.6849847,-0.9943896,-0.98467284,-0.72757673,-0.9991957,0.9676176,-0.9824551,-0.98607177
2025-06-04 18:28:48.714,1.695321,-1.994817,-3.399961,0.38583672,1.2452646,0.46212488,-0.180723,-1.816924,3.491349,0.025298014,-0.79647064,-2.536049,-1.1117804,-1.6282272,12.24445,1.8904598,1.8401718,0.092163086,0.08494674,0.30406952,-1.9061584,-0.61265224,-1.8413925,5.7672997,1.7651342,1.0924149,-15.813839,-0.12630463,-1.0328293,4.865185,-1.1169486,-1.7300034,-3.2684822,1.7513759,-0.5509567,-7.327381,0.11386871,-0.39051056,1.4679184,-1.3767992,-0.38913727,-1.1419868,1.7098974,-1.6965866,-0.1312294,0.0,0.0,0.0,0.0,0.0,0.0,0.0,0.0,0.0,0.0,0.0,0.0,-0.9872932,0.88334817,0.9974008,-0.8249992,-0.5839648,-0.99903977,-0.9454699,-0.94497734,-0.9975661,0.98151785,-0.7751731,0.24336956
2025-06-04 18:28:48.765,0.178385,-0.860996,-2.101006,-0.42092043,-0.8586541,0.6408776,-1.995281,1.524487,11.431563,-0.009492025,-0.66539764,-0.47058868,-1.0579932,5.2015343,0.03845215,1.922198,1.3238144,0.71839523,0.0488597,-0.16460419,-5.246052,-0.7717251,-2.690319,-9.640652,1.7940496,-0.15422821,-10.845501,-0.17017365,-0.9719467,7.1613655,-1.1960654,-1.9977188,-2.9352264,1.7464168,0.013084412,-9.633326,0.110435486,0.04962921,-0.16174698,-1.386336,0.06908417,0.49744415,1.7491125,1.1314011,0.27771378,0.0,0.0,0.0,0.0,0.0,0.0,0.0,0.0,0.0,0.0,0.0,0.0,-0.98629266,0.93682545,0.9963546,-0.9815268,-0.93766403,-0.99732196,-0.92953444,-0.87621164,-0.99727964,0.99333626,0.2454499,0.923079
2025-06-04 18:28:48.816,-0.247512,-3.66102,-1.157564,-0.6180973,0.424737,-0.36028472,2.582099,0.171333,10.478435,-0.04596053,-0.45886993,-1.0138092,-0.8444464,3.2716026,-0.03967285,1.978503,0.3658676,0.9625397,0.032532796,-0.8527756,-2.6764336,-0.9051632,-1.6752243,-17.259174,1.7977117,0.4379654,-13.560387,-0.198555,-0.39165497,5.8381004,-1.2811332,-1.4393997,-0.34241104,1.7340572,-0.44132233,-6.3288307,0.122032166,0.77861786,-3.9594116,-1.3416277,2.327694,12.910963,1.7966436,1.9709396,3.8898315,0.0,0.0,0.0,0.0,0.0,0.0,0.0,0.0,0.0,0.0,0.0,0.0,-0.96954864,0.9809908,0.83058786,-0.9863731,-0.96561056,-0.989869,-0.98506343,-0.77589613,-0.9938534,0.9996995,0.95261896,0.99552214
2025-06-04 18:28:48.867,-2.108243,-3.267994,-2.466209,-0.47762704,0.16108684,-0.35358,-0.12595,1.115095,11.692466,-0.06007491,-0.7893753,-0.5523758,-0.71543336,2.1390953,-0.19592667,1.9923885,0.20946503,0.27771378,-0.008742228,-0.6378555,-0.8538933,-0.99290127,-1.5729141,-13.938812,1.8201421,0.56461334,-14.76524,-0.21289825,0.045967102,5.602501,-1.3434653,-1.3549423,3.9227905,1.698962,-0.7400894,-3.9789429,0.13187408,-0.112953186,-1.2323189,-1.1222025,4.798092,5.56588,1.8653845,1.8584061,1.3080025,0.0,0.0,0.0,0.0,0.0,0.0,0.0,0.0,0.0,0.0,0.0,0.0,-0.97491676,0.99510825,-0.86541295,-0.927285,-0.90687674,-0.8588946,-0.9966997,-0.90358895,-0.99887127,0.9999309,0.9805047,0.9804162
2025-06-04 18:28:48.918,-2.756118,-3.663162,-2.974837,0.18488708,-0.569326,0.19916862,0.691327,0.039295,7.5616,-0.06701766,-0.13584137,-0.9051666,-0.6353247,1.3001633,-0.022583008,1.8451412,-2.8107872,0.03845215,-0.010420695,0.36907196,-5.888153,-1.1132932,-2.5495567,-3.4772263,1.8298315,0.017280579,-11.614555,-0.21579742,0.17803192,4.9591827,-1.4327292,-1.551857,7.044174,1.6584499,-0.8976364,-1.6107407,0.11417389,-0.21213531,1.33852,-0.8763072,4.0379753,-0.5902176,1.9406866,1.1231613,0.6964226,0.0,0.0,0.0,0.0,0.0,0.0,0.0,0.0,0.0,0.0,0.0,0.0,-0.9752354,0.98466414,-0.9937398,0.7932542,0.060146723,0.9999013,-0.9950873,-0.946658,-0.9977107,0.99711406,0.32725382,-0.6964824
2025-06-04 18:28:48.969,-1.980993,-3.910368,-2.043068,0.53105855,0.86403006,0.061169602,-8.784025,-4.531407,9.372422,-0.08250533,-0.41851044,1.006485,-0.62586427,-1.0705948,8.085449,1.79761,1.7123795,-19.004807,0.044053182,0.36281586,0.0592041,-1.1751676,-0.5059433,12.10895,1.8975042,1.1249924,2.765545,-0.20053864,1.3544083,-0.206913,-1.4772086,0.60489655,-0.051879883,1.6129024,-0.87436676,0.3949051,0.11981964,0.11302948,-1.9879456,-0.83671063,0.15804291,-0.042114258,1.8875097,-0.87688446,-7.9206543,0.0,0.0,0.0,0.0,0.0,0.0,0.0,0.0,0.0,0.0,0.0,0.0,-0.96632755,0.6835858,-0.9985579,0.99940205,0.96098614,0.99972665,-0.9863226,-0.962372,-0.933218,0.81231093,-0.87932754,-0.95495075
2025-06-04 18:28:49.020,-1.735157,-0.368474,-3.670871,0.071665905,0.0008332376,-0.63014203,-3.425599,-1.08667,9.804895,-0.08982955,-0.07480621,-0.08972168,-0.6669867,-0.49564362,2.1734962,1.8050869,-1.090126,-7.409172,0.056489095,-0.08274078,1.1334419,-1.0453916,5.827297,-2.9755096,1.9293951,1.5353012,0.053100586,-0.15727997,-0.009422302,1.5484848,-1.4708762,-0.22525787,0.60852814,1.5887172,-0.22762299,-0.7000847,0.12935638,0.26493073,-2.9730682,-0.95344037,-2.8049126,-9.433128,1.8410467,-0.8477402,-9.704128,0.0,0.0,0.0,0.0,0.0,0.0,0.0,0.0,0.0,0.0,0.0,0.0,0.21655937,-0.261238,-0.99305755,0.99756587,0.9821412,0.98884743,-0.9913023,-0.72375417,-0.4169788,0.9073333,-0.8253391,-0.8261274
2025-06-04 18:28:49.071,-1.552139,-3.238586,-4.67576,-0.2435256,-1.6195359,-0.0035036088,2.446447,3.277526,4.871725,-0.072358236,0.05580902,3.2806892,-0.78341126,-1.458168,-8.482185,1.7535121,-0.7741928,-6.758526,0.068848714,0.35068512,-0.33874893,-0.8288693,3.3889427,-2.0550842,1.9788336,0.96401215,-0.26184464,-0.1493454,-0.1506424,2.2027931,-1.4780478,-1.1044693,11.372852,1.602145,-0.19512177,4.66621,0.14614105,0.22411346,-3.375908,-1.057963,-1.5743637,-7.0759125,1.8567632,0.47672272,-14.305027,0.0,0.0,0.0,0.0,0.0,0.0,0.0,0.0,0.0,0.0,0.0,0.0,0.9541242,-0.66362906,-0.99221784,0.99375373,0.98607415,0.97681344,-0.9958597,-0.009835827,0.92499375,0.9605918,-0.75548553,-0.86991656
2025-06-04 18:28:49.122,-0.414422,-4.684374,-4.059109,0.7693512,0.23278517,0.5565436,5.105635,0.304191,9.813033,-0.028107747,1.0705185,1.3519478,-0.8660376,-1.1281967,-15.12047,1.7518337,0.245018,-10.908979,0.07693587,-0.11707306,1.8097191,-0.705502,1.5578842,0.21667862,2.0055366,0.2663803,1.2762642,-0.14713287,-0.45108795,4.153507,-1.413198,1.9349289,11.433891,1.6975124,2.7889671,4.995804,0.16033173,0.33229828,-4.24506,-1.1267039,-1.6041946,-3.8617516,1.8595861,-0.03879547,-12.976883,0.0,0.0,0.0,0.0,0.0,0.0,0.0,0.0,0.0,0.0,0.0,0.0,0.9858782,-0.68336093,-0.97068053,0.9741651,0.9756103,0.92898345,-0.9969066,0.46257266,0.9956026,0.93293995,-0.8931557,-0.97217613
2025-06-04 18:28:49.173,1.084752,-4.617843,-2.556441,0.3316362,0.06320958,0.48892474,0.424341,1.188519,8.556787,0.018736735,0.729866,0.22278214,-0.92844605,-1.2964249,-12.191959,1.7714412,0.30246735,-11.48394,0.079682454,0.15926361,0.53162384,-0.63164943,1.1027908,-0.72083664,2.0197272,0.16300201,-0.021362305,-0.14873505,0.12134552,1.3910141,-1.2544303,4.825405,0.76111984,1.8027217,2.3553886,1.6693382,0.17162323,0.21038055,-3.8861694,-1.2121569,-1.6740799,-3.8080406,1.8473791,-0.5838394,-11.341114,0.0,0.0,0.0,0.0,0.0,0.0,0.0,0.0,0.0,0.0,0.0,0.0,0.9441034,-0.5183407,-0.8642472,0.9548127,0.98138726,-0.12803592,-0.9969191,0.6205002,0.9586494,0.88518465,-0.96246636,-0.9951771
2025-06-04 18:28:49.224,1.560424,-4.685923,-1.237103,-0.110416874,-0.0274142,0.40297306,0.706438,0.843177,11.094819,0.039183512,0.63373566,0.5609207,-1.0136664,-1.5691757,-2.8400078,1.7820461,-0.017356873,-9.518578,0.07701217,0.08388519,0.8148308,-0.59006923,0.5624771,0.21912003,1.9364904,-1.766777,-0.10192871,-0.13576508,0.4680252,-0.13489151,-1.0691123,3.6354485,0.30823135,1.8851955,1.65699,0.84290695,0.16857147,-0.23967743,-2.965744,-1.3034045,-1.6107559,0.045776367,1.8180059,-0.54309845,-10.084991,0.0,0.0,0.0,0.0,0.0,0.0,0.0,0.0,0.0,0.0,0.0,0.0,-0.39091203,-0.5236569,0.18964572,0.91366845,0.9648668,-0.9905679,-0.9876148,0.10922829,-0.97086835,0.7745344,-0.9973435,-0.99920315
2025-06-04 18:28:49.276,0.578096,-5.168311,-0.667203,0.14161551,1.1049033,0.19598074,0.948627,-2.787345,4.527288,0.020415202,0.12332916,-3.502861,-1.1133826,-1.2473679,-0.19348526,1.8282802,1.0911942,-3.8580894,0.08525191,-0.06412506,0.12145996,-0.5618405,0.43712616,-0.7928581,1.7903112,-2.4609795,-0.10437012,-0.13751984,0.12523651,0.8624382,-1.0160117,0.1821518,2.3749123,1.8341548,-1.3821793,-6.917221,0.15094757,-0.6977463,-0.31555557,-1.3727556,-0.2589035,-3.7677574,1.7668127,-1.698494,-3.2123299,0.0,0.0,0.0,0.0,0.0,0.0,0.0,0.0,0.0,0.0,0.0,0.0,-0.9760946,0.42490852,0.9948766,0.08549952,0.3875684,-0.9973073,-0.9758291,-0.85064155,-0.99864477,0.9715434,-0.9620906,-0.88992053
2025-06-04 18:28:49.327,0.997387,-0.963473,0.279983,-0.72314966,0.6163501,0.067987606,-9.364041,-0.912088,20.355461,-0.0016337488,-0.57483673,-1.8353539,-1.1335242,-0.9331131,20.030212,1.9028194,0.39211273,5.166706,0.076401815,-0.36304474,-1.3788071,-0.63904995,-1.6449356,-0.6012039,1.7804693,0.54317474,-14.130466,-0.14400482,-0.8414078,5.4389267,-1.1067252,-1.3879013,-6.873272,1.7794521,-0.5060959,-9.458763,0.12401581,-0.28972626,0.547493,-1.4067065,-0.7931137,-0.42542267,1.6871618,-1.0804367,-0.32043839,0.0,0.0,0.0,0.0,0.0,0.0,0.0,0.0,0.0,0.0,0.0,0.0,-0.98930687,0.91015536,0.99823266,-0.91481006,-0.74653876,-0.99940896,-0.915639,-0.9636708,-0.9980014,0.9878445,-0.74004364,0.18717618
2025-06-04 18:28:49.378,0.037373,-1.960739,1.172341,0.034009274,-1.6710855,0.33603084,3.952616,-0.6135,10.829791,-0.028794393,-0.46337128,-1.694973,-0.96140504,4.1195335,-0.5645828,1.9438655,0.8358383,1.117569,0.042527303,0.049934387,-6.2238503,-0.81017727,-3.3510246,-9.276875,1.7815374,-0.56453705,-8.469978,-0.18367767,-0.82538605,8.183107,-1.206594,-3.0654564,0.53284454,1.7695339,0.18093109,-11.315481,0.12645721,1.3297653,-3.9276733,-1.4235674,-1.9265366,12.715649,1.723554,0.594368,3.141529,0.0,0.0,0.0,0.0,0.0,0.0,0.0,0.0,0.0,0.0,0.0,0.0,-0.9870797,0.9337495,0.9951485,-0.9813584,-0.96187806,-0.99628025,-0.9144483,-0.8300537,-0.99604535,0.9942827,0.3953112,0.9559472
2025-06-04 18:28:49.429,-0.129008,-4.521733,1.361377,-0.5181487,0.4887206,-0.40802878,1.698891,0.573003,7.904646,-0.059922323,0.45764923,-2.1478615,-0.79508424,2.3359337,0.09338379,1.9884975,0.3422165,1.7267113,0.01811324,-0.53546906,-2.2491798,-0.9203457,-1.7969894,-17.011368,1.7935156,0.38143158,-13.39193,-0.19908905,-0.37807465,5.8002586,-1.282659,-0.9634018,-0.8661003,1.7417629,-1.0297012,-4.8285637,0.12897491,-0.7740402,1.903717,-1.3631426,1.7580032,15.382925,1.7678808,0.31208038,11.057907,0.0,0.0,0.0,0.0,0.0,0.0,0.0,0.0,0.0,0.0,0.0,0.0,-0.9724639,0.9840784,0.6979929,-0.9827271,-0.9585102,-0.9861543,-0.9820469,-0.7749097,-0.9937401,0.9997325,0.96590537,0.9957769
2025-06-04 18:28:49.480,-1.823843,-3.611553,-0.256375,-1.1679184,0.77160484,-0.67262983,3.816061,4.115881,10.795144,-0.06678878,0.7199478,-3.8300133,-0.6848395,1.4435196,0.42908478,1.9904811,-0.046195984,0.15930557,-0.028807536,-0.48412323,-1.3604927,-1.011517,-2.4000206,-11.402153,1.8234991,0.33786774,-14.630962,-0.20824432,0.11692047,4.544136,-1.3442283,-1.3253403,4.8456535,1.6913326,-1.0001755,-2.129551,0.13629913,-0.20236969,-0.5560379,-1.120524,5.1702538,3.2635994,1.8505834,1.5951157,2.129551,0.0,0.0,0.0,0.0,0.0,0.0,0.0,0.0,0.0,0.0,0.0,0.0,-0.97687685,0.99449193,-0.8971252,-0.90017056,-0.8665748,-0.5971695,-0.9952382,-0.9106376,-0.9990649,0.9998623,0.9724859,0.9682178
2025-06-04 18:28:49.531,-2.16546,-3.911519,-0.782827,0.09001146,-0.32200405,0.2115414,1.731869,0.513153,7.024053,-0.07319747,-0.010719299,-1.3397408,-0.61724305,0.7012558,0.7354851,1.8456752,-2.899212,-0.05065918,-0.024916545,0.36373138,-4.8541985,-1.1377072,-2.6906242,-0.44739532,1.8392156,0.03551483,-8.904556,-0.20748138,0.024147034,4.658886,-1.4336448,-1.5572739,6.929428,1.6469295,-0.9302902,-1.1956978,0.11821747,-0.44872284,2.1930275,-0.88187665,3.7743797,-1.0662994,1.9294714,1.2009811,0.2532997,0.0,0.0,0.0,0.0,0.0,0.0,0.0,0.0,0.0,0.0,0.0,0.0,-0.98059845,0.98225147,-0.9957112,0.89737225,0.3072386,0.9999448,-0.993522,-0.9591465,-0.997676,0.9946532,0.09931157,-0.80730796
2025-06-04 18:28:49.582,-1.855429,-3.547518,0.104338,0.010953459,1.1295556,-0.0793752,-10.456475,-2.576021,14.37033,-0.0904399,-0.2854538,1.1285591,-0.6091559,-0.74581146,7.3005257,1.7986782,1.4600754,-18.33341,0.030625448,0.12676239,1.6070786,-1.1959195,-0.4050827,17.433737,1.9000219,0.7341385,3.642025,-0.19016266,1.7879868,-1.912262,-1.4795737,0.43613434,-0.08239746,1.6016872,-0.630455,0.17517471,0.121650696,0.5689621,-2.1771584,-0.85425824,0.14621735,-4.695507,1.8778204,-1.0032272,-8.435799,0.0,0.0,0.0,0.0,0.0,0.0,0.0,0.0,0.0,0.0,0.0,0.0,-0.94012636,0.5605873,-0.9984029,0.99944025,0.96531713,0.9995573,-0.98453027,-0.95603335,-0.9112887,0.80166084,-0.8880764,-0.94562596
2025-06-04 18:28:49.633,-1.761902,-0.546981,-1.113733,-0.052642323,-0.108286716,-0.5362701,-3.322613,-1.524641,10.080207,-0.09120284,-0.048713684,-0.20447159,-0.66286683,-0.8716965,0.64759445,1.8026454,-1.0090256,-8.030518,0.046036825,0.36067963,1.1468697,-1.0527921,6.2754517,-3.5455856,1.9280981,1.5024185,0.0018310547,-0.15621185,0.29109955,1.7328148,-1.4743857,0.11966705,1.3983383,1.5855892,-0.06290436,-0.6036453,0.13103485,0.22220612,-2.8851776,-0.96984357,-2.963375,-7.9316406,1.8360113,-0.8285141,-9.308613,0.0,0.0,0.0,0.0,0.0,0.0,0.0,0.0,0.0,0.0,0.0,0.0,0.37575388,-0.33873066,-0.9935891,0.9977212,0.98421353,0.9892676,-0.99182236,-0.67215526,-0.20250392,0.91392297,-0.8228401,-0.8190597
2025-06-04 18:28:49.684,-2.086426,-3.656421,-2.115722,0.14456922,-1.1399915,0.068008274,3.942421,1.714569,6.09135,-0.06610213,0.59970856,2.8168144,-0.7856238,-1.4636612,-10.420691,1.7610652,-0.30231476,-8.334478,0.06465255,0.0850296,0.16174698,-0.83321804,3.2046928,-1.2860298,1.9786047,0.712471,0.2471962,-0.15018463,0.09479523,1.5399399,-1.496511,-0.7113266,11.415581,1.6013057,-0.10875702,7.0954437,0.14995575,0.18405914,-3.3868942,-1.0715433,-1.5367508,-7.523918,1.8489813,0.32489777,-12.815746,0.0,0.0,0.0,0.0,0.0,0.0,0.0,0.0,0.0,0.0,0.0,0.0,0.9733002,-0.6957304,-0.9932464,0.9940285,0.98608303,0.9813439,-0.99643683,0.058465656,0.9679032,0.9612568,-0.77627546,-0.8892859
2025-06-04 18:28:49.735,-0.745708,-4.887035,-1.025893,0.6519116,0.18753542,0.6256602,3.876401,-0.199663,10.950246,-0.014908895,1.3295364,0.01159668,-0.8599341,-0.90847015,-16.875868,1.7673213,0.4543686,-12.690014,0.074113,0.14354706,0.9332428,-0.7074856,1.8928146,0.23376846,2.0060706,0.4404068,0.95277405,-0.15125275,-0.107307434,2.7399101,-1.4286857,2.5879326,10.242466,1.695071,3.1073418,3.118332,0.16513824,0.2918625,-4.101013,-1.1443316,-1.5048599,-3.4650192,1.8473028,-0.06916046,-11.835506,0.0,0.0,0.0,0.0,0.0,0.0,0.0,0.0,0.0,0.0,0.0,0.0,0.97753066,-0.7475426,-0.98620635,0.9824212,0.9706918,0.910759,-0.99633133,0.4653785,0.99854785,0.9801598,-0.75400627,-0.93790305
2025-06-04 18:28:49.786,0.444821,-4.49577,0.792911,0.50509626,0.44440764,0.68599796,5.559215,-0.821515,9.827434,0.034148112,0.7639694,-0.65003586,-0.9199774,-1.5319443,-13.085527,1.7916591,0.30506134,-12.6875725,0.076783285,-0.36663055,3.0707245,-0.63538784,0.47916412,1.5667953,2.017591,-0.12218475,0.9430084,-0.14858246,0.32787323,-0.1702919,-1.2635093,4.4585075,1.0565338,1.7955501,2.1438255,2.453041,0.17383575,0.06504059,-3.8483238,-1.2116991,-1.6051102,-0.5072098,1.8231939,-0.64533234,-9.267109,0.0,0.0,0.0,0.0,0.0,0.0,0.0,0.0,0.0,0.0,0.0,0.0,0.9017328,-0.6387023,-0.9571292,0.96706283,0.9706033,0.11907324,-0.99601305,0.6354757,0.99353015,0.95970124,-0.875366,-0.98404956
2025-06-04 18:28:49.837,0.832417,-4.688671,1.677721,-0.10398963,-0.23133092,0.13499367,2.531036,-0.000356,9.44103,0.04864396,0.11791229,1.5936508,-1.0142767,-1.9231033,-5.097122,1.7974575,-0.017433167,-11.093309,0.07685958,0.16971588,0.49500275,-0.5929684,0.64914703,0.9698639,1.9551061,-1.2491226,-0.037231445,-0.1379013,0.6922531,0.018920898,-1.0841422,3.743328,1.1200104,1.8792446,1.6598892,0.98573303,0.17612457,0.013313293,-3.589531,-1.2967669,-1.56353,0.95765686,1.7951177,-0.6431961,-8.827648,0.0,0.0,0.0,0.0,0.0,0.0,0.0,0.0,0.0,0.0,0.0,0.0,-0.13543381,-0.679248,-0.6811602,0.9406833,0.96433204,-0.97173274,-0.9840911,0.394116,-0.40223882,0.9214767,-0.9904122,-0.99757624
2025-06-04 18:28:49.888,0.159729,-5.507974,1.570794,0.095720485,0.2287979,-0.0142860785,2.115224,-1.599664,6.411413,0.029494181,0.0687027,-2.23209,-1.1127722,-1.2490463,-4.83955,1.8007381,0.43682098,-9.909208,0.08502303,0.041389465,-0.24353409,-0.566647,0.5137253,-0.092163086,1.8124365,-2.8605309,-0.00061035156,-0.1355362,0.08182526,1.3678169,-1.0205894,-0.11432648,10.237583,1.848727,-1.4984512,-0.9832916,0.17032623,-0.9330368,-1.2823677,-1.3701617,-0.7768631,-1.0748444,1.7522405,-1.2932968,-4.0949097,0.0,0.0,0.0,0.0,0.0,0.0,0.0,0.0,0.0,0.0,0.0,0.0,-0.9511899,-0.34014612,0.9288144,0.3557135,0.83847064,-0.9901522,-0.94676435,-0.78388435,-0.99544626,0.96364003,-0.98143935,-0.98115885
2025-06-04 18:28:49.939,1.041109,-2.533993,2.230308,0.49549162,0.9369142,0.14976169,0.166053,-0.285315,5.10457,-0.0004893396,-0.80142975,-0.30456924,-1.1492407,-0.99773407,2.9254608,1.8879421,1.2135696,1.8341331,0.07495223,0.009880066,-1.9537659,-0.5995297,-1.878624,8.540779,1.7560552,1.271019,-15.013046,-0.13751984,-0.9646225,4.48188,-1.1073356,-1.5291977,-5.1154327,1.7889888,-0.042533875,-11.043259,0.14202118,-0.32779694,0.48401642,-1.4051043,-0.7973099,-0.2911415,1.6777014,-1.0803604,-1.3641548,0.0,0.0,0.0,0.0,0.0,0.0,0.0,0.0,0.0,0.0,0.0,0.0,-0.9772589,0.8591559,0.99864626,-0.95599663,-0.23356235,-0.99740857,-0.7310496,-0.97896934,-0.9966168,0.9812262,-0.8702115,0.041044775
2025-06-04 18:28:49.990,0.289829,-2.311746,1.813564,-0.1952691,-1.1288606,-0.16946572,1.776181,1.134663,13.886452,-0.032837972,-0.3799057,-0.84534836,-0.97368836,4.476513,-1.2323189,1.9418819,1.163826,0.285038,0.026581869,-0.6108475,-3.482109,-0.7457089,-2.063717,-5.9894714,1.7901586,-0.1014328,-11.057907,-0.15964508,-0.42354584,5.335163,-1.2160544,-2.454876,-0.14953995,1.7901332,0.11959076,-12.038147,0.13263702,0.2286148,-2.153965,-1.442412,-1.5645981,7.970703,1.6967748,-0.0018692017,5.19112,0.0,0.0,0.0,0.0,0.0,0.0,0.0,0.0,0.0,0.0,0.0,0.0,-0.989758,0.942613,0.996484,-0.9693842,-0.92983454,-0.9962811,-0.7786953,-0.944176,-0.99689794,0.990586,0.051897805,0.8228415
2025-06-04 18:28:50.041,-0.438931,-4.086777,1.199702,-0.65131706,0.039071605,-0.38043478,4.837044,1.770902,10.813194,-0.055497274,0.0090408325,-2.8863983,-0.79996705,2.5596275,0.14343643,1.9858272,0.47130585,1.6205063,-0.0059193517,-0.83896637,-1.3946762,-0.87846035,-2.1664085,-15.978638,1.7988561,0.1795578,-12.438545,-0.16597748,-0.18054962,4.605171,-1.3092093,-1.8061447,0.25940323,1.7717464,-0.6192398,-7.7644005,0.13614655,0.9100723,-4.149845,-1.3862597,0.8810806,15.801632,1.7501806,1.3843155,6.958725,0.0,0.0,0.0,0.0,0.0,0.0,0.0,0.0,0.0,0.0,0.0,0.0,-0.9759991,0.9700306,0.9408448,-0.9864274,-0.95563924,-0.9780859,-0.9236232,-0.79858875,-0.99312985,0.9979255,0.8999053,0.9910697
2025-06-04 18:28:50.092,-1.929674,-3.934061,0.277417,-0.6747678,0.39823866,-0.25545892,0.028714,0.851616,10.458684,-0.07052718,-0.21884918,-0.5438309,-0.6885779,1.497078,0.08117676,2.0087154,0.32527924,0.19592667,-0.04109086,-0.41324615,-0.54016876,-0.97306484,-1.9332504,-13.607994,1.8141912,0.09700775,-13.053787,-0.17658234,-0.30712128,4.834667,-1.3631492,-1.0376358,2.7386894,1.7201717,-1.1234665,-3.6285973,0.1404953,-0.3006363,-0.5975418,-1.1617266,5.7843437,1.2005806,1.8317388,2.0017662,1.6082993,0.0,0.0,0.0,0.0,0.0,0.0,0.0,0.0,0.0,0.0,0.0,0.0,-0.9779675,0.9939654,-0.74496114,-0.9481684,-0.84963316,-0.8521327,-0.9878742,-0.93494284,-0.99922454,0.9997959,0.9752361,0.98061234
2025-06-04 18:28:50.143,-2.690409,-4.254987,0.27497,0.21476246,-0.5569091,0.3764049,1.503476,-0.361536,7.138174,-0.07289229,-0.25920868,-0.698864,-0.6213629,0.77373505,0.17883682,1.8732936,-2.8747215,-0.095825195,-0.035139933,0.6674576,-5.2143135,-1.100018,-2.7514305,-1.7035179,1.8180822,-0.019874573,-10.777142,-0.1883316,-0.18871307,4.569771,-1.4459281,-1.6579819,7.240711,1.6709621,-0.9006119,-2.2626076,0.12050629,-0.21930695,1.5338364,-0.9051463,4.1636314,-1.1261177,1.9200109,1.4522934,0.42298126,0.0,0.0,0.0,0.0,0.0,0.0,0.0,0.0,0.0,0.0,0.0,0.0,-0.98297405,0.98332036,-0.9917628,0.73222375,0.13192299,0.9997967,-0.9901412,-0.9595462,-0.99876153,0.99531853,0.304729,-0.6024668
2025-06-04 18:28:50.194,-2.09539,-4.505086,1.676317,0.25454733,0.9177656,0.31885514,-4.189815,-1.738424,0.629204,-0.09501754,-1.0886765,4.1315346,-0.58214784,-0.112724304,2.7081718,1.7790706,1.8707657,-18.510414,0.022385702,0.2338028,0.44373322,-1.1740232,-1.0600662,15.4757,1.8910955,1.7517471,0.8587761,-0.18535614,0.82157135,0.18249893,-1.488729,0.15087128,0.514534,1.6199977,-0.9104538,-0.079956055,0.117836,0.14568329,-2.235752,-0.8536479,0.1240921,0.19958878,1.8768286,-0.8283615,-6.9196625,0.0,0.0,0.0,0.0,0.0,0.0,0.0,0.0,0.0,0.0,0.0,0.0,-0.96710056,0.67798615,-0.99867404,0.9994089,0.96371263,0.99969125,-0.98100406,-0.9635384,-0.9316567,0.81962824,-0.86013114,-0.93768483
2025-06-04 18:28:50.245,-2.175247,-0.344528,0.704366,0.07948577,0.023434622,-0.49645478,-6.135781,-2.697094,13.356947,-0.10646163,0.13896942,-0.08605957,-0.6339514,-0.7352829,1.3250923,1.815768,-0.37197113,-10.880903,0.04458724,0.49678802,0.2825966,-1.1044431,6.090439,-0.13489151,1.9234442,1.2890244,1.2164497,-0.1468277,0.6293869,0.19714737,-1.4780478,-0.07259369,0.05065918,1.5920742,-0.35251617,0.0579834,0.13080597,0.20465851,-3.035324,-0.9656474,-2.4362602,-9.768826,1.8393682,-0.875206,-9.029068,0.0,0.0,0.0,0.0,0.0,0.0,0.0,0.0,0.0,0.0,0.0,0.0,0.22426538,-0.2767661,-0.99437183,0.998191,0.9839583,0.9920238,-0.9915638,-0.74320674,-0.38292953,0.9064516,-0.8351194,-0.8310737
2025-06-04 18:28:50.297,-2.33671,-3.219717,-0.257859,0.0502418,-1.3300123,0.010937925,3.694117,1.141039,5.871847,-0.07884322,0.45322418,3.1891365,-0.7593024,-1.7515945,-9.262226,1.7738826,-0.5385208,-8.216068,0.06182967,0.48610687,-0.13489151,-0.8599209,3.708004,-2.285801,1.9763159,0.7479477,0.27283096,-0.1442337,0.006904602,1.9635315,-1.5002494,-1.2612534,11.438774,1.5996273,-0.22922516,5.0714874,0.15392303,0.21938324,-3.958191,-1.073527,-1.5723038,-7.462883,1.843717,0.22396088,-12.694897,0.0,0.0,0.0,0.0,0.0,0.0,0.0,0.0,0.0,0.0,0.0,0.0,0.9325876,-0.72100186,-0.9970007,0.9967437,0.9886504,0.98223287,-0.9955845,-0.049814988,0.9755179,0.98837173,-0.5899098,-0.7943945
2025-06-04 18:28:50.348,-1.42684,-4.680341,0.529426,0.6230522,0.20233226,0.5131358,3.732029,-1.059703,9.622156,-0.029175863,1.2301254,0.76722336,-0.8462012,-1.0643387,-17.283588,1.7793758,0.4553604,-13.019608,0.073121175,0.0712204,1.2787056,-0.71847194,1.8903732,0.592659,2.0062232,0.55591583,0.7452507,-0.14369965,0.039863586,2.2333107,-1.4445548,2.3927727,8.721447,1.6960628,3.0989494,3.3136482,0.16979218,0.22571564,-4.5099564,-1.1361643,-1.3357925,-1.5277328,1.8349432,-0.40554047,-9.617455,0.0,0.0,0.0,0.0,0.0,0.0,0.0,0.0,0.0,0.0,0.0,0.0,0.9788671,-0.7699394,-0.9929269,0.9858749,0.97158444,0.95985574,-0.9965061,0.45292416,0.99908614,0.9838624,-0.7062736,-0.9132996
2025-06-04 18:28:50.399,-0.141412,-4.308489,1.790671,0.3178547,0.26079077,0.47623387,2.824953,0.658883,7.402036,0.0152272135,0.74718475,1.0589752,-0.906626,-1.5195084,-14.500343,1.8010433,0.44010162,-13.334555,0.07670699,-0.4063797,3.0121307,-0.6424832,0.51555634,0.7086296,2.0210242,-0.09838104,1.3788071,-0.14255524,0.5408859,0.05432129,-1.2959342,2.7143517,9.143818,1.7850978,0.9397507,7.471428,0.1845169,0.29148102,-4.4672318,-1.1970507,-1.5472794,-0.5938797,1.8115972,-0.48534393,-8.843517,0.0,0.0,0.0,0.0,0.0,0.0,0.0,0.0,0.0,0.0,0.0,0.0,0.8977919,-0.6963124,-0.97473574,0.9751575,0.9684295,0.35844076,-0.99609417,0.6728177,0.9974466,0.968658,-0.7956924,-0.9750246
2025-06-04 18:28:50.450,0.754893,-4.176593,2.820888,0.40348476,-0.05249303,0.17039727,3.152387,-2.350466,8.473441,0.037733927,0.0036239624,2.0404358,-0.99138856,-1.8558121,-7.228504,1.81058,0.032539368,-12.101625,0.07731734,-0.07732391,1.4813461,-0.59861416,0.52814484,0.34729385,1.9803594,-1.0002518,-0.23865128,-0.13996124,0.45986176,0.12512589,-1.1100821,3.9493217,1.3580513,1.8695552,1.7936325,0.87709045,0.1921463,0.00049591064,-4.4843216,-1.2706743,-1.5920639,0.8209343,1.7848943,-0.6786728,-8.12085,0.0,0.0,0.0,0.0,0.0,0.0,0.0,0.0,0.0,0.0,0.0,0.0,0.20451212,-0.6867918,-0.8595494,0.95709044,0.96735364,-0.916975,-0.98837817,0.524833,0.5707683,0.9413284,-0.97738194,-0.9958684
2025-06-04 18:28:50.501,0.261487,-5.245191,2.660046,-0.5997092,-0.57057303,-0.3036424,-0.973916,2.497324,3.859801,0.017744914,-0.28743744,2.67033,-1.0999548,-1.6435623,-2.9510956,1.8075283,0.06946564,-10.724651,0.0841075,0.70568085,-2.8888397,-0.5690884,0.34740448,-0.68543625,1.8394445,-2.6189842,-2.1588478,-0.13530731,-0.5990982,2.0538635,-1.0128837,0.11676788,12.035706,1.9000728,-0.17635345,3.6310387,0.18978119,-0.048332214,-3.7579918,-1.3601671,-0.79990387,0.31189346,1.7523168,-1.0402298,-5.888153,0.0,0.0,0.0,0.0,0.0,0.0,0.0,0.0,0.0,0.0,0.0,0.0,-0.94479305,-0.5065058,0.7284992,0.53261894,0.9008476,-0.9965881,-0.9514947,-0.6620474,-0.99351275,0.9569052,-0.9931082,-0.99499834
2025-06-04 18:28:50.552,0.317368,-4.176745,2.641774,0.15530066,0.5930174,0.0025763153,2.249752,-2.243178,3.747863,-0.008347616,-0.5662918,-2.3028908,-1.1732733,-1.839714,4.5539017,1.8794734,1.3320541,0.20447159,0.07319747,0.3105545,-3.2269783,-0.5703854,-0.7768631,2.8302422,1.7328619,0.74367523,-11.238575,-0.14240265,-0.24776459,2.7411308,-1.067739,-1.1432266,-5.66354,1.852618,-0.39180756,-12.586252,0.17971039,-0.13660431,-1.8316917,-1.4033495,-0.4177475,-0.35217667,1.7024969,-1.1276627,-3.0658417,0.0,0.0,0.0,0.0,0.0,0.0,0.0,0.0,0.0,0.0,0.0,0.0,-0.9742382,0.77642095,0.99823624,-0.9397793,0.1006561,-0.9971073,-0.74533916,-0.9754504,-0.9964359,0.9760503,-0.92280865,-0.32599473
2025-06-04 18:28:50.603,-0.363767,-2.117447,2.548336,-0.023029549,-0.13305081,0.04966479,-5.78723,1.237105,16.529879,-0.045121297,-0.88199615,0.13489151,-1.1216223,5.388302,-0.22400284,1.9131954,1.5690994,0.33752823,0.03917037,-0.8778,-2.760662,-0.68703884,-2.028469,-3.777523,1.780393,-0.02620697,-10.918747,-0.15903473,-0.22342682,5.2961006,-1.1489921,-1.788826,-6.519264,1.8354518,-0.4567337,-11.558403,0.14911652,-0.39173126,-0.42420197,-1.4221941,-0.3923416,0.1715126,1.6986059,0.07633209,0.2459755,0.0,0.0,0.0,0.0,0.0,0.0,0.0,0.0,0.0,0.0,0.0,0.0,-0.9897501,0.93749577,0.9989384,-0.9828657,-0.7156548,-0.997789,-0.46722275,-0.98312163,-0.99811274,0.986887,-0.5451674,0.2832116
2025-06-04 18:28:50.654,-0.492216,-4.673757,2.240206,-0.09100115,-0.48615456,-0.40393943,2.537768,-0.631312,7.02376,-0.06259261,-0.7064438,-0.17395401,-0.884043,3.5287895,-0.5535965,1.9709499,0.95127106,0.43152618,0.01056014,-1.0381699,-2.5055313,-0.8359646,-1.9952774,-14.74815,1.7732977,-0.0012588501,-10.877243,-0.16506195,-0.028114319,5.261921,-1.258779,-1.8159866,-1.1468697,1.8185909,-0.6070328,-10.0190735,0.15201569,0.18154144,-3.1476326,-1.4488207,0.092048645,8.161135,1.7093633,0.85552216,4.1156616,0.0,0.0,0.0,0.0,0.0,0.0,0.0,0.0,0.0,0.0,0.0,0.0,-0.9866459,0.94519335,0.9914061,-0.9733015,-0.9100546,-0.9658397,-0.29680046,-0.9120834,-0.99518186,0.9730959,0.61585116,0.9257004
2025-06-04 18:28:50.705,-1.031667,-5.093074,0.665092,-0.6041863,0.7280718,-0.789754,4.286213,2.571246,10.952343,-0.07434188,0.659523,-3.5944138,-0.7451117,2.1583977,0.5902176,2.0032222,0.11470795,1.8097191,-0.02735795,-0.7819748,-0.3241005,-0.9281277,-1.8327713,-14.126804,1.7939733,0.6177139,-13.543297,-0.15750885,0.15483856,4.8773956,-1.3281302,-1.271019,-0.036010742,1.771899,-1.2519455,-5.1972237,0.15354156,0.63259125,-1.7022972,-1.3081347,2.6118126,14.96666,1.7681097,0.7438278,9.517357,0.0,0.0,0.0,0.0,0.0,0.0,0.0,0.0,0.0,0.0,0.0,0.0,-0.98555666,0.9911088,0.41626042,-0.9517703,-0.930358,-0.9084033,-0.8246618,-0.909611,-0.9977333,0.99840415,0.9496292,0.9845347
2025-06-04 18:28:50.756,-2.077806,-4.584446,-1.113031,-0.7136092,0.1779362,-0.44215924,2.815948,4.162257,9.328527,-0.07762252,0.31528473,-2.9510956,-0.6546271,1.485405,-0.03112793,1.9737728,-0.7682419,-0.20203018,-0.060545817,-0.46993256,-1.3238716,-1.0267758,-2.5721397,-8.739758,1.809461,0.15033722,-11.897766,-0.15979767,0.08769989,2.8851776,-1.3978629,-1.5912247,5.20821,1.716357,-1.1962509,-3.0292206,0.14698029,-0.72711945,0.30578995,-1.0543772,5.0417747,0.083618164,1.8647741,2.071041,0.3253212,0.0,0.0,0.0,0.0,0.0,0.0,0.0,0.0,0.0,0.0,0.0,0.0,-0.9858978,0.9927808,-0.9392564,-0.7104615,-0.61931825,0.64953136,-0.97876805,-0.9515813,-0.9996006,0.9989448,0.9095129,0.867213
2025-06-04 18:28:50.807,-1.64189,-4.861885,-1.025541,0.59385455,0.42909577,0.39360854,1.094359,-1.116191,1.059456,-0.08578597,-0.27446747,1.0223541,-0.59824586,0.9849167,-0.021362305,1.828738,-2.5642052,-1.6351585,-0.041014567,0.21884918,-4.7797356,-1.1523557,-2.9426994,6.380104,1.8832372,1.6044235,-2.4298477,-0.15094757,0.17848969,1.6473656,-1.4639335,-0.7641983,3.6969566,1.6608913,-1.0003281,-1.2140083,0.12081146,-0.89588165,1.6192856,-0.8459422,3.1801262,-1.0943756,1.9292425,0.9535599,0.57678986,0.0,0.0,0.0,0.0,0.0,0.0,0.0,0.0,0.0,0.0,0.0,0.0,-0.9918332,0.9595668,-0.9989455,0.9924778,0.8797232,0.99994236,-0.9851005,-0.9772293,-0.9945181,0.9822919,-0.3370342,-0.9087294
2025-06-04 18:28:50.858,-1.3158,-2.280396,-0.293158,0.3114751,0.9096305,0.18464893,-11.375228,1.945962,28.443333,-0.10745345,0.20252228,-0.33264542,-0.615412,-0.7001114,6.532692,1.817599,0.84949493,-16.432745,0.014527425,0.5965805,1.6546898,-1.2207913,-0.18192291,23.405508,1.9561743,0.17864227,2.3407326,-0.14316559,0.73329926,-0.31433487,-1.4865928,0.2350235,-0.1690712,1.6150386,-0.73093414,-0.1336708,0.12340546,0.05153656,-1.9891663,-0.8675334,-0.505867,-10.648968,1.8985723,-0.48091888,-13.161213,0.0,0.0,0.0,0.0,0.0,0.0,0.0,0.0,0.0,0.0,0.0,0.0,-0.7407609,0.164437,-0.99739677,0.99906796,0.976457,0.9975734,-0.98572004,-0.9187545,-0.8188408,0.8721545,-0.87091106,-0.89532286
2025-06-04 18:28:50.909,-1.221483,-1.233359,-0.383766,-0.37558278,-0.99285,-0.19455376,3.007366,-1.150988,12.634179,-0.08891402,0.11608124,-0.29724503,-0.6983435,-1.6571426,-2.8656425,1.792422,-1.5277481,-5.369343,0.0337535,0.37059784,1.9794006,-1.0215878,5.4370537,-1.6803246,1.974027,0.91991425,0.2874794,-0.13103485,0.028266907,1.0382233,-1.48171,-0.89466095,4.7150383,1.6001613,-0.09700775,-0.08483887,0.12805939,0.15621185,-2.153965,-0.9679362,-2.156414,-10.45121,1.8732427,0.056877136,-13.98642,0.0,0.0,0.0,0.0,0.0,0.0,0.0,0.0,0.0,0.0,0.0,0.0,0.6636843,-0.5141656,-0.9946838,0.99735874,0.98745865,0.988429,-0.9927164,-0.49405175,0.43739423,0.9567196,-0.7549256,-0.7884681
2025-06-04 18:28:50.960,-1.195986,-4.91814,-0.424149,0.35098794,-0.46869576,0.27121586,3.513447,1.398165,7.138749,-0.047638997,0.76381683,1.5411606,-0.81774354,-1.4017868,-11.951477,1.7603786,-0.28186798,-9.309834,0.058396444,0.37075043,0.6732292,-0.81673855,3.0992546,-0.2899208,2.0047736,0.5018234,0.83680344,-0.13690948,-0.19016266,1.3678169,-1.4955955,0.5055618,9.483177,1.6524227,0.9959793,7.30785,0.14209747,0.26714325,-3.101242,-1.05926,-1.4704514,-6.7853813,1.880567,0.007209778,-13.034256,0.0,0.0,0.0,0.0,0.0,0.0,0.0,0.0,0.0,0.0,0.0,0.0,0.9780231,-0.76641977,-0.99613076,0.9937037,0.9833107,0.97799003,-0.9966838,0.26699832,0.99648494,0.9872649,-0.6432369,-0.85868853
2025-06-04 18:28:51.011,-0.108873,-5.450624,0.87531,0.65392715,0.4618147,0.5644705,3.100187,-0.511825,9.450192,0.0032490639,1.1652756,0.12634659,-0.8951056,-1.1403275,-16.87953,1.7720516,0.62381744,-13.162432,0.070984945,-0.048713684,1.6937523,-0.6952786,1.7035294,0.38636017,2.022779,0.19481659,0.90760803,-0.140419,0.037345886,1.9745178,-1.3824515,3.398632,9.800564,1.7426784,2.2620811,4.820019,0.15789032,0.18474579,-3.5089645,-1.1282297,-1.2361526,-2.822918,1.8650793,-0.59619904,-10.794231,0.0,0.0,0.0,0.0,0.0,0.0,0.0,0.0,0.0,0.0,0.0,0.0,0.9569351,-0.7440722,-0.9822614,0.97771794,0.97255373,0.8248638,-0.996626,0.61953974,0.9984806,0.9779165,-0.7478447,-0.9537839
2025-06-04 18:28:51.062,0.881748,-4.720946,2.260608,0.28017867,0.20127487,0.44664693,2.404446,-0.328033,10.321122,0.04200639,0.63755035,-0.2093544,-0.9659064,-1.6019058,-10.345007,1.7919643,0.19702911,-12.365301,0.07327376,-0.11569977,1.674221,-0.6282162,0.958519,0.12756729,2.0220923,-0.06900787,0.13489151,-0.13950348,0.111198425,0.99794006,-1.1956077,3.9615288,4.298771,1.830035,1.8813705,2.407875,0.16834259,0.20671844,-3.5907516,-1.198424,-1.4422226,-0.95277405,1.8343328,-0.765419,-9.882355,0.0,0.0,0.0,0.0,0.0,0.0,0.0,0.0,0.0,0.0,0.0,0.0,0.78551733,-0.6738459,-0.9448775,0.96936524,0.97426414,-0.41500723,-0.9952944,0.66878057,0.9835812,0.9623951,-0.9099682,-0.99069613
2025-06-04 18:28:51.113,0.811442,-5.171054,2.867737,-0.3834032,-0.51474315,-0.004146082,2.71067,0.560657,8.899487,0.046202555,-0.11035919,2.3260841,-1.0666907,-2.5660362,-1.1627388,1.7902095,-0.24066925,-9.796902,0.0740367,0.121040344,0.7135124,-0.58869594,0.6332779,0.35095596,1.9139837,-2.2985497,-0.22034073,-0.12599945,0.7353592,-0.76966476,-1.0089164,3.1762352,0.6720085,1.9095333,1.2758255,1.0003815,0.16979218,0.06175995,-3.1281013,-1.2905871,-2.0370903,1.5191879,1.8052648,-0.46344757,-9.552757,0.0,0.0,0.0,0.0,0.0,0.0,0.0,0.0,0.0,0.0,0.0,0.0,-0.80227625,-0.63555866,-0.07726629,0.8707089,0.9504564,-0.9959584,-0.9737728,-0.016162276,-0.97641003,0.91768587,-0.99644697,-0.9988088
2025-06-04 18:28:51.164,-0.659552,-6.27187,2.367407,0.1012296,0.69671667,-0.11471658,3.069734,-2.481228,5.470008,0.0096577555,-0.06771088,-4.0827026,-1.1649573,-1.6233444,-0.14221573,1.8119533,0.7390976,-4.1925697,0.082200155,-0.25409698,0.48889923,-0.56473964,0.2892685,-0.13855362,1.7761205,-2.3719444,-0.50354767,-0.12943268,0.13271332,0.330204,-1.0017447,-0.36327362,1.2286568,1.8660457,-1.1985397,-9.561302,0.1594925,-0.5082321,-0.30334854,-1.3597857,-0.69286346,-3.388115,1.7554449,-1.64608,-2.609291,0.0,0.0,0.0,0.0,0.0,0.0,0.0,0.0,0.0,0.0,0.0,0.0,-0.9715584,0.15551354,0.9892517,-0.4580876,0.67663133,-0.99423987,-0.9141819,-0.90909225,-0.99619716,0.9670052,-0.96213675,-0.88444483
2025-06-04 18:28:51.215,-0.201312,-1.887608,2.525137,-0.23987103,1.0051928,-0.17794597,-9.266479,-2.067388,17.910322,-0.009263143,-0.8533859,-0.22644424,-1.1968482,-1.377449,17.730373,1.8833644,0.6814194,4.892044,0.056260213,-0.5559921,-2.6764336,-0.6077694,-1.485939,3.1195526,1.7485021,0.8372879,-13.451744,-0.12706757,-0.5612564,4.1364174,-1.0965781,-1.3669205,-8.504158,1.8103511,-0.5994034,-9.816435,0.12889862,-0.53798676,0.99671936,-1.3987719,-0.43323517,-1.9464417,1.677854,-0.99292755,-0.06530762,0.0,0.0,0.0,0.0,0.0,0.0,0.0,0.0,0.0,0.0,0.0,0.0,-0.9809736,0.87495035,0.99948215,-0.9852484,-0.36062124,-0.9986365,-0.5372934,-0.9893086,-0.99772906,0.9900118,-0.90305,-0.20201331
2025-06-04 18:28:51.266,-0.941537,-1.639914,2.307726,0.11112194,-1.2471939,0.053863075,1.860867,0.377193,14.239942,-0.038941488,-0.48847198,-0.92225647,-1.0344183,5.262722,-2.7411308,1.9250972,1.5096664,0.14221573,0.015748128,0.16506195,-3.9435425,-0.7504391,-2.6092186,-7.8596153,1.765592,-0.6103134,-7.9316406,-0.14667511,-0.42827606,6.229954,-1.1940055,-2.903942,-0.72449875,1.7922695,0.0008010864,-11.576715,0.1254654,0.15834808,-0.40955353,-1.4229571,-0.10677338,0.6268425,1.6920446,0.49480438,0.5987625,0.0,0.0,0.0,0.0,0.0,0.0,0.0,0.0,0.0,0.0,0.0,0.0,-0.99090284,0.9461489,0.9970107,-0.9743329,-0.8351974,-0.99343926,-0.31726703,-0.97325426,-0.9973966,0.9807219,-0.02566134,0.65340847
2025-06-04 18:28:51.317,-0.343144,-4.87014,2.21222,-0.20050588,0.32509574,-0.3873372,3.167029,-0.050038,10.625334,-0.06259261,0.2010727,-2.084381,-0.8384192,2.775463,0.25452042,1.9788082,0.8057022,0.34363174,0.0014048669,-0.7213211,-1.5960922,-0.8815121,-1.9855881,-15.074081,1.7710088,0.36045074,-12.205387,-0.14759064,-0.14827728,5.359577,-1.2959342,-1.7271805,-1.0553131,1.7738826,-0.99819183,-6.8329887,0.13339996,0.9797287,-3.3380623,-1.3980852,0.99925995,14.353857,1.7294286,1.0733414,7.306629,0.0,0.0,0.0,0.0,0.0,0.0,0.0,0.0,0.0,0.0,0.0,0.0,-0.9849535,0.9663911,0.97572637,-0.9801942,-0.9116396,-0.9009102,-0.2625299,-0.9158698,-0.9968717,0.97776306,0.8043717,0.961956
2025-06-04 18:28:51.368,-1.314194,-4.55699,0.622482,-0.21691626,0.3315017,-0.60716355,-0.926187,-0.300604,6.861749,-0.07571517,-0.17147064,-0.18249893,-0.7098639,1.9936752,-1.2372017,2.0072658,0.5648422,-0.14343643,-0.044981852,-0.8786392,0.8941803,-0.96917385,-1.6284561,-14.656597,1.8036627,0.4805374,-12.408028,-0.14537811,0.3132248,4.436714,-1.359487,-0.9975815,-0.12634659,1.724139,-1.2959671,-3.219654,0.14209747,-0.43498993,-0.4327469,-1.2206255,5.9306755,0.91371155,1.8041967,2.1786156,1.674221,0.0,0.0,0.0,0.0,0.0,0.0,0.0,0.0,0.0,0.0,0.0,0.0,-0.98945946,0.99224913,-0.29606578,-0.91115046,-0.66408145,-0.46924886,-0.5651264,-0.97767353,-0.99960977,0.9958371,0.9381359,0.9550024
2025-06-04 18:28:51.419,-2.255375,-3.915755,-1.206622,0.13001925,0.00874457,-0.41364822,1.375021,-0.630471,8.143198,-0.07724105,-0.023841858,-0.37781525,-0.63349366,1.0245895,0.15930557,1.9118221,-1.8999863,-0.08239746,-0.06390275,-0.11791229,-2.101471,-1.0667539,-2.2400322,-1.0577545,1.8382238,0.3862381,-9.263447,-0.13629913,0.038108826,3.2050056,-1.4386802,-1.5156937,5.794155,1.6747768,-0.6567764,-3.1024628,0.12813568,-0.57460785,1.7340355,-0.96885175,4.535488,-1.6546898,1.8926977,1.645546,0.18005753,0.0,0.0,0.0,0.0,0.0,0.0,0.0,0.0,0.0,0.0,0.0,0.0,-0.9957999,0.9781472,-0.99053705,0.75722873,0.5398786,0.9984986,-0.89096695,-0.98971623,-0.9997048,0.9886608,0.26097578,-0.32971483
2025-06-04 18:28:51.470,-2.025126,-3.286691,-1.345311,-0.4623393,1.3348508,-0.034140088,-5.468419,1.734183,6.153076,-0.0954753,-0.5698776,3.2660408,-0.5848944,0.055885315,-0.009155273,1.7939479,0.76717377,-14.738384,-0.019194499,0.27866364,3.1342049,-1.1117673,-1.1984634,20.802929,1.9180273,1.5309525,0.2459755,-0.12424469,1.1724472,-0.8966217,-1.4851432,-0.033073425,-0.009155273,1.6313655,-0.8886337,-0.50354767,0.11646271,-0.19176483,-0.128788,-0.90331525,0.2501297,0.017700195,1.8625616,-1.3327408,-1.3788071,0.0,0.0,0.0,0.0,0.0,0.0,0.0,0.0,0.0,0.0,0.0,0.0,-0.94596505,0.6137283,-0.9988267,0.99925256,0.97751224,0.99915934,-0.9759846,-0.951437,-0.9105226,0.889688,-0.81849295,-0.8832162
2025-06-04 18:28:51.521,-2.186248,0.129179,-2.26013,0.044038672,-0.254758,-0.44928592,-6.753858,-3.056339,14.084115,-0.10333358,0.18154144,-0.54138947,-0.6304419,-0.77854156,-0.1702919,1.822253,-0.5398941,-10.833296,0.008957967,1.13163,-0.42664337,-1.063168,5.809368,-0.009155273,1.9511389,0.91960907,1.7474632,-0.111198425,0.048942566,0.2496376,-1.4755301,0.58338165,-0.20203018,1.6017635,-0.5338669,-0.03479004,0.13851166,0.25112152,-3.2867928,-1.0022684,-2.3509636,-7.401848,1.8212103,-0.69545746,-8.462654,0.0,0.0,0.0,0.0,0.0,0.0,0.0,0.0,0.0,0.0,0.0,0.0,0.37371805,-0.3660581,-0.9944352,0.9977678,0.987842,0.98642904,-0.9928304,-0.6531976,-0.11637585,0.9440924,-0.80170965,-0.80056965
2025-06-04 18:28:51.572,-2.721977,-2.978232,-3.38474,0.14314933,-1.0331275,-0.1171335,3.462458,0.123823,6.337538,-0.06968795,0.6733322,2.7496758,-0.74808717,-1.1558151,-13.162432,1.7923458,-0.42690277,-9.907988,0.042145833,0.6103897,0.64149094,-0.8348202,3.6886253,-1.7181664,1.9933294,0.70552826,0.060424805,-0.11722565,-0.117759705,0.53528595,-1.5121512,-1.0470963,13.5323105,1.6233547,0.0017929077,6.367893,0.16506195,0.23906708,-4.3219643,-1.0906168,-1.4653397,-7.483635,1.8234228,0.008583069,-10.532997,0.0,0.0,0.0,0.0,0.0,0.0,0.0,0.0,0.0,0.0,0.0,0.0,0.97439045,-0.6760123,-0.9940556,0.99336296,0.9868536,0.9820442,-0.99594975,0.03192912,0.9722382,0.97649443,-0.70498383,-0.85551053
2025-06-04 18:28:51.623,-2.095717,-4.411302,-2.076522,0.5622708,0.05889308,0.77340615,3.408688,-1.030208,9.618574,-0.015824422,1.5032578,-0.22766495,-0.8067572,-0.84033966,-19.723812,1.7971523,0.4934311,-13.539635,0.060914144,0.21472931,1.1468697,-0.71229213,1.9577408,0.27038956,2.0138526,0.43994904,0.5963211,-0.1279831,-0.33748627,2.7911797,-1.4694266,1.8186569,13.6226425,1.6920955,2.0241203,7.495842,0.17383575,0.14522552,-4.129093,-1.1526476,-1.327858,-2.8046074,1.8193792,-0.17406464,-10.401161,0.0,0.0,0.0,0.0,0.0,0.0,0.0,0.0,0.0,0.0,0.0,0.0,0.98110604,-0.75381297,-0.99061227,0.983374,0.97028285,0.9523671,-0.9964453,0.38956037,0.998957,0.986725,-0.65032554,-0.9069721
2025-06-04 18:28:51.674,-0.83614,-4.105285,-0.035901,0.6345211,0.47162947,0.64310646,3.698589,-2.866635,11.692335,0.03620805,0.9737015,-1.7706566,-0.85779786,-1.1349869,-18.43717,1.8194301,0.41950226,-14.981308,0.06823836,0.111198425,0.80384445,-0.63760036,1.0821915,0.2911415,2.0255256,0.3092575,0.46570587,-0.13713837,0.14484406,2.0099182,-1.3463645,3.4133568,9.35622,1.7709835,2.7213707,1.8817444,0.18032074,-0.051689148,-3.4027634,-1.2077318,-1.0641861,-0.036010742,1.7977117,-0.513649,-8.43824,0.0,0.0,0.0,0.0,0.0,0.0,0.0,0.0,0.0,0.0,0.0,0.0,0.9533484,-0.68567824,-0.9762777,0.9669406,0.96375734,0.71811116,-0.9957626,0.5480858,0.99780744,0.97728634,-0.7433224,-0.9559947
2025-06-04 18:28:51.725,0.197765,-3.775448,1.005246,-0.018362748,-0.2909644,0.064163014,-0.299518,0.136733,10.304421,0.06062211,0.22777557,0.60974884,-0.930506,-1.8165207,-10.2937355,1.8254573,-0.0037765503,-12.6509495,0.072739705,0.32291412,-0.2825966,-0.594418,0.5373764,-0.5181961,2.016294,-0.0059127808,-0.5828934,-0.13751984,0.2677536,0.31067276,-1.1781363,4.136013,2.5836563,1.8524654,1.5822983,2.3968887,0.18543243,-0.14591217,-4.1901283,-1.2680041,-0.96660614,0.42176056,1.7691015,-0.62480927,-7.6740685,0.0,0.0,0.0,0.0,0.0,0.0,0.0,0.0,0.0,0.0,0.0,0.0,0.78149736,-0.6279398,-0.93186235,0.9598016,0.9680604,-0.54517734,-0.99394524,0.59312564,0.96956533,0.9509706,-0.92605436,-0.99052775
