openverse-orca/OrcaGym/envs/legged_gym/legged_real_env/logs/robot_log_20250604_171754.csv
timestamp,imu_angle_roll,imu_angle_pitch,imu_angle_yaw,imu_angular_velocity_roll,imu_angular_velocity_pitch,imu_angular_velocity_yaw,imu_acc_x,imu_acc_y,imu_acc_z,fl_joint1_pos,fl_joint1_vel,fl_joint1_torque,fl_joint2_pos,fl_joint2_vel,fl_joint2_torque,fl_joint3_pos,fl_joint3_vel,fl_joint3_torque,fr_joint1_pos,fr_joint1_vel,fr_joint1_torque,fr_joint2_pos,fr_joint2_vel,fr_joint2_torque,fr_joint3_pos,fr_joint3_vel,fr_joint3_torque,hl_joint1_pos,hl_joint1_vel,hl_joint1_torque,hl_joint2_pos,hl_joint2_vel,hl_joint2_torque,hl_joint3_pos,hl_joint3_vel,hl_joint3_torque,hr_joint1_pos,hr_joint1_vel,hr_joint1_torque,hr_joint2_pos,hr_joint2_vel,hr_joint2_torque,hr_joint3_pos,hr_joint3_vel,hr_joint3_torque,fl_force_x,fl_force_y,fl_force_z,fr_force_x,fr_force_y,fr_force_z,hl_force_x,hl_force_y,hl_force_z,hr_force_x,hr_force_y,hr_force_z,fl_hip_action,fl_thigh_action,fl_calf_action,fr_hip_action,fr_thigh_action,fr_calf_action,hl_hip_action,hl_thigh_action,hl_calf_action,hr_hip_action,hr_thigh_action,hr_calf_action
2025-06-04 17:18:17.718,-0.418134,-1.518881,-0.099788,-0.0011229274,-0.0008161858,3.3632496e-05,0.227226,-0.071302,9.78543,-0.011177063,0.012168884,0.4766922,-0.9845683,-0.0146865845,-0.45838165,1.9038677,0.03566742,-4.811474,0.010643005,0.0024032593,-0.5084305,-0.9806773,0.0030136108,-0.57190704,1.904394,-0.028572083,-4.7956047,-0.012931824,-0.008277893,0.61463165,-0.97266644,-0.0017929077,-1.0077057,1.9344051,0.011177063,-6.1811256,0.016746521,-0.016059875,-0.7135124,-0.97716117,-0.034446716,-0.73060226,1.9387792,0.057487488,-6.3215065,0.0,0.0,0.0,0.0,0.0,0.0,0.0,0.0,0.0,0.0,0.0,0.0,-0.2364361,0.65203315,0.09624888,0.28842407,0.34511232,-0.2994926,-0.81916296,-0.41664344,-0.6962186,-0.25573778,0.094161116,-0.873312
2025-06-04 17:18:17.770,-0.852656,-1.20234,-0.150989,-0.43898088,0.29550767,-0.083187245,-0.482802,1.124964,14.144387,-0.024909973,-0.15270233,0.5206375,-0.9403178,0.5564499,8.83131,1.8966961,-0.57712555,-0.9649811,0.008735657,-0.27095795,2.2784767,-0.94611615,0.6862259,2.0758362,1.8793696,-0.82675934,-3.9777222,-0.03124237,-0.08167267,-1.6632347,-0.98250836,0.06946564,-10.208286,1.909457,-0.77770233,-10.11429,0.008201599,-0.19199371,-0.5072098,-0.9488561,0.7265854,-3.1769295,1.8942236,-0.94264984,-10.299839,0.0,0.0,0.0,0.0,0.0,0.0,0.0,0.0,0.0,0.0,0.0,0.0,-0.50742453,0.73143405,-0.7813931,0.15078177,-0.10967707,0.03197298,-0.91473657,-0.9154767,-0.1362286,-0.8380886,-0.50924665,-0.686147
2025-06-04 17:18:17.821,-1.22923,-1.803336,0.028454,0.047725834,-0.89077866,0.303127,-0.513435,-1.790258,11.253273,-0.034828186,-0.13614655,-0.38391876,-0.91941327,0.13576508,11.394829,1.8181896,-1.3781357,-3.9020386,0.0011825562,-0.08434296,1.1297798,-0.9779307,-0.5679703,-0.45716095,1.8537349,-0.36632538,-0.040893555,-0.05115509,-0.5389786,0.2459755,-1.0876414,-1.922493,-7.3432503,1.9036586,0.026893616,-6.2958717,-0.0059127808,-0.16147614,-2.3382912,-0.9920385,-1.1423111,-6.5302505,1.8827032,0.008354187,-11.862362,0.0,0.0,0.0,0.0,0.0,0.0,0.0,0.0,0.0,0.0,0.0,0.0,-0.5230601,0.6694262,-0.94513786,0.58483213,0.17418855,0.089283384,-0.83002895,-0.9618565,-0.5144591,-0.8237402,-0.46058822,-0.890429
2025-06-04 17:18:17.872,-2.025337,-4.480622,1.106865,-0.17062669,-0.7938438,0.16889672,2.207813,-1.029776,9.764419,-0.035743713,0.040168762,-0.6939812,-0.91086835,-0.011100769,10.213169,1.7359447,-1.6885757,-1.4361801,0.016746521,0.21396637,0.9015045,-0.95641583,0.32291412,-0.5902176,1.8438929,-0.13103485,-0.44983673,-0.07198334,-0.33771515,0.74403,-1.1632525,-1.2294388,-7.8547325,1.8880184,-0.41835785,-8.488289,-0.025520325,-0.39203644,-1.2469673,-1.0401037,-0.72834015,-4.7028313,1.8782018,-0.07022858,-13.501793,0.0,0.0,0.0,0.0,0.0,0.0,0.0,0.0,0.0,0.0,0.0,0.0,-0.53769255,0.65394896,-0.94348353,0.7234274,0.22837979,0.025087675,-0.7722668,-0.95515984,-0.1685107,-0.885993,-0.50877845,-0.832903
2025-06-04 17:18:17.923,-2.521109,-6.393524,1.216555,-0.23646651,-0.49733454,-0.026940605,1.002402,0.125738,7.271744,-0.04436493,-0.29094696,0.20080948,-0.907664,-0.025520325,9.929962,1.6667461,-0.944252,-1.0052643,0.034370422,0.14888763,0.7537956,-0.92895,0.42110443,-0.30456924,1.835348,-0.16284943,-0.57556915,-0.07923126,-0.12325287,0.68543625,-1.229323,-1.0622025,-5.246052,1.8817623,-0.083732605,-5.105667,-0.040473938,-0.22319794,-1.3226509,-1.0742834,-0.45871735,-5.200886,1.8685125,-0.0863266,-12.388496,0.0,0.0,0.0,0.0,0.0,0.0,0.0,0.0,0.0,0.0,0.0,0.0,-0.57471585,0.645873,-0.96452856,0.78744066,0.5225235,-0.26011848,-0.7621866,-0.9404519,-0.018504469,-0.9406656,-0.50963825,-0.8202104
2025-06-04 17:18:17.974,-2.988597,-7.3094,1.335351,-0.10606926,-0.18949705,0.08287319,0.997027,-0.16882,8.059858,-0.052070618,-0.08975983,-0.00793457,-0.9079692,-0.011405945,9.79324,1.6363049,-0.22777557,-2.9803925,0.04634857,0.13698578,0.8685417,-0.8624217,1.2837601,-0.68421555,1.8017024,-0.6511307,-0.40467072,-0.08106232,-0.059013367,0.13977432,-1.2837206,-0.9206009,-2.8925018,1.8782527,-0.090904236,-3.1781502,-0.05054474,-0.22075653,-1.903717,-1.0945776,-0.65776825,-4.5502396,1.865003,-0.009346008,-12.598457,0.0,0.0,0.0,0.0,0.0,0.0,0.0,0.0,0.0,0.0,0.0,0.0,-0.7086198,0.5730959,-0.97523487,0.77707565,0.67943597,-0.50309527,-0.69913805,-0.92473596,0.15681854,-0.9624001,-0.5438398,-0.75354075
2025-06-04 17:18:18.025,-3.290156,-7.509047,1.84164,-0.12675823,-0.026178595,0.2473042,0.821655,-0.632128,9.233319,-0.05756378,-0.19184113,-0.41199493,-0.90812176,0.06832123,8.029297,1.6326427,0.036354065,-4.121765,0.05252838,0.008201599,0.98939514,-0.78856915,1.1608505,-0.33874893,1.7552394,-0.8575821,-0.52918243,-0.07846832,0.055885315,0.14953995,-1.3311754,-0.9202194,-1.6192856,1.8774135,-0.032157898,-1.6082993,-0.06137848,-0.15598297,-1.0125885,-1.1076238,-0.3092575,-6.0334167,1.8652319,0.026817322,-12.007629,0.0,0.0,0.0,0.0,0.0,0.0,0.0,0.0,0.0,0.0,0.0,0.0,-0.84954107,0.51936466,-0.98021865,0.782084,0.78593427,-0.7128535,-0.6058643,-0.9102021,0.21852979,-0.9770732,-0.5442474,-0.7121227
2025-06-04 17:18:18.076,-3.69823,-7.626312,2.542846,-0.105454,-0.07554291,0.15272327,1.160146,-0.905972,9.904911,-0.059165955,0.350914,-1.2555122,-0.9060618,0.22403717,6.9404144,1.6327953,0.006828308,-4.2182045,0.05580902,0.12950897,0.8209343,-0.7222697,0.90114594,-0.19592667,1.703741,-0.7393265,-0.53040314,-0.07648468,0.04398346,0.60730743,-1.3576494,-0.29117584,-1.8780823,1.8797023,0.0636673,-1.4068832,-0.07335663,-0.07846832,-0.57312775,-1.1186864,-0.22327423,-5.4694443,1.8703436,0.13248444,-12.165104,0.0,0.0,0.0,0.0,0.0,0.0,0.0,0.0,0.0,0.0,0.0,0.0,-0.91456,0.49446854,-0.9797045,0.7759544,0.8269967,-0.8242653,-0.4860957,-0.90759844,0.14295863,-0.98523176,-0.5802575,-0.6960398
2025-06-04 17:18:18.127,-3.93007,-7.947795,2.657029,-0.024100902,-0.065115385,-0.09860405,1.788324,-0.825277,9.205274,-0.062828064,-0.16635895,-1.2579536,-0.90957135,-0.4870987,6.343479,1.6318798,-0.049705505,-4.203556,0.05870819,0.011558533,0.84901047,-0.671992,0.7478714,-0.22888565,1.6592616,-0.7679367,-0.29358292,-0.075798035,0.018196106,0.92103577,-1.3677965,-0.17398834,-2.4103165,1.8840511,0.09853363,-2.3883438,-0.076560974,0.30216217,-0.8648796,-1.1262395,-0.057182312,-6.4887466,1.8778967,0.06732941,-12.179752,0.0,0.0,0.0,0.0,0.0,0.0,0.0,0.0,0.0,0.0,0.0,0.0,-0.9349269,0.4850729,-0.97827137,0.78535587,0.8474196,-0.86377275,-0.36665386,-0.904121,0.13480508,-0.9880429,-0.5881119,-0.6706212
2025-06-04 17:18:18.178,-3.893048,-8.053946,2.350499,0.036281694,0.0016999681,-0.106276326,1.688367,-1.031156,9.748009,-0.06694794,-0.33039093,-0.54138947,-0.9143016,-0.20404816,6.953842,1.632185,0.015602112,-4.26215,0.060157776,0.030021667,0.91737366,-0.6404826,0.3610611,-0.014038086,1.6284388,-0.6544876,-0.38636017,-0.069618225,0.19771576,0.9039459,-1.3756548,-0.08358002,-2.059967,1.887408,0.040779114,-2.4603653,-0.07442474,-0.038337708,-1.2518501,-1.1289861,0.026664734,-6.7756157,1.8825506,0.012321472,-11.846493,0.0,0.0,0.0,0.0,0.0,0.0,0.0,0.0,0.0,0.0,0.0,0.0,-0.94594616,0.46197134,-0.9774125,0.80456865,0.8608043,-0.8803533,-0.26823723,-0.8941948,0.14534579,-0.98934567,-0.5872476,-0.63435096
2025-06-04 17:18:18.229,-3.764522,-8.020285,2.092784,0.048696518,0.043306854,-0.087633274,1.57227,-0.703475,9.553677,-0.07022858,0.034446716,-0.68299484,-0.91964215,-0.19672394,7.228504,1.632185,0.019874573,-4.1559486,0.06137848,0.0157547,0.8624382,-0.6188151,0.26699066,-0.1702919,1.6078395,-0.34885406,-0.35950089,-0.06427765,0.047569275,1.3824692,-1.3806902,-0.08655548,-1.8243675,1.8871028,-0.040397644,-2.0856018,-0.07282257,-0.058250427,-1.6168442,-1.1308935,-0.012702942,-6.6987114,1.8846868,0.052375793,-11.555962,0.0,0.0,0.0,0.0,0.0,0.0,0.0,0.0,0.0,0.0,0.0,0.0,-0.9525033,0.40994284,-0.97710365,0.82595706,0.871836,-0.88532495,-0.16592829,-0.87995476,0.17992024,-0.9896054,-0.58109474,-0.58902335
2025-06-04 17:18:18.280,-3.576213,-7.923577,1.793185,0.081381015,0.039170213,-0.11681771,1.356813,-0.697809,9.49698,-0.074272156,-0.00049591064,-0.83558273,-0.92734784,-0.23082733,6.428932,1.6321087,0.08708954,-4.097351,0.06313324,-0.048942566,1.0370026,-0.6030986,0.18009186,0.055541992,1.5943354,-0.2438736,-0.4339676,-0.05832672,0.048866272,1.3604927,-1.3867174,-0.06336212,-1.2176704,1.8862636,0.0075912476,-1.6229477,-0.07083893,-0.112724304,-1.4996567,-1.1345556,-0.06771088,-6.176243,1.8898748,0.13431549,-11.452202,0.0,0.0,0.0,0.0,0.0,0.0,0.0,0.0,0.0,0.0,0.0,0.0,-0.95872116,0.3719473,-0.9778357,0.8575031,0.8882495,-0.89032626,-0.09782659,-0.85068387,0.27414808,-0.99032307,-0.57074034,-0.5247252
2025-06-04 17:18:18.332,-3.291072,-7.801495,1.43391,0.10996448,0.029942624,-0.12723929,1.069945,-0.861059,9.442957,-0.07762909,-0.10929108,-0.7489128,-0.9350535,-0.12004852,5.5426865,1.6328716,-0.017356873,-4.4306107,0.06580353,-0.018196106,0.98695374,-0.5911204,-0.008888245,0.06652832,1.5884608,-0.009727478,-0.8319206,-0.051078796,0.02445221,1.5814438,-1.392058,-0.04901886,-0.35095596,1.886874,0.019111633,-0.6561394,-0.06771088,0.1002121,-1.6852074,-1.1396673,-0.08617401,-5.475548,1.9000982,0.35762787,-11.693905,0.0,0.0,0.0,0.0,0.0,0.0,0.0,0.0,0.0,0.0,0.0,0.0,-0.96389866,0.34586653,-0.9793185,0.88345647,0.9076458,-0.90144503,-0.067350306,-0.8171935,0.34118858,-0.9913752,-0.5657722,-0.46911284
2025-06-04 17:18:18.382,-2.852529,-7.624633,1.085556,0.14923924,0.06254799,-0.10395144,0.84313,-0.766602,9.427815,-0.08106232,-0.049324036,-0.6683464,-0.9405467,-0.07663727,4.9469757,1.6359234,0.08190155,-4.860302,0.06839752,0.07663727,0.99794006,-0.58066815,0.07595062,-0.044555664,1.5831202,-0.113334656,-0.5084305,-0.045280457,0.094566345,1.3214302,-1.392821,-0.027427673,0.018920898,1.8884761,0.008735657,-0.036010742,-0.06565094,-0.026435852,-1.830471,-1.144779,-0.052986145,-5.387657,1.9126867,0.2325058,-11.635311,0.0,0.0,0.0,0.0,0.0,0.0,0.0,0.0,0.0,0.0,0.0,0.0,-0.9676837,0.3364972,-0.9805481,0.8981107,0.92176646,-0.9110641,-0.06377932,-0.7956737,0.36679903,-0.9923734,-0.56361353,-0.44304702
2025-06-04 17:18:18.433,-2.394002,-7.361783,0.762672,0.1570418,0.10989626,-0.114262536,1.103989,-0.546596,9.845058,-0.08563995,-0.0838089,-0.34241104,-0.94214886,0.034751892,4.732128,1.6395092,0.019874573,-4.7223625,0.06977081,-0.02773285,0.9625397,-0.5710551,0.11394501,-0.004272461,1.5771693,-0.10677338,-0.29724503,-0.040550232,0.16719818,1.1749458,-1.3895403,0.013999939,0.16052628,1.8903835,0.07923126,0.115356445,-0.064201355,-0.08937836,-1.8561058,-1.1456182,-0.14286041,-5.573204,1.9234442,0.28438568,-11.516899,0.0,0.0,0.0,0.0,0.0,0.0,0.0,0.0,0.0,0.0,0.0,0.0,-0.9688519,0.33862412,-0.9807206,0.90122294,0.92758536,-0.9178755,-0.070480466,-0.7901709,0.35692897,-0.992807,-0.56564075,-0.44068772
2025-06-04 17:18:18.484,-1.896264,-7.110393,0.423248,0.15805747,0.07340462,-0.11088267,1.123223,-0.311004,9.717387,-0.090293884,-0.15407562,-0.206913,-0.9420726,0.007286072,4.629589,1.6404247,0.05466461,-4.625927,0.07106781,0.04634857,0.95643616,-0.5645701,0.14736176,0.10070801,1.5716761,-0.07144928,-0.22278214,-0.035972595,0.13324738,0.94911194,-1.3865649,0.023536682,0.10803223,1.890765,-0.026130676,0.11657715,-0.06443024,-0.35320282,-1.4068832,-1.1461523,-0.09944916,-5.4718857,1.9358038,0.22502899,-12.577705,0.0,0.0,0.0,0.0,0.0,0.0,0.0,0.0,0.0,0.0,0.0,0.0,-0.9704151,0.33458692,-0.9808547,0.8984069,0.9287272,-0.9195844,-0.062045153,-0.7957568,0.34847876,-0.992796,-0.55527985,-0.4483517
2025-06-04 17:18:18.535,-1.419848,-6.874069,0.102388,0.14146341,0.097076885,-0.118552044,1.286015,-0.313127,9.78647,-0.09487152,-0.0548172,0.19836807,-0.9420726,0.009117126,4.6771965,1.6418743,0.029563904,-4.8334465,0.07205963,0.021476746,0.84290695,-0.56075543,0.06893158,0.1300087,1.568014,-0.01789093,-0.31189346,-0.03162384,0.03818512,0.8111687,-1.3858019,0.029716492,0.07385254,1.8905361,-0.0118637085,0.02746582,-0.06511688,-0.026512146,-1.4996567,-1.1456945,0.0976944,-5.598839,1.946256,0.10227203,-12.505684,0.0,0.0,0.0,0.0,0.0,0.0,0.0,0.0,0.0,0.0,0.0,0.0,-0.97193336,0.32894343,-0.98135746,0.897056,0.9276748,-0.9170738,-0.042128958,-0.7944231,0.37825158,-0.99268323,-0.5353955,-0.4374271
2025-06-04 17:18:18.586,-0.978373,-6.590998,-0.236885,0.12993516,0.11073711,-0.10890057,1.292822,0.021558,9.688244,-0.10196686,-0.16872406,0.6280632,-0.9415385,-0.015983582,4.383003,1.6427898,-0.012397766,-4.675976,0.07266998,0.021095276,0.79652023,-0.5590007,0.014152527,0.079956055,1.5659541,-0.024299622,-0.21545792,-0.02445221,0.13202667,0.34607315,-1.3838946,0.1619339,-0.18127823,1.8924434,0.051612854,0.1312294,-0.06755829,-0.03879547,-1.4361801,-1.1433294,0.03376007,-5.167927,1.9559454,0.2048111,-12.869457,0.0,0.0,0.0,0.0,0.0,0.0,0.0,0.0,0.0,0.0,0.0,0.0,-0.973445,0.32957125,-0.9823106,0.9026359,0.93042064,-0.9153408,-0.04110848,-0.7805152,0.41430357,-0.9930316,-0.5207195,-0.42530274
2025-06-04 17:18:18.637,-0.527624,-6.247119,-0.523473,0.13129745,0.117254324,-0.072741605,1.001729,0.05688,10.102905,-0.10875702,-0.13385773,0.76600266,-0.9413859,-0.02292633,4.384224,1.6437817,0.024757385,-4.773632,0.073280334,0.014305115,0.8990631,-0.55655926,0.067100525,-0.14343643,1.5661067,0.02620697,-0.57556915,-0.017051697,0.070991516,0.12023926,-1.3802325,0.001411438,-0.103149414,1.8969448,0.07862091,0.119018555,-0.070381165,-0.07556915,-1.5521469,-1.1424139,-0.02773285,-4.7602043,1.9639562,0.20076752,-13.000076,0.0,0.0,0.0,0.0,0.0,0.0,0.0,0.0,0.0,0.0,0.0,0.0,-0.9749051,0.31641614,-0.98327476,0.9059257,0.9337,-0.91475284,-0.041684553,-0.7724002,0.43778494,-0.99311846,-0.5047179,-0.41908056
2025-06-04 17:18:18.688,-0.228449,-6.057545,-0.643867,0.019813484,0.039447267,0.0032762447,0.585918,1.077062,9.937967,-0.11325836,-0.040168762,0.6317253,-0.9401652,-0.030326843,3.864193,1.6428661,-0.08396149,-4.633251,0.071525574,0.0005722046,1.1725044,-0.55526227,0.092659,0.19226456,1.5699977,0.079689026,-0.92225647,-0.012779236,0.047721863,0.115356445,-1.3758074,0.050849915,-0.20325089,1.8995388,0.050468445,0.5584793,-0.07595062,-0.08205414,-0.7403679,-1.1425664,0.004234314,-4.384224,1.9673132,0.05771637,-12.56794,0.0,0.0,0.0,0.0,0.0,0.0,0.0,0.0,0.0,0.0,0.0,0.0,-0.97616255,0.3127016,-0.9835674,0.9072584,0.93545544,-0.91518056,-0.042728364,-0.7655038,0.45216605,-0.99327123,-0.49790826,-0.4130676
2025-06-04 17:18:18.739,-0.104947,-5.980068,-0.501126,-0.02079106,-0.006477423,0.0760108,0.646916,0.626923,9.877234,-0.11463165,0.0008010864,0.49134064,-0.93703717,0.107688904,3.6127243,1.6428661,0.010719299,-4.8004875,0.071372986,0.010032654,1.018692,-0.555186,0.031852722,0.19348526,1.5709132,0.0023269653,-0.5548172,-0.0104904175,0.059013367,0.20080948,-1.3713061,0.08541107,-0.15076065,1.9026668,0.050239563,0.5462723,-0.08029938,-0.042915344,-0.7025261,-1.1426427,-0.008583069,-4.2426186,1.968305,-0.017967224,-12.532539,0.0,0.0,0.0,0.0,0.0,0.0,0.0,0.0,0.0,0.0,0.0,0.0,-0.9762923,0.32349777,-0.9832958,0.90650165,0.93628484,-0.9173289,-0.05327343,-0.7651892,0.43394348,-0.99354947,-0.506729,-0.42049074
2025-06-04 17:18:18.790,-0.163554,-6.002612,-0.358447,-0.026555428,-0.018425947,0.015160366,1.014057,-0.23968,9.715419,-0.11348724,0.061149597,0.3704872,-0.93474835,0.06984711,3.872738,1.6439342,0.09578705,-4.8993683,0.0724411,0.0065231323,1.0687408,-0.55404156,-0.053596497,0.16296768,1.5699214,-0.028190613,-0.42542267,-0.00995636,0.009346008,0.19470596,-1.3697039,0.0030899048,0.021362305,1.9045742,0.032539368,0.2484169,-0.0812912,-0.032539368,-0.90882874,-1.1423376,0.04825592,-4.622261,1.9686102,0.009422302,-12.547188,0.0,0.0,0.0,0.0,0.0,0.0,0.0,0.0,0.0,0.0,0.0,0.0,-0.97567534,0.33084148,-0.9826863,0.90178895,0.93448377,-0.91823256,-0.053852547,-0.77661544,0.4032894,-0.99347764,-0.51295185,-0.43445143
2025-06-04 17:18:18.841,-0.263791,-6.070512,-0.351639,-0.024070585,-0.021434981,-0.00322762,1.134686,-0.245597,9.640662,-0.11325836,-0.018882751,0.42786407,-0.9340617,-0.010948181,4.114441,1.6449261,0.019111633,-4.815136,0.07236481,-0.046272278,0.84168625,-0.55320233,0.004234314,0.044555664,1.5688533,-0.050849915,-0.4327469,-0.009651184,-0.031929016,0.19104385,-1.3709246,-0.045051575,-0.06286621,1.9038875,-0.0065231323,0.10681152,-0.0799942,-0.02872467,-1.039444,-1.1411169,-0.019721985,-4.6723137,1.968839,0.019798279,-12.774242,0.0,0.0,0.0,0.0,0.0,0.0,0.0,0.0,0.0,0.0,0.0,0.0,-0.975574,0.32876062,-0.98282987,0.89992166,0.9319723,-0.91546667,-0.044881467,-0.7827977,0.4137322,-0.99320287,-0.5032465,-0.43453375
2025-06-04 17:18:18.892,-0.310967,-6.103727,-0.328804,0.0029730112,-0.0019311544,0.0057618553,1.119158,-0.173287,9.807794,-0.11302948,0.027961731,0.42542267,-0.9331462,-0.014228821,4.1693764,1.6457653,-0.027275085,-4.8908234,0.072517395,0.01499176,0.80506516,-0.5525157,-0.0020217896,-0.03112793,1.5685481,-0.008964539,-0.46692657,-0.008964539,0.070991516,0.17761612,-1.3716875,-0.07442474,-0.20569229,1.9039638,0.0021743774,0.19714737,-0.080070496,0.034980774,-1.1139069,-1.1404302,-0.021781921,-4.569771,1.9699072,0.0065994263,-12.870678,0.0,0.0,0.0,0.0,0.0,0.0,0.0,0.0,0.0,0.0,0.0,0.0,-0.9759893,0.32819358,-0.9833034,0.90233564,0.93195814,-0.9124569,-0.040446453,-0.77665377,0.43560144,-0.99331963,-0.49937418,-0.4267237
2025-06-04 17:18:18.943,-0.294105,-6.098967,-0.34361,0.0109365815,0.008835729,-0.010776308,1.072902,-0.028586,9.725727,-0.11341095,-0.029792786,0.4803543,-0.9327647,-0.054283142,4.0619507,1.6457653,0.014762878,-4.8664055,0.07205963,-0.043907166,0.8575554,-0.55182904,-0.021247864,-0.06896973,1.568777,0.00011444092,-0.42176056,-0.008125305,0.0020980835,0.18005753,-1.3709246,0.06938934,-0.15076065,1.9052608,0.009727478,0.30701065,-0.08029938,0.024528503,-1.1981392,-1.1398962,0.013771057,-4.5868607,1.9704412,0.05634308,-12.776684,0.0,0.0,0.0,0.0,0.0,0.0,0.0,0.0,0.0,0.0,0.0,0.0,-0.9761504,0.32854268,-0.98362786,0.9054172,0.9343521,-0.91401184,-0.048366882,-0.77223456,0.43736553,-0.9935389,-0.49845174,-0.42798483
2025-06-04 17:18:18.994,-0.256811,-6.087215,-0.366576,0.002904315,0.00043847907,-0.0038159005,0.999135,0.088805,9.791724,-0.11348724,-0.015525818,0.4010086,-0.93230695,0.060081482,3.9935913,1.6458416,-0.0008773804,-4.8737297,0.07236481,0.051612854,1.0028229,-0.5513713,-0.07648468,0.037231445,1.5688533,0.0035476685,-0.45838165,-0.007820129,0.02620697,0.18982315,-1.3703142,-0.0038528442,-0.055541992,1.9064815,-0.006980896,0.32043839,-0.08037567,0.15209198,-1.1676216,-1.139591,-0.002784729,-4.523384,1.9708227,-0.059700012,-12.792553,0.0,0.0,0.0,0.0,0.0,0.0,0.0,0.0,0.0,0.0,0.0,0.0,-0.97620034,0.33281675,-0.98374593,0.9043949,0.934397,-0.91490716,-0.05572,-0.77551305,0.43302009,-0.9936327,-0.49786934,-0.43362212
2025-06-04 17:18:19.046,-0.249034,-6.081715,-0.352077,-0.002540222,2.8187067e-05,0.0040327054,1.010358,-0.078047,9.752036,-0.11341095,-0.03917694,0.41809845,-0.93215436,0.03139496,4.0924683,1.6457653,-0.005683899,-4.863964,0.07259369,-0.07801056,0.98817444,-0.5509135,0.09212494,0.020141602,1.568777,0.05443573,-0.46570587,-0.008049011,-0.028572083,0.1312294,-1.3703142,-0.022392273,-0.1715126,1.9069393,-0.009803772,0.31921768,-0.08014679,-0.079460144,-1.3958969,-1.1391332,-0.046272278,-4.572212,1.9706701,-0.0075149536,-12.824291,0.0,0.0,0.0,0.0,0.0,0.0,0.0,0.0,0.0,0.0,0.0,0.0,-0.97635716,0.32557857,-0.9837874,0.9032615,0.93366736,-0.9140122,-0.05564448,-0.7779975,0.4344755,-0.9934332,-0.495384,-0.43442863
2025-06-04 17:18:19.097,-0.263729,-6.084173,-0.354468,0.00028815385,-0.002052542,-0.004544593,1.072134,-0.092118,9.751685,-0.113334656,-0.023918152,0.44373322,-0.93223065,-0.009803772,3.9423218,1.6457653,0.0005722046,-4.8908234,0.0724411,0.019798279,1.0016022,-0.5507609,0.011177063,-0.04699707,1.5687007,0.042686462,-0.46692657,-0.008125305,-0.0017929077,0.119018555,-1.3706957,-0.012321472,-0.17639542,1.907397,-0.030021667,0.285038,-0.08022308,-0.08678436,-1.2091255,-1.1387517,0.002708435,-4.4635696,1.9708227,0.046577454,-12.773022,0.0,0.0,0.0,0.0,0.0,0.0,0.0,0.0,0.0,0.0,0.0,0.0,-0.97650135,0.3237241,-0.9838323,0.9034583,0.933616,-0.91331726,-0.055598043,-0.7749037,0.44431704,-0.9933792,-0.494434,-0.43169454
2025-06-04 17:18:19.149,-0.262898,-6.077539,-0.36401,-0.0002958682,0.00315655,0.0008413534,0.995462,-0.043323,9.735847,-0.113716125,-0.041999817,0.46448517,-0.93215436,0.0002670288,3.8971558,1.6458416,-0.010414124,-4.85664,0.0724411,-0.07556915,0.9747467,-0.5508372,0.013313293,-0.05432129,1.5687007,-0.018577576,-0.436409,-0.007896423,0.011177063,0.08728027,-1.3703905,-0.011177063,-0.13611221,1.9086177,0.0048446655,0.24353409,-0.0799942,-0.06565094,-1.0479889,-1.1385992,-0.004005432,-4.379341,1.9706701,0.0073623657,-12.760815,0.0,0.0,0.0,0.0,0.0,0.0,0.0,0.0,0.0,0.0,0.0,0.0,-0.9765051,0.32734984,-0.9840028,0.90500164,0.9345999,-0.91425854,-0.06466845,-0.7726569,0.4481657,-0.99349564,-0.49409562,-0.43132797
2025-06-04 17:18:19.199,-0.261128,-6.074119,-0.360211,0.001616838,0.0015252606,0.00091221376,0.991903,-0.042989,9.739802,-0.11341095,0.010871887,0.45105743,-0.93200177,0.077934265,3.9227905,1.6457653,0.0017166138,-4.8749504,0.0724411,0.005607605,0.99549866,-0.55053204,0.051460266,-0.00061035156,1.5686244,0.025367737,-0.4388504,-0.007972717,0.0024795532,0.09094238,-1.3700854,-0.009880066,-0.095825195,1.9103725,0.06778717,0.17639542,-0.080070496,-0.0046920776,-1.0345612,-1.1385229,0.0020217896,-4.4220657,1.9705938,-0.022773743,-12.782787,0.0,0.0,0.0,0.0,0.0,0.0,0.0,0.0,0.0,0.0,0.0,0.0,-0.97638726,0.32991353,-0.98398006,0.90322644,0.9346132,-0.9153337,-0.068391845,-0.77721447,0.43521005,-0.99352545,-0.4950574,-0.43826246
2025-06-04 17:18:19.250,-0.263876,-6.074689,-0.35807,-0.0037595264,-0.004528466,-0.0052009937,1.020619,-0.041942,9.748697,-0.11341095,0.013694763,0.46814728,-0.9319255,0.05962372,4.022888,1.6458416,0.022697449,-4.8407707,0.0724411,-0.04535675,0.91493225,-0.55053204,-0.029792786,0.00793457,1.5686244,-0.06839752,-0.46814728,-0.008049011,-0.039405823,0.076293945,-1.3701617,-0.0010299683,-0.15808487,1.9106014,0.0031661987,0.17639542,-0.080070496,0.014915466,-1.0650787,-1.1384466,-0.008430481,-4.384224,1.970899,-0.04634857,-12.824291,0.0,0.0,0.0,0.0,0.0,0.0,0.0,0.0,0.0,0.0,0.0,0.0,-0.97616255,0.3300333,-0.98388046,0.9020087,0.93338495,-0.9153176,-0.07405798,-0.77922523,0.43747887,-0.9933758,-0.49291322,-0.43869966
2025-06-04 17:18:19.301,-0.269187,-6.079292,-0.364431,-0.0037717437,-0.0054288465,-0.0027231674,1.027723,-0.050141,9.684856,-0.11356354,-0.058937073,0.44983673,-0.93207806,-0.013084412,4.0338745,1.6459179,0.012779236,-4.8908234,0.07221222,-0.07701874,0.9759674,-0.55045575,0.06801605,-0.028686523,1.5687007,0.036506653,-0.49256134,-0.008125305,0.052986145,0.061645508,-1.3706194,-0.023460388,-0.20203018,1.910754,-0.004386902,0.2117958,-0.08022308,0.008201599,-0.9759674,-1.1384466,-0.023460388,-4.4147415,1.9706701,-0.026130676,-12.814526,0.0,0.0,0.0,0.0,0.0,0.0,0.0,0.0,0.0,0.0,0.0,0.0,-0.9762136,0.33091798,-0.98408234,0.9023347,0.93360597,-0.9147997,-0.07931449,-0.7785185,0.44277307,-0.99340624,-0.4933319,-0.44023785
2025-06-04 17:18:19.352,-0.27129,-6.07958,-0.368019,-0.0013573426,-0.003391768,-0.0001023112,0.996423,-0.046068,9.70712,-0.11348724,-0.046653748,0.44861603,-0.9318492,0.011253357,4.053406,1.6458416,0.001335144,-4.8590813,0.072135925,0.04108429,0.94789124,-0.55045575,0.00034332275,-0.028686523,1.568777,0.047721863,-0.49256134,-0.008430481,-0.007896423,0.0030517578,-1.3705431,0.04245758,-0.17883682,1.9110591,0.06374359,0.25818253,-0.07991791,0.045433044,-1.0980377,-1.1382177,0.013542175,-4.364689,1.9707464,-0.028800964,-12.918289,0.0,0.0,0.0,0.0,0.0,0.0,0.0,0.0,0.0,0.0,0.0,0.0,-0.97614086,0.3329088,-0.98421615,0.90155035,0.9337486,-0.9152274,-0.08191567,-0.78119844,0.438354,-0.9934533,-0.49050856,-0.44524506
2025-06-04 17:18:19.404,-0.273932,-6.076678,-0.366565,-0.0026154805,-0.0006899635,-0.0010907435,0.977456,-0.074842,9.759496,-0.11348724,-0.015678406,0.44617462,-0.9318492,-0.007820129,4.0997925,1.6459179,-0.0008010864,-4.8126945,0.07228851,0.11646271,1.0016022,-0.5501506,-0.0033187866,-0.018920898,1.5687007,0.0060653687,-0.48401642,-0.008430481,0.044898987,0.026245117,-1.3704668,-0.06717682,-0.24109268,1.911288,0.048103333,0.2105751,-0.0799942,0.09754181,-1.0931549,-1.1380651,0.07266998,-4.3573647,1.9705938,0.052757263,-12.964676,0.0,0.0,0.0,0.0,0.0,0.0,0.0,0.0,0.0,0.0,0.0,0.0,-0.9761423,0.328593,-0.98436856,0.9014338,0.932901,-0.9134523,-0.08248954,-0.78024215,0.4503626,-0.9933099,-0.48948094,-0.44204158
2025-06-04 17:18:19.455,-0.278009,-6.071488,-0.376442,-0.0016552178,0.0038797623,-0.0018274994,1.002775,-0.064636,9.74354,-0.11363983,0.033454895,0.46814728,-0.9317729,-0.019111633,3.9227905,1.6460705,0.0031661987,-4.8529778,0.07190704,-0.05382538,0.8514519,-0.55022687,0.015449524,-0.0579834,1.5687007,0.011787415,-0.42420197,-0.008735657,0.010719299,0.055541992,-1.3708483,-0.06855011,-0.22278214,1.9116695,0.01247406,0.23865128,-0.080070496,-0.012168884,-1.0894928,-1.1378362,-0.014076233,-4.31464,1.9705938,-0.04611969,-12.887772,0.0,0.0,0.0,0.0,0.0,0.0,0.0,0.0,0.0,0.0,0.0,0.0,-0.97624904,0.32611248,-0.9844818,0.9028982,0.9337423,-0.9139499,-0.08814211,-0.7773464,0.45481542,-0.99334437,-0.4888653,-0.4403328
2025-06-04 17:18:19.506,-0.280343,-6.06852,-0.380041,-0.003303472,0.001295523,0.0029610908,1.011035,-0.079511,9.698052,-0.11363983,0.0182724,0.46082306,-0.9318492,0.016670227,3.9899292,1.6459179,0.044822693,-4.851757,0.07205963,-0.07411957,0.87709045,-0.5498454,-0.05443573,-0.032348633,1.5685481,0.014915466,-0.49744415,-0.008811951,-0.013847351,-0.015258789,-1.3704668,-0.009727478,-0.1702919,1.9119747,-0.0012588501,0.29358292,-0.079841614,0.054283142,-0.99549866,-1.1376836,-0.058174133,-4.4196243,1.9706701,-0.08403778,-12.921951,0.0,0.0,0.0,0.0,0.0,0.0,0.0,0.0,0.0,0.0,0.0,0.0,-0.9759717,0.32902566,-0.98449033,0.9028384,0.93437725,-0.91581845,-0.09982775,-0.7774019,0.45039883,-0.99341565,-0.49059075,-0.4446592
2025-06-04 17:18:19.557,-0.286483,-6.06696,-0.379355,-0.0014705621,0.0013566095,0.0021847857,1.028048,-0.051325,9.766685,-0.113716125,0.05367279,0.52918243,-0.931544,0.04032135,3.9667358,1.6460705,0.009422302,-4.9103546,0.07183075,0.05382538,1.039444,-0.5496928,-0.05290985,-0.056762695,1.5686244,0.008125305,-0.46326447,-0.009346008,-0.032310486,-0.009155273,-1.3705431,-0.032844543,-0.1312294,1.9122036,-0.008888245,0.25696182,-0.079841614,-0.0182724,-1.0235748,-1.136997,0.022087097,-4.269474,1.9706701,-0.00957489,-13.014725,0.0,0.0,0.0,0.0,0.0,0.0,0.0,0.0,0.0,0.0,0.0,0.0,-0.97603047,0.32624266,-0.98445743,0.900142,0.9335135,-0.9155469,-0.09941183,-0.78286356,0.4433232,-0.9932667,-0.4890046,-0.45105344
2025-06-04 17:18:19.609,-0.290362,-6.062016,-0.375024,-0.0015267268,0.0023277455,0.00023048818,1.041005,-0.057892,9.747802,-0.11386871,0.008811951,0.48645782,-0.9316203,0.045814514,3.945984,1.6460705,0.027122498,-4.8822784,0.071754456,0.0016403198,1.0504303,-0.5496928,-0.032844543,-0.08972168,1.568777,0.0065231323,-0.48279572,-0.009346008,0.021781921,-0.092163086,-1.3705431,-0.0020217896,-0.2484169,1.9122798,-0.0051498413,0.18494034,-0.07991791,0.05634308,-1.0016022,-1.1371496,0.035057068,-4.417183,1.9707464,0.02002716,-12.997635,0.0,0.0,0.0,0.0,0.0,0.0,0.0,0.0,0.0,0.0,0.0,0.0,-0.9759062,0.32916257,-0.98444027,0.90022975,0.93289125,-0.9153045,-0.104287125,-0.7812582,0.4520726,-0.9932152,-0.48933816,-0.448262
2025-06-04 17:18:19.660,-0.29464,-6.059983,-0.379157,-0.0013107772,-0.00056314794,-0.0021728128,1.002911,-0.063553,9.709474,-0.11394501,-0.010795593,0.44983673,-0.9313914,0.11676788,4.0009155,1.6462231,0.0005722046,-4.8297844,0.071754456,0.024223328,0.8319206,-0.5497691,0.012931824,-0.064086914,1.568777,0.016899109,-0.49011993,-0.009651184,-0.038642883,0.055541992,-1.3706957,0.10158539,-0.23498917,1.9126613,0.003929138,0.285038,-0.0799942,-0.0025558472,-0.99549866,-1.1369207,-0.021324158,-4.373234,1.9705938,-0.024909973,-12.926834,0.0,0.0,0.0,0.0,0.0,0.0,0.0,0.0,0.0,0.0,0.0,0.0,-0.975936,0.33143115,-0.98454595,0.8999104,0.9334748,-0.9164511,-0.10923207,-0.78418624,0.44161162,-0.9933076,-0.48833072,-0.4550117
2025-06-04 17:18:19.712,-0.301349,-6.056895,-0.379817,0.0017011724,0.0018998607,-0.0024326923,0.996269,-0.059038,9.75318,-0.114097595,0.0031661987,0.4718094,-0.93116254,0.0077438354,4.0180054,1.6461468,-0.05558014,-4.848095,0.071754456,-0.014228821,1.0138092,-0.5494639,0.03452301,-0.095825195,1.568777,0.006752014,-0.48767853,-0.009498596,-0.06732941,-0.045776367,-1.3713061,-0.02445221,-0.2825966,1.9124324,0.002861023,0.13977432,-0.080070496,-0.002784729,-1.0333405,-1.136997,0.0015640259,-4.3781204,1.9705175,-0.09159088,-13.136799,0.0,0.0,0.0,0.0,0.0,0.0,0.0,0.0,0.0,0.0,0.0,0.0,-0.97614527,0.32661638,-0.9847971,0.8992252,0.9322839,-0.913994,-0.105486766,-0.7860723,0.45487785,-0.99316615,-0.48140642,-0.45234135
2025-06-04 17:18:19.764,-0.30843,-6.047578,-0.38092,-0.0015451225,0.0030063994,-0.0041447207,0.991933,-0.072456,9.771094,-0.1140213,-0.046653748,0.46936798,-0.9316966,-0.07770538,4.11322,1.6462994,-0.05290985,-4.818798,0.07160187,0.06137848,0.8941803,-0.54931134,-0.044898987,-0.111694336,1.568777,0.060310364,-0.5047684,-0.009346008,0.020332336,-0.033569336,-1.3709246,0.058250427,-0.33996964,1.9131191,-0.015525818,0.22766495,-0.07976532,-0.022087097,-1.0467682,-1.1363103,0.032234192,-4.3451576,1.9705938,-0.05832672,-12.979324,0.0,0.0,0.0,0.0,0.0,0.0,0.0,0.0,0.0,0.0,0.0,0.0,-0.9763617,0.327734,-0.98506236,0.9016539,0.93329376,-0.9133834,-0.11076012,-0.7795347,0.4688236,-0.99331486,-0.4804171,-0.4488172
2025-06-04 17:18:19.817,-0.312553,-6.039667,-0.394057,-0.0045084646,0.0001542522,-0.0007071376,0.953677,-0.051397,9.726504,-0.11432648,0.03162384,0.54261017,-0.931544,-0.025062561,4.0131226,1.6463757,0.0017929077,-4.8773956,0.071372986,-0.055351257,0.9649811,-0.54915875,-0.042762756,-0.14221573,1.568777,0.020942688,-0.42053986,-0.009269714,-0.03856659,-0.044555664,-1.3708483,0.07740021,-0.2117958,1.9141872,-0.0004196167,0.31067276,-0.079841614,0.017051697,-1.0492096,-1.1359289,0.020637512,-4.31464,1.9706701,-0.0049972534,-13.033035,0.0,0.0,0.0,0.0,0.0,0.0,0.0,0.0,0.0,0.0,0.0,0.0,-0.9760298,0.32600045,-0.9851229,0.9024659,0.9344417,-0.9153913,-0.122797064,-0.77889913,0.46349543,-0.9933337,-0.4831526,-0.45223096
2025-06-04 17:18:19.870,-0.328316,-6.037425,-0.390489,-0.0057603545,-0.00118733,0.0006433633,1.026434,-0.060585,9.753401,-0.11455536,-0.06504059,0.49622345,-0.93085736,0.022392273,3.6810875,1.6468334,-0.0017166138,-4.953079,0.071144104,-0.03490448,0.98573303,-0.5483958,0.013008118,-0.11413574,1.5687007,0.024299622,-0.46814728,-0.009803772,0.052070618,-0.04333496,-1.3710009,0.0046157837,-0.2093544,1.914645,0.019874573,0.27405167,-0.07976532,-0.03452301,-1.0223541,-1.1355474,0.027122498,-4.339054,1.9705175,-0.044822693,-12.997635,0.0,0.0,0.0,0.0,0.0,0.0,0.0,0.0,0.0,0.0,0.0,0.0,-0.9760718,0.33201182,-0.9852291,0.901096,0.93435264,-0.9159612,-0.13254365,-0.78274286,0.4610055,-0.99337816,-0.4836948,-0.45967507
2025-06-04 17:18:19.924,-0.340958,-6.034689,-0.39112,-0.005437905,0.0010303551,-0.00074235833,1.020206,-0.077081,9.738145,-0.11470795,0.07083893,0.53650665,-0.9303233,-0.0146102905,3.9765015,1.6471386,0.03894806,-4.97139,0.071144104,-0.0021743774,0.9625397,-0.54816693,0.044822693,-0.115356445,1.5685481,-0.044288635,-0.48279572,-0.009727478,0.033683777,-0.10803223,-1.370772,0.047950745,-0.23865128,1.9152553,-0.009880066,0.23498917,-0.079841614,0.04711151,-1.0113678,-1.134403,0.05672455,-4.379341,1.9705175,0.017585754,-13.114822,0.0,0.0,0.0,0.0,0.0,0.0,0.0,0.0,0.0,0.0,0.0,0.0,-0.97567797,0.32920784,-0.9854315,0.9005841,0.9337711,-0.91548073,-0.14126953,-0.7859662,0.46284536,-0.99324894,-0.48177785,-0.46412325
2025-06-04 17:18:19.977,-0.356956,-6.028304,-0.397122,-0.0034651067,0.00064741244,-0.0066983816,0.981973,-0.073292,9.721332,-0.11470795,-0.00957489,0.5450516,-0.9304759,0.001335144,3.8995972,1.6473675,0.02658844,-4.9359894,0.07106781,0.004005432,1.0321198,-0.5474803,0.025367737,-0.18616104,1.5686244,0.012702942,-0.44495392,-0.009880066,0.01712799,-0.17517471,-1.3710772,-0.081977844,-0.2874794,1.9157894,0.011634827,0.2117958,-0.079841614,-0.0233078,-1.0931549,-1.1339452,0.013465881,-4.359806,1.9707464,-0.0021743774,-13.125813,0.0,0.0,0.0,0.0,0.0,0.0,0.0,0.0,0.0,0.0,0.0,0.0,-0.97585326,0.32466614,-0.9857028,0.89990044,0.93336356,-0.91424865,-0.14597532,-0.7853224,0.47560158,-0.99310553,-0.47746813,-0.4630048
2025-06-04 17:18:20.029,-0.370063,-6.024704,-0.416031,-0.007940166,-0.00034046138,-0.0058489298,0.990027,-0.039105,9.723989,-0.11501312,-0.0037765503,0.56824493,-0.9303996,0.02872467,3.7848473,1.6476727,0.0049972534,-4.97139,0.07091522,-0.014762878,0.9820709,-0.5471751,0.010643005,-0.22888565,1.568777,0.017738342,-0.45960236,-0.010261536,-0.016365051,-0.18982315,-1.3712298,-0.028953552,-0.27161026,1.9170101,0.021705627,0.30212784,-0.07976532,0.057792664,-1.0247955,-1.1334112,0.040016174,-4.2304115,1.9705938,0.0012588501,-13.179523,0.0,0.0,0.0,0.0,0.0,0.0,0.0,0.0,0.0,0.0,0.0,0.0,-0.9759383,0.3243869,-0.98592347,0.9005698,0.9340466,-0.9147655,-0.15447044,-0.78320426,0.48220852,-0.9931286,-0.47533512,-0.46333772
2025-06-04 17:18:20.082,-0.389993,-6.023341,-0.420842,-0.009363552,-7.168067e-05,-0.0010459758,0.981052,-0.055049,9.687542,-0.11516571,0.0064468384,0.5499344,-0.9304759,0.047035217,3.765316,1.6484356,0.0118637085,-5.077591,0.07091522,-0.06626129,1.0540924,-0.54679364,0.0020980835,-0.23743057,1.5687007,-0.01285553,-0.5059891,-0.01033783,0.0035476685,-0.2117958,-1.3711535,0.026817322,-0.2887001,1.9183071,0.043678284,0.29968643,-0.079841614,0.01247406,-1.0492096,-1.1325719,0.049705505,-4.3744545,1.9705175,-0.070991516,-13.223469,0.0,0.0,0.0,0.0,0.0,0.0,0.0,0.0,0.0,0.0,0.0,0.0,-0.9759033,0.3290254,-0.9860587,0.9004815,0.9345168,-0.91585076,-0.16728292,-0.78427863,0.48016676,-0.9932428,-0.47440276,-0.4685632
2025-06-04 17:18:20.136,-0.41634,-6.013425,-0.426829,-0.009827879,0.00034241614,-0.0039089965,0.993252,-0.055721,9.78044,-0.11539459,0.05596161,0.5621414,-0.930247,0.016059875,3.8947144,1.6494274,0.0118637085,-5.133747,0.070762634,0.024681091,1.0150299,-0.5459544,-0.0051498413,-0.23620987,1.568777,0.0030899048,-0.4766922,-0.01033783,0.03742218,-0.24353409,-1.3711535,0.019187927,-0.2825966,1.9191463,0.025978088,0.25574112,-0.079841614,-0.04749298,-1.072403,-1.1317327,0.02292633,-4.2890053,1.9705175,-0.013160706,-13.210041,0.0,0.0,0.0,0.0,0.0,0.0,0.0,0.0,0.0,0.0,0.0,0.0,-0.9756561,0.3276937,-0.9861755,0.89894813,0.9339254,-0.91556484,-0.17540239,-0.7878431,0.47789118,-0.9931504,-0.47315204,-0.47505078
2025-06-04 17:18:20.190,-0.448395,-6.008656,-0.425984,-0.010670472,-0.0001765575,0.001989972,1.029729,-0.09193,9.744097,-0.115623474,-0.00011444092,0.5438309,-0.9303233,-0.02117157,3.8715172,1.6505718,0.0059127808,-5.109329,0.07068634,0.0014877319,1.0565338,-0.54549664,-0.0661087,-0.26672745,1.5686244,0.007972717,-0.4718094,-0.010795593,-0.011711121,-0.2911415,-1.3713824,-0.042381287,-0.31799698,1.9200618,0.0002670288,0.17395401,-0.079841614,0.00415802,-1.0260162,-1.1308172,-0.0008010864,-4.3585854,1.9705175,0.034217834,-13.313801,0.0,0.0,0.0,0.0,0.0,0.0,0.0,0.0,0.0,0.0,0.0,0.0,-0.97551364,0.32416305,-0.9863806,0.8983458,0.9332905,-0.9146205,-0.18277346,-0.7876005,0.48995316,-0.9929675,-0.46890092,-0.47446504
2025-06-04 17:18:20.243,-0.484078,-6.004811,-0.423859,-0.009783757,0.0052724825,0.001048716,0.991034,-0.082943,9.700927,-0.11592865,0.054512024,0.56702423,-0.9300944,0.02407074,3.8141441,1.6514874,-0.05153656,-5.1654854,0.07068634,-0.005531311,0.9369049,-0.54534405,-0.0048446655,-0.27771378,1.568777,0.012702942,-0.53528595,-0.011024475,-0.015602112,-0.34119034,-1.371535,-0.041618347,-0.31555557,1.9215114,-0.0011062622,0.25818253,-0.079841614,0.060539246,-0.99916077,-1.1298254,0.041923523,-4.2767982,1.9705175,0.0075912476,-13.316242,0.0,0.0,0.0,0.0,0.0,0.0,0.0,0.0,0.0,0.0,0.0,0.0,-0.9757752,0.32312897,-0.98665076,0.89857095,0.9336464,-0.91418296,-0.18863586,-0.78700817,0.49663556,-0.9929738,-0.46543658,-0.47545213
2025-06-04 17:18:20.295,-0.51542,-5.99581,-0.428988,-0.0123237,-0.0008192575,-0.004456035,1.019479,-0.100667,9.739045,-0.11615753,0.01964569,0.6720085,-0.9301707,-0.0033187866,3.7872887,1.6524029,-0.0017166138,-5.192341,0.07068634,0.0017166138,0.9369049,-0.54481,0.05306244,-0.2825966,1.5686244,-0.010032654,-0.44861603,-0.011253357,0.006980896,-0.35339737,-1.3716875,-0.00019073486,-0.29968643,1.9226558,0.027198792,0.2862587,-0.079841614,0.05672455,-0.9295807,-1.1288335,0.0661087,-4.26215,1.9705175,-0.019187927,-13.246662,0.0,0.0,0.0,0.0,0.0,0.0,0.0,0.0,0.0,0.0,0.0,0.0,-0.9758678,0.32475886,-0.9870249,0.89985347,0.9344255,-0.9138702,-0.19978538,-0.785931,0.5054319,-0.99307567,-0.46197674,-0.47819576
2025-06-04 17:18:20.349,-0.548553,-5.995367,-0.441203,-0.008705458,-0.00065718626,-0.0066417283,0.991302,-0.119562,9.732074,-0.11684418,-0.084495544,0.6720085,-0.9301707,0.0047683716,3.7811852,1.6527843,0.02155304,-5.246052,0.07045746,-0.040397644,1.063858,-0.5444285,-0.002784729,-0.29480362,1.5686244,-0.0077438354,-0.4730301,-0.011329651,0.0036239624,-0.38758087,-1.3717638,0.023002625,-0.29480362,1.9238765,0.004081726,0.31799698,-0.07976532,-0.014915466,-1.0699615,-1.1276891,0.006980896,-4.203556,1.9707464,-0.034751892,-13.283283,0.0,0.0,0.0,0.0,0.0,0.0,0.0,0.0,0.0,0.0,0.0,0.0,-0.9758084,0.3262887,-0.98735154,0.9003769,0.93505335,-0.9145688,-0.21793391,-0.7856995,0.5107054,-0.99313176,-0.45952106,-0.4835715
2025-06-04 17:18:20.402,-0.576377,-5.993977,-0.457168,-0.01084401,0.00026467917,-0.005214817,0.98259,-0.13342,9.764209,-0.11714935,-0.012245178,0.6353874,-0.92971295,-0.036888123,3.9142456,1.653471,-0.0011062622,-5.282673,0.07061005,0.023002625,1.0040436,-0.54427594,-0.024147034,-0.29602432,1.5685481,0.027503967,-0.48401642,-0.012016296,0.026741028,-0.46204376,-1.3717638,0.0023269653,-0.2887001,1.924792,0.007896423,0.31677628,-0.0799942,-0.02407074,-1.0431061,-1.126621,0.0333786,-4.3219643,1.9705175,-0.011024475,-13.326008,0.0,0.0,0.0,0.0,0.0,0.0,0.0,0.0,0.0,0.0,0.0,0.0,-0.97557944,0.32631102,-0.98755735,0.8987835,0.93465745,-0.9140892,-0.22972181,-0.7890544,0.51018804,-0.9930967,-0.45890683,-0.49113148
2025-06-04 17:18:20.455,-0.601215,-5.993553,-0.466811,-0.008747974,-0.0039152447,-0.0043923478,1.023849,-0.080403,9.75193,-0.117378235,0.0034713745,0.6683464,-0.9291026,0.046653748,3.8666344,1.6536236,-0.029945374,-5.220417,0.070762634,0.019340515,1.039444,-0.5438182,0.02696991,-0.2887001,1.5686244,0.00995636,-0.45960236,-0.012626648,-0.03025055,-0.46936798,-1.3718401,-0.002937317,-0.3656044,1.9257839,0.008659363,0.27283096,-0.08014679,-0.06504059,-1.0858307,-1.1256292,-0.013542175,-4.215763,1.9704412,-0.013923645,-13.481041,0.0,0.0,0.0,0.0,0.0,0.0,0.0,0.0,0.0,0.0,0.0,0.0,-0.97550714,0.32382047,-0.98770434,0.89730775,0.9338818,-0.91372144,-0.2375419,-0.7920614,0.5127908,-0.9929289,-0.4556534,-0.4947143
2025-06-04 17:18:20.507,-0.624364,-5.996335,-0.482333,-0.011619477,-0.0027893852,-0.010279727,1.0373,-0.111545,9.713137,-0.11844635,-0.10051727,0.79529953,-0.92872113,0.029640198,3.5761032,1.6536236,-0.008049011,-5.269245,0.070762634,0.06320953,0.99061584,-0.5436656,0.013847351,-0.31189346,1.5682429,-0.010566711,-0.45716095,-0.012779236,-0.020942688,-0.46570587,-1.3719927,0.0011825562,-0.363163,1.9270046,0.007896423,0.2825966,-0.08014679,0.25310516,-1.0650787,-1.1246374,0.0472641,-4.253605,1.9704412,-0.0033950806,-13.572594,0.0,0.0,0.0,0.0,0.0,0.0,0.0,0.0,0.0,0.0,0.0,0.0,-0.9754166,0.326689,-0.988132,0.8981194,0.9342527,-0.9131533,-0.2501198,-0.79084533,0.5280408,-0.99294406,-0.45131648,-0.49594134
2025-06-04 17:18:20.561,-0.655034,-5.998181,-0.510838,-0.01079912,-0.0017890148,-0.010526482,0.961031,-0.111518,9.733645,-0.1190567,0.0059127808,0.7733269,-0.92841595,0.08312225,3.8336754,1.6536236,0.03452301,-5.3009834,0.07083893,0.030632019,1.0211334,-0.54389447,-0.052986145,-0.29724503,1.5682429,-0.010032654,-0.3973465,-0.01285553,0.02948761,-0.50232697,-1.3722979,0.017051697,-0.3704872,1.9285305,0.051460266,0.33996964,-0.08029938,-0.0015640259,-0.79896164,-1.123493,0.018119812,-4.2108803,1.9703649,-0.05382538,-13.592125,0.0,0.0,0.0,0.0,0.0,0.0,0.0,0.0,0.0,0.0,0.0,0.0,-0.9753145,0.32821605,-0.988191,0.8971156,0.93438333,-0.9139204,-0.26357183,-0.7919952,0.52102816,-0.9930088,-0.4531493,-0.5024773
2025-06-04 17:18:20.614,-0.693796,-6.005947,-0.537518,-0.01718479,-0.005270388,-0.009986041,1.020706,-0.118327,9.743527,-0.11981964,0.031166077,0.7415886,-0.9279582,0.0064468384,3.7811852,1.6538525,0.014839172,-5.2680244,0.07091522,0.014457703,0.9649811,-0.5437419,-0.02445221,-0.30701065,1.568014,-0.033302307,-0.45105743,-0.013694763,0.08808136,-0.5584793,-1.3724505,-0.0062942505,-0.39246368,1.929446,0.03238678,0.30823135,-0.08075714,0.09334564,-0.76234055,-1.1222723,0.0023269653,-4.3121986,1.9706701,0.0017929077,-13.605553,0.0,0.0,0.0,0.0,0.0,0.0,0.0,0.0,0.0,0.0,0.0,0.0,-0.97478426,0.3320201,-0.9882589,0.8959843,0.9337989,-0.9140203,-0.27517527,-0.795146,0.5209168,-0.9929437,-0.45410472,-0.50833577
2025-06-04 17:18:20.667,-0.723192,-6.013744,-0.553099,-0.010132771,-0.00025026276,-0.0019391481,1.037256,-0.123194,9.752167,-0.120658875,-0.05290985,0.7879753,-0.92727154,-0.012702942,3.7909508,1.6539288,-0.005302429,-5.2838936,0.070762634,-0.022773743,1.0614166,-0.5437419,0.03604889,-0.30456924,1.5678614,0.009651184,-0.4327469,-0.014457703,0.02986908,-0.67933273,-1.3724505,0.010566711,-0.42664337,1.9302089,0.010566711,0.27405167,-0.081214905,-0.09548187,-0.84168625,-1.1210515,0.03353119,-4.3817825,1.9705175,-0.03162384,-13.686123,0.0,0.0,0.0,0.0,0.0,0.0,0.0,0.0,0.0,0.0,0.0,0.0,-0.9751118,0.33035854,-0.98842394,0.89427197,0.9333398,-0.9132038,-0.27832732,-0.7995695,0.51904064,-0.9928754,-0.44950482,-0.51407564
2025-06-04 17:18:20.719,-0.754807,-6.02742,-0.560723,-0.008966437,-0.0028945762,-0.0071125655,1.035326,-0.153736,9.750093,-0.121040344,0.03200531,0.8587761,-0.9266612,-0.023002625,3.8812866,1.6539288,-0.0157547,-5.281452,0.07083893,-0.0075149536,0.9784088,-0.54404706,-0.0065994263,-0.31799698,1.5677851,-0.014457703,-0.35828018,-0.014762878,0.027503967,-0.6243973,-1.3726794,-0.024299622,-0.5169754,1.9305141,0.016288757,0.23010635,-0.08136749,0.0063705444,-0.91859436,-1.1200597,0.022392273,-4.3256264,1.9702886,-0.019721985,-13.798428,0.0,0.0,0.0,0.0,0.0,0.0,0.0,0.0,0.0,0.0,0.0,0.0,-0.97493947,0.32759672,-0.9885403,0.89399445,0.932279,-0.9113011,-0.28070414,-0.79850054,0.52951115,-0.9927523,-0.44743145,-0.51124763
2025-06-04 17:18:20.772,-0.777421,-6.035494,-0.587883,-0.0102488175,-0.0022888596,-0.009413346,1.037658,-0.111581,9.721931,-0.12180328,-0.007896423,0.88319397,-0.9268901,-0.047798157,3.8409996,1.6538525,0.026512146,-5.2729073,0.07091522,-0.03299713,0.9723053,-0.54427594,-0.017585754,-0.30945206,1.5677088,0.013313293,-0.38880157,-0.014762878,0.030403137,-0.6341667,-1.3729082,-0.03391266,-0.50232697,1.9315822,0.01712799,0.30823135,-0.08144379,-0.034370422,-0.99916077,-1.1192968,-0.01033783,-4.3451576,1.9702886,-0.016212463,-13.6507225,0.0,0.0,0.0,0.0,0.0,0.0,0.0,0.0,0.0,0.0,0.0,0.0,-0.9749791,0.3260877,-0.9886989,0.89508927,0.9331528,-0.911422,-0.2868521,-0.7956443,0.5351258,-0.992777,-0.44631192,-0.51153165
2025-06-04 17:18:20.826,-0.808562,-6.038699,-0.612041,-0.009759549,-0.0018693872,-0.008899748,1.00423,-0.183957,9.748732,-0.12233734,-0.019874573,0.9698639,-0.9265086,-0.01613617,3.7128258,1.654005,-0.0004196167,-5.27779,0.070991516,-0.030555725,0.99916077,-0.5445048,0.060386658,-0.2825966,1.5675563,-0.05908966,-0.3692665,-0.01499176,0.0047683716,-0.64393234,-1.3732134,-0.0060653687,-0.42664337,1.9319637,-0.008354187,0.39002228,-0.08144379,0.0048446655,-0.96131897,-1.118839,0.07801056,-4.2841225,1.9702886,0.010032654,-13.742275,0.0,0.0,0.0,0.0,0.0,0.0,0.0,0.0,0.0,0.0,0.0,0.0,-0.97521204,0.32538077,-0.9889387,0.8958159,0.93378186,-0.911317,-0.29277408,-0.7962266,0.5396757,-0.9928024,-0.44409028,-0.514501
2025-06-04 17:18:20.879,-0.812971,-6.036307,-0.619849,-0.0047773677,0.0022287157,-0.0050932723,1.036816,-0.135302,9.715532,-0.122795105,0.018501282,0.91981506,-0.9262034,-0.021705627,3.5309372,1.6539288,-0.017051697,-5.331501,0.07106781,0.017051697,0.9662018,-0.5445048,-0.04901886,-0.28137589,1.56748,-0.014381409,-0.35095596,-0.01499176,-0.037117004,-0.6732292,-1.3732134,-0.016670227,-0.46570587,1.9324214,-0.025978088,0.41077423,-0.08167267,-0.0011062622,-0.9417877,-1.118305,0.009651184,-4.2475014,1.9704412,0.016899109,-13.831387,0.0,0.0,0.0,0.0,0.0,0.0,0.0,0.0,0.0,0.0,0.0,0.0,-0.97507036,0.3228079,-0.9889992,0.895054,0.9334906,-0.9110517,-0.2964748,-0.7965317,0.5409267,-0.9927421,-0.44325754,-0.51590693
2025-06-04 17:18:20.933,-0.815626,-6.035301,-0.633316,-0.005219878,0.0035240466,-0.0068636294,1.033655,-0.125841,9.720231,-0.123558044,-0.17940521,1.0370026,-0.92605084,-0.023841858,3.5944138,1.6539288,0.011100769,-5.232624,0.071144104,-0.01750946,0.9784088,-0.5448863,0.012321472,-0.2899208,1.5675563,-0.052452087,-0.34363174,-0.015220642,-0.0049972534,-0.6268425,-1.3732897,0.010795593,-0.46570587,1.9328029,0.03429413,0.42420197,-0.08174896,0.0283432,-0.91737366,-1.1174657,0.01499176,-4.307316,1.9702886,0.02292633,-13.765469,0.0,0.0,0.0,0.0,0.0,0.0,0.0,0.0,0.0,0.0,0.0,0.0,-0.9750983,0.32879585,-0.9892623,0.89626724,0.9341979,-0.91098875,-0.30707335,-0.7951908,0.54970175,-0.99285555,-0.44125068,-0.5177434
2025-06-04 17:18:20.987,-0.80921,-6.026082,-0.638014,-0.0014129312,0.0035788848,-0.0023484975,0.974303,-0.141432,9.768949,-0.123939514,0.005683899,0.94667053,-0.92605084,-0.051612854,3.6810875,1.6539288,-0.024757385,-5.286335,0.07106781,-0.044136047,1.0113678,-0.5447337,0.03261566,-0.25818253,1.5676326,0.021324158,-0.37292862,-0.015678406,0.002632141,-0.68055344,-1.3729082,0.15262604,-0.40711212,1.9329555,0.022850037,0.5120926,-0.08174896,-0.011787415,-0.94667053,-1.1171606,0.049476624,-4.2145424,1.9703649,-0.0051498413,-13.787441,0.0,0.0,0.0,0.0,0.0,0.0,0.0,0.0,0.0,0.0,0.0,0.0,-0.97484875,0.33039084,-0.98923874,0.8951203,0.9342149,-0.91218334,-0.31299856,-0.79909116,0.53693503,-0.9929384,-0.4428683,-0.5247811
2025-06-04 17:18:21.040,-0.804271,-6.026856,-0.630243,-0.0056172023,-0.0027840445,0.0007247829,1.034158,-0.140345,9.761304,-0.12424469,0.002708435,0.95765686,-0.92574567,0.055122375,3.6395836,1.6538525,-0.017433167,-5.265583,0.071144104,0.048866272,0.95887756,-0.54481,-0.04650116,-0.23743057,1.56748,0.023765564,-0.33996964,-0.016059875,0.077552795,-0.61707306,-1.3732134,-0.07282257,-0.526741,1.9331081,-0.0032424927,0.3619423,-0.08205414,-0.020942688,-1.0113678,-1.117008,-0.020484924,-4.330509,1.9703649,0.02407074,-13.911957,0.0,0.0,0.0,0.0,0.0,0.0,0.0,0.0,0.0,0.0,0.0,0.0,-0.9746453,0.3282457,-0.9890835,0.8922019,0.9323033,-0.911059,-0.3120875,-0.80138123,0.53639805,-0.9926868,-0.44565386,-0.52430904
2025-06-04 17:18:21.093,-0.80903,-6.032348,-0.625209,-0.011416391,-0.0063676764,-0.0023372401,1.038606,-0.164842,9.716111,-0.124549866,0.0048446655,0.9845123,-0.92582196,-0.056114197,3.7128258,1.654005,0.00019073486,-5.2716866,0.07129669,-0.071754456,0.94911194,-0.54549664,-0.030937195,-0.2459755,1.5671748,-0.026359558,-0.35095596,-0.016593933,-0.033454895,-0.6976433,-1.3735186,-0.001411438,-0.5206375,1.9331081,0.011405945,0.3607216,-0.0825119,-0.05794525,-0.71839523,-1.1167791,0.008583069,-4.453804,1.9702886,0.0052261353,-13.922943,0.0,0.0,0.0,0.0,0.0,0.0,0.0,0.0,0.0,0.0,0.0,0.0,-0.9746065,0.32706177,-0.9890787,0.89245075,0.93236995,-0.9108745,-0.31111637,-0.801123,0.53811395,-0.9926306,-0.44248748,-0.52348137
2025-06-04 17:18:21.146,-0.814457,-6.035011,-0.623541,-0.008234045,0.003215769,-0.0029918258,1.023783,-0.156973,9.72381,-0.12500763,-0.063056946,0.99061584,-0.92589825,-0.03879547,3.7640953,1.6539288,-0.006904602,-5.29488,0.071754456,-0.019340515,1.0174713,-0.54564923,-0.017204285,-0.22278214,1.5672511,-0.0025558472,-0.35828018,-0.016822815,0.03643036,-0.6964226,-1.3737475,-0.039405823,-0.53528595,1.9331844,0.011024475,0.363163,-0.08266449,-0.17978668,-0.9332428,-1.1166265,-0.05405426,-4.231632,1.9703649,0.001411438,-13.885101,0.0,0.0,0.0,0.0,0.0,0.0,0.0,0.0,0.0,0.0,0.0,0.0,-0.97480345,0.3279132,-0.9891223,0.89290076,0.9323904,-0.9101138,-0.31206706,-0.79925215,0.5414293,-0.99268943,-0.44320074,-0.5225505
2025-06-04 17:18:21.199,-0.811764,-6.028842,-0.622547,-0.0028094565,-0.0007119896,-0.004570354,0.999096,-0.148225,9.751539,-0.124931335,0.07259369,1.0211334,-0.92589825,-0.016593933,3.7470055,1.654005,-0.009727478,-5.293659,0.07160187,0.023994446,0.99305725,-0.5460307,-0.04512787,-0.2459755,1.5672511,0.014457703,-0.3607216,-0.016975403,0.008659363,-0.65369797,-1.3739,-0.010795593,-0.5047684,1.9331844,-0.013313293,0.38758087,-0.08289337,0.10669708,-0.6756706,-1.1163976,0.08014679,-4.2877846,1.9702886,-0.046424866,-13.830166,0.0,0.0,0.0,0.0,0.0,0.0,0.0,0.0,0.0,0.0,0.0,0.0,-0.9747674,0.32879496,-0.9891374,0.89252996,0.93244,-0.910453,-0.3094995,-0.8012637,0.5372448,-0.99274504,-0.44241294,-0.52442944
2025-06-04 17:18:21.251,-0.803721,-6.026739,-0.617658,-0.0037591425,-0.0008847074,-0.0023491958,1.007031,-0.162031,9.740537,-0.12516022,-0.011329651,0.9381256,-0.92582196,-0.0104904175,3.7421227,1.654005,-0.029411316,-5.224079,0.07160187,-0.0661087,1.0003815,-0.5459544,-0.06725311,-0.23987198,1.5671748,0.04512787,-0.3680458,-0.017051697,-0.0699234,-0.63904953,-1.3736712,0.053901672,-0.5828934,1.9331844,-0.0118637085,0.3692665,-0.082969666,0.011940002,-0.84656906,-1.1163213,0.0371933,-4.2597084,1.9702886,-0.011177063,-13.902191,0.0,0.0,0.0,0.0,0.0,0.0,0.0,0.0,0.0,0.0,0.0,0.0,-0.97478825,0.32813188,-0.98899597,0.8917288,0.9319321,-0.91076624,-0.3071609,-0.8014901,0.5345733,-0.99267775,-0.44173062,-0.523093
2025-06-04 17:18:21.304,-0.795371,-6.022089,-0.614326,-0.0018920242,0.002324604,-0.004966142,1.026142,-0.137213,9.736946,-0.1253891,0.0032424927,1.0577545,-0.92589825,-0.12859344,3.5577927,1.6538525,0.022010803,-5.2472725,0.071525574,-0.14141083,1.0235748,-0.5460307,0.024757385,-0.2471962,1.5670985,-0.04512787,-0.3692665,-0.017051697,-0.011253357,-0.6756706,-1.3738238,0.03139496,-0.514534,1.9331844,-0.013084412,0.35828018,-0.08289337,-0.065574646,-0.8563347,-1.1158636,-0.042915344,-4.3744545,1.9705938,0.033836365,-13.908295,0.0,0.0,0.0,0.0,0.0,0.0,0.0,0.0,0.0,0.0,0.0,0.0,-0.97455645,0.3261234,-0.98909473,0.89384353,0.93239284,-0.91006553,-0.31187066,-0.7980455,0.54394126,-0.9926439,-0.44224024,-0.52013063
2025-06-04 17:18:21.356,-0.783229,-6.019689,-0.611726,-0.0037941711,-0.002453322,0.002043344,0.993785,-0.152522,9.72259,-0.12561798,0.06122589,0.9796295,-0.92582196,-0.07061005,3.601738,1.654005,0.0030899048,-5.3302803,0.071754456,-0.027122498,0.91371155,-0.5460307,-0.04535675,-0.23254776,1.5673274,0.030479431,-0.33264542,-0.017051697,-0.012168884,-0.6720085,-1.3738238,0.07083893,-0.45960236,1.9334133,-0.01712799,0.4327469,-0.08319855,0.009498596,-0.9454498,-1.115711,0.05344391,-4.3036537,1.9704412,0.039787292,-13.7740135,0.0,0.0,0.0,0.0,0.0,0.0,0.0,0.0,0.0,0.0,0.0,0.0,-0.97464013,0.32804847,-0.98904634,0.89269125,0.9328673,-0.9112703,-0.3112172,-0.79988796,0.5344808,-0.9927369,-0.4437845,-0.525128
2025-06-04 17:18:21.409,-0.778186,-6.023362,-0.595833,-0.003582393,-0.0012229172,-0.00101545,1.026212,-0.16905,9.725785,-0.12577057,0.0104904175,1.0003815,-0.9255168,-0.06427765,3.6054,1.6539288,0.031852722,-5.3180733,0.07190704,-0.039482117,0.9698639,-0.5461833,-0.0059127808,-0.22400284,1.5670222,0.007820129,-0.3619423,-0.01712799,-0.024757385,-0.6952019,-1.3738238,-0.005302429,-0.5206375,1.9335659,0.021781921,0.3607216,-0.08342743,-0.09349823,-0.8294792,-1.115711,-0.0062179565,-4.2792397,1.9702886,0.0020980835,-13.947357,0.0,0.0,0.0,0.0,0.0,0.0,0.0,0.0,0.0,0.0,0.0,0.0,-0.9746991,0.32763305,-0.9890384,0.8919098,0.93204033,-0.910102,-0.3085611,-0.8015008,0.53589183,-0.992671,-0.44228607,-0.5240808
2025-06-04 17:18:21.462,-0.773259,-6.022938,-0.595296,-0.002203129,-0.001304302,-0.0041107913,1.022753,-0.166391,9.745103,-0.12599945,-0.06587982,1.1187897,-0.9256694,0.024986267,3.7018394,1.6542339,0.007286072,-5.248493,0.072135925,0.043754578,0.99183655,-0.5462596,0.034370422,-0.2117958,1.5668696,0.00995636,-0.37292862,-0.017051697,0.06526947,-0.6768913,-1.3738238,-0.0063705444,-0.4803543,1.9334896,-0.0075149536,0.34241104,-0.08327484,0.019187927,-0.9027252,-1.1154821,0.01903534,-4.3854446,1.9703649,0.011787415,-13.878998,0.0,0.0,0.0,0.0,0.0,0.0,0.0,0.0,0.0,0.0,0.0,0.0,-0.97490907,0.3311447,-0.98914087,0.892819,0.9322136,-0.90972304,-0.3093338,-0.8002455,0.5401363,-0.9927582,-0.4427391,-0.5234913
2025-06-04 17:18:21.515,-0.764798,-6.020769,-0.588321,-0.0071513294,-0.002752803,0.0004266981,0.983563,-0.148378,9.753603,-0.12607574,0.012626648,1.1236725,-0.9252116,0.027427673,3.7799644,1.6539288,-0.008277893,-5.27779,0.07221222,0.058021545,0.8111687,-0.5462596,-0.0049972534,-0.21912003,1.5670985,0.00667572,-0.35828018,-0.017356873,-0.002937317,-0.6549187,-1.3735949,-0.038642883,-0.53162384,1.9334896,-0.01865387,0.3936844,-0.08342743,0.0009536743,-0.72571945,-1.1152532,0.056877136,-4.3170815,1.9702123,-0.0016403198,-13.907074,0.0,0.0,0.0,0.0,0.0,0.0,0.0,0.0,0.0,0.0,0.0,0.0,-0.97500813,0.32695892,-0.98914623,0.8922968,0.9320478,-0.90936303,-0.30570042,-0.8017105,0.53654087,-0.99270964,-0.44151345,-0.5241186
2025-06-04 17:18:21.574,-0.758634,-6.020787,-0.575633,0.00094443257,0.0022034259,-0.0014236302,1.038022,-0.164559,9.722618,-0.12615204,0.06504059,1.0772858,-0.9254405,-0.024528503,3.5675583,1.654005,-0.01712799,-5.3302803,0.07221222,-0.049858093,0.8636589,-0.54648846,0.027961731,-0.22766495,1.5670985,-0.0132369995,-0.33752823,-0.017204285,0.011940002,-0.63904953,-1.3736712,-0.034980774,-0.5511551,1.9335659,-0.0075912476,0.35705948,-0.08327484,0.08068085,-0.8502312,-1.1153295,-0.009727478,-4.326847,1.9703649,0.013923645,-13.8521385,0.0,0.0,0.0,0.0,0.0,0.0,0.0,0.0,0.0,0.0,0.0,0.0,-0.97471625,0.32695386,-0.9890903,0.89337707,0.93193394,-0.9092585,-0.30676904,-0.79873407,0.5436394,-0.99266243,-0.4421428,-0.5191445
2025-06-04 17:18:21.631,-0.744872,-6.019808,-0.582434,-0.003070645,-0.0017294467,-0.0020707983,1.032494,-0.152386,9.73847,-0.12638092,-0.023765564,1.1261177,-0.9252879,0.011787415,3.662777,1.6539288,-0.001335144,-5.2558174,0.07221222,-0.07556915,0.95277405,-0.54641217,0.043678284,-0.21301651,1.5670222,0.030784607,-0.34485245,-0.017433167,-0.029182434,-0.61951447,-1.3738238,0.039863586,-0.49866486,1.9339473,-0.010185242,0.41687775,-0.083351135,0.062065125,-0.8160515,-1.1152532,0.005531311,-4.3585854,1.9704412,0.033226013,-13.838711,0.0,0.0,0.0,0.0,0.0,0.0,0.0,0.0,0.0,0.0,0.0,0.0,-0.97482437,0.32930684,-0.9890655,0.8932061,0.93285155,-0.91095144,-0.30881077,-0.79939556,0.5355654,-0.99275815,-0.44332153,-0.523304
2025-06-04 17:18:21.690,-0.739864,-6.017189,-0.567196,-0.005093621,0.00079862773,-1.9547688e-05,1.024589,-0.17073,9.739182,-0.12607574,0.08060455,0.9234772,-0.9253642,-0.018959045,3.8092613,1.6539288,-0.018577576,-5.310749,0.07236481,-0.103263855,0.83680344,-0.54648846,-0.017738342,-0.19470596,1.5668696,-0.02544403,-0.363163,-0.01750946,0.040626526,-0.58045197,-1.3737475,0.0036239624,-0.5096512,1.9337947,0.022315979,0.3314247,-0.08319855,-0.037651062,-0.867321,-1.1151769,0.008354187,-4.328068,1.9702123,-0.031700134,-13.798428,0.0,0.0,0.0,0.0,0.0,0.0,0.0,0.0,0.0,0.0,0.0,0.0,-0.97460973,0.33287653,-0.9888942,0.8919051,0.93180776,-0.91081566,-0.3090473,-0.8015408,0.53064865,-0.9927637,-0.44502378,-0.5235692
2025-06-04 17:18:21.744,-0.732473,-6.015731,-0.559418,0.0014006093,0.0016049,-0.00054229127,1.032186,-0.143985,9.753104,-0.12622833,0.04840851,1.0785065,-0.925059,0.041236877,3.6762047,1.654005,0.001411438,-5.2729073,0.07274628,0.08396149,0.7794304,-0.54686993,0.024986267,-0.20080948,1.5669459,0.013694763,-0.35705948,-0.017814636,-0.07259369,-0.5877762,-1.3739763,0.03856659,-0.53894806,1.9337947,0.0037002563,0.26428604,-0.08350372,-0.034446716,-0.8514519,-1.1151769,0.010643005,-4.4147415,1.9702886,0.023155212,-13.9131775,0.0,0.0,0.0,0.0,0.0,0.0,0.0,0.0,0.0,0.0,0.0,0.0,-0.97481316,0.3280736,-0.98886603,0.88985884,0.9310999,-0.9098984,-0.29971662,-0.80526835,0.52317977,-0.9926213,-0.44162154,-0.52654874
2025-06-04 17:18:21.795,-0.723797,-6.015466,-0.548064,-0.002853299,-0.00039104102,-0.0044565587,1.037676,-0.155384,9.736183,-0.12638092,-0.011634827,1.0479889,-0.9252116,-0.01209259,3.7018394,1.6540813,0.039405823,-5.336384,0.0724411,0.0031661987,0.7940788,-0.5469462,-0.01941681,-0.26672745,1.5669459,-0.0046157837,-0.35217667,-0.017738342,-0.060539246,-0.57312775,-1.3738238,0.0037002563,-0.5841141,1.9334896,0.0048446655,0.19836807,-0.08358002,0.0017166138,-0.83558273,-1.1150243,0.008430481,-4.3048744,1.9702886,-0.0005722046,-13.875336,0.0,0.0,0.0,0.0,0.0,0.0,0.0,0.0,0.0,0.0,0.0,0.0,-0.9749203,0.3266756,-0.9888683,0.8911745,0.9305762,-0.90831804,-0.2967201,-0.8006081,0.53838575,-0.99256945,-0.4392188,-0.51800555
2025-06-04 17:18:21.846,-0.711394,-6.00649,-0.552118,-0.00013966125,0.0051333276,-0.0017831854,0.997275,-0.168416,9.716219,-0.12683868,-0.022315979,1.0601959,-0.9252879,0.0077438354,3.6322594,1.6541576,0.019111633,-5.269245,0.072135925,-0.041618347,0.8624382,-0.54686993,0.0146865845,-0.27405167,1.5671748,-0.02407074,-0.29968643,-0.017204285,0.032081604,-0.49256134,-1.3739763,-0.0035476685,-0.50354767,1.9339473,0.05832672,0.3656044,-0.08350372,0.05191803,-0.7391472,-1.1145666,-0.00919342,-4.282902,1.9702123,-0.018959045,-13.8204,0.0,0.0,0.0,0.0,0.0,0.0,0.0,0.0,0.0,0.0,0.0,0.0,-0.97495925,0.33089405,-0.98904365,0.89380044,0.9322037,-0.90917444,-0.30258495,-0.796969,0.5415542,-0.9927949,-0.44050506,-0.51773894
2025-06-04 17:18:21.897,-0.704099,-6.001576,-0.546727,-0.00085041166,-0.0022611264,0.0007122165,1.012567,-0.150234,9.719514,-0.12683868,0.060768127,1.0382233,-0.925059,-0.05443573,3.7042809,1.6540813,0.0074386597,-5.2545967,0.07266998,0.005378723,0.8929596,-0.54686993,-0.03177643,-0.23620987,1.5668696,0.011177063,-0.35217667,-0.017662048,-0.002784729,-0.5865555,-1.3738238,-0.03566742,-0.44373322,1.9337947,-0.09685516,0.37537384,-0.08358002,-0.033226013,-0.88197327,-1.1144903,0.02407074,-4.3121986,1.9703649,0.042381287,-13.81918,0.0,0.0,0.0,0.0,0.0,0.0,0.0,0.0,0.0,0.0,0.0,0.0,-0.97502977,0.32426724,-0.98899835,0.89300364,0.93220735,-0.9092391,-0.30152893,-0.7991066,0.53467774,-0.9927141,-0.44295537,-0.5218294
2025-06-04 17:18:21.948,-0.693668,-6.001434,-0.534049,-0.004591647,-0.0012283627,-0.004941097,1.074893,-0.156692,9.728692,-0.1266861,0.058021545,0.98695374,-0.9249827,0.099983215,3.5211716,1.654005,0.036201477,-5.279011,0.072517395,0.004005432,0.9344635,-0.54686993,0.05756378,-0.19226456,1.5667933,-0.052604675,-0.35583878,-0.017662048,0.081977844,-0.62073517,-1.3738238,-0.051994324,-0.50232697,1.9339473,-0.005607605,0.32043839,-0.08350372,-0.016899109,-0.91859436,-1.1145666,-0.0012588501,-4.3768997,1.9702123,-0.03627777,-13.8069725,0.0,0.0,0.0,0.0,0.0,0.0,0.0,0.0,0.0,0.0,0.0,0.0,-0.97498906,0.33119762,-0.9889389,0.89290506,0.93197227,-0.90986323,-0.30412006,-0.79938054,0.53637564,-0.9927664,-0.4443892,-0.5209825
2025-06-04 17:18:21.999,-0.686416,-5.998654,-0.530417,-0.0017294642,3.5063666e-05,-0.0008875348,1.003121,-0.16316,9.752763,-0.12699127,-0.06977081,1.0699615,-0.92483014,-0.10471344,3.5101852,1.6539288,-0.0061416626,-5.249714,0.07259369,-0.037574768,0.9063873,-0.54686993,0.02117157,-0.20569229,1.5669459,-0.007133484,-0.33752823,-0.017585754,0.038261414,-0.53894806,-1.3736712,0.0036239624,-0.481575,1.9339473,-0.06435394,0.33508682,-0.08350372,0.002937317,-0.8563347,-1.1145666,-0.05420685,-4.3341713,1.9702886,-0.01903534,-13.843594,0.0,0.0,0.0,0.0,0.0,0.0,0.0,0.0,0.0,0.0,0.0,0.0,-0.9748635,0.33276716,-0.9891196,0.8938706,0.9326052,-0.9098486,-0.30830625,-0.8002727,0.5368887,-0.99285054,-0.44215205,-0.523889
2025-06-04 17:18:22.050,-0.683023,-5.994943,-0.512723,-0.00032639402,0.0005039464,-0.00038421678,1.017822,-0.180596,9.749698,-0.12699127,0.13469696,0.9698639,-0.92460126,0.15636444,3.90448,1.6539288,0.0132369995,-5.281452,0.07274628,-0.06427765,1.0162506,-0.5469462,-0.0065994263,-0.19714737,1.5669459,0.035362244,-0.34851456,-0.01750946,0.16468048,-0.6964226,-1.3738238,-0.05947113,-0.5084305,1.933871,-0.025520325,0.3289833,-0.08350372,0.002784729,-0.9039459,-1.1142614,-0.009880066,-4.42939,1.9703649,0.02658844,-13.847256,0.0,0.0,0.0,0.0,0.0,0.0,0.0,0.0,0.0,0.0,0.0,0.0,-0.97454166,0.33500195,-0.98870754,0.89074683,0.9311451,-0.9111377,-0.30851126,-0.8023281,0.5216153,-0.99276155,-0.45140687,-0.5253012
2025-06-04 17:18:22.101,-0.673588,-5.99468,-0.50386,-0.0052580484,0.0016861276,0.00012187634,1.031034,-0.15779,9.720274,-0.12714386,-0.022773743,1.0089264,-0.9243724,0.17627716,3.610283,1.654005,-0.013465881,-5.2924385,0.07228851,-0.11356354,0.9430084,-0.54686993,0.07091522,-0.21667862,1.5670222,0.011711121,-0.34241104,-0.017662048,0.07846832,-0.53040314,-1.3739,-0.05016327,-0.5450516,1.9337184,0.0037002563,0.19714737,-0.083732605,-0.022773743,-0.8868561,-1.1143377,-0.0073623657,-4.5917435,1.9702123,-0.04611969,-13.860683,0.0,0.0,0.0,0.0,0.0,0.0,0.0,0.0,0.0,0.0,0.0,0.0,-0.97472465,0.3388312,-0.98858523,0.8885596,0.9305517,-0.91179734,-0.30211216,-0.80805194,0.51199186,-0.9927012,-0.4469498,-0.52890456
2025-06-04 17:18:22.152,-0.665282,-5.993804,-0.491901,-0.0034021179,-0.0057067904,0.0008745321,1.019988,-0.154926,9.766861,-0.12714386,-0.08861542,1.0870514,-0.92460126,-0.02483368,3.9276733,1.6539288,0.0030899048,-5.2802315,0.072517395,-0.022163391,0.94789124,-0.5470988,0.062065125,-0.21789932,1.5670222,-0.03894806,-0.3265419,-0.017662048,0.06160736,-0.6012039,-1.3742052,0.047721863,-0.592659,1.9332607,0.028877258,0.11047363,-0.08350372,-0.040626526,-0.8526726,-1.114414,-0.025596619,-4.539253,1.9702886,0.0017166138,-14.023041,0.0,0.0,0.0,0.0,0.0,0.0,0.0,0.0,0.0,0.0,0.0,0.0,-0.9746936,0.33730853,-0.9887766,0.8900454,0.93002605,-0.90911716,-0.29927823,-0.80600303,0.52513534,-0.9926866,-0.44117928,-0.52412117
2025-06-04 17:18:22.203,-0.662627,-5.99546,-0.482671,-0.002145289,-0.0027506563,-0.0031201425,0.99858,-0.19207,9.718798,-0.12706757,0.07595062,1.0870514,-0.9243724,0.04421234,3.822689,1.654005,0.009651184,-5.1898994,0.07236481,0.08563995,0.7403679,-0.5474803,-0.032539368,-0.26672745,1.5669459,-0.021324158,-0.363163,-0.017662048,0.06259918,-0.64271164,-1.3741289,-0.023231506,-0.60852814,1.9336421,-0.015830994,0.2117958,-0.08358002,-0.025901794,-0.83924484,-1.1140325,0.10349274,-4.3366127,1.9702123,-0.008964539,-13.8399315,0.0,0.0,0.0,0.0,0.0,0.0,0.0,0.0,0.0,0.0,0.0,0.0,-0.97512925,0.33016074,-0.98879594,0.8900424,0.92994714,-0.9076997,-0.29214913,-0.80374503,0.52694476,-0.9926593,-0.44078234,-0.5215135
2025-06-04 17:18:22.254,-0.66147,-5.994487,-0.484114,-0.00015980234,0.0029819473,-0.0050287475,1.034822,-0.156922,9.690314,-0.12706757,0.13233185,1.0907135,-0.92452496,0.034370422,3.9423218,1.6539288,0.005836487,-5.3119698,0.07236481,-0.028419495,0.7428093,-0.5471751,0.07976532,-0.24353409,1.5669459,0.04146576,-0.30212784,-0.017585754,0.14781952,-0.5658035,-1.3742052,0.007972717,-0.5853348,1.9336421,0.0104904175,0.23132706,-0.083732605,-0.035209656,-0.8258171,-1.1138799,0.01209259,-4.469673,1.970136,-0.0075149536,-13.794765,0.0,0.0,0.0,0.0,0.0,0.0,0.0,0.0,0.0,0.0,0.0,0.0,-0.97499275,0.33286315,-0.9886558,0.89183515,0.9306322,-0.9086236,-0.29104814,-0.80027306,0.52817374,-0.99277115,-0.44482556,-0.5183603
2025-06-04 17:18:22.305,-0.655927,-5.99149,-0.481026,-0.0031573006,-0.00091312133,0.0037626156,1.022109,-0.149692,9.712068,-0.12760162,-0.14469147,1.1053619,-0.9243724,-0.0522995,3.5614548,1.6539288,-0.022239685,-5.2594795,0.07266998,0.052375793,0.8990631,-0.5474803,0.015296936,-0.22888565,1.5668696,0.015830994,-0.30212784,-0.01750946,0.07602692,-0.6305046,-1.3741289,-0.0008010864,-0.481575,1.9337947,0.008659363,0.23376846,-0.08358002,-0.00995636,-0.9015045,-1.1138799,-0.08647919,-4.3659096,1.9702886,0.006980896,-13.865566,0.0,0.0,0.0,0.0,0.0,0.0,0.0,0.0,0.0,0.0,0.0,0.0,-0.97503674,0.3369726,-0.98893297,0.8934211,0.93188715,-0.9088559,-0.29507464,-0.80059063,0.5313397,-0.99292403,-0.44081587,-0.52144825
2025-06-04 17:18:22.356,-0.648134,-5.989251,-0.461712,0.0024457823,-0.0020572022,0.002590505,0.980624,-0.17318,9.738334,-0.12722015,-0.053749084,1.1297798,-0.9243724,0.0009536743,3.8422203,1.6539288,0.0051498413,-5.3253975,0.07282257,0.002861023,0.9723053,-0.547404,0.017204285,-0.20447159,1.5669459,0.0036239624,-0.31433487,-0.017433167,0.0018692017,-0.62073517,-1.3739,0.043067932,-0.46204376,1.9337947,-0.036354065,0.26794815,-0.08350372,0.038719177,-0.8709831,-1.1135747,-0.031852722,-4.3549232,1.9702123,-0.03200531,-13.838711,0.0,0.0,0.0,0.0,0.0,0.0,0.0,0.0,0.0,0.0,0.0,0.0,-0.97507316,0.33235985,-0.98902875,0.89314675,0.93158036,-0.9086056,-0.29834077,-0.8015939,0.53208405,-0.9928627,-0.4393905,-0.5218344
2025-06-04 17:18:22.407,-0.641263,-5.986916,-0.459434,-0.00039655625,0.0014978241,-0.004994207,1.024744,-0.139634,9.734813,-0.12706757,0.036582947,1.1322212,-0.9242198,0.05268097,3.7042809,1.6539288,-0.020942688,-5.286335,0.07266998,-0.032844543,0.8709831,-0.5472514,0.05290985,-0.18616104,1.5668696,-0.0008010864,-0.2838173,-0.017738342,-0.11569977,-0.49256134,-1.3740526,-0.06725311,-0.53284454,1.9337947,-0.0046157837,0.27527237,-0.08350372,0.034065247,-0.8685417,-1.1132696,-0.014228821,-4.3158607,1.9702123,-0.009498596,-13.836269,0.0,0.0,0.0,0.0,0.0,0.0,0.0,0.0,0.0,0.0,0.0,0.0,-0.97523206,0.3212381,-0.9890451,0.8918739,0.9308101,-0.9070659,-0.29239246,-0.80121475,0.538297,-0.9925687,-0.436046,-0.5178192
2025-06-04 17:18:22.458,-0.638055,-5.987784,-0.461992,-0.0045686783,0.002185571,-0.004092361,1.039347,-0.137452,9.733027,-0.12737274,-0.0049209595,1.1139069,-0.92444867,-0.013694763,3.408867,1.6539288,0.0020980835,-5.2716866,0.07259369,-0.03894806,0.9246979,-0.5471751,0.028038025,-0.21545792,1.5669459,-0.0063705444,-0.285038,-0.017433167,0.012626648,-0.56702423,-1.3739763,-0.01964569,-0.56702423,1.9339473,0.02155304,0.32043839,-0.08365631,-0.026741028,-0.8514519,-1.1131933,-0.026817322,-4.2719154,1.9703649,-0.0030899048,-13.858242,0.0,0.0,0.0,0.0,0.0,0.0,0.0,0.0,0.0,0.0,0.0,0.0,-0.81970096,-0.8361448,-0.99572486,0.93858314,0.9269572,-0.25168416,-0.78952086,-0.37983117,0.46832564,-0.8265508,-0.9098474,-0.7770315
2025-06-04 17:18:22.509,-0.782509,-6.646785,-0.567897,-0.1771135,-0.27339274,0.02157672,4.238724,1.066933,8.492241,-0.12294769,0.07350922,1.4544907,-1.025767,-1.4056778,-10.380407,1.6659069,0.38539886,-7.412834,0.07572174,0.18672943,0.33386612,-0.55167645,0.22891998,-0.973526,1.6201228,1.0520554,0.27283096,-0.039024353,0.05756378,-0.6341667,-1.3517748,-0.18245697,8.383308,1.9292934,-0.0371933,0.018920898,-0.08152008,-0.011558533,-0.08483887,-1.1508825,-0.5427933,-10.203403,1.9742559,0.04711151,-17.052872,0.0,0.0,0.0,0.0,0.0,0.0,0.0,0.0,0.0,0.0,0.0,0.0,-0.570873,-0.88047576,-0.987767,0.9787269,0.96260667,-0.68898714,-0.918339,-0.18335119,0.9389202,-0.69300383,-0.9520424,-0.8538576
2025-06-04 17:18:22.560,-0.743822,-6.574246,0.092024,0.040403657,0.12720229,0.4069869,4.208634,0.538999,8.443861,-0.109825134,0.3107834,0.7830925,-1.0955759,-1.0228348,-9.395285,1.6871929,0.4704666,-8.900892,0.07953644,0.015525818,1.0138092,-0.55037946,0.052070618,0.12756729,1.6249293,-0.12882233,0.053100586,-0.057411194,-0.5704117,0.0592041,-1.3174425,0.7641983,7.193104,1.9415767,0.20259857,3.7640953,-0.07991791,0.13278961,-0.076293945,-1.1949041,-1.3891983,-6.3056374,1.9710516,0.02155304,-17.854885,0.0,0.0,0.0,0.0,0.0,0.0,0.0,0.0,0.0,0.0,0.0,0.0,-0.5485558,-0.87332463,-0.90758294,0.98292744,0.97651064,-0.96218663,-0.96251434,-0.076306514,0.89536995,-0.34696564,-0.9726242,-0.075164855
2025-06-04 17:18:22.611,-0.503157,-6.307153,0.961909,0.2977155,0.1119111,0.15728372,2.464188,-0.904775,8.046946,-0.09098053,0.32138824,-0.005493164,-1.1637865,-1.4384842,-4.7711906,1.7165661,0.64151764,-9.827421,0.08213043,0.43491364,0.31799698,-0.5448863,-0.034751892,0.76356125,1.6013545,0.040473938,-2.1307716,-0.06778717,-0.29140472,-0.7147331,-1.2666308,0.67562103,8.211185,1.9522579,0.13500214,3.3698006,-0.06649017,0.4013443,0.1715126,-1.2677648,-1.430397,-2.285801,1.9826483,0.14148712,-9.530785,0.0,0.0,0.0,0.0,0.0,0.0,0.0,0.0,0.0,0.0,0.0,0.0,-0.85019195,-0.80580765,0.74509287,0.94041055,0.95521927,-0.9959475,-0.8842986,-0.6063384,-0.75776494,0.67487806,-0.9887101,0.852638
2025-06-04 17:18:22.662,-0.875051,-5.231543,1.127639,-0.25085256,0.59401375,-0.043954406,-2.406645,0.6747,9.94325,-0.084495544,-0.0951004,-0.25940323,-1.2423693,-1.197319,-0.5938797,1.8229198,1.6289139,0.2093544,0.10066986,0.10746002,-0.96009827,-0.59081525,-0.46337128,5.5048447,1.6386622,1.093483,-9.392845,-0.07762909,-0.072135925,-0.18494034,-1.2868487,-0.12042999,0.22644424,1.902209,-0.34420013,-11.80743,-0.032081604,0.7365799,1.3043404,-1.3362768,-1.0424423,-0.80018234,2.0026374,0.069618225,0.3704872,0.0,0.0,0.0,0.0,0.0,0.0,0.0,0.0,0.0,0.0,0.0,0.0,-0.9978148,0.16225578,0.99834454,-0.04200057,-0.31156826,-0.9989552,0.48659778,-0.9821714,-0.99797726,0.99393106,-0.93877786,0.9974718
2025-06-04 17:18:22.713,-1.823376,-3.289414,1.781864,-0.26340824,-0.13443658,0.36051863,5.768126,-0.269589,12.815578,-0.08358002,0.25745392,-1.3910141,-1.1399027,2.222332,-0.84168625,1.9070721,1.4054489,0.60974884,0.09174347,0.1051712,-5.13863,-0.70563763,-2.5290337,-9.743191,1.6830653,0.20015717,-7.49218,-0.06702423,-0.23227692,6.2067604,-1.3268267,-1.2150955,-0.8148308,1.8857296,-0.16407013,-15.0203705,0.023078918,0.9787369,-0.34973526,-1.388767,-0.640831,0.3253212,2.020185,0.28690338,0.50354767,0.0,0.0,0.0,0.0,0.0,0.0,0.0,0.0,0.0,0.0,0.0,0.0,-0.99745834,0.5338933,0.9979802,-0.8073429,-0.73474085,-0.9958602,0.99467295,-0.9665703,-0.9979198,0.99900335,-0.67974883,0.9994204
2025-06-04 17:18:22.764,-1.819076,-4.834543,3.200654,0.3527721,-0.47820097,0.34553272,4.348776,-2.61832,8.921505,-0.08480072,0.0023269653,-0.7122917,-0.98403424,2.5268211,-0.6549187,1.9655132,1.0058212,0.4754715,0.106925964,0.12012482,-10.377966,-0.854716,-3.0756798,-9.976349,1.7067927,0.23853302,-8.842297,-0.06427765,0.016365051,7.624016,-1.4071642,-1.6823196,4.102234,1.8628414,-0.8285141,-11.409475,0.04901886,0.18596649,1.510643,-1.3667943,0.7714462,-0.9442291,2.032926,0.30452728,0.3997879,0.0,0.0,0.0,0.0,0.0,0.0,0.0,0.0,0.0,0.0,0.0,0.0,-0.9978871,0.80130696,0.9922142,-0.8888829,-0.8778538,-0.9913841,0.9987738,-0.92424935,-0.99100053,0.99930423,0.21830586,0.9992562
2025-06-04 17:18:22.815,-1.463511,-5.507916,4.196119,0.06381093,0.026444757,0.21396686,3.94503,-1.000582,10.353977,-0.08708954,0.068092346,-1.3434029,-0.8393809,2.2675743,-0.49011993,1.9983959,0.54958344,0.72571945,0.118904114,-0.014152527,-9.580835,-0.99379987,-2.6026573,-7.0551605,1.7262477,0.3094864,-9.898224,-0.07022858,-0.15209198,9.495384,-1.474074,-1.3380814,7.057602,1.7971523,-1.6508865,-4.663769,0.066185,0.08052826,0.75867844,-1.1941411,3.3266106,-1.1737251,2.0397925,0.10349274,0.6036453,0.0,0.0,0.0,0.0,0.0,0.0,0.0,0.0,0.0,0.0,0.0,0.0,-0.99917364,0.96540076,0.843966,-0.87496805,-0.93913966,-0.9898775,0.99457926,-0.9059407,-0.9284795,0.99834746,0.9293132,0.9935338
2025-06-04 17:18:22.866,-1.382592,-5.269966,4.457307,-0.18517695,0.301243,-0.06846443,1.49162,1.07649,9.283437,-0.08892059,0.3798294,-1.8866272,-0.719752,1.7878342,-0.26794815,2.005949,0.052375793,0.46326447,0.11516571,-0.22838593,-9.55764,-1.1275431,-2.529644,-3.855648,1.7461604,0.24524689,-10.243687,-0.07808685,-0.18321991,9.191425,-1.5248858,-0.9193039,8.518806,1.7091091,-1.5995407,-0.103149414,0.07534027,-0.008964539,0.8599968,-0.94725394,4.26289,-0.91615295,2.0442176,0.067100525,0.64515305,0.0,0.0,0.0,0.0,0.0,0.0,0.0,0.0,0.0,0.0,0.0,0.0,-0.9993919,0.97929484,-0.85060096,-0.651843,-0.95412314,-0.7748217,0.9245649,-0.94897497,-0.85930115,0.9941477,0.96919096,0.3940857
2025-06-04 17:18:22.917,-1.614388,-4.635586,3.981631,-0.31693196,0.40255272,-0.18788794,0.370121,0.977568,6.155456,-0.09296417,-0.019874573,-0.20447159,-0.64132184,1.1322403,-0.005493164,1.8588543,-2.9938164,0.07019043,0.107307434,-0.48244476,-6.0627136,-1.2502276,-2.3325768,0.31433487,1.7665309,0.29476166,-9.351337,-0.07350922,0.41950226,6.864727,-1.575545,-0.7430649,9.195087,1.626559,-1.5970993,4.2389565,0.07709503,0.046424866,1.3897934,-0.77711844,2.8056755,-0.38269806,1.9989752,-0.9037399,-0.1324501,0.0,0.0,0.0,0.0,0.0,0.0,0.0,0.0,0.0,0.0,0.0,0.0,-0.998867,0.9452289,-0.996933,0.120282255,-0.8760673,0.9957403,0.19548771,-0.9923119,-0.979064,0.9132978,-0.16875021,-0.99250644
2025-06-04 17:18:22.968,-1.254574,-2.789251,3.756639,0.8095638,0.4540932,0.07861832,-11.023594,-6.509764,19.301407,-0.10921478,0.06320953,-0.20447159,-0.7087657,-0.89321136,11.671932,1.8715191,0.4642868,-17.561913,0.10311127,-1.5935898,1.08461,-1.3453661,-0.6695175,0.07751465,1.8648738,1.8350601,1.145649,-0.051002502,0.7967758,-0.016479492,-1.581267,0.7172775,2.2491798,1.564532,-0.667305,1.1993599,0.10707855,1.0469437,-2.3578224,-0.82609916,-1.1896896,-7.0014496,1.9204687,-0.5742264,-14.889755,0.0,0.0,0.0,0.0,0.0,0.0,0.0,0.0,0.0,0.0,0.0,0.0,-0.7938073,-0.19744465,-0.9964081,0.9884623,0.23648874,0.9995776,-0.93579775,-0.9932543,-0.6818676,-0.6765528,-0.88687205,-0.9973704
2025-06-04 17:18:23.019,-1.434486,-2.706955,4.005728,-0.51188415,-1.4065207,0.19421582,3.692633,1.411919,10.906485,-0.09990692,-0.29224396,1.9794006,-0.8232066,-1.5037155,-5.453575,1.8347454,-1.3854599,-7.4482346,0.08480072,-0.023460388,0.94911194,-1.1832415,3.663906,-1.6717796,1.9375819,1.2824631,0.41077423,-0.07297516,-1.049614,4.2560463,-1.5724932,-1.2545395,9.2195015,1.5631588,-0.34992218,3.9655151,0.06793976,-0.46375275,-2.9547577,-0.9398534,-2.83749,-9.367207,1.9168829,0.1794815,-17.852444,0.0,0.0,0.0,0.0,0.0,0.0,0.0,0.0,0.0,0.0,0.0,0.0,0.19359459,-0.78818864,-0.9994634,0.98620313,0.87665665,0.9974914,-0.9241898,-0.95669484,0.5506886,-0.81660867,-0.95226675,-0.9971511
2025-06-04 17:18:23.070,-2.342238,-5.783034,4.450956,-0.10649274,-0.83039314,0.22284372,5.219503,1.603132,7.691947,-0.08579254,0.5955124,3.572441,-0.9596965,-2.5147667,-7.744869,1.7804241,-0.90496063,-6.9452972,0.08823395,-0.14400482,0.8282585,-0.9505412,3.8441124,-0.22400284,1.9827479,0.68935394,0.80384445,-0.09326935,-0.94150543,2.1820412,-1.5895067,-0.096473694,6.4448013,1.6525753,2.2880974,3.4515915,0.029716492,-0.5501938,-2.8009453,-1.065357,-2.5212517,-6.7023735,1.917951,0.017204285,-17.124893,0.0,0.0,0.0,0.0,0.0,0.0,0.0,0.0,0.0,0.0,0.0,0.0,0.62328744,-0.9344829,-0.9998441,0.99470174,0.9651358,0.98640823,-0.9629591,-0.2233035,0.99715704,-0.33573213,-0.90619266,-0.94768393
2025-06-04 17:18:23.121,-2.201235,-7.039212,5.495051,0.19180188,0.23552921,0.5830224,2.790301,1.673506,6.006251,-0.05367279,0.6296921,2.614174,-1.062617,-1.9620895,-9.704128,1.7613506,-0.033607483,-9.942169,0.09235382,-0.34305573,1.6607933,-0.78086346,2.5664177,0.045776367,2.0099087,0.2273941,1.1114655,-0.10456085,0.0146865845,-0.5841141,-1.4967333,0.9926224,12.644848,1.752444,0.74321747,11.209278,0.024604797,-0.1380539,-2.9547577,-1.1675146,-2.0911064,-3.8861694,1.8918585,-0.5763626,-11.928284,0.0,0.0,0.0,0.0,0.0,0.0,0.0,0.0,0.0,0.0,0.0,0.0,0.7342107,-0.925711,-0.99902326,0.99544686,0.9761302,0.59367883,-0.9866682,0.40907925,0.99930465,0.2918919,-0.86925775,-0.91154957
2025-06-04 17:18:23.172,-1.084232,-6.105323,7.311325,0.9654131,0.9148057,0.75226605,4.502745,-3.254258,10.204206,-0.007209778,1.1819077,-0.48645782,-1.1362406,-1.80439,-6.421608,1.7660809,0.1669693,-10.963913,0.09120941,-0.9884262,3.6090622,-0.681071,1.3927078,0.91371155,1.9942683,-0.434227,0.47058868,-0.11341095,-0.19618988,-0.4754715,-1.2932574,4.260601,5.0751495,1.8433101,1.4081955,3.6054,0.043907166,0.41622162,-1.9232483,-1.2474706,-1.7255783,-0.41321564,1.8509649,-0.896492,-9.45388,0.0,0.0,0.0,0.0,0.0,0.0,0.0,0.0,0.0,0.0,0.0,0.0,0.72190636,-0.87606055,-0.8696566,0.9915466,0.96509206,-0.9398761,-0.99455595,0.481399,0.98161465,0.8332964,-0.95241946,-0.713464
2025-06-04 17:18:23.223,0.227193,-5.365062,8.44098,0.43020186,-0.08137702,-0.070903756,1.189687,-0.870171,5.567658,0.022087097,0.23830414,1.5094223,-1.2408434,-2.0477715,1.2274361,1.7625713,-0.15460968,-7.8352013,0.087394714,-0.040016174,0.8990631,-0.61973065,0.7191086,0.40345,1.8388575,-3.1454887,-0.18982315,-0.104789734,0.37281036,-1.3287544,-1.0811564,3.039135,-0.56946564,1.9263179,1.3134384,0.19836807,0.07411957,0.70301056,-1.6070786,-1.3437536,-2.0159569,2.6776543,1.8134283,-0.66272736,-6.400856,0.0,0.0,0.0,0.0,0.0,0.0,0.0,0.0,0.0,0.0,0.0,0.0,-0.44784704,-0.8644676,0.9899901,0.97175467,0.91702163,-0.99925464,-0.98741424,-0.46912414,-0.93315846,0.99478036,-0.9916779,0.9424008
2025-06-04 17:18:23.274,0.214007,-4.649171,7.735005,0.5986991,1.2786132,-0.33172354,-0.015915,-3.531409,3.180374,0.0023269653,-0.6368637,-0.5633621,-1.3325487,-0.5321121,-0.06652832,1.8611431,1.9828415,0.5499344,0.10433197,1.2936783,-6.0663757,-0.59318036,-0.4969406,3.6163864,1.738531,1.6775894,-16.027466,-0.10242462,0.37899017,-1.7108421,-1.1076304,-0.82904816,-0.7513542,1.8815334,-0.79875946,-11.796444,0.08304596,-0.027961731,1.1749458,-1.4037969,-0.52562714,-0.592659,1.8888067,1.3057327,0.37659454,0.0,0.0,0.0,0.0,0.0,0.0,0.0,0.0,0.0,0.0,0.0,0.0,-0.9973869,0.17118731,0.9997322,-0.053423062,-0.5355786,-0.9997122,0.37010646,-0.9871594,-0.99942255,0.9992133,-0.9283215,0.999297
2025-06-04 17:18:23.325,0.545385,-1.427676,7.914954,0.270451,0.086122796,0.4920902,-4.064518,4.166428,19.384785,-0.040397644,-0.62389374,-0.23865128,-1.3095843,3.159603,4.3036537,1.8970013,0.8738327,3.8715172,0.10890961,0.3245926,-5.9943542,-0.7639262,-2.9611626,-9.975128,1.8284053,0.1845169,-14.593117,-0.08968353,-0.15003204,6.666973,-1.2042223,-1.8271255,-5.1215363,1.8669612,-0.8098984,-11.911192,0.08556366,0.19283295,-0.35828018,-1.4226415,-0.5011368,0.072631836,1.9538854,1.0993576,0.3643837,0.0,0.0,0.0,0.0,0.0,0.0,0.0,0.0,0.0,0.0,0.0,0.0,-0.9968864,0.3304082,0.999062,-0.8213303,-0.7380292,-0.9974022,0.99139297,-0.9719663,-0.99911624,0.99966,-0.8156829,0.9993498
2025-06-04 17:18:23.376,0.950593,-3.968307,9.945139,0.56219375,-1.2255021,0.4529111,3.177485,-2.752563,8.787956,-0.0548172,-0.25936127,-1.3983383,-1.1242625,2.7241173,-0.0982666,1.9559002,0.96767426,0.7794304,0.11470795,0.9519577,-10.890669,-0.93970746,-3.1149712,-5.1007843,1.8026179,-0.647316,-9.409935,-0.09952545,-0.0033950806,9.075457,-1.3160692,-2.483944,4.6112747,1.8324001,-1.0213089,-9.102312,0.090065,-0.5007553,1.3397408,-1.4109685,0.35953522,-0.9649811,1.9941686,0.60504913,0.44373322,0.0,0.0,0.0,0.0,0.0,0.0,0.0,0.0,0.0,0.0,0.0,0.0,-0.99760973,0.7255229,0.9966861,-0.9041943,-0.87685376,-0.99287534,0.99857295,-0.9371593,-0.99596703,0.9996599,-0.14496885,0.9992744
2025-06-04 17:18:23.427,2.345488,-6.298064,10.372044,0.32795942,-0.07845359,-0.26561174,-0.206829,-2.693885,4.364503,-0.07923126,-0.03139496,0.13611221,-0.93841046,2.7335014,-0.60974884,1.9961834,0.49793243,-0.0018310547,0.1153183,-0.91625214,-6.663311,-1.0781809,-1.7713547,-7.421379,1.7908686,-0.016441345,-11.181202,-0.09181976,0.24799347,7.807125,-1.4093767,-1.2633133,2.5665665,1.7630489,-1.742363,-2.5250626,0.095939636,0.27248383,0.006713867,-1.3259008,2.9995384,-0.2532997,2.0059943,0.5952835,0.64027023,0.0,0.0,0.0,0.0,0.0,0.0,0.0,0.0,0.0,0.0,0.0,0.0,-0.99851483,0.9183242,0.97006077,-0.79532224,-0.9433125,-0.9935971,0.9966532,-0.889047,-0.95882916,0.9993122,0.8140733,0.99830616
2025-06-04 17:18:23.479,1.520715,-5.494502,8.803671,-0.07393289,0.08182653,-0.6148576,3.526634,1.606411,9.660165,-0.079460144,-0.05847931,-1.0955963,-0.7857463,2.211422,0.0579834,2.0164776,0.26988983,0.53894806,0.08312225,-0.16178131,-6.4655533,-1.1870562,-2.4195518,-2.2211037,1.795904,0.007896423,-11.662167,-0.08594513,0.103645325,8.125734,-1.472243,-1.6674423,8.529793,1.6790493,-1.4192581,-0.1300087,0.09700775,-0.13233185,0.5938797,-1.0515478,4.856533,-1.3153267,2.0268226,0.47039032,0.004272461,0.0,0.0,0.0,0.0,0.0,0.0,0.0,0.0,0.0,0.0,0.0,0.0,-0.9992878,0.97984475,-0.3954892,-0.68992704,-0.95989454,-0.9450731,0.9511145,-0.9240854,-0.8136843,0.99641424,0.97496945,0.84964365
2025-06-04 17:18:23.531,1.491054,-5.411176,7.618569,-0.40857762,0.12851183,-0.27027068,0.438201,1.84206,6.279306,-0.08594513,0.07923126,-0.88075256,-0.67908734,1.49189,-0.17883682,1.9051647,-2.1591606,-0.17517471,0.07190704,-0.07266998,-5.91745,-1.2995898,-1.7103958,1.4154282,1.7952937,-0.0989151,-10.847942,-0.06816864,0.19451141,6.5961685,-1.5424334,-1.2226486,9.323261,1.6077907,-1.536293,4.9604034,0.08983612,-0.12371063,1.399559,-0.83494925,3.3193626,-0.4339676,2.02667,-0.05268097,0.017700195,0.0,0.0,0.0,0.0,0.0,0.0,0.0,0.0,0.0,0.0,0.0,0.0,-0.9993457,0.97127855,-0.9928712,-0.1844688,-0.9260857,0.9411713,0.59451437,-0.98848623,-0.96611166,0.9771531,0.6603131,-0.9758637
2025-06-04 17:18:23.582,0.358382,-3.698727,6.929643,-0.75804794,1.4737967,-0.4995155,-3.761567,-2.466762,3.640658,-0.114097595,-1.1544418,6.082245,-0.63987225,-0.7366562,8.426033,1.8384075,2.6491966,-24.765392,0.06656647,0.1871872,-3.580986,-1.3944231,-1.4941025,4.58564,1.8815058,1.8871689,-0.14343643,-0.04535675,1.1421585,-0.076293945,-1.5727984,0.94509125,2.0538635,1.5498073,-0.16994476,1.3226509,0.10570526,0.28751373,-2.2467384,-0.76071525,0.51685333,1.2213326,1.9242071,-0.87818146,-14.087738,0.0,0.0,0.0,0.0,0.0,0.0,0.0,0.0,0.0,0.0,0.0,0.0,-0.85416627,-0.1920134,-0.99928373,0.9873028,-0.09425831,0.9999678,-0.9577021,-0.9896828,-0.67753446,-0.26407185,-0.89551455,-0.99696064
2025-06-04 17:18:23.633,-0.621918,-0.02629,5.049366,-0.3112069,-0.900529,-0.6851311,-0.605056,-2.460621,19.51526,-0.13462067,0.03299713,1.9562073,-0.77727765,-2.8723564,-1.9879456,1.8742657,-1.4631271,-9.500267,0.07923126,0.03894806,1.6034164,-1.3180529,3.5036125,-2.2504005,1.9320887,1.4412308,0.061645508,-0.06198883,-0.69553375,1.0406647,-1.5444933,-0.06954193,2.461586,1.5674312,-0.017356873,1.4105453,0.106925964,0.12248993,-7.841305,-0.8708074,-2.387661,-13.922943,1.9128393,0.20175934,-17.806057,0.0,0.0,0.0,0.0,0.0,0.0,0.0,0.0,0.0,0.0,0.0,0.0,0.14855206,-0.6720362,-0.99904144,0.98921794,0.8503827,0.99870914,-0.94172364,-0.9789513,0.3265721,-0.8488184,-0.94295484,-0.9984913
2025-06-04 17:18:23.685,-2.022714,-4.646573,4.175715,-0.49160162,-1.0810891,0.2499848,4.10352,3.108167,8.390572,-0.12424469,0.3484726,3.723812,-0.9178111,-2.4332085,-8.367437,1.8140697,-1.1496353,-7.925537,0.08274078,0.1468277,0.16540909,-1.0475107,4.8535576,-0.8929596,1.9787806,0.7731247,0.6744499,-0.08892059,-0.66082,1.2970161,-1.6135393,-0.9193802,10.067902,1.6076381,0.7960892,9.048599,0.08319855,-0.3459549,-6.3947525,-1.0089757,-2.9502525,-8.023193,1.9147466,-0.030555725,-16.989395,0.0,0.0,0.0,0.0,0.0,0.0,0.0,0.0,0.0,0.0,0.0,0.0,0.62473977,-0.9335936,-0.9998997,0.9945429,0.957531,0.99580854,-0.958544,-0.51408935,0.9939597,-0.3960109,-0.9089814,-0.9653831
2025-06-04 17:18:23.737,-2.496297,-6.539133,5.697732,0.059777997,-0.19581962,0.7949121,2.713917,0.730229,7.231116,-0.083732605,0.98560333,2.9401093,-1.0169932,-1.7291641,-12.200504,1.7922497,-0.024223328,-11.253223,0.0863266,0.30086517,0.8978424,-0.84678143,3.1700554,-0.711071,2.0070858,0.3712082,1.0333405,-0.10990143,-0.542717,2.2711525,-1.582564,1.2049484,10.042267,1.7021663,2.2546806,6.475319,0.07511139,0.012931824,-5.0800323,-1.1260107,-2.2400322,-4.4843216,1.8909429,-0.9383011,-12.133366,0.0,0.0,0.0,0.0,0.0,0.0,0.0,0.0,0.0,0.0,0.0,0.0,0.727291,-0.94229555,-0.9996946,0.996098,0.9755606,0.90819705,-0.9824045,0.26187927,0.9995095,0.2462705,-0.81613415,-0.89836335
2025-06-04 17:18:23.789,-1.992733,-6.124304,8.488463,0.7309834,0.7939634,1.0287405,3.854479,-2.113119,9.749167,-0.023612976,1.541481,-1.2591743,-1.0913798,-1.3151169,-10.042267,1.7990398,0.3042221,-13.15877,0.0875473,-0.06565094,2.313877,-0.710139,1.7458725,0.88075256,2.0192928,0.12889862,0.7025261,-0.12233734,-0.859642,4.1486244,-1.4174639,3.2590141,10.594032,1.7893703,2.3520317,2.9059296,0.08213043,0.32932281,-3.454033,-1.2186315,-1.3671494,-0.83680344,1.837766,-1.1671066,-6.9770355,0.0,0.0,0.0,0.0,0.0,0.0,0.0,0.0,0.0,0.0,0.0,0.0,0.791533,-0.9109341,-0.98795444,0.9942446,0.9706364,-0.5250134,-0.99251205,0.4821376,0.997953,0.75026923,-0.8953707,-0.8843472
2025-06-04 17:18:23.841,-0.451704,-4.849528,11.032645,0.5018113,0.0952967,0.5326576,0.947156,-1.685549,7.641675,0.027656555,0.84918976,-0.69031906,-1.1777483,-2.0530357,-3.6737633,1.7991924,-0.12500763,-11.284962,0.08495331,0.15453339,0.54138947,-0.63498944,1.113472,-0.15930557,1.8960017,-2.4092522,0.03479004,-0.12020111,0.11859894,0.57068634,-1.2018572,4.059643,2.8180351,1.8761928,1.6528702,1.45327,0.09685516,0.11936188,-1.0809479,-1.3065984,-1.6807175,1.7804222,1.7858099,-1.0208511,-5.6537743,0.0,0.0,0.0,0.0,0.0,0.0,0.0,0.0,0.0,0.0,0.0,0.0,0.04501966,-0.8809951,0.86078316,0.98270303,0.94564265,-0.996828,-0.9914396,-0.016391274,-0.035376363,0.98496634,-0.98292035,0.788391
2025-06-04 17:18:23.891,0.049294,-4.406663,11.923775,0.3105683,0.6281089,0.26052132,-1.686213,0.001869,-1.547812,0.030784607,0.49495697,-1.830471,-1.2815081,-1.9031906,1.117569,1.8802166,1.7071152,-0.044555664,0.095939636,0.36701202,-1.8585472,-0.5950114,0.25043488,0.16662979,1.7627162,-2.0456352,-0.69276047,-0.12050629,-0.3004074,0.35461807,-1.1490618,-0.5865097,8.870373,1.866885,-0.7514572,-0.79774094,0.096321106,0.12866974,2.1673927,-1.3746526,-0.47367096,-2.0038147,1.8550085,1.7793655,-0.09460449,0.0,0.0,0.0,0.0,0.0,0.0,0.0,0.0,0.0,0.0,0.0,0.0,-0.9900017,-0.21858275,0.9996484,0.50782895,0.124072134,-0.99964327,-0.35595968,-0.9784427,-0.9994885,0.9991481,-0.9617894,0.9990102
2025-06-04 17:18:23.943,0.407605,-0.809857,13.461874,-0.62045914,0.09972241,0.46021745,-4.306089,1.256425,27.867657,0.001411438,-0.17925262,-4.1486244,-1.3430773,-0.78014374,14.10849,1.9384289,-0.11577606,6.334934,0.121040344,-0.011711121,-2.9352264,-0.7073161,-2.1669426,-1.1004791,1.8300074,0.3661728,-15.779659,-0.13843536,-0.48030853,6.520485,-1.2343584,-1.2601852,-4.9188995,1.837054,-0.5799484,-11.134813,0.093803406,-0.11791229,0.07019043,-1.4076879,-0.536232,0.23620987,1.9330572,1.3824081,0.3668251,0.0,0.0,0.0,0.0,0.0,0.0,0.0,0.0,0.0,0.0,0.0,0.0,-0.9979458,0.25000268,0.99912655,-0.5808605,-0.65745103,-0.9986216,0.9220237,-0.9823805,-0.9989753,0.99926454,-0.89772326,0.99867684
2025-06-04 17:18:23.995,1.149089,-3.146096,14.727515,0.79872125,-1.5465282,0.19892018,3.591976,-0.978602,9.696667,-0.027809143,-0.51013947,-1.543602,-1.1775957,3.3344688,-0.20569229,1.9752789,0.6547165,0.72938156,0.113105774,-0.56835175,-9.848173,-0.87310284,-3.1539574,-6.3410378,1.8185633,-0.5702591,-10.023956,-0.13683319,0.296669,9.787136,-1.3262926,-2.3096123,3.7824059,1.809283,-0.59597015,-9.920195,0.099983215,0.0938797,0.015258789,-1.4207342,0.21907806,-0.56946564,1.9824194,0.63617706,0.6952019,0.0,0.0,0.0,0.0,0.0,0.0,0.0,0.0,0.0,0.0,0.0,0.0,-0.99670225,0.58238626,0.9979783,-0.85895133,-0.84393823,-0.99425036,0.9977978,-0.93891996,-0.9971869,0.9996093,-0.48167324,0.999342
2025-06-04 17:18:24.046,2.807116,-5.739123,14.523817,-0.23716427,0.3079856,-0.5228167,4.011885,-1.155101,9.856957,-0.059700012,-0.23334503,-2.760662,-0.9968516,2.8176537,-0.017700195,2.0091534,0.5360794,0.029907227,0.10662079,-1.0757828,-5.249714,-0.9867045,-1.7562485,-11.084763,1.8095607,-0.039253235,-12.143131,-0.11440277,0.26706696,8.864271,-1.406325,-1.2174606,3.0963593,1.7558773,-1.3534164,-3.6676598,0.10959625,-0.017738342,-0.16418839,-1.4011266,2.0571556,-2.0709534,1.9945501,0.7110214,0.5548172,0.0,0.0,0.0,0.0,0.0,0.0,0.0,0.0,0.0,0.0,0.0,0.0,-0.9978267,0.82633054,0.9901943,-0.82237417,-0.9173751,-0.9929783,0.9980635,-0.89926755,-0.9828677,0.99942464,0.4765628,0.99910045
2025-06-04 17:18:24.097,2.444566,-5.459468,12.770832,-0.84844494,0.95581675,-0.96749645,1.368482,4.242313,12.333773,-0.074043274,0.49411774,-2.7533379,-0.8394572,2.581524,-0.03967285,2.0276165,0.34626007,0.076293945,0.06565094,-1.0635757,-1.8219261,-1.0671946,-1.4766312,-10.807659,1.8272609,0.2653122,-14.596779,-0.09586334,0.124168396,7.008774,-1.455916,-0.8473587,5.0751495,1.6821773,-1.5293503,-0.2911415,0.11768341,-0.2349472,0.13489151,-1.2248113,5.1151695,-2.0245667,2.0004249,0.79135895,-0.012817383,0.0,0.0,0.0,0.0,0.0,0.0,0.0,0.0,0.0,0.0,0.0,0.0,-0.99917006,0.9683623,0.7679378,-0.85448295,-0.9467966,-0.9888818,0.99050343,-0.9001619,-0.8901971,0.9981534,0.95202225,0.9890997
2025-06-04 17:18:24.149,1.69058,-5.311113,10.912105,-0.12146514,-0.15472876,-0.40570053,1.31385,2.578759,10.541176,-0.07663727,-0.09426117,-1.3653755,-0.7176158,1.7641068,-0.10803223,2.0197582,-0.16582489,-0.07873535,0.04436493,-0.067100525,-5.4279404,-1.1665331,-2.2310295,-3.4528122,1.8316096,0.021858215,-13.117264,-0.078315735,0.20305634,6.736553,-1.5245043,-1.4123917,10.196079,1.6259487,-1.2119675,2.2015724,0.10547638,-0.8107376,2.122223,-0.9580114,4.372982,-1.3434029,2.0208716,0.23899078,0.5181961,0.0,0.0,0.0,0.0,0.0,0.0,0.0,0.0,0.0,0.0,0.0,0.0,-0.9994114,0.9747018,-0.9292041,-0.68624246,-0.94378495,-0.4235857,0.90920484,-0.9585494,-0.8951217,0.99318737,0.9509354,-0.061389193
2025-06-04 17:18:24.201,1.423649,-5.483546,10.429853,-0.53077114,0.48852172,-0.14051875,-2.561489,-0.122221,2.122418,-0.09433746,-0.72711945,2.527504,-0.63720196,1.1113358,-0.040893555,1.8575573,-2.514843,-3.0926971,0.0422287,-0.24982452,-3.945984,-1.264876,-0.79113007,-3.9325562,1.8500727,0.76755524,-10.196079,-0.058250427,1.0838699,4.494087,-1.5801226,0.07808685,5.1654854,1.567126,-0.935936,3.6066208,0.10532379,0.0031661987,-0.11291504,-0.82594657,0.6914139,9.186541,1.957929,-1.4480209,-1.7584496,0.0,0.0,0.0,0.0,0.0,0.0,0.0,0.0,0.0,0.0,0.0,0.0,-0.99648774,0.80972177,-0.99816275,0.48235387,-0.7535788,0.99951804,-0.13902181,-0.99215776,-0.9707017,0.7639964,-0.69177353,-0.9922298
2025-06-04 17:18:24.252,-1.05827,-1.658831,9.312204,0.5321634,0.31061587,0.05811236,-4.267368,-2.328358,21.250273,-0.11646271,0.05466461,-0.27038956,-0.6617686,-1.3705063,8.257572,1.8490124,0.7274246,-17.077288,0.040626526,-0.036506653,0.22034073,-1.307448,-0.882988,1.6119614,1.9320887,0.85666656,1.8658714,-0.039253235,0.39470673,0.26428604,-1.5705096,0.10585785,3.744564,1.5401943,-0.40363312,1.7010765,0.12271881,0.27370453,-4.323185,-0.9152868,-1.7751694,-11.608452,1.9131445,0.013618469,-17.105362,0.0,0.0,0.0,0.0,0.0,0.0,0.0,0.0,0.0,0.0,0.0,0.0,-0.72123635,-0.30292195,-0.99451804,0.9881765,0.5228904,0.99805075,-0.9205939,-0.9951079,-0.635021,-0.7832859,-0.8867222,-0.99823374
2025-06-04 17:18:24.302,-2.176091,-2.751026,10.235868,-0.8346351,-1.3975258,0.30056098,1.957858,-1.734343,12.402523,-0.09403229,-0.124320984,0.0018310547,-0.7891032,-2.157711,-7.577629,1.8437481,-0.85544586,-10.3755245,0.04825592,0.10509491,0.91615295,-1.1158701,4.2206993,-1.4068832,1.9764918,0.99666595,0.4718094,-0.074653625,-0.77632904,3.3136482,-1.6053759,-1.4432907,11.878235,1.5273769,-0.4480362,6.9062347,0.089530945,-0.42079926,-4.203556,-1.0282781,-2.529644,-6.5339127,1.9105505,-0.1594925,-16.28748,0.0,0.0,0.0,0.0,0.0,0.0,0.0,0.0,0.0,0.0,0.0,0.0,0.13614231,-0.8162196,-0.99963474,0.98729026,0.8982952,0.99649185,-0.91652817,-0.9388126,0.72148955,-0.8032317,-0.95520365,-0.9956093
2025-06-04 17:18:24.354,-4.134051,-5.776122,11.084872,-0.38625836,-0.81452817,0.2895705,3.907141,-0.038014,8.116243,-0.07595062,0.43628693,2.6239395,-0.9116313,-2.4388542,-12.384832,1.8149853,-0.41835785,-10.664835,0.06626129,0.21404266,0.30212784,-0.8960673,3.7494316,-1.1187897,2.0065517,0.54424286,0.45471954,-0.1027298,-0.33618927,1.4276352,-1.6458117,-0.59101105,10.279087,1.6201503,1.5261459,9.333027,0.058937073,-0.4240036,-4.7589836,-1.1405828,-2.2431602,-5.3705635,1.8907903,-0.6789017,-13.6836815,0.0,0.0,0.0,0.0,0.0,0.0,0.0,0.0,0.0,0.0,0.0,0.0,0.5049478,-0.9354487,-0.99990386,0.9962562,0.9731768,0.9833746,-0.9642731,-0.2082695,0.998019,-0.4402514,-0.9042005,-0.94213766
2025-06-04 17:18:24.404,-4.489452,-6.774746,12.671089,0.3083824,0.30717584,0.71649987,3.569064,-0.58556,8.146905,-0.040855408,0.92258453,0.11779785,-0.99524945,-1.2564468,-15.257191,1.8103313,0.14820099,-12.8926525,0.07816315,0.026817322,1.1871529,-0.74820966,2.0537987,-0.29846573,2.0246334,0.25974274,0.61463165,-0.120277405,-0.40279388,3.2098885,-1.5727221,2.3814812,11.531548,1.7070491,2.0698204,6.8830414,0.05268097,0.035972595,-4.531929,-1.2220647,-1.3804245,-3.6115036,1.8501257,-0.91495514,-9.529564,0.0,0.0,0.0,0.0,0.0,0.0,0.0,0.0,0.0,0.0,0.0,0.0,0.69358325,-0.89973027,-0.99937034,0.9949336,0.9775071,0.6646939,-0.98253536,0.15269399,0.9987794,-0.15180756,-0.8660488,-0.93608624
2025-06-04 17:18:24.456,-3.37053,-5.694345,14.847294,0.845348,0.5710643,0.8102037,1.480738,-3.257544,10.317511,0.013008118,1.1627579,-3.0279999,-1.0609385,-1.0759354,-11.940491,1.8178844,0.21572113,-13.758144,0.079841614,0.274086,0.5120926,-0.658488,1.3306046,0.2484169,2.0108242,-0.36899567,-0.016479492,-0.12737274,-0.34557343,1.5533676,-1.4315783,3.7063255,7.147938,1.7857082,2.8786125,0.5047684,0.056800842,-0.1240921,-2.810711,-1.2892034,-1.291008,0.25452042,1.7956518,-0.9933853,-6.207981,0.0,0.0,0.0,0.0,0.0,0.0,0.0,0.0,0.0,0.0,0.0,0.0,0.7874431,-0.86683947,-0.9888024,0.9910717,0.9732336,-0.66907525,-0.9923291,0.39295307,0.995611,0.3651009,-0.923932,-0.8762145
2025-06-04 17:18:24.507,-1.671772,-4.824472,16.644722,0.5378115,-0.02668528,0.3740719,0.077732,-0.130875,7.096327,0.052986145,0.42118073,-0.68665695,-1.1428057,-1.6730118,-4.778515,1.8138409,-0.21633148,-11.6340885,0.081214905,0.5383682,-0.44617462,-0.60454816,0.9292221,-0.99427795,1.8749446,-2.3984184,-0.13733292,-0.12859344,-0.44231415,1.7499046,-1.2403094,3.9378777,2.6080704,1.8674953,1.8167496,1.1102448,0.06626129,0.23418427,-2.0904846,-1.3606145,-1.3549423,2.5592422,1.7471288,-0.7162094,-4.535591,0.0,0.0,0.0,0.0,0.0,0.0,0.0,0.0,0.0,0.0,0.0,0.0,0.15983014,-0.7635737,0.93625563,0.9689356,0.9377944,-0.9974908,-0.9904557,-0.17082122,-0.68452096,0.9433284,-0.9931009,0.7038388
2025-06-04 17:18:24.557,-0.441053,-4.247115,17.047335,0.7961633,0.8873383,0.06778228,-0.70977,-1.698868,0.11825,0.054588318,0.140419,-2.6569023,-1.2355028,-1.8951797,1.4154282,1.8950939,1.5786362,0.31555557,0.09197235,0.25310516,-0.6646843,-0.5786082,0.59955597,-0.18738174,1.7508906,-1.8619919,-1.3324165,-0.12523651,0.2994156,0.3277626,-1.1856829,-0.03818512,5.3205147,1.8258388,-1.2530899,-3.8947144,0.07732391,0.0030899048,0.95277405,-1.4115789,-0.3788376,-0.45227814,1.8183111,1.685524,0.7721062,0.0,0.0,0.0,0.0,0.0,0.0,0.0,0.0,0.0,0.0,0.0,0.0,-0.98369414,-0.034019258,0.9998407,0.5427593,-0.5140084,-0.9998155,-0.27233845,-0.9623266,-0.9990731,0.99916726,-0.93578905,0.99922615
2025-06-04 17:18:24.609,1.115076,-0.81078,17.996134,-0.32252717,-0.3301319,0.53381705,-3.947754,3.422046,27.827385,0.023078918,-0.025215149,-5.412071,-1.2914263,-0.23525238,14.756695,1.9410992,-0.16895294,6.6486626,0.11219025,0.39104462,-3.9606323,-0.731425,-3.5926476,-7.285877,1.8247432,1.1815262,-18.316319,-0.13782501,-0.67897797,8.2355995,-1.2662493,-1.5903091,-1.7486839,1.7894466,-0.56316376,-9.163347,0.084724426,-0.23082733,0.14099503,-1.4325597,-0.029563904,0.40345,1.9087194,1.4889908,0.6341667,0.0,0.0,0.0,0.0,0.0,0.0,0.0,0.0,0.0,0.0,0.0,0.0,-0.9961099,0.27073976,0.9994547,-0.16131173,-0.82799834,-0.9994288,0.9236226,-0.959088,-0.9984077,0.99956113,-0.76090634,0.9994237
2025-06-04 17:18:24.660,3.231128,-4.123131,20.185875,0.53673357,-0.67680836,0.21497679,-0.266598,0.95583,8.907142,-0.023841858,-0.9037399,-0.21423721,-1.1263224,2.78088,-0.02746582,1.985426,0.6902695,0.022583008,0.12218475,0.067863464,-6.196995,-0.9064433,-1.9188309,-13.07576,1.834051,-0.0004196167,-13.449303,-0.14537811,0.52310944,9.468529,-1.3516985,-1.2288284,0.2923622,1.74985,-1.373558,-3.880066,0.09700775,0.16811371,0.18860245,-1.497791,-1.3598251,11.903868,1.9383978,-0.10494232,6.2836647,0.0,0.0,0.0,0.0,0.0,0.0,0.0,0.0,0.0,0.0,0.0,0.0,-0.9925838,0.476646,0.998773,-0.18155181,-0.919562,-0.9983593,0.99222887,-0.8605504,-0.99233234,0.99954814,-0.17982984,0.999719
2025-06-04 17:18:24.712,3.823851,-4.600974,18.809393,-0.34278232,0.12939163,-0.7365244,0.475773,2.497997,8.930009,-0.052223206,-0.3495407,-0.1312294,-0.9819743,2.3646202,-0.2874794,2.013197,0.45642853,0.29846573,0.09616852,-0.8057022,-2.027008,-0.99044293,-1.2485123,-14.860455,1.837942,0.11318207,-14.397804,-0.11791229,0.59711456,7.2846565,-1.4058672,-1.0477066,4.384224,1.6813381,-1.165657,-1.1566353,0.11829376,0.1530838,-2.3480568,-1.4395025,2.4892845,6.242161,1.9409918,1.0602951,1.486229,0.0,0.0,0.0,0.0,0.0,0.0,0.0,0.0,0.0,0.0,0.0,0.0,-0.99681294,0.82692206,0.9927039,-0.6221516,-0.92623067,-0.99661016,0.9966898,-0.86704737,-0.97138923,0.9989536,0.6295175,0.99956423
2025-06-04 17:18:24.763,2.842438,-3.903383,16.782494,-0.50026464,0.3178791,-0.66206497,0.301252,-0.313209,7.414972,-0.07221222,-0.27378082,0.1690712,-0.83343,2.3341026,-0.6378288,2.0305157,0.33222198,-0.15320206,0.05077362,-1.1433029,-0.7415886,-1.047587,-0.9813309,-13.8069725,1.8483943,0.07663727,-14.269627,-0.09113312,0.44101715,7.6655235,-1.4492785,-0.5515671,4.1351967,1.6267879,-0.9026718,-0.1715126,0.13080597,-0.024909973,-1.0077057,-1.2411382,5.6963005,0.20569229,1.9519018,0.9823227,0.8868561,0.0,0.0,0.0,0.0,0.0,0.0,0.0,0.0,0.0,0.0,0.0,0.0,-0.9989986,0.96402466,0.71744084,-0.84011286,-0.9434478,-0.9870743,0.9863151,-0.8888778,-0.86137724,0.9973395,0.9577695,0.98593676
2025-06-04 17:18:24.815,1.07905,-3.640066,15.292306,-0.36737627,-0.17956182,-0.26809537,0.673067,1.562471,6.99504,-0.075416565,-0.32985687,-0.38513947,-0.7150218,1.9470596,-0.46936798,2.0171642,-0.27187347,-0.19104385,0.034980774,-0.09426117,-5.766079,-1.1372324,-1.9718552,-5.5292587,1.848318,0.0011825562,-13.814297,-0.06908417,0.70209503,6.2055397,-1.522597,-1.559639,11.001755,1.5863521,-0.6933975,2.3321877,0.11463165,-0.104408264,0.4425125,-0.9628179,4.9277153,-1.5716782,1.9902776,0.5300522,0.8319206,0.0,0.0,0.0,0.0,0.0,0.0,0.0,0.0,0.0,0.0,0.0,0.0,-0.9993814,0.9706996,-0.94519186,-0.70672774,-0.93620986,-0.19366342,0.9045211,-0.9598841,-0.90942055,0.9921373,0.9348557,-0.21702662
2025-06-04 17:18:24.866,-0.338893,-3.454985,15.296102,-0.9373116,0.8061535,-0.037727352,-1.308314,-1.3921,1.116573,-0.096092224,-1.2843704,3.895935,-0.63727826,0.87940216,-0.040893555,1.8648815,-0.113105774,-11.627985,0.04184723,-0.2842331,-4.330509,-1.235808,-1.1132431,-4.904251,1.8765467,1.1246109,-10.413368,-0.052375793,0.8536911,4.229191,-1.5816485,-0.08098602,5.11055,1.5459926,-0.5653763,2.8570976,0.109062195,-0.10967255,-0.1312294,-0.8302953,0.8742142,9.38674,1.924436,-1.4701462,-1.6144028,0.0,0.0,0.0,0.0,0.0,0.0,0.0,0.0,0.0,0.0,0.0,0.0,-0.990873,0.789493,-0.9976742,0.75991136,-0.7623595,0.9996323,-0.5893133,-0.98698056,-0.9499572,0.5993786,-0.76274097,-0.9917922
2025-06-04 17:18:24.916,-1.731594,-0.231816,14.778438,0.20627297,-0.50425404,0.29522172,-5.815339,-4.425431,19.910261,-0.11165619,0.75626373,-2.531166,-0.69289654,-0.93852997,8.274662,1.9011974,-0.21938324,-15.805294,0.05115509,-0.28644562,1.9269104,-1.2789141,-0.048179626,-2.2430763,1.9526881,0.92624664,1.0431061,-0.047721863,0.07839203,0.095825195,-1.5686022,-0.16040802,5.602501,1.5295131,-0.6042099,2.8912811,0.13225555,0.1405716,-3.674984,-0.9399297,-2.0811882,-10.473183,1.8907903,-0.0863266,-15.323109,0.0,0.0,0.0,0.0,0.0,0.0,0.0,0.0,0.0,0.0,0.0,0.0,-0.4347955,-0.16511966,-0.99267596,0.9891934,0.5352038,0.99758124,-0.9558843,-0.9949145,-0.59598744,-0.8200246,-0.92562896,-0.9988655
