openverse-orca/OrcaGym/envs/legged_gym/legged_real_env/logs/robot_log_20250611_122900.csv
timestamp,imu_angle_roll,imu_angle_pitch,imu_angle_yaw,imu_angular_velocity_roll,imu_angular_velocity_pitch,imu_angular_velocity_yaw,imu_acc_x,imu_acc_y,imu_acc_z,fl_joint1_pos,fl_joint1_vel,fl_joint1_torque,fl_joint2_pos,fl_joint2_vel,fl_joint2_torque,fl_joint3_pos,fl_joint3_vel,fl_joint3_torque,fr_joint1_pos,fr_joint1_vel,fr_joint1_torque,fr_joint2_pos,fr_joint2_vel,fr_joint2_torque,fr_joint3_pos,fr_joint3_vel,fr_joint3_torque,hl_joint1_pos,hl_joint1_vel,hl_joint1_torque,hl_joint2_pos,hl_joint2_vel,hl_joint2_torque,hl_joint3_pos,hl_joint3_vel,hl_joint3_torque,hr_joint1_pos,hr_joint1_vel,hr_joint1_torque,hr_joint2_pos,hr_joint2_vel,hr_joint2_torque,hr_joint3_pos,hr_joint3_vel,hr_joint3_torque,fl_force_x,fl_force_y,fl_force_z,fr_force_x,fr_force_y,fr_force_z,hl_force_x,hl_force_y,hl_force_z,hr_force_x,hr_force_y,hr_force_z,fl_hip_action,fl_thigh_action,fl_calf_action,fr_hip_action,fr_thigh_action,fr_calf_action,hl_hip_action,hl_thigh_action,hl_calf_action,hr_hip_action,hr_thigh_action,hr_calf_action,command_lin_vel_x,command_lin_vel_y,command_lin_vel_z,command_ang_vel
2025-06-11 12:29:29.479,-0.932248,-1.233566,-105.51793,0.00094790576,0.003513016,0.0004494397,0.201151,-0.169718,9.771894,-0.011933431,0.03856659,0.5084305,-0.98635316,0.07305145,-0.3997879,1.9074733,0.017204285,-4.97139,0.010254964,-0.0132369995,-0.49744415,-0.9810126,0.022850037,-0.5853348,1.9035314,-0.009727478,-4.740673,-0.01285553,-0.058555603,0.5987625,-0.9706932,0.02986908,-1.0809479,1.9355495,0.0012588501,-6.2104225,0.017051697,0.025367737,-0.7354851,-0.9809062,0.06702423,-0.5853348,1.9319891,0.02696991,-6.0065613,0.0,0.0,0.0,0.0,0.0,0.0,0.0,0.0,0.0,0.0,0.0,0.0,-1.1071092,1.8641201,-2.0,2.0,2.0,-2.0,2.0,0.5963277,-2.0,-0.90166384,0.44939297,-2.0,0.0,0.0,0.0,0.0
2025-06-11 12:29:29.500,-0.930418,-1.228218,-105.514694,-0.0023571718,-0.00059126515,-0.0014486233,0.185332,-0.127638,9.954154,-0.029023275,-0.974617,0.54261017,-0.94248414,1.7726517,9.983673,1.8838985,-1.5834427,-9.785915,0.036423787,1.7809677,-0.21423721,-0.9405005,1.5524673,11.315481,1.8778967,-1.7216873,-9.439232,-0.00415802,0.16902924,3.2904549,-0.94940716,1.7160416,0.41809845,1.9191463,-1.1032486,-11.007858,0.01712799,0.00034332275,-2.2333107,-0.96229047,1.7901993,0.15686417,1.9161199,-0.8272934,-11.482719,0.0,0.0,0.0,0.0,0.0,0.0,0.0,0.0,0.0,0.0,0.0,0.0,-2.0,1.1363357,-2.0,2.0,2.0,-2.0,2.0,1.6324012,-2.0,-2.0,-0.73442566,-2.0,0.0,0.0,0.0,0.0
2025-06-11 12:29:29.522,-0.80024,-0.706132,-105.53045,0.2863134,0.78502697,-0.063674234,-11.17995,0.496709,23.386547,-0.032837972,0.23174286,-2.5909805,-0.9178412,2.216381,3.2684822,1.868716,-1.2127304,-9.337912,0.041611776,-0.19992828,2.0941467,-0.9037268,2.0719566,9.583277,1.8649267,-1.3261795,-9.0229645,0.0021743774,-0.058784485,3.4711227,-0.8843284,4.2161217,2.9669647,1.8722255,-3.7166252,-6.162815,0.008811951,-0.61260223,-2.9034882,-0.9455058,1.012764,-8.968033,1.8828558,-1.4281845,-9.770046,0.0,0.0,0.0,0.0,0.0,0.0,0.0,0.0,0.0,0.0,0.0,0.0,-2.0,1.2229432,-2.0,2.0,2.0,-2.0,2.0,0.6510799,-2.0,-2.0,-0.76226735,-2.0,0.0,0.0,0.0,0.0
2025-06-11 12:29:29.543,-0.419062,0.630438,-105.4427,0.30931523,0.5192159,0.27380443,-4.58003,-0.060596,16.906178,-0.018265828,0.48557281,-3.2391853,-0.85802674,2.5577202,1.2494087,1.8211849,-2.484478,-5.9601746,0.04458724,-0.07633209,1.8866272,-0.852381,2.4260368,7.294422,1.8186163,-2.7773705,-5.269245,0.0077438354,0.3107834,2.7667656,-0.835424,1.9981003,-3.2989998,1.8034847,-2.277645,-5.6037216,-0.00705719,-0.96164703,-1.936676,-0.93963116,-0.6459427,-7.40551,1.8322729,-2.3988762,-6.7096977,0.0,0.0,0.0,0.0,0.0,0.0,0.0,0.0,0.0,0.0,0.0,0.0,-2.0,1.0710689,-1.8183857,2.0,2.0,-2.0,2.0,1.2114046,-2.0,-2.0,-0.2572049,-2.0,0.0,0.0,0.0,0.0
2025-06-11 12:29:29.565,-0.338104,0.919774,-105.116,-0.24450022,-0.25855067,0.1768513,-0.751562,0.269343,12.261888,-0.0154429525,-0.06160736,-2.8619804,-0.8166754,1.5322495,-0.037231445,1.7625148,-2.7589073,-2.8241386,0.038636312,-0.053367615,2.1820412,-0.8041632,2.061428,5.979706,1.7465948,-3.4337273,-2.3004494,0.0046157837,-0.39974213,3.7189293,-0.78552777,1.9452286,-0.514534,1.753207,-2.3682823,-3.834896,-0.019569397,-0.6290817,-2.0465393,-0.95008343,0.1392746,-3.872738,1.7845129,-2.0225945,-5.507286,0.0,0.0,0.0,0.0,0.0,0.0,0.0,0.0,0.0,0.0,0.0,0.0,-2.0,0.50275856,-2.0,2.0,2.0,-2.0,2.0,1.5548992,-2.0,-2.0,-0.49209297,-2.0,0.0,0.0,0.0,0.0
2025-06-11 12:29:29.586,-0.689564,0.399327,-104.92532,-0.28206885,-0.5180837,0.09291721,-1.251573,0.86542,6.283046,-0.013917074,-0.15674591,-2.7594414,-0.7953894,0.59352875,-4.0473022,1.7065151,-2.2988548,-2.4444962,0.034211263,0.14087677,2.0904846,-0.76357484,1.6817093,5.357136,1.6816686,-2.8114738,-0.776989,-3.8146973e-05,-0.08831024,3.6066208,-0.74783856,1.0416031,1.6778831,1.7136867,-1.7141342,-3.3453865,-0.027122498,-0.18238068,-2.3150978,-0.94092816,-0.1215744,-5.691616,1.7522405,-1.1675644,-5.5146103,0.0,0.0,0.0,0.0,0.0,0.0,0.0,0.0,0.0,0.0,0.0,0.0,-2.0,0.7532669,-2.0,2.0,2.0,-2.0,2.0,1.5690634,-2.0,-2.0,-0.3222766,-2.0,0.0,0.0,0.0,0.0
2025-06-11 12:29:29.608,-0.798802,-0.543453,-104.75081,0.12848869,-0.65389353,0.12872235,0.333204,0.42081,3.428547,-0.030167684,-1.0380936,-1.1236725,-0.7991278,-0.6165695,-0.47058868,1.6567714,-2.2811546,-0.6964226,0.03993331,0.6019211,1.4300766,-0.72939515,1.3575363,4.424507,1.6278814,-1.9079208,-0.11657715,0.004234314,0.12004852,2.9828339,-0.72380596,1.0069656,1.1224518,1.6862972,-1.0602188,-3.436943,-0.028419495,0.039253235,-2.4420547,-0.9389445,0.50914764,-5.246052,1.7355322,-0.590477,-5.6818504,0.0,0.0,0.0,0.0,0.0,0.0,0.0,0.0,0.0,0.0,0.0,0.0,-2.0,0.7148999,-2.0,2.0,2.0,-2.0,2.0,1.794972,-2.0,-2.0,-0.48433495,-2.0,0.0,0.0,0.0,0.0
2025-06-11 12:29:29.629,-0.510154,-1.112086,-104.51741,0.3021356,-0.3858958,0.27809215,0.373842,0.953497,2.6992,-0.052674398,-0.91220856,-0.28015518,-0.8079779,-0.62252045,-0.5914383,1.6184719,-1.3180923,-0.5072098,0.052064046,0.8337784,0.6024246,-0.7049048,1.0408401,4.133976,1.597135,-1.2240982,-0.12512589,0.010261536,0.27561188,2.548256,-0.69489056,1.1110306,1.719387,1.6677577,-0.6901169,-3.08049,-0.025062561,0.17383575,-2.6923027,-0.93345135,0.28591156,-6.3752213,1.7302679,-0.00705719,-6.2104225,0.0,0.0,0.0,0.0,0.0,0.0,0.0,0.0,0.0,0.0,0.0,0.0,-2.0,0.88153845,-2.0,2.0,2.0,-2.0,2.0,1.8019888,-2.0,-2.0,-0.525033,-2.0,0.0,0.0,0.0,0.0
2025-06-11 12:29:29.649,-0.120086,-1.452069,-104.08612,0.32204682,-0.19419073,0.48996288,0.013844,1.155536,3.214785,-0.072816,-0.58734894,-0.03479004,-0.81255555,-0.23677826,0.29968643,1.5952022,-0.83408356,-0.40711212,0.068467245,0.8547592,0.11413574,-0.6872046,0.6834793,3.7970543,1.5843176,-0.21213531,-0.5841141,0.014305115,0.04383087,2.8705254,-0.66719586,1.2874985,0.711071,1.6595943,-0.2022171,-3.486992,-0.021476746,0.18779755,-2.8082695,-0.9266612,0.40851593,-7.0356293,1.7332433,0.14530182,-6.5998306,0.0,0.0,0.0,0.0,0.0,0.0,0.0,0.0,0.0,0.0,0.0,0.0,-2.0,0.91539836,-2.0,2.0,2.0,-2.0,2.0,1.9070807,-2.0,-2.0,-0.48594892,-2.0,0.0,0.0,0.0,0.0
2025-06-11 12:29:29.671,0.162021,-1.590813,-103.401245,0.10071387,-0.011457057,0.71225226,0.476728,1.403986,4.373089,-0.083344564,-0.35785675,-0.060424805,-0.807215,0.4556656,-0.061645508,1.5894039,0.21633148,-1.7059593,0.083573446,0.6190872,-0.5230789,-0.6747687,0.38333893,3.565117,1.5819525,0.0598526,-1.0296783,0.013923645,-0.013847351,3.0450897,-0.6363731,1.5965652,0.31433487,1.6592891,0.015068054,-3.8092613,-0.022773743,-0.13828278,-2.4396133,-0.91842145,0.22220612,-6.9575043,1.7437719,0.62519073,-7.631344,0.0,0.0,0.0,0.0,0.0,0.0,0.0,0.0,0.0,0.0,0.0,0.0,-2.0,0.8412585,-2.0,2.0,2.0,-2.0,2.0,2.0,-2.0,-2.0,-0.5406555,-2.0,0.0,0.0,0.0,0.0
2025-06-11 12:29:29.692,0.158275,-1.546585,-102.2747,-0.06684815,0.03203667,0.8244764,0.572333,-0.362456,9.015973,-0.07457076,0.4429245,-1.4569321,-0.7902014,0.6787491,-1.6717796,1.6088588,1.1474991,-3.5529099,0.09913741,0.8211136,-0.9393463,-0.6647742,0.42827606,3.372242,1.5826391,0.013771057,-1.0882721,0.009498596,-0.20717621,3.2672615,-0.6076065,1.189003,0.27893448,1.6622646,0.19924164,-4.248722,-0.028572083,-0.2286148,-1.9513245,-0.9165141,0.03917694,-7.1320686,1.7610906,0.81928253,-8.384529,0.0,0.0,0.0,0.0,0.0,0.0,0.0,0.0,0.0,0.0,0.0,0.0,-2.0,0.76691157,-2.0,2.0,2.0,-2.0,2.0,2.0,-2.0,-2.0,-0.5550126,-2.0,0.0,0.0,0.0,0.0
2025-06-11 12:29:29.714,-0.029522,-1.568752,-101.3424,-0.16971707,-0.09084692,0.8016753,0.291872,-0.642588,10.064684,-0.06533919,0.38051605,-1.6571312,-0.77829957,0.5210495,-2.6776543,1.6323574,0.99437714,-4.0595093,0.109284505,0.30368805,-0.8502312,-0.65630555,0.40569305,3.1891365,1.5824865,-0.039863586,-1.0028229,0.004310608,-0.34122467,3.7579918,-0.58624417,0.8449936,0.028686523,1.6731746,0.6935501,-4.970169,-0.03490448,-0.270195,-1.6559105,-0.9162089,-0.04787445,-7.1906624,1.7788671,0.8868027,-8.993668,0.0,0.0,0.0,0.0,0.0,0.0,0.0,0.0,0.0,0.0,0.0,0.0,-2.0,0.76829016,-2.0,2.0,2.0,-2.0,2.0,2.0,-2.0,-2.0,-0.54051733,-2.0,0.0,0.0,0.0,0.0
2025-06-11 12:29:29.736,-0.384376,-1.72955,-100.48679,-0.32400116,-0.18281716,0.70290655,0.460085,-0.815764,9.900003,-0.059922323,0.12775421,-1.6363792,-0.766474,0.58589935,-2.7862968,1.6522701,0.93135834,-4.799267,0.11615096,0.4140091,-1.0589752,-0.6480658,0.49129486,2.8375664,1.5817236,-0.048866272,-0.9381256,-0.0018692017,-0.2236557,3.9606323,-0.5691543,0.6127548,-0.39002228,1.6856105,0.5877304,-5.482872,-0.04322052,-0.18856049,-1.5667953,-0.916743,0.03025055,-7.127186,1.7967199,0.8098221,-9.495384,0.0,0.0,0.0,0.0,0.0,0.0,0.0,0.0,0.0,0.0,0.0,0.0,-2.0,0.73006225,-2.0,2.0,2.0,-2.0,2.0,2.0,-2.0,-2.0,-0.5746776,-2.0,0.0,0.0,0.0,0.0
2025-06-11 12:29:29.757,-0.811422,-1.983199,-99.77377,-0.33581072,-0.23129475,0.5324275,0.770701,-1.279667,10.231544,-0.055573568,0.14705658,-1.6974144,-0.75564027,0.6303787,-3.6188278,1.6689022,0.6861496,-5.0959015,0.11988936,0.2235794,-1.0284576,-0.63852906,0.28759003,2.5104141,1.5790533,-0.10997772,-0.7379265,-0.0076675415,-0.24303436,4.020447,-0.55374295,0.4994583,-0.9710846,1.6978176,0.60108185,-5.889374,-0.050086975,-0.35114288,-1.223774,-0.9168193,-0.021095276,-7.392082,1.8163275,0.85926056,-10.498817,0.0,0.0,0.0,0.0,0.0,0.0,0.0,0.0,0.0,0.0,0.0,0.0,-2.0,0.77827793,-2.0,2.0,2.0,-2.0,2.0,2.0,-2.0,-2.0,-0.5526451,-2.0,0.0,0.0,0.0,0.0
2025-06-11 12:29:29.778,-1.29659,-2.360626,-99.16423,-0.19738339,-0.29818836,0.3007747,1.06918,-1.759232,10.618099,-0.052674398,0.11104584,-1.7169456,-0.74556947,0.41202545,-3.37957,1.6800411,0.34931183,-4.9555206,0.1219493,-0.033607483,-0.895401,-0.6283057,0.42346954,2.0709534,1.5756963,-0.2438736,-0.5535965,-0.010261536,-0.106925964,3.9606323,-0.5416885,0.32978058,-1.1187897,1.7118556,0.6459427,-6.5595474,-0.052604675,-0.069618225,-1.3702583,-0.91575116,0.22327423,-7.3957443,1.833341,0.90366364,-10.888229,0.0,0.0,0.0,0.0,0.0,0.0,0.0,0.0,0.0,0.0,0.0,0.0,-2.0,0.7492205,-2.0,2.0,2.0,-2.0,2.0,2.0,-2.0,-2.0,-0.6102375,-2.0,0.0,0.0,0.0,0.0
2025-06-11 12:29:29.800,-1.60828,-2.732683,-98.918655,-0.24470659,-0.31436148,0.11637203,1.276941,-1.498679,10.695455,-0.052216634,-0.0024795532,-1.6314964,-0.7379401,0.20244598,-3.7250328,1.6862209,0.17375946,-4.9201202,0.12141524,0.012321472,-0.84778976,-0.61709046,0.4845047,1.543602,1.5711187,-0.2223587,-0.37170792,-0.0118637085,-0.05886078,3.953308,-0.53360134,0.18306732,-1.1480904,1.7249019,0.65258026,-6.859844,-0.054740906,-0.027961731,-1.4679184,-0.9143016,0.047035217,-7.8376427,1.8496679,0.65128326,-11.453423,0.0,0.0,0.0,0.0,0.0,0.0,0.0,0.0,0.0,0.0,0.0,0.0,-2.0,0.82204485,-2.0,2.0,2.0,-2.0,2.0,2.0,-2.0,-2.0,-0.61572886,-2.0,0.0,0.0,0.0,0.0
2025-06-11 12:29:29.821,-1.876344,-3.159505,-98.85498,-0.12397681,-0.38204938,-0.021766193,1.467714,-1.451561,10.676311,-0.052369222,-0.012779236,-1.5973129,-0.72962403,0.25058746,-3.347828,1.6866024,-0.019798279,-4.7223625,0.12019454,-0.112953186,-0.6756706,-0.6061804,0.47855377,1.2225533,1.56677,-0.16971588,-0.2532997,-0.0118637085,-0.026817322,3.8385582,-0.5292526,0.15659332,-1.0418854,1.7368801,0.4125595,-7.0954437,-0.052604675,0.06450653,-1.5741196,-0.9113261,0.18779755,-8.183109,1.8626379,0.634346,-11.712215,0.0,0.0,0.0,0.0,0.0,0.0,0.0,0.0,0.0,0.0,0.0,0.0,-2.0,0.82210714,-2.0,2.0,2.0,-2.0,2.0,2.0,-2.0,-2.0,-0.63094974,-2.0,0.0,0.0,0.0,0.0
2025-06-11 12:29:29.843,-2.042502,-3.723641,-98.95324,-0.07806118,-0.33566412,-0.12940389,1.659255,-1.09264,10.307405,-0.05275069,-0.0182724,-1.5753403,-0.7223761,0.44193268,-3.7518883,1.6862972,-0.013771057,-4.646679,0.11706649,-0.13942719,-0.53406525,-0.5952704,0.4027176,0.87464523,1.5633367,-0.17879486,-0.22644424,-0.010795593,0.06450653,3.7433434,-0.5250564,0.1733017,-1.2176704,1.7461116,0.30536652,-7.2919807,-0.05115509,0.107917786,-1.7511253,-0.9078166,0.11203766,-8.28931,1.8751501,0.4932785,-11.907532,0.0,0.0,0.0,0.0,0.0,0.0,0.0,0.0,0.0,0.0,0.0,0.0,-2.0,0.84235156,-2.0,2.0,2.0,-2.0,2.0,2.0,-2.0,-2.0,-0.6344651,-2.0,0.0,0.0,0.0,0.0
2025-06-11 12:29:29.865,-2.087347,-4.145324,-99.098724,0.005545923,-0.31884202,-0.14285102,1.969284,-0.833112,9.536535,-0.05275069,-0.0358963,-1.5790024,-0.7175696,0.17726898,-3.580986,1.684695,-0.10723114,-4.507515,0.11493026,-0.057868958,-0.45594025,-0.58695436,0.5086136,0.72205734,1.5626501,-0.015602112,-0.32043839,-0.009498596,-0.018043518,3.7421227,-0.521318,0.19802094,-1.4337387,1.7523677,0.23258209,-7.414055,-0.04802704,0.27690887,-1.9171448,-0.9042308,0.16117096,-8.615242,1.8842291,0.30277252,-11.8880005,0.0,0.0,0.0,0.0,0.0,0.0,0.0,0.0,0.0,0.0,0.0,0.0,-2.0,0.84831786,-2.0,2.0,2.0,-2.0,2.0,2.0,-2.0,-2.0,-0.66611695,-2.0,0.0,0.0,0.0,0.0
2025-06-11 12:29:29.886,-2.065886,-4.521717,-99.233604,0.02867747,-0.22902709,-0.105730854,2.045402,-0.617568,9.811029,-0.053589925,-0.06793976,-1.4947739,-0.7112372,0.25493622,-3.7921715,1.6836269,-0.0371933,-4.6076126,0.1118785,-0.10219574,-0.3680458,-0.57810426,0.27553558,0.48889923,1.5624975,0.005607605,-0.3277626,-0.0075912476,0.060081482,3.6469078,-0.5163589,0.21045685,-1.6559105,1.7586238,0.2059555,-7.565422,-0.045890808,0.0636673,-1.8146019,-0.8989665,0.2742386,-9.007095,1.892774,0.42736053,-12.372623,0.0,0.0,0.0,0.0,0.0,0.0,0.0,0.0,0.0,0.0,0.0,0.0,-2.0,0.876026,-2.0,2.0,2.0,-2.0,2.0,2.0,-2.0,-2.0,-0.6723999,-2.0,0.0,0.0,0.0,0.0
2025-06-11 12:29:29.907,-2.061206,-4.832839,-99.351654,-0.006778632,-0.1582723,-0.06203469,2.34435,-0.493802,9.955074,-0.05404769,0.015068054,-1.5533676,-0.7060492,0.23471832,-3.740902,1.6830165,-0.052833557,-4.519722,0.110810384,0.025978088,-0.46814728,-0.5725348,0.3358078,0.46204376,1.5625738,-0.015296936,-0.3228798,-0.0075149536,-0.0024795532,3.7006187,-0.51223904,0.08182526,-1.6424828,1.7622097,0.1947403,-7.573967,-0.04535675,0.030708313,-1.8731956,-0.895991,0.08312225,-8.96315,1.9012426,0.39951324,-12.6656,0.0,0.0,0.0,0.0,0.0,0.0,0.0,0.0,0.0,0.0,0.0,0.0,-2.0,0.8682988,-2.0,2.0,2.0,-2.0,2.0,2.0,-2.0,-2.0,-0.6952927,-2.0,0.0,0.0,0.0,0.0
2025-06-11 12:29:29.929,-2.028045,-5.060038,-99.38776,0.053660896,-0.14920793,-0.01392216,2.315453,-0.527159,9.840446,-0.0538951,0.023841858,-1.5570297,-0.7024634,0.19100189,-3.8422203,1.6821773,-0.029411316,-4.523384,0.1105815,0.027809143,-0.49134064,-0.56925416,0.13195038,0.54138947,1.5624975,-0.019798279,-0.33630753,-0.00705719,0.040626526,3.716488,-0.5092636,-0.053138733,-1.6888695,1.7657955,0.12508392,-7.7033653,-0.045051575,-0.007209778,-1.8414574,-0.89568585,-0.10929108,-9.037613,1.9094824,0.42804718,-12.940262,0.0,0.0,0.0,0.0,0.0,0.0,0.0,0.0,0.0,0.0,0.0,0.0,-2.0,0.91066444,-2.0,2.0,2.0,-2.0,2.0,2.0,-2.0,-2.0,-0.69837856,-2.0,0.0,0.0,0.0,0.0
2025-06-11 12:29:29.950,-1.983807,-5.271494,-99.375435,0.025105514,-0.1410882,0.0135824485,2.175828,-0.557618,9.958216,-0.054123983,-0.035362244,-1.5301743,-0.700022,0.08014679,-3.5089645,1.6817958,0.023155212,-4.5331497,0.11073409,0.00705719,-0.45838165,-0.5677283,0.031700134,0.5096512,1.5624975,-0.009422302,-0.33996964,-0.0073623657,-0.0010299683,3.7506676,-0.5076614,0.062828064,-1.6705589,1.7693813,0.09479523,-7.7473106,-0.045204163,0.0047683716,-1.8158226,-0.895991,-0.029716492,-9.146259,1.9139074,0.0017929077,-12.729076,0.0,0.0,0.0,0.0,0.0,0.0,0.0,0.0,0.0,0.0,0.0,0.0,-2.0,0.92948854,-2.0,2.0,2.0,-2.0,2.0,2.0,-2.0,-2.0,-0.69768405,-2.0,0.0,0.0,0.0,0.0
2025-06-11 12:29:29.972,-1.979663,-5.437306,-99.34365,-0.02113646,-0.06476271,0.025906498,1.998375,-0.219229,10.228738,-0.055726156,-0.017433167,-1.4410629,-0.697428,0.06793976,-3.4467087,1.681567,-0.03818512,-4.5453568,0.109665975,-0.033988953,-0.39246368,-0.5665839,0.05634308,0.4779129,1.5626501,0.025138855,-0.34485245,-0.008506775,-0.04421234,3.7665367,-0.50560147,0.2286148,-1.7804222,1.7709835,0.008125305,-7.6618614,-0.04634857,-0.16887665,-1.6485863,-0.89568585,-0.021018982,-9.125507,1.9161199,0.115242004,-12.812084,0.0,0.0,0.0,0.0,0.0,0.0,0.0,0.0,0.0,0.0,0.0,0.0,-2.0,0.93452233,-2.0,2.0,2.0,-2.0,2.0,2.0,-2.0,-2.0,-0.7107208,-2.0,0.0,0.0,0.0,0.0
2025-06-11 12:29:29.993,-2.001159,-5.523425,-99.297295,0.011887909,-0.010352193,0.03532829,2.224522,-0.066479,10.403113,-0.055497274,-0.0030899048,-1.4874496,-0.696131,0.07022858,-3.3868942,1.6811092,-0.037117004,-4.461128,0.10943709,-0.019264221,-0.41077423,-0.5660498,-0.017814636,0.53650665,1.5626501,-0.0038528442,-0.33630753,-0.008659363,0.009117126,3.7579918,-0.5042282,-0.017204285,-1.7254906,1.7708309,-0.005531311,-7.650875,-0.046958923,0.0050735474,-1.7303734,-0.89568585,-0.04283905,-9.180439,1.9165014,-0.021476746,-12.719311,0.0,0.0,0.0,0.0,0.0,0.0,0.0,0.0,0.0,0.0,0.0,0.0,-2.0,0.93936557,-2.0,2.0,2.0,-2.0,2.0,2.0,-2.0,-2.0,-0.69759583,-2.0,0.0,0.0,0.0,0.0
2025-06-11 12:29:30.014,-1.994886,-5.576902,-99.269424,-0.01108654,-0.00032217032,0.013471725,2.240478,-0.080787,9.963325,-0.055955037,-0.017280579,-1.4874496,-0.6962073,-0.07320404,-3.2599373,1.6804988,-0.06855011,-4.4391556,0.10897933,-0.04070282,-0.4400711,-0.56666017,-0.029335022,0.6353874,1.5625738,-0.028800964,-0.33752823,-0.008735657,-0.019111633,3.7360191,-0.5053726,-0.0938797,-1.60952,1.770602,-0.06473541,-7.5837326,-0.048103333,-0.076179504,-1.6888695,-0.8960673,-0.11455536,-9.041275,1.9165777,0.007209778,-12.715649,0.0,0.0,0.0,0.0,0.0,0.0,0.0,0.0,0.0,0.0,0.0,0.0,-2.0,0.9423404,-2.0,2.0,2.0,-2.0,2.0,2.0,-2.0,-2.0,-0.712335,-2.0,0.0,0.0,0.0,0.0
2025-06-11 12:29:30.036,-1.983904,-5.591743,-99.26547,0.021497779,0.04314124,-0.005439266,1.891809,-0.22709,9.607153,-0.055878744,0.02040863,-1.5118637,-0.69773316,-0.10280609,-3.0756073,1.6800411,-0.021858215,-4.503853,0.10951339,0.056037903,-0.47058868,-0.56818604,-0.11394501,0.7061882,1.5625738,-0.010566711,-0.3253212,-0.008430481,0.07083893,3.7299156,-0.5066696,-0.17589569,-1.4264145,1.7699153,-0.022773743,-7.64233,-0.04802704,-0.007133484,-1.6925316,-0.89797467,-0.11463165,-8.993668,1.916654,0.011100769,-12.729076,0.0,0.0,0.0,0.0,0.0,0.0,0.0,0.0,0.0,0.0,0.0,0.0,-2.0,0.9561748,-2.0,2.0,2.0,-2.0,2.0,2.0,-2.0,-2.0,-0.70933294,-2.0,0.0,0.0,0.0,0.0
2025-06-11 12:29:30.057,-1.946384,-5.561468,-99.28553,0.02681576,0.033909723,-0.014094162,1.548957,-0.399771,9.842752,-0.05580245,-0.04146576,-1.4911118,-0.7010901,-0.12592316,-2.8009453,1.6800411,0.010795593,-4.4757767,0.1105815,0.046958923,-0.526741,-0.57062745,-0.0976181,0.92103577,1.5626501,0.004081726,-0.3314247,-0.008049011,0.0052261353,3.7311363,-0.51063687,-0.23456573,-1.2774849,1.7699153,0.014457703,-7.638668,-0.047950745,-0.06778717,-1.727932,-0.9016368,-0.16429901,-8.758068,1.9164251,-0.008354187,-12.720531,0.0,0.0,0.0,0.0,0.0,0.0,0.0,0.0,0.0,0.0,0.0,0.0,-2.0,0.96344036,-2.0,2.0,2.0,-2.0,2.0,2.0,-2.0,-2.0,-0.71209717,-2.0,0.0,0.0,0.0,0.0
2025-06-11 12:29:30.078,-1.91865,-5.542043,-99.291695,0.027605418,0.030528462,0.0069530774,1.153015,-0.466022,9.856979,-0.055726156,0.035591125,-1.486229,-0.70429444,-0.19756317,-2.6727715,1.6801937,-0.004081726,-4.507515,0.111420736,0.06275177,-0.5584793,-0.574137,-0.16399384,1.0223541,1.5626501,0.010719299,-0.34973526,-0.0077438354,0.050239563,3.7543297,-0.51475674,-0.2073288,-1.1212311,1.7697628,0.005760193,-7.6215744,-0.048103333,-0.084114075,-1.641262,-0.90590924,-0.11325836,-8.563972,1.9165014,0.008049011,-12.725414,0.0,0.0,0.0,0.0,0.0,0.0,0.0,0.0,0.0,0.0,0.0,0.0,-2.0,0.9783825,-2.0,2.0,2.0,-2.0,2.0,2.0,-2.0,-2.0,-0.7072582,-2.0,0.0,0.0,0.0,0.0
2025-06-11 12:29:30.101,-1.888812,-5.500928,-99.2719,0.030758006,0.04143909,0.028577968,1.02807,-0.53639,9.905237,-0.055497274,0.025062561,-1.5033188,-0.7073462,-0.071754456,-2.4017715,1.6801174,-0.002784729,-4.4879837,0.112183675,0.052223206,-0.60974884,-0.5778754,-0.22396088,1.1981392,1.5628027,-0.025291443,-0.35095596,-0.0075912476,-0.098609924,3.7152672,-0.51826626,-0.11142731,-1.0113678,1.7697628,0.002784729,-7.591057,-0.048942566,0.005378723,-1.6180649,-0.9103343,-0.14263153,-8.411385,1.9161962,-0.027198792,-12.6546135,0.0,0.0,0.0,0.0,0.0,0.0,0.0,0.0,0.0,0.0,0.0,0.0,-2.0,0.9852708,-2.0,2.0,2.0,-2.0,2.0,2.0,-2.0,-2.0,-0.6918489,-2.0,0.0,0.0,0.0,0.0
2025-06-11 12:29:30.124,-1.868768,-5.461335,-99.23035,0.02281236,0.030710516,0.045021065,0.854547,-0.43033,9.652181,-0.055497274,0.01537323,-1.5130844,-0.7098639,-0.100746155,-2.3273048,1.6797359,-0.017662048,-4.4477005,0.11287032,0.016670227,-0.5987625,-0.58207154,-0.15094757,1.3788071,1.5630316,-0.014152527,-0.35950089,-0.007896423,-0.03803253,3.7384605,-0.5217758,-0.10837555,-0.8929596,1.7695339,-0.018424988,-7.5886154,-0.049858093,-0.0017929077,-1.5667953,-0.9152934,-0.247612,-8.119629,1.9158148,0.013694763,-12.637524,0.0,0.0,0.0,0.0,0.0,0.0,0.0,0.0,0.0,0.0,0.0,0.0,-2.0,0.9834784,-2.0,2.0,2.0,-2.0,2.0,2.0,-2.0,-2.0,-0.70431054,-2.0,0.0,0.0,0.0,0.0
2025-06-11 12:29:30.164,-1.816201,-5.334503,-99.094894,0.029972486,0.0595422,0.048687443,0.56718,-0.353764,9.782394,-0.055115804,-0.017738342,-1.5008774,-0.7146704,-0.08014679,-2.1942482,1.6796596,-0.008659363,-4.478218,0.11477767,-0.019798279,-0.64393234,-0.5890906,-0.1556778,1.5240707,1.5648626,0.04802704,-0.45471954,-0.008735657,-0.014457703,3.7604332,-0.5268112,-0.15445709,-0.79529953,1.7667873,-0.043144226,-7.389641,-0.052452087,-0.017280579,-1.4837875,-0.92353314,-0.10417938,-8.015869,1.9142126,-0.022697449,-12.565498,0.0,0.0,0.0,0.0,0.0,0.0,0.0,0.0,0.0,0.0,0.0,0.0,-2.0,1.0010346,-2.0,2.0,2.0,-2.0,2.0,2.0,-2.0,-2.0,-0.6869676,-2.0,0.0,0.0,0.0,0.0
2025-06-11 12:29:30.188,-1.780039,-5.257716,-99.043365,0.045311384,0.048430704,0.04380485,0.590735,-0.272194,9.827816,-0.054581746,0.076789856,-1.5790024,-0.7162726,-0.060920715,-2.0587463,1.6788967,-0.051078796,-4.3866653,0.11523543,0.036735535,-0.665905,-0.592829,-0.19275665,1.662014,1.5655493,0.0038528442,-0.4730301,-0.009269714,-0.04261017,3.78973,-0.5287948,-0.08274078,-0.7830925,1.7644985,-0.14324188,-7.27367,-0.053367615,0.015068054,-1.4923325,-0.92727154,-0.055351257,-7.7143517,1.913297,-0.02002716,-12.49836,0.0,0.0,0.0,0.0,0.0,0.0,0.0,0.0,0.0,0.0,0.0,0.0,-2.0,0.9873965,-2.0,2.0,2.0,-2.0,2.0,2.0,-2.0,-2.0,-0.68328965,-2.0,0.0,0.0,0.0,0.0
2025-06-11 12:29:30.212,-1.725446,-5.177782,-98.98865,0.034394715,0.044926956,0.036191233,0.515375,-0.253243,9.761569,-0.054581746,-0.035972595,-1.5497055,-0.7177985,-0.05367279,-2.0868225,1.67821,-0.019111633,-4.3707924,0.11576949,-0.03604889,-0.69031906,-0.59580445,-0.06816864,1.662014,1.5663885,0.05466461,-0.5047684,-0.009651184,0.027961731,3.8507652,-0.52963406,-0.040855408,-0.8233757,1.7619045,-0.108680725,-7.155262,-0.054130554,-0.080451965,-1.4398422,-0.92956036,-0.06526947,-7.6948204,1.911466,-0.081977844,-12.390938,0.0,0.0,0.0,0.0,0.0,0.0,0.0,0.0,0.0,0.0,0.0,0.0,-2.0,0.988755,-2.0,2.0,2.0,-2.0,2.0,2.0,-2.0,-2.0,-0.6885853,-2.0,0.0,0.0,0.0,0.0
2025-06-11 12:29:30.235,-1.690008,-5.091032,-98.94823,0.020288143,0.05483606,0.020984668,0.522045,-0.20461,9.731271,-0.054581746,-0.020637512,-1.5387192,-0.7184088,0.0036239624,-2.059967,1.677676,-0.055732727,-4.383003,0.115845785,0.009117126,-0.6634636,-0.5974066,-0.03139496,1.7376976,1.5669988,0.02117157,-0.48645782,-0.010261536,-0.038642883,3.8043785,-0.530397,-0.06542206,-0.7843132,1.7594631,-0.122413635,-7.12352,-0.055122375,0.024147034,-1.4361801,-0.9306285,-0.017356873,-7.7607384,1.9093298,-0.117378235,-12.306705,0.0,0.0,0.0,0.0,0.0,0.0,0.0,0.0,0.0,0.0,0.0,0.0,-2.0,0.9816771,-2.0,2.0,2.0,-2.0,2.0,2.0,-2.0,-2.0,-0.6759695,-2.0,0.0,0.0,0.0,0.0
2025-06-11 12:29:30.256,-1.664574,-5.004668,-98.92849,0.006999189,0.045898564,0.009383885,0.543052,-0.1158,9.704223,-0.05442916,0.017356873,-1.5350571,-0.71947694,-0.04421234,-2.0978088,1.6772945,-0.0036239624,-4.372013,0.1156932,-0.10562897,-0.6671257,-0.5986273,0.02910614,1.6986351,1.5674566,0.01499176,-0.5157547,-0.010643005,0.017051697,3.8117027,-0.53085476,-0.02696991,-0.7415886,1.7577846,-0.05634308,-7.094223,-0.05519867,-0.03276825,-1.4435043,-0.9306285,-0.001411438,-7.720455,1.9069647,-0.11356354,-12.325016,0.0,0.0,0.0,0.0,0.0,0.0,0.0,0.0,0.0,0.0,0.0,0.0,-2.0,0.9701848,-2.0,2.0,2.0,-2.0,2.0,2.0,-2.0,-2.0,-0.68381345,-2.0,0.0,0.0,0.0,0.0
2025-06-11 12:29:30.277,-1.654369,-4.940202,-98.92681,0.0057468805,0.0483822,0.00030119147,0.581505,-0.060122,9.686128,-0.05442916,0.039711,-1.5216293,-0.720011,-0.0059127808,-2.1820412,1.6769893,-0.026435852,-4.391548,0.1156932,-0.03856659,-0.6549187,-0.5990851,-0.0046157837,1.7572289,1.5675329,-0.008125305,-0.5157547,-0.010795593,0.039405823,3.8153648,-0.5313125,-0.08350372,-0.76111984,1.7564113,-0.045433044,-7.118637,-0.055274963,-0.04825592,-1.4630356,-0.93085736,0.0182724,-7.733883,1.904981,-0.052833557,-12.135807,0.0,0.0,0.0,0.0,0.0,0.0,0.0,0.0,0.0,0.0,0.0,0.0,-2.0,0.9705502,-2.0,2.0,2.0,-2.0,2.0,2.0,-2.0,-2.0,-0.672014,-2.0,0.0,0.0,0.0,0.0
2025-06-11 12:29:30.298,-1.642875,-4.892718,-98.93429,-0.00018545869,0.026360055,-0.012111695,0.61459,-0.106515,9.639015,-0.05465804,0.0046157837,-1.5057602,-0.72077394,-0.021629333,-2.1246643,1.676913,0.010871887,-4.351261,0.11576949,0.021400452,-0.6549187,-0.59946656,-0.05847931,1.6974144,1.5675329,-0.017280579,-0.49011993,-0.010643005,-0.05290985,3.8092613,-0.531694,-0.05039215,-0.7037468,1.7561061,0.00415802,-7.155262,-0.05504608,0.03299713,-1.4691391,-0.9306285,0.04283905,-7.6606407,1.9034551,-0.05153656,-12.145573,0.0,0.0,0.0,0.0,0.0,0.0,0.0,0.0,0.0,0.0,0.0,0.0,-2.0,0.9622442,-2.0,2.0,2.0,-2.0,2.0,2.0,-2.0,-2.0,-0.67422724,-2.0,0.0,0.0,0.0,0.0
2025-06-11 12:29:30.321,-1.646603,-4.862169,-98.952095,-0.013633831,0.020704702,-0.011904733,0.576849,-0.123652,9.623358,-0.054734334,0.08602142,-1.5362778,-0.72176576,-0.023002625,-2.1857033,1.676913,-0.025978088,-4.408638,0.11538802,-0.018119812,-0.6561394,-0.59969544,-0.031089783,1.7303734,1.5675329,-0.0073623657,-0.50110626,-0.0104904175,0.022163391,3.7970543,-0.53207546,-0.038337708,-0.7074089,1.7561061,-0.011787415,-7.13451,-0.054969788,0.0038528442,-1.4666977,-0.9303996,-0.06198883,-7.666744,1.9020056,-0.03414154,-12.156559,0.0,0.0,0.0,0.0,0.0,0.0,0.0,0.0,0.0,0.0,0.0,0.0,-2.0,0.9680833,-2.0,2.0,2.0,-2.0,2.0,2.0,-2.0,-2.0,-0.6665449,-2.0,0.0,0.0,0.0,0.0
2025-06-11 12:29:30.342,-1.656723,-4.836561,-98.965996,-0.008076825,0.013344228,-0.009773285,0.617218,-0.218998,9.718706,-0.05481063,0.119895935,-1.52285,-0.72199464,0.0010299683,-2.1698341,1.676913,0.019340515,-4.3939896,0.11538802,-0.026893616,-0.68787766,-0.59969544,0.0036239624,1.7218285,1.5675329,-0.012321472,-0.49134064,-0.0104904175,-0.011024475,3.819027,-0.5329147,-0.043067932,-0.6683464,1.7559536,0.01247406,-7.1540413,-0.054283142,0.04535675,-1.4886703,-0.9303233,-0.0045394897,-7.650875,1.90109,-0.024986267,-12.09552,0.0,0.0,0.0,0.0,0.0,0.0,0.0,0.0,0.0,0.0,0.0,0.0,-2.0,0.95075995,-2.0,2.0,2.0,-2.0,2.0,2.0,-2.0,-2.0,-0.66932714,-2.0,0.0,0.0,0.0,0.0
2025-06-11 12:29:30.362,-1.672034,-4.814136,-98.97772,-0.008471183,0.014010735,-0.0050995727,0.593272,-0.335703,9.722624,-0.054886922,-0.14461517,-1.5423813,-0.7226813,-0.07595062,-2.268711,1.6770656,0.025291443,-4.379341,0.11531173,-0.029029846,-0.65369797,-0.59954286,0.062065125,1.7022972,1.5674566,0.03917694,-0.48401642,-0.010414124,-0.012702942,3.7787437,-0.53337246,-0.035820007,-0.711071,1.7560298,-0.0074386597,-7.1577034,-0.054130554,-0.01789093,-1.5423813,-0.92978925,0.018348694,-7.6948204,1.9002508,-0.047416687,-12.105286,0.0,0.0,0.0,0.0,0.0,0.0,0.0,0.0,0.0,0.0,0.0,0.0,-2.0,0.9657215,-2.0,2.0,2.0,-2.0,2.0,2.0,-2.0,-2.0,-0.68322027,-2.0,0.0,0.0,0.0,0.0
2025-06-11 12:29:30.384,-1.689655,-4.799755,-98.9838,-0.009810147,0.0029380175,-0.0019718031,0.683881,-0.416036,9.775747,-0.05465804,-0.069618225,-1.5423813,-0.7222998,-0.0157547,-2.16251,1.6771419,-0.0065231323,-4.3817825,0.11538802,-0.018424988,-0.6622429,-0.59961915,-0.032463074,1.715725,1.5673803,-0.0434494,-0.49011993,-0.010261536,-0.023918152,3.78973,-0.5331436,0.06084442,-0.7049675,1.7561061,0.00019073486,-7.176014,-0.053977966,-0.028419495,-1.4959946,-0.92986554,0.022087097,-7.7766075,1.8996404,-0.02155304,-12.11261,0.0,0.0,0.0,0.0,0.0,0.0,0.0,0.0,0.0,0.0,0.0,0.0,-2.0,0.97726995,-2.0,2.0,2.0,-2.0,2.0,2.0,-2.0,-2.0,-0.668527,-2.0,0.0,0.0,0.0,0.0
2025-06-11 12:29:30.405,-1.700305,-4.795381,-98.983894,-0.00068488467,0.00010979866,0.001017143,0.714883,-0.449097,9.664539,-0.054505453,0.04169464,-1.5143051,-0.7222998,0.03124237,-2.11734,1.6771419,0.04146576,-4.396431,0.11538802,0.05771637,-0.64637375,-0.59969544,-0.021705627,1.7120628,1.5673803,0.011787415,-0.49378204,-0.009803772,-0.005760193,3.8214684,-0.53329617,-0.027580261,-0.7098503,1.7561824,0.008430481,-7.1564827,-0.05382538,0.0034713745,-1.4935532,-0.92971295,-0.013008118,-7.6606407,1.8995641,0.048789978,-12.108948,0.0,0.0,0.0,0.0,0.0,0.0,0.0,0.0,0.0,0.0,0.0,0.0,-2.0,0.94958204,-2.0,2.0,2.0,-2.0,2.0,2.0,-2.0,-2.0,-0.6726403,-2.0,0.0,0.0,0.0,0.0
2025-06-11 12:29:30.426,-1.704988,-4.793504,-98.98124,-0.00077082467,-0.00034831534,0.001697036,0.662019,-0.425197,9.683306,-0.054886922,-0.05443573,-1.5240707,-0.7225287,-3.8146973e-05,-2.330967,1.6769893,-0.007820129,-4.351261,0.11523543,-0.04207611,-0.6683464,-0.59954286,0.012702942,1.6632347,1.5674566,0.005607605,-0.48889923,-0.010261536,0.018119812,3.8251305,-0.5330673,-0.05214691,-0.73060226,1.7560298,-0.0019454956,-7.1332893,-0.053901672,0.031318665,-1.5069809,-0.92971295,0.010032654,-7.7119102,1.8995641,-0.00011444092,-12.135807,0.0,0.0,0.0,0.0,0.0,0.0,0.0,0.0,0.0,0.0,0.0,0.0,-2.0,0.9631312,-2.0,2.0,2.0,-2.0,2.0,2.0,-2.0,-2.0,-0.669389,-2.0,0.0,0.0,0.0,0.0
2025-06-11 12:29:30.448,-1.70928,-4.795715,-98.977844,0.0021798988,-0.0047443807,-7.330383e-07,0.755301,-0.33395,9.77341,-0.054734334,0.064964294,-1.5521469,-0.72207093,0.02620697,-2.2101173,1.6769893,0.0075912476,-4.392769,0.11515914,-0.019874573,-0.61951447,-0.59954286,-0.0032424927,1.7035179,1.5674566,0.026130676,-0.5047684,-0.01033783,-0.017738342,3.8007164,-0.5330673,0.03391266,-0.7391472,1.7559536,-0.004234314,-7.1357307,-0.053977966,-0.038871765,-1.486229,-0.9294078,0.009346008,-7.6704063,1.8997167,0.0018692017,-12.110168,0.0,0.0,0.0,0.0,0.0,0.0,0.0,0.0,0.0,0.0,0.0,0.0,-2.0,0.9557912,-2.0,2.0,2.0,-2.0,2.0,2.0,-2.0,-2.0,-0.663833,-2.0,0.0,0.0,0.0,0.0
2025-06-11 12:29:30.469,-1.705413,-4.79628,-98.98128,0.004234518,0.005854672,-0.0026948233,0.825885,-0.229818,9.763623,-0.05465804,-0.056037903,-1.5045395,-0.72199464,0.0132369995,-2.2711525,1.676913,0.012779236,-4.392769,0.11500655,-0.0035476685,-0.6243973,-0.5992377,-0.026283264,1.6900902,1.5674566,0.015602112,-0.49866486,-0.010108948,0.008506775,3.798275,-0.5327621,0.116996765,-0.7025261,1.7560298,-0.00011444092,-7.162586,-0.053901672,-0.015983582,-1.5191879,-0.92948407,0.016288757,-7.6459923,1.8996404,-0.0146102905,-12.135807,0.0,0.0,0.0,0.0,0.0,0.0,0.0,0.0,0.0,0.0,0.0,0.0,-2.0,0.9601629,-2.0,2.0,2.0,-2.0,2.0,2.0,-2.0,-2.0,-0.6729921,-2.0,0.0,0.0,0.0,0.0
2025-06-11 12:29:30.490,-1.699031,-4.796322,-98.98681,-0.0006591759,-0.0040496,-0.0061572944,0.837611,-0.151484,9.717772,-0.054963216,0.07015228,-1.5265121,-0.72191834,-0.0002670288,-2.2333107,1.6769893,0.012626648,-4.3903275,0.11493026,-0.012016296,-0.64759445,-0.59939027,0.0017166138,1.6961937,1.5673803,0.0009536743,-0.5096512,-0.01033783,-0.014533997,3.798275,-0.5325332,-0.04573822,-0.72938156,1.7560298,0.0025558472,-7.1369514,-0.05405426,-0.025978088,-1.5265121,-0.9294078,0.012550354,-7.7351036,1.8997167,0.0233078,-12.128483,0.0,0.0,0.0,0.0,0.0,0.0,0.0,0.0,0.0,0.0,0.0,0.0,-2.0,0.9561976,-2.0,2.0,2.0,-2.0,2.0,2.0,-2.0,-2.0,-0.6658442,-2.0,0.0,0.0,0.0,0.0
2025-06-11 12:29:30.511,-1.690592,-4.799362,-98.99473,-0.003288183,-0.002614992,-0.004857042,0.83875,-0.151281,9.80392,-0.05481063,-0.011558533,-1.5082016,-0.72207093,-0.022010803,-2.2796974,1.6768367,-0.02773285,-4.3952103,0.11485396,0.03780365,-0.6353874,-0.599314,-0.019874573,1.7242699,1.5673803,-0.04673004,-0.49500275,-0.01033783,0.00019073486,3.810482,-0.532991,0.044059753,-0.7428093,1.7559536,-0.016593933,-7.1284065,-0.05405426,-0.06801605,-1.5265121,-0.9292552,0.0031661987,-7.65942,1.8997167,-0.004234314,-12.135807,0.0,0.0,0.0,0.0,0.0,0.0,0.0,0.0,0.0,0.0,0.0,0.0,-2.0,0.9597552,-2.0,2.0,2.0,-2.0,2.0,2.0,-2.0,-2.0,-0.6716893,-2.0,0.0,0.0,0.0,0.0
2025-06-11 12:29:30.533,-1.691781,-4.803242,-98.996826,-0.00030642745,-0.0021608223,0.00022577579,0.825279,-0.209473,9.776605,-0.054886922,-0.02544403,-1.5191879,-0.72207093,-0.015830994,-2.2223244,1.6769893,-0.012397766,-4.387886,0.11500655,0.002708435,-0.6353874,-0.59946656,-0.04146576,1.7218285,1.5673803,-0.03566742,-0.5096512,-0.010261536,-0.016288757,3.7909508,-0.5326095,0.039787292,-0.7342644,1.7561061,0.020942688,-7.1491585,-0.053901672,-0.059013367,-1.543602,-0.9292552,-0.037879944,-7.718014,1.8996404,0.020637512,-12.127262,0.0,0.0,0.0,0.0,0.0,0.0,0.0,0.0,0.0,0.0,0.0,0.0,-2.0,0.9675427,-2.0,2.0,2.0,-2.0,2.0,2.0,-2.0,-2.0,-0.6705234,-2.0,0.0,0.0,0.0,0.0
2025-06-11 12:29:30.553,-1.696968,-4.804352,-98.992065,-0.005114635,0.000531156,0.0044124713,0.815474,-0.310922,9.750612,-0.054886922,0.124168396,-1.5484848,-0.72191834,-0.026283264,-2.16251,1.6771419,-0.031318665,-4.404976,0.11485396,-0.010719299,-0.6280632,-0.599314,0.0346756,1.6888695,1.5673803,-0.03200531,-0.49622345,-0.010032654,0.07411957,3.8214684,-0.53245693,-0.005302429,-0.75867844,1.7560298,-0.002632141,-7.1491585,-0.05367279,-0.021629333,-1.5082016,-0.9293315,0.017433167,-7.7314415,1.899793,0.004005432,-12.121155,0.0,0.0,0.0,0.0,0.0,0.0,0.0,0.0,0.0,0.0,0.0,0.0,-2.0,0.9514192,-2.0,2.0,2.0,-2.0,2.0,2.0,-2.0,-2.0,-0.6698111,-2.0,0.0,0.0,0.0,0.0
2025-06-11 12:29:30.575,-1.704187,-4.799241,-98.98633,-0.0020831027,0.0049643447,0.005790217,0.771547,-0.373153,9.780007,-0.054734334,-0.05405426,-1.5399399,-0.72207093,0.026435852,-2.3163185,1.6770656,0.007133484,-4.3817825,0.11493026,-0.024299622,-0.6268425,-0.59939027,-0.058631897,1.7132835,1.5674566,0.073280334,-0.5072098,-0.010185242,-0.012702942,3.801937,-0.5327621,0.05054474,-0.72327805,1.7560298,0.005760193,-7.13451,-0.05405426,0.020484924,-1.5204086,-0.9291789,-0.027809143,-7.730221,1.8994116,-0.018043518,-12.132145,0.0,0.0,0.0,0.0,0.0,0.0,0.0,0.0,0.0,0.0,0.0,0.0,-2.0,0.96753573,-2.0,2.0,2.0,-2.0,2.0,2.0,-2.0,-2.0,-0.6625422,-2.0,0.0,0.0,0.0,0.0
2025-06-11 12:29:30.598,-1.710927,-4.794341,-98.98339,0.00048457322,-0.0012508949,-0.00026768114,0.763567,-0.420127,9.784269,-0.054581746,0.056800842,-1.4837875,-0.72191834,0.0037002563,-2.1734962,1.6769893,-0.020179749,-4.373234,0.11500655,0.011482239,-0.6341667,-0.59946656,0.038414,1.6852074,1.5673803,0.0034713745,-0.5157547,-0.010261536,0.018424988,3.8141441,-0.5325332,0.06328583,-0.7342644,1.7560298,0.011329651,-7.163807,-0.053749084,0.022163391,-1.5155258,-0.9291026,0.04711151,-7.6362267,1.8996404,-0.0233078,-12.137028,0.0,0.0,0.0,0.0,0.0,0.0,0.0,0.0,0.0,0.0,0.0,0.0,-2.0,0.94548047,-2.0,2.0,2.0,-2.0,2.0,2.0,-2.0,-2.0,-0.6715846,-2.0,0.0,0.0,0.0,0.0
2025-06-11 12:29:30.621,-1.706248,-4.78702,-98.98638,0.0053556473,0.0077944132,-0.0059831454,0.759218,-0.317446,9.781363,-0.054886922,0.017814636,-1.5411606,-0.7222235,-0.01537323,-2.3590431,1.6770656,0.0002670288,-4.3585854,0.11493026,-0.020942688,-0.64759445,-0.599314,-0.024757385,1.7010765,1.567304,-0.017280579,-0.5108719,-0.010261536,0.0017929077,3.8165855,-0.5326095,-0.0024795532,-0.7135124,1.7560298,0.023841858,-7.1662483,-0.053596497,0.11425018,-1.5155258,-0.9290263,-0.04261017,-7.742428,1.8997167,0.06084442,-12.14069,0.0,0.0,0.0,0.0,0.0,0.0,0.0,0.0,0.0,0.0,0.0,0.0,-2.0,0.96355194,-2.0,2.0,2.0,-2.0,2.0,2.0,-2.0,-2.0,-0.67212903,-2.0,0.0,0.0,0.0,0.0
2025-06-11 12:29:30.644,-1.702873,-4.789556,-98.99562,0.0042495625,0.00085751514,-0.007162325,0.769699,-0.240617,9.741925,-0.05503951,0.07740021,-1.5167465,-0.72199464,0.005378723,-2.2150002,1.6769893,0.008049011,-4.380562,0.11485396,0.023155212,-0.6243973,-0.59946656,0.034980774,1.7169456,1.5673803,-0.022621155,-0.49256134,-0.010185242,0.068855286,3.8031578,-0.532991,-0.06298065,-0.7013054,1.7559536,-0.03932953,-7.130848,-0.05382538,-0.04711151,-1.5045395,-0.9292552,0.00049591064,-7.7070274,1.8998693,-0.022773743,-12.071106,0.0,0.0,0.0,0.0,0.0,0.0,0.0,0.0,0.0,0.0,0.0,0.0,-2.0,0.9518826,-2.0,2.0,2.0,-2.0,2.0,2.0,-2.0,-2.0,-0.66832316,-2.0,0.0,0.0,0.0,0.0
2025-06-11 12:29:30.668,-1.694931,-4.782753,-98.997826,0.0008438492,0.002742296,-0.0007652396,0.79417,-0.181595,9.830487,-0.055192098,-0.0024032593,-1.5204086,-0.72199464,-0.039100647,-2.3041115,1.6768367,-0.035820007,-4.384224,0.11500655,-0.02620697,-0.6292839,-0.5992377,0.010795593,1.7242699,1.5674566,-0.02040863,-0.50110626,-0.01033783,-0.02483368,3.8202477,-0.5325332,-0.043067932,-0.68299484,1.7561061,-0.020561218,-7.1161957,-0.053977966,0.033988953,-1.5472641,-0.9291789,0.02773285,-7.663082,1.899793,0.041542053,-12.113831,0.0,0.0,0.0,0.0,0.0,0.0,0.0,0.0,0.0,0.0,0.0,0.0,-2.0,0.9578043,-2.0,2.0,2.0,-2.0,2.0,2.0,-2.0,-2.0,-0.6722071,-2.0,0.0,0.0,0.0,0.0
2025-06-11 12:29:30.695,-1.693545,-4.786067,-98.99374,0.0017946871,0.006038647,0.0040428285,0.78751,-0.206752,9.704644,-0.054963216,-0.018043518,-1.531395,-0.7221472,-0.064964294,-2.256504,1.6769893,-0.01033783,-4.340275,0.11485396,0.006904602,-0.64149094,-0.5992377,-0.013008118,1.6998558,1.5673803,0.01247406,-0.49988556,-0.01033783,0.002861023,3.8031578,-0.53245693,0.0012588501,-0.7330437,1.7559536,0.011711121,-7.1137543,-0.05382538,-0.038490295,-1.4996567,-0.9293315,-0.05420685,-7.721676,1.8996404,-0.08014679,-12.132145,0.0,0.0,0.0,0.0,0.0,0.0,0.0,0.0,0.0,0.0,0.0,0.0,-2.0,0.9681781,-2.0,2.0,2.0,-2.0,2.0,2.0,-2.0,-2.0,-0.66707873,-2.0,0.0,0.0,0.0,0.0
2025-06-11 12:29:30.721,-1.693768,-4.778388,-98.98992,-0.0014005569,-0.0022453137,-0.0010993305,0.761377,-0.285902,9.777414,-0.05481063,0.08960724,-1.5338364,-0.72199464,0.020866394,-2.1686134,1.6769893,0.008049011,-4.3976517,0.11493026,-0.0019454956,-0.64271164,-0.59946656,0.041770935,1.6839867,1.5674566,-0.00019073486,-0.5157547,-0.010185242,-0.0062942505,3.8092613,-0.5327621,-0.08998871,-0.7403679,1.7561061,-0.030708313,-7.1540413,-0.053749084,-0.044517517,-1.498436,-0.92948407,-0.08037567,-7.6581993,1.8996404,-0.074043274,-12.1297035,0.0,0.0,0.0,0.0,0.0,0.0,0.0,0.0,0.0,0.0,0.0,0.0,-2.0,0.9494741,-2.0,2.0,2.0,-2.0,2.0,2.0,-2.0,-2.0,-0.66167533,-2.0,0.0,0.0,0.0,0.0
2025-06-11 12:29:30.747,-1.695018,-4.774225,-98.98929,0.0020421224,0.008190673,0.0011372216,0.793522,-0.339402,9.748948,-0.054963216,-0.03604889,-1.5191879,-0.72199464,0.022392273,-2.3004494,1.6769893,-0.015678406,-4.3976517,0.11500655,0.01903534,-0.64637375,-0.5992377,0.017662048,1.6986351,1.5673803,0.0017166138,-0.50354767,-0.010261536,0.0009536743,3.80682,-0.5327621,0.058174133,-0.6768913,1.7559536,-0.006980896,-7.1699104,-0.053977966,-0.006752014,-1.510643,-0.9294078,-0.07839203,-7.630123,1.8995641,0.015907288,-12.149235,0.0,0.0,0.0,0.0,0.0,0.0,0.0,0.0,0.0,0.0,0.0,0.0,-2.0,0.9563442,-2.0,2.0,2.0,-2.0,2.0,2.0,-2.0,-2.0,-0.67315316,-2.0,0.0,0.0,0.0,0.0
2025-06-11 12:29:30.773,-1.701271,-4.777028,-98.98878,0.0012012752,0.00027597146,-0.00019818213,0.776871,-0.349372,9.714398,-0.05503951,-0.09311676,-1.5155258,-0.72199464,-0.010032654,-2.2845802,1.6769893,0.007133484,-4.372013,0.11485396,-0.02155304,-0.6292839,-0.599314,-0.021247864,1.6876488,1.5673803,-0.014915466,-0.49378204,-0.010261536,0.05596161,3.8117027,-0.5327621,0.041770935,-0.72205734,1.7561061,-0.01750946,-7.155262,-0.053520203,-0.024375916,-1.5350571,-0.9293315,-0.023384094,-7.7265587,1.8994879,-0.013694763,-12.124817,0.0,0.0,0.0,0.0,0.0,0.0,0.0,0.0,0.0,0.0,0.0,0.0,-2.0,0.96932524,-2.0,2.0,2.0,-2.0,2.0,2.0,-2.0,-2.0,-0.6740322,-2.0,0.0,0.0,0.0,0.0
2025-06-11 12:29:30.796,-1.698623,-4.769144,-98.98983,0.002712905,0.00038631118,-0.001762416,0.795328,-0.323692,9.847113,-0.054963216,-0.039253235,-1.5130844,-0.72199464,-0.013465881,-2.141758,1.6769893,0.0011062622,-4.4061966,0.11493026,-0.015907288,-0.64149094,-0.5992377,0.05634308,1.7108421,1.5673803,-0.028114319,-0.5133133,-0.010185242,-0.002937317,3.8165855,-0.5326095,-0.021324158,-0.7354851,1.7559536,-0.018806458,-7.1686897,-0.053977966,-0.0011062622,-1.5167465,-0.9292552,0.105400085,-7.7070274,1.8995641,-0.0014877319,-12.152897,0.0,0.0,0.0,0.0,0.0,0.0,0.0,0.0,0.0,0.0,0.0,0.0,-2.0,0.9531854,-2.0,2.0,2.0,-2.0,2.0,2.0,-2.0,-2.0,-0.6759883,-2.0,0.0,0.0,0.0,0.0
2025-06-11 12:29:30.820,-1.694391,-4.768066,-98.987076,0.0019256392,0.008322969,0.0020219116,0.748527,-0.242116,9.721903,-0.05442916,0.106925964,-1.5423813,-0.7221472,0.013847351,-2.2674904,1.6770656,0.007820129,-4.3817825,0.11493026,0.004463196,-0.632946,-0.5992377,-0.009803772,1.7145042,1.5673803,0.031471252,-0.48767853,-0.01033783,0.025367737,3.8080406,-0.5326095,-0.027427673,-0.7403679,1.7559536,0.035209656,-7.139393,-0.054130554,-0.0063705444,-1.4923325,-0.9292552,-0.00019073486,-7.770504,1.8994879,0.0258255,-12.130924,0.0,0.0,0.0,0.0,0.0,0.0,0.0,0.0,0.0,0.0,0.0,0.0,-2.0,0.95701313,-2.0,2.0,2.0,-2.0,2.0,2.0,-2.0,-2.0,-0.66007984,-2.0,0.0,0.0,0.0,0.0
2025-06-11 12:29:30.844,-1.693077,-4.771577,-98.98236,0.0035511865,-0.0012561833,0.004543197,0.749771,-0.27554,9.733355,-0.05503951,0.01750946,-1.5094223,-0.72199464,0.00064849854,-2.268711,1.6769893,0.0049972534,-4.384224,0.11485396,-0.00034332275,-0.6366081,-0.599314,-0.02002716,1.6974144,1.567304,0.004005432,-0.5096512,-0.010261536,-0.02910614,3.7824059,-0.53238064,0.07320404,-0.6976433,1.7560298,-0.020332336,-7.13451,-0.053901672,0.047798157,-1.5191879,-0.9293315,0.09731293,-7.6374474,1.8997167,-0.03200531,-12.138248,0.0,0.0,0.0,0.0,0.0,0.0,0.0,0.0,0.0,0.0,0.0,0.0,-2.0,0.9494775,-2.0,2.0,2.0,-2.0,2.0,2.0,-2.0,-2.0,-0.66827047,-2.0,0.0,0.0,0.0,0.0
2025-06-11 12:29:30.866,-1.69023,-4.768234,-98.981285,0.00069807936,0.005336501,-0.0012808623,0.792672,-0.220617,9.81135,-0.05503951,0.031318665,-1.543602,-0.72207093,-0.019111633,-2.3212013,1.6769893,-0.024528503,-4.3866653,0.11500655,-0.01537323,-0.6256218,-0.5991614,0.008354187,1.7022972,1.5674566,-0.016365051,-0.5047684,-0.01033783,-0.00011444092,3.7970543,-0.53238064,-0.053596497,-0.72205734,1.7560298,0.009880066,-7.1491585,-0.05405426,0.0065994263,-1.5216293,-0.9291789,-0.05344391,-7.6789513,1.8995641,0.003929138,-12.15778,0.0,0.0,0.0,0.0,0.0,0.0,0.0,0.0,0.0,0.0,0.0,0.0,-2.0,0.95790976,-2.0,2.0,2.0,-2.0,2.0,2.0,-2.0,-2.0,-0.66680837,-2.0,0.0,0.0,0.0,0.0
2025-06-11 12:29:30.889,-1.687389,-4.769147,-98.98323,-0.0010189755,0.005434327,-0.0010812314,0.799433,-0.252101,9.686968,-0.055115804,0.10242462,-1.5387192,-0.7222235,-0.008735657,-2.252842,1.6769893,-0.008811951,-4.384224,0.11493026,0.0045394897,-0.6378288,-0.59946656,0.05054474,1.6900902,1.5673803,0.016822815,-0.50354767,-0.010261536,0.04146576,3.801937,-0.5327621,0.058021545,-0.75989914,1.7561061,0.00705719,-7.155262,-0.054130554,-0.049705505,-1.5118637,-0.9294078,0.040473938,-7.6740685,1.8996404,0.034370422,-12.121155,0.0,0.0,0.0,0.0,0.0,0.0,0.0,0.0,0.0,0.0,0.0,0.0,-2.0,0.9492448,-2.0,2.0,2.0,-2.0,2.0,2.0,-2.0,-2.0,-0.67056715,-2.0,0.0,0.0,0.0,0.0
2025-06-11 12:29:30.911,-1.68826,-4.765552,-98.98619,-0.00038866737,0.0022428876,-6.054547e-05,0.78208,-0.290326,9.783607,-0.055192098,-0.05657196,-1.5094223,-0.72207093,0.039024353,-2.3089943,1.6769893,-0.012016296,-4.4074173,0.115082845,-0.034980774,-0.6268425,-0.5992377,0.013999939,1.6974144,1.5674566,0.019721985,-0.5059891,-0.010414124,0.009880066,3.7958336,-0.5326858,-0.0038528442,-0.72205734,1.7561061,0.0037765503,-7.179676,-0.054130554,-0.026664734,-1.4850082,-0.9291026,-0.015068054,-7.7021446,1.8995641,-0.033226013,-12.138248,0.0,0.0,0.0,0.0,0.0,0.0,0.0,0.0,0.0,0.0,0.0,0.0,-2.0,0.96138084,-2.0,2.0,2.0,-2.0,2.0,2.0,-2.0,-2.0,-0.66371703,-2.0,0.0,0.0,0.0,0.0
2025-06-11 12:29:30.934,-1.689641,-4.766612,-98.98458,0.0016290204,0.002922711,0.0014117096,0.760757,-0.327748,9.734828,-0.054963216,0.045585632,-1.5167465,-0.72191834,0.005455017,-2.23209,1.6770656,0.0017929077,-4.3817825,0.11500655,-0.0062942505,-0.64027023,-0.59939027,-0.02002716,1.7022972,1.5675329,0.045433044,-0.49622345,-0.010108948,-0.020713806,3.7848473,-0.5326095,-0.034065247,-0.7415886,1.7559536,-0.009651184,-7.1174164,-0.053901672,-0.007972717,-1.4679184,-0.9293315,-0.030555725,-7.643551,1.8994879,0.0025558472,-12.1626625,0.0,0.0,0.0,0.0,0.0,0.0,0.0,0.0,0.0,0.0,0.0,0.0,-2.0,0.95203924,-2.0,2.0,2.0,-2.0,2.0,2.0,-2.0,-2.0,-0.66429555,-2.0,0.0,0.0,0.0,0.0
2025-06-11 12:29:30.956,-1.69047,-4.76048,-98.98085,0.0026396709,0.0033257073,0.0023490386,0.760246,-0.333685,9.770823,-0.05503951,0.010948181,-1.5155258,-0.72199464,0.0005722046,-2.2967873,1.6769893,0.030174255,-4.3707924,0.11493026,0.019874573,-0.64393234,-0.599314,0.03452301,1.7254906,1.5673803,0.014839172,-0.5059891,-0.010185242,-0.03124237,3.798275,-0.53245693,0.035591125,-0.71717453,1.7561061,0.010261536,-7.139393,-0.053901672,0.00049591064,-1.531395,-0.9293315,-0.072898865,-7.666744,1.8997167,-0.005836487,-12.134586,0.0,0.0,0.0,0.0,0.0,0.0,0.0,0.0,0.0,0.0,0.0,0.0,-2.0,0.95443946,-2.0,2.0,2.0,-2.0,2.0,2.0,-2.0,-2.0,-0.6729331,-2.0,0.0,0.0,0.0,0.0
2025-06-11 12:29:30.979,-1.690633,-4.761641,-98.97756,0.0012526228,0.0019377169,0.0009101892,0.772018,-0.304398,9.724704,-0.05481063,-0.047950745,-1.5216293,-0.72191834,0.010566711,-2.2455177,1.6772182,-0.020866394,-4.3976517,0.11493026,-0.0045394897,-0.64271164,-0.5992377,-0.038337708,1.6986351,1.5673803,-0.016975403,-0.5059891,-0.010185242,-0.010795593,3.8165855,-0.5327621,-0.040550232,-0.73182297,1.7559536,-0.037879944,-7.1491585,-0.053901672,0.05542755,-1.510643,-0.9293315,0.005455017,-7.716793,1.8994879,-0.054130554,-12.096741,0.0,0.0,0.0,0.0,0.0,0.0,0.0,0.0,0.0,0.0,0.0,0.0,-2.0,0.9637488,-2.0,2.0,2.0,-2.0,2.0,2.0,-2.0,-2.0,-0.66163766,-2.0,0.0,0.0,0.0,0.0
2025-06-11 12:29:31.002,-1.689162,-4.757793,-98.98048,0.005763426,0.004659331,-0.00081967644,0.79699,-0.280067,9.807099,-0.05481063,-0.010643005,-1.5362778,-0.72191834,0.018501282,-2.1820412,1.6771419,0.015830994,-4.3622475,0.11500655,0.008811951,-0.64027023,-0.5992377,-0.041542053,1.6876488,1.5672277,0.0030136108,-0.49744415,-0.010185242,0.045051575,3.8031578,-0.53230435,-0.0063705444,-0.75989914,1.7560298,-0.01209259,-7.155262,-0.05382538,0.020561218,-1.5143051,-0.9292552,-0.017356873,-7.630123,1.8997167,-0.008888245,-12.14069,0.0,0.0,0.0,0.0,0.0,0.0,0.0,0.0,0.0,0.0,0.0,0.0,-2.0,0.9517947,-2.0,2.0,2.0,-2.0,2.0,2.0,-2.0,-2.0,-0.6710762,-2.0,0.0,0.0,0.0,0.0
2025-06-11 12:29:31.024,-1.684817,-4.758869,-98.98281,0.00050748937,0.0009021258,-0.0018356501,0.795356,-0.227038,9.735643,-0.05503951,0.0118637085,-1.5521469,-0.72199464,-0.035972595,-2.3163185,1.6768367,-0.02407074,-4.368351,0.11500655,0.0030136108,-0.64515305,-0.59939027,-0.012245178,1.6913109,1.5674566,0.008735657,-0.5096512,-0.010261536,0.007820129,3.8129234,-0.5325332,0.06328583,-0.7464714,1.7561061,0.049552917,-7.1052094,-0.05405426,-0.023841858,-1.4996567,-0.9291026,0.03604889,-7.718014,1.8996404,-0.017662048,-12.159,0.0,0.0,0.0,0.0,0.0,0.0,0.0,0.0,0.0,0.0,0.0,0.0,-2.0,0.9620209,-2.0,2.0,2.0,-2.0,2.0,2.0,-2.0,-2.0,-0.66624546,-2.0,0.0,0.0,0.0,0.0
2025-06-11 12:29:31.047,-1.685544,-4.759487,-98.98225,0.00017697638,0.0027273735,0.0021716433,0.810906,-0.242374,9.763038,-0.05503951,0.0064468384,-1.4996567,-0.72191834,-0.03704071,-2.2345314,1.6770656,-0.011253357,-4.368351,0.11493026,-0.013313293,-0.6268425,-0.5992377,0.070762634,1.6900902,1.5673803,0.034217834,-0.5059891,-0.010108948,0.03261566,3.8202477,-0.53230435,-0.002632141,-0.7098503,1.7560298,0.017814636,-7.1357307,-0.05405426,-0.0035476685,-1.4935532,-0.9294078,-0.008354187,-7.687496,1.8995641,-0.05809784,-12.11261,0.0,0.0,0.0,0.0,0.0,0.0,0.0,0.0,0.0,0.0,0.0,0.0,-2.0,0.9518114,-2.0,2.0,2.0,-2.0,2.0,2.0,-2.0,-2.0,-0.6723517,-2.0,0.0,0.0,0.0,0.0
2025-06-11 12:29:31.069,-1.682712,-4.755094,-98.97996,-0.0007152708,0.005225708,0.0018510962,0.770052,-0.267634,9.847479,-0.054886922,0.020103455,-1.5143051,-0.72207093,0.006904602,-2.3212013,1.6770656,-0.0033187866,-4.3976517,0.11500655,0.008201599,-0.64271164,-0.5991614,0.020484924,1.682766,1.5673803,-0.016593933,-0.5059891,-0.010185242,0.05054474,3.8141441,-0.5326095,0.017051697,-0.7074089,1.7559536,-0.02910614,-7.138172,-0.053596497,0.0011825562,-1.5118637,-0.92948407,0.045661926,-7.7228966,1.8996404,0.050849915,-12.121155,0.0,0.0,0.0,0.0,0.0,0.0,0.0,0.0,0.0,0.0,0.0,0.0,-2.0,0.9558331,-2.0,2.0,2.0,-2.0,2.0,2.0,-2.0,-2.0,-0.6721655,-2.0,0.0,0.0,0.0,0.0
2025-06-11 12:29:31.091,-1.686874,-4.757676,-98.979485,-0.0005083446,-0.0013288588,0.00020916025,0.788396,-0.296286,9.698455,-0.05481063,0.016670227,-1.5057602,-0.72199464,0.006980896,-2.2796974,1.6769893,0.013389587,-4.380562,0.11500655,-0.03391266,-0.6366081,-0.5992377,0.0010299683,1.6998558,1.5674566,0.0146102905,-0.49744415,-0.010185242,-0.00705719,3.798275,-0.5326858,-0.1341629,-0.7342644,1.7560298,0.012550354,-7.147938,-0.05405426,0.0146865845,-1.5204086,-0.9291789,-0.005836487,-7.718014,1.8994879,-0.0012588501,-12.106506,0.0,0.0,0.0,0.0,0.0,0.0,0.0,0.0,0.0,0.0,0.0,0.0,-2.0,0.9545911,-2.0,2.0,2.0,-2.0,2.0,2.0,-2.0,-2.0,-0.6636863,-2.0,0.0,0.0,0.0,0.0
2025-06-11 12:29:31.114,-1.68931,-4.752011,-98.97945,0.00036271432,0.0013472894,-0.0015953879,0.781074,-0.340828,9.807776,-0.05503951,0.014228821,-1.52285,-0.72207093,0.064964294,-2.2601662,1.6769893,-0.011405945,-4.356144,0.11485396,-0.018730164,-0.6231766,-0.599314,-0.024681091,1.7254906,1.5674566,0.033683777,-0.49622345,-0.010261536,-0.02483368,3.7811852,-0.5329147,-0.06351471,-0.7354851,1.7560298,-0.032234192,-7.1491585,-0.053596497,0.07549286,-1.531395,-0.9294078,0.013923645,-7.6569786,1.8995641,-0.008811951,-12.133366,0.0,0.0,0.0,0.0,0.0,0.0,0.0,0.0,0.0,0.0,0.0,0.0,-2.0,0.94914967,-2.0,2.0,2.0,-2.0,2.0,2.0,-2.0,-2.0,-0.65870655,-2.0,0.0,0.0,0.0,0.0
2025-06-11 12:29:31.136,-1.688737,-4.752928,-98.98089,0.0013406398,0.00033635984,-0.00036779323,0.751486,-0.324083,9.718996,-0.05465804,-0.0283432,-1.5350571,-0.72207093,0.011482239,-2.2906837,1.6769893,0.035362244,-4.3671303,0.11493026,0.008354187,-0.64393234,-0.5991614,0.026283264,1.6937523,1.5675329,0.03299713,-0.5096512,-0.010108948,-0.049934387,3.7848473,-0.5326095,-0.029411316,-0.7415886,1.7558773,-0.024528503,-7.1284065,-0.05367279,0.034828186,-1.4715805,-0.9292552,-0.009727478,-7.6362267,1.8995641,0.0046920776,-12.143131,0.0,0.0,0.0,0.0,0.0,0.0,0.0,0.0,0.0,0.0,0.0,0.0,-2.0,0.9467948,-2.0,2.0,2.0,-2.0,2.0,2.0,-2.0,-2.0,-0.6736773,-2.0,0.0,0.0,0.0,0.0
2025-06-11 12:29:31.159,-1.68659,-4.749876,-98.98184,0.002239048,-0.0012501619,-6.283185e-06,0.777587,-0.265998,9.749846,-0.05465804,0.01789093,-1.5338364,-0.7221472,-0.018043518,-2.3504982,1.6769893,0.016899109,-4.3952103,0.11493026,-0.0034713745,-0.64759445,-0.59939027,0.051231384,1.7145042,1.5675329,0.005302429,-0.49988556,-0.01033783,-0.046958923,3.8007164,-0.5326095,-0.047035217,-0.72205734,1.7560298,0.046043396,-7.1613655,-0.05382538,0.019950867,-1.4959946,-0.92948407,-0.042762756,-7.6899376,1.899793,0.016441345,-12.117493,0.0,0.0,0.0,0.0,0.0,0.0,0.0,0.0,0.0,0.0,0.0,0.0,-2.0,0.95810556,-2.0,2.0,2.0,-2.0,2.0,2.0,-2.0,-2.0,-0.67009056,-2.0,0.0,0.0,0.0,0.0
2025-06-11 12:29:31.181,-1.683939,-4.750367,-98.98168,0.00070928433,0.0018453192,-0.0001510757,0.797202,-0.276823,9.765693,-0.054963216,0.043907166,-1.5118637,-0.72191834,0.013618469,-2.268711,1.6769893,0.021018982,-4.404976,0.11500655,-0.015525818,-0.63904953,-0.59939027,-0.03513336,1.6925316,1.5673803,-0.035591125,-0.5084305,-0.010414124,-0.0047683716,3.8385582,-0.5328384,-0.030326843,-0.7367058,1.7558773,0.019111633,-7.1540413,-0.05382538,0.029411316,-1.4837875,-0.9294078,0.008125305,-7.6935997,1.8996404,-0.00049591064,-12.111389,0.0,0.0,0.0,0.0,0.0,0.0,0.0,0.0,0.0,0.0,0.0,0.0,-2.0,0.95524466,-2.0,2.0,2.0,-2.0,2.0,2.0,-2.0,-2.0,-0.6652125,-2.0,0.0,0.0,0.0,0.0
2025-06-11 12:29:31.204,-1.680941,-4.746932,-98.97927,5.0474922e-05,0.0012516803,4.3057273e-05,0.787059,-0.249018,9.783043,-0.05503951,0.01712799,-1.5362778,-0.72199464,0.02735138,-2.273594,1.6769893,0.014915466,-4.361027,0.11493026,0.008277893,-0.64149094,-0.59946656,-0.06336212,1.6778831,1.5674566,0.03856659,-0.5133133,-0.01033783,-0.03391266,3.8275719,-0.5325332,-0.001411438,-0.73060226,1.7559536,0.007896423,-7.139393,-0.05382538,0.017585754,-1.4947739,-0.9291789,0.057182312,-7.680172,1.899793,0.03803253,-12.132145,0.0,0.0,0.0,0.0,0.0,0.0,0.0,0.0,0.0,0.0,0.0,0.0,-2.0,0.95267075,-2.0,2.0,2.0,-2.0,2.0,2.0,-2.0,-2.0,-0.6636462,-2.0,0.0,0.0,0.0,0.0
2025-06-11 12:29:31.226,-1.683528,-4.750758,-98.978516,0.00085756753,-0.0026944045,0.0012429537,0.795692,-0.26917,9.70222,-0.054886922,-0.028953552,-1.5252914,-0.72207093,0.022392273,-2.3077736,1.6769893,-0.012168884,-4.3573647,0.115082845,0.00011444092,-0.6634636,-0.599314,-0.089149475,1.6961937,1.5675329,0.034751892,-0.50354767,-0.01033783,0.011253357,3.8080406,-0.53230435,0.015830994,-0.7428093,1.7561061,0.011482239,-7.163807,-0.05382538,0.020256042,-1.5020981,-0.9292552,0.012779236,-7.631344,1.8996404,0.0052261353,-12.152897,0.0,0.0,0.0,0.0,0.0,0.0,0.0,0.0,0.0,0.0,0.0,0.0,-2.0,0.9587128,-2.0,2.0,2.0,-2.0,2.0,2.0,-2.0,-2.0,-0.6627599,-2.0,0.0,0.0,0.0,0.0
2025-06-11 12:29:31.248,-1.68452,-4.75016,-98.97649,0.0008813389,0.0029636214,0.0011140436,0.799246,-0.30573,9.766984,-0.055192098,-0.041618347,-1.5204086,-0.72191834,0.013771057,-2.2272072,1.6769893,-0.01247406,-4.391548,0.11493026,-0.031166077,-0.6341667,-0.5990851,0.012321472,1.694973,1.5676092,0.019874573,-0.5181961,-0.010261536,-0.044441223,3.7994957,-0.5325332,-0.064888,-0.7061882,1.7559536,-0.018882751,-7.146717,-0.053749084,0.053901672,-1.5301743,-0.9293315,0.019950867,-7.6447716,1.8995641,-0.007286072,-12.132145,0.0,0.0,0.0,0.0,0.0,0.0,0.0,0.0,0.0,0.0,0.0,0.0,-2.0,0.9491326,-2.0,2.0,2.0,-2.0,2.0,2.0,-2.0,-2.0,-0.66866565,-2.0,0.0,0.0,0.0,0.0
2025-06-11 12:29:31.271,-1.681914,-4.747385,-98.97816,0.001497126,0.0038642637,-0.0040181316,0.752012,-0.294069,9.777738,-0.055115804,0.041389465,-1.5155258,-0.72191834,-0.017280579,-2.30167,1.6769893,-0.02872467,-4.384224,0.11500655,0.034446716,-0.64271164,-0.599314,-0.02986908,1.7169456,1.5675329,0.028800964,-0.5096512,-0.01033783,-0.0019454956,3.7970543,-0.5327621,0.021781921,-0.7159538,1.7561061,-0.0064468384,-7.1540413,-0.05367279,0.042686462,-1.5204086,-0.9292552,-0.00034332275,-7.6728477,1.8996404,-0.0033950806,-12.149235,0.0,0.0,0.0,0.0,0.0,0.0,0.0,0.0,0.0,0.0,0.0,0.0,-2.0,0.95858353,-2.0,2.0,2.0,-2.0,2.0,2.0,-2.0,-2.0,-0.66273487,-2.0,0.0,0.0,0.0,0.0
2025-06-11 12:29:31.294,-1.6847,-4.751202,-98.979515,0.0005204746,0.0026580316,-0.0009773145,0.778159,-0.315808,9.711373,-0.05465804,0.035743713,-1.5216293,-0.72207093,0.028419495,-2.199131,1.6770656,-0.0014877319,-4.3891068,0.11493026,-0.010719299,-0.6292839,-0.5990851,0.049858093,1.6913109,1.5673803,0.01903534,-0.5084305,-0.010108948,0.05268097,3.8178062,-0.5326095,-0.051383972,-0.7147331,1.7559536,-0.0025558472,-7.147938,-0.053901672,-0.034751892,-1.5374985,-0.9293315,0.02040863,-7.626461,1.8994879,-0.038108826,-12.1223755,0.0,0.0,0.0,0.0,0.0,0.0,0.0,0.0,0.0,0.0,0.0,0.0,-2.0,0.94332,-2.0,2.0,2.0,-2.0,2.0,2.0,-2.0,-2.0,-0.6666012,-2.0,0.0,0.0,0.0,0.0
2025-06-11 12:29:31.315,-1.683377,-4.744113,-98.980225,0.0012985424,0.003319721,0.0004831944,0.78819,-0.299781,9.794106,-0.054886922,0.059700012,-1.4923325,-0.72207093,-0.016288757,-2.3382912,1.6770656,0.0046157837,-4.392769,0.11493026,-0.0011825562,-0.64637375,-0.59946656,-0.022010803,1.6693382,1.5674566,0.03276825,-0.49011993,-0.010032654,0.0051498413,3.7811852,-0.5325332,0.004005432,-0.7501335,1.7560298,-0.018424988,-7.12352,-0.05367279,0.0075149536,-1.5143051,-0.9292552,-0.011558533,-7.6777306,1.8995641,0.009346008,-12.110168,0.0,0.0,0.0,0.0,0.0,0.0,0.0,0.0,0.0,0.0,0.0,0.0,-2.0,0.957969,-2.0,2.0,2.0,-2.0,2.0,2.0,-2.0,-2.0,-0.6635752,-2.0,0.0,0.0,0.0,0.0
2025-06-11 12:29:31.339,-1.685805,-4.749378,-98.97993,-0.00042638392,0.00068619364,-0.0016390387,0.785019,-0.285967,9.732892,-0.05481063,0.044670105,-1.5069809,-0.72199464,0.016059875,-2.2504005,1.6769893,0.028495789,-4.3781204,0.11493026,0.015983582,-0.63904953,-0.599314,0.030479431,1.7181664,1.5673803,0.0059127808,-0.5096512,-0.010261536,-0.040550232,3.8117027,-0.53238064,0.03200531,-0.74403,1.7561061,0.013618469,-7.1516,-0.053901672,-0.042381287,-1.4752426,-0.9293315,-0.04436493,-7.6606407,1.8995641,-0.014839172,-12.154118,0.0,0.0,0.0,0.0,0.0,0.0,0.0,0.0,0.0,0.0,0.0,0.0,-2.0,0.9502575,-2.0,2.0,2.0,-2.0,2.0,2.0,-2.0,-2.0,-0.66875744,-2.0,0.0,0.0,0.0,0.0
2025-06-11 12:29:31.362,-1.683868,-4.745314,-98.980545,0.0015655254,0.0054139937,-0.0006284058,0.793909,-0.269458,9.778308,-0.054886922,-0.025901794,-1.5216293,-0.72199464,0.015830994,-2.3041115,1.6769893,0.0009536743,-4.3744545,0.11493026,-0.0075912476,-0.6341667,-0.59939027,-0.015220642,1.715725,1.5673803,-0.031089783,-0.5133133,-0.010108948,0.039787292,3.8202477,-0.53238064,-0.046653748,-0.72816086,1.7561061,0.0046157837,-7.138172,-0.053901672,-0.073661804,-1.5082016,-0.9292552,-0.0004196167,-7.6789513,1.8996404,-0.008735657,-12.146793,0.0,0.0,0.0,0.0,0.0,0.0,0.0,0.0,0.0,0.0,0.0,0.0,-2.0,0.95798606,-2.0,2.0,2.0,-2.0,2.0,2.0,-2.0,-2.0,-0.6663736,-2.0,0.0,0.0,0.0,0.0
2025-06-11 12:29:31.385,-1.68119,-4.746989,-98.98201,0.0034130262,0.0027882333,0.0019614883,0.773801,-0.26231,9.691412,-0.05481063,-0.023612976,-1.5594711,-0.72191834,0.002632141,-2.2577248,1.6771419,0.036506653,-4.3659096,0.11493026,0.010948181,-0.64393234,-0.599314,-0.031471252,1.7108421,1.5674566,0.010185242,-0.50232697,-0.010185242,0.029716492,3.8007164,-0.5326858,0.048561096,-0.7354851,1.7560298,0.023841858,-7.1650276,-0.05367279,-0.103263855,-1.5155258,-0.9292552,0.011405945,-7.6777306,1.899793,-0.008888245,-12.148014,0.0,0.0,0.0,0.0,0.0,0.0,0.0,0.0,0.0,0.0,0.0,0.0,-2.0,0.95726603,-2.0,2.0,2.0,-2.0,2.0,2.0,-2.0,-2.0,-0.67083144,-2.0,0.0,0.0,0.0,0.0
2025-06-11 12:29:31.408,-1.67947,-4.741743,-98.98175,0.00017987363,-0.00051419146,-0.00070338516,0.793725,-0.263335,9.805428,-0.055115804,0.04863739,-1.5020981,-0.72207093,-0.019111633,-2.2601662,1.6769893,-0.010643005,-4.3891068,0.11485396,0.02735138,-0.63904953,-0.59939027,-0.060157776,1.694973,1.5674566,0.013847351,-0.4803543,-0.01033783,0.0032424927,3.794613,-0.53245693,0.0011825562,-0.72083664,1.7561061,0.020637512,-7.12352,-0.05405426,-0.0283432,-1.4752426,-0.9293315,0.022850037,-7.708248,1.8997167,0.021629333,-12.132145,0.0,0.0,0.0,0.0,0.0,0.0,0.0,0.0,0.0,0.0,0.0,0.0,-2.0,0.9593981,-2.0,2.0,2.0,-2.0,2.0,2.0,-2.0,-2.0,-0.66284466,-2.0,0.0,0.0,0.0,0.0
2025-06-11 12:29:31.430,-1.678824,-4.741856,-98.98092,-0.0005404936,0.0038550831,-0.0013557543,0.791545,-0.288442,9.708326,-0.05542098,0.0774765,-1.5265121,-0.72199464,-0.017967224,-2.228428,1.676913,0.006904602,-4.383003,0.11493026,-0.012016296,-0.632946,-0.5992377,0.08327484,1.7022972,1.5675329,0.037345886,-0.5108719,-0.010108948,-0.051383972,3.8275719,-0.53238064,-0.0007247925,-0.7147331,1.7559536,-0.008964539,-7.102768,-0.053977966,-0.055122375,-1.52285,-0.9292552,0.02948761,-7.6252403,1.8997167,0.012931824,-12.141911,0.0,0.0,0.0,0.0,0.0,0.0,0.0,0.0,0.0,0.0,0.0,0.0,-2.0,0.9438051,-2.0,2.0,2.0,-2.0,2.0,2.0,-2.0,-2.0,-0.6707252,-2.0,0.0,0.0,0.0,0.0
2025-06-11 12:29:31.451,-1.681564,-4.740399,-98.9804,-0.0017085377,4.9654616e-05,-0.0010550689,0.796831,-0.288499,9.746896,-0.055268392,0.03955841,-1.498436,-0.72191834,0.041007996,-2.343174,1.6769893,0.014533997,-4.3341713,0.11500655,0.0182724,-0.64393234,-0.599314,-0.027427673,1.6839867,1.5674566,0.03299713,-0.48767853,-0.010185242,0.009498596,3.8129234,-0.53222805,0.083732605,-0.76844406,1.7559536,-0.002937317,-7.12352,-0.05367279,0.0065994263,-1.498436,-0.9293315,-0.013313293,-7.7314415,1.8996404,0.00705719,-12.115051,0.0,0.0,0.0,0.0,0.0,0.0,0.0,0.0,0.0,0.0,0.0,0.0,-2.0,0.960954,-2.0,2.0,2.0,-2.0,2.0,2.0,-2.0,-2.0,-0.6611259,-2.0,0.0,0.0,0.0,0.0
2025-06-11 12:29:31.472,-1.68291,-4.743413,-98.98051,0.0021609096,0.0046531875,-0.0012488528,0.764369,-0.293469,9.75222,-0.055115804,0.0002670288,-1.5167465,-0.72199464,0.0037765503,-2.2186623,1.676913,-0.013084412,-4.391548,0.11485396,0.04383087,-0.64271164,-0.59954286,-0.06481171,1.6900902,1.5675329,-0.037956238,-0.5181961,-0.010185242,0.012016296,3.7933922,-0.53245693,-0.050315857,-0.71839523,1.7559536,0.015830994,-7.1442757,-0.053596497,0.103645325,-1.4837875,-0.9291789,0.0016403198,-7.603264,1.8994879,-0.0075149536,-12.135807,0.0,0.0,0.0,0.0,0.0,0.0,0.0,0.0,0.0,0.0,0.0,0.0,-2.0,0.94881076,-2.0,2.0,2.0,-2.0,2.0,2.0,-2.0,-2.0,-0.66869175,-2.0,0.0,0.0,0.0,0.0
2025-06-11 12:29:31.493,-1.680111,-4.735614,-98.98,0.0012429537,0.0045766374,-0.0006701017,0.77702,-0.277263,9.769806,-0.05503951,-0.07205963,-1.5204086,-0.72199464,3.8146973e-05,-2.3150978,1.6769893,-0.002632141,-4.3695717,0.11485396,-0.021247864,-0.6353874,-0.5991614,0.031166077,1.7181664,1.567304,0.014839172,-0.5072098,-0.010108948,-0.010871887,3.7811852,-0.53230435,-0.0046920776,-0.7061882,1.7560298,0.0024032593,-7.155262,-0.05405426,-0.079841614,-1.489891,-0.9293315,0.052452087,-7.6777306,1.8995641,0.022773743,-12.119934,0.0,0.0,0.0,0.0,0.0,0.0,0.0,0.0,0.0,0.0,0.0,0.0,-2.0,0.9571839,-2.0,2.0,2.0,-2.0,2.0,2.0,-2.0,-2.0,-0.67103183,-2.0,0.0,0.0,0.0,0.0
2025-06-11 12:29:31.514,-1.681523,-4.739042,-98.97989,0.00026431266,-0.0010044195,0.001625111,0.791091,-0.27808,9.712429,-0.05503951,-0.014915466,-1.5155258,-0.72199464,-0.017204285,-2.2491798,1.6770656,-0.022010803,-4.372013,0.11500655,-0.01789093,-0.63904953,-0.5991614,0.05290985,1.6730003,1.5673803,0.002937317,-0.5181961,-0.010108948,0.022773743,3.7909508,-0.53230435,0.010032654,-0.71717453,1.7558773,0.009422302,-7.160145,-0.05382538,0.013389587,-1.5240707,-0.9293315,0.0031661987,-7.7351036,1.8996404,0.04459381,-12.130924,0.0,0.0,0.0,0.0,0.0,0.0,0.0,0.0,0.0,0.0,0.0,0.0,-2.0,0.9560871,-2.0,2.0,2.0,-2.0,2.0,2.0,-2.0,-2.0,-0.6755488,-2.0,0.0,0.0,0.0,0.0
2025-06-11 12:29:31.535,-1.680669,-4.735073,-98.97752,0.00049946085,0.0059343986,0.0023796167,0.802338,-0.278486,9.774659,-0.055192098,0.001411438,-1.5240707,-0.7221472,-0.045585632,-2.265049,1.6769893,0.029716492,-4.3768997,0.11500655,-0.021705627,-0.6317253,-0.59939027,-0.05542755,1.740139,1.5675329,-0.004081726,-0.49622345,-0.01033783,0.025291443,3.801937,-0.5326095,0.008506775,-0.7098503,1.7560298,0.0015640259,-7.129627,-0.054283142,0.019798279,-1.510643,-0.9293315,-0.023765564,-7.7570763,1.8994879,-0.01865387,-12.126041,0.0,0.0,0.0,0.0,0.0,0.0,0.0,0.0,0.0,0.0,0.0,0.0,-2.0,0.9692425,-2.0,2.0,2.0,-2.0,2.0,2.0,-2.0,-2.0,-0.66801155,-2.0,0.0,0.0,0.0,0.0
2025-06-11 12:29:31.557,-1.681265,-4.735191,-98.97563,0.002438574,0.004603707,0.001769694,0.797077,-0.279661,9.731438,-0.054886922,0.02292633,-1.4886703,-0.72191834,0.04261017,-2.1527443,1.6769893,0.0019454956,-4.368351,0.11500655,0.0024032593,-0.6366081,-0.59939027,0.031471252,1.6815453,1.5676092,0.002708435,-0.5120926,-0.01033783,0.022773743,3.8178062,-0.53245693,0.0073623657,-0.7489128,1.7561061,0.01613617,-7.1564827,-0.053977966,-0.05580902,-1.5069809,-0.9293315,0.046958923,-7.6533165,1.8994879,0.015144348,-12.110168,0.0,0.0,0.0,0.0,0.0,0.0,0.0,0.0,0.0,0.0,0.0,0.0,-2.0,0.9461975,-2.0,2.0,2.0,-2.0,2.0,2.0,-2.0,-2.0,-0.6688862,-2.0,0.0,0.0,0.0,0.0
2025-06-11 12:29:31.577,-1.680018,-4.729098,-98.97276,-0.0056719882,0.0024893107,0.0028831617,0.757676,-0.268617,9.751768,-0.055268392,0.0059890747,-1.4801254,-0.72199464,0.062217712,-2.355381,1.6770656,-0.011329651,-4.339054,0.11493026,0.0064468384,-0.6378288,-0.5992377,-0.013847351,1.7291527,1.5673803,-0.013618469,-0.5072098,-0.010414124,-0.006828308,3.8092613,-0.5326095,0.040397644,-0.67933273,1.7560298,0.011558533,-7.150379,-0.05405426,0.0049972534,-1.5191879,-0.9293315,-0.0076675415,-7.6618614,1.8994879,-0.04787445,-12.141911,0.0,0.0,0.0,0.0,0.0,0.0,0.0,0.0,0.0,0.0,0.0,0.0,-2.0,0.957383,-2.0,2.0,2.0,-2.0,2.0,2.0,-2.0,-2.0,-0.65734875,-2.0,0.0,0.0,0.0,0.0
2025-06-11 12:29:31.599,-1.684765,-4.734117,-98.971695,0.0009040107,-0.0044263643,-3.6931167e-05,0.80053,-0.311283,9.736671,-0.054886922,0.048942566,-1.52285,-0.72191834,0.005836487,-2.2613869,1.6769893,0.005607605,-4.3768997,0.11493026,0.010032654,-0.64759445,-0.5989325,0.05947113,1.6986351,1.5673803,-0.034828186,-0.5096512,-0.010032654,0.031852722,3.8031578,-0.5325332,0.025062561,-0.75623703,1.7558773,-0.007133484,-7.1528206,-0.05382538,-0.009498596,-1.5118637,-0.9293315,0.026359558,-7.5886154,1.8996404,0.025062561,-12.149235,0.0,0.0,0.0,0.0,0.0,0.0,0.0,0.0,0.0,0.0,0.0,0.0,-2.0,0.9388606,-2.0,2.0,2.0,-2.0,2.0,2.0,-2.0,-2.0,-0.6779251,-2.0,0.0,0.0,0.0,0.0
2025-06-11 12:29:31.619,-1.682243,-4.731275,-98.97312,0.0003805516,0.0057636355,-0.0011219849,0.795044,-0.303833,9.803973,-0.05481063,-0.0011062622,-1.5143051,-0.72207093,-0.0032424927,-2.3981094,1.6771419,-0.004386902,-4.375679,0.11500655,-0.0049972534,-0.64149094,-0.5992377,0.048179626,1.6961937,1.5674566,0.013389587,-0.5047684,-0.010108948,-0.042304993,3.8117027,-0.5327621,-0.042915344,-0.71961594,1.7559536,0.02254486,-7.12352,-0.054130554,-0.032844543,-1.5069809,-0.9294078,0.038414,-7.742428,1.8994879,-0.022087097,-12.167545,0.0,0.0,0.0,0.0,0.0,0.0,0.0,0.0,0.0,0.0,0.0,0.0,-2.0,0.9609853,-2.0,2.0,2.0,-2.0,2.0,2.0,-2.0,-2.0,-0.66042006,-2.0,0.0,0.0,0.0,0.0
2025-06-11 12:29:31.641,-1.684124,-4.733423,-98.975815,0.0024832021,-0.0025940654,-0.0014145719,0.791361,-0.281704,9.749282,-0.05503951,-0.021324158,-1.52285,-0.72199464,-0.016212463,-2.219883,1.6769893,0.012931824,-4.3854446,0.11485396,0.0030136108,-0.64027023,-0.5991614,-0.050468445,1.6559105,1.5673803,0.006828308,-0.48279572,-0.010108948,0.00705719,3.7933922,-0.53207546,0.055122375,-0.7464714,1.7560298,0.015907288,-7.1357307,-0.05382538,-0.0548172,-1.5082016,-0.9294078,0.014076233,-7.635006,1.8994879,0.06771088,-12.145573,0.0,0.0,0.0,0.0,0.0,0.0,0.0,0.0,0.0,0.0,0.0,0.0,-2.0,0.9538815,-2.0,2.0,2.0,-2.0,2.0,2.0,-2.0,-2.0,-0.6757704,-2.0,0.0,0.0,0.0,0.0
2025-06-11 12:29:31.662,-1.679508,-4.723752,-98.97634,-2.8885199e-05,0.006559087,0.0007280641,0.788183,-0.275412,9.796069,-0.055344686,-0.041542053,-1.5130844,-0.72199464,0.03856659,-2.2711525,1.6769893,0.012397766,-4.387886,0.11493026,-0.03261566,-0.632946,-0.599314,0.057640076,1.6937523,1.5674566,0.014839172,-0.5133133,-0.010108948,0.02002716,3.8165855,-0.53245693,0.011100769,-0.71961594,1.7561061,0.031929016,-7.1540413,-0.05382538,-0.03025055,-1.4996567,-0.9293315,-0.022163391,-7.7399864,1.8995641,0.036735535,-12.1223755,0.0,0.0,0.0,0.0,0.0,0.0,0.0,0.0,0.0,0.0,0.0,0.0,-2.0,0.95941895,-2.0,2.0,2.0,-2.0,2.0,2.0,-2.0,-2.0,-0.6709738,-2.0,0.0,0.0,0.0,0.0
2025-06-11 12:29:31.683,-1.681721,-4.728222,-98.97401,-0.0005619262,-0.002485471,0.0020604136,0.744459,-0.284694,9.699745,-0.055115804,-0.04360199,-1.531395,-0.72184205,-0.007209778,-2.2186623,1.6769893,0.02544403,-4.391548,0.11500655,0.020484924,-0.64881516,-0.5990088,0.013999939,1.6913109,1.5673803,-0.013618469,-0.5059891,-0.010261536,-0.035438538,3.80682,-0.53238064,0.05252838,-0.7830925,1.7559536,-0.014305115,-7.1613655,-0.05382538,0.02117157,-1.4972153,-0.9294078,-0.010108948,-7.7143517,1.8994879,-0.0004196167,-12.11261,0.0,0.0,0.0,0.0,0.0,0.0,0.0,0.0,0.0,0.0,0.0,0.0,-2.0,0.9591372,-2.0,2.0,2.0,-2.0,2.0,2.0,-2.0,-2.0,-0.6745131,-2.0,0.0,0.0,0.0,0.0
2025-06-11 12:29:31.705,-1.681186,-4.723557,-98.969444,-0.0035333142,0.0034642515,0.003151663,0.77967,-0.295879,9.80555,-0.05503951,0.012245178,-1.52285,-0.72199464,-0.025062561,-2.219883,1.676913,-0.009117126,-4.3707924,0.11500655,0.002937317,-0.61829376,-0.599314,0.005683899,1.6791039,1.5673803,-0.041389465,-0.50110626,-0.010185242,-0.07083893,3.810482,-0.53207546,-0.0021743774,-0.7342644,1.7558773,-0.020713806,-7.1613655,-0.053977966,0.010414124,-1.4703598,-0.92948407,-0.010948181,-7.725338,1.8997167,0.0030899048,-12.143131,0.0,0.0,0.0,0.0,0.0,0.0,0.0,0.0,0.0,0.0,0.0,0.0,-2.0,0.9622222,-2.0,2.0,2.0,-2.0,2.0,2.0,-2.0,-2.0,-0.667575,-2.0,0.0,0.0,0.0,0.0
2025-06-11 12:29:31.725,-1.682715,-4.726701,-98.96829,0.002169863,-0.0035346057,-0.002334762,0.756123,-0.299544,9.729259,-0.055115804,-0.012550354,-1.5130844,-0.72191834,0.002861023,-2.2333107,1.676913,0.011253357,-4.3573647,0.11500655,0.023155212,-0.6219559,-0.5991614,0.034217834,1.6961937,1.5675329,0.009803772,-0.49866486,-0.010185242,-0.040626526,3.80682,-0.5326095,-0.014915466,-0.7428093,1.7560298,0.027503967,-7.1540413,-0.054359436,-0.11463165,-1.4801254,-0.9293315,-0.051994324,-7.667965,1.8995641,0.054359436,-12.123596,0.0,0.0,0.0,0.0,0.0,0.0,0.0,0.0,0.0,0.0,0.0,0.0,-2.0,0.9527944,-2.0,2.0,2.0,-2.0,2.0,2.0,-2.0,-2.0,-0.67348063,-2.0,0.0,0.0,0.0,0.0
2025-06-11 12:29:31.746,-1.681898,-4.723742,-98.968796,0.00024364796,0.0015530114,-0.0025050186,0.784402,-0.271626,9.768021,-0.054963216,0.011329651,-1.5326157,-0.72191834,-0.0146102905,-2.2699318,1.6770656,0.017967224,-4.3671303,0.11493026,-0.018959045,-0.64881516,-0.599314,-0.02254486,1.6925316,1.5674566,0.0090408325,-0.50232697,-0.010261536,0.106163025,3.8165855,-0.53238064,-0.08975983,-0.7476921,1.7558773,0.00019073486,-7.1284065,-0.054130554,0.061149597,-1.5094223,-0.9294078,-0.04673004,-7.721676,1.899793,0.013389587,-12.150455,0.0,0.0,0.0,0.0,0.0,0.0,0.0,0.0,0.0,0.0,0.0,0.0,-2.0,0.959879,-2.0,2.0,2.0,-2.0,2.0,2.0,-2.0,-2.0,-0.6702099,-2.0,0.0,0.0,0.0,0.0
2025-06-11 12:29:31.768,-1.682585,-4.727181,-98.97148,-0.00017790141,0.0013598558,-0.000151896,0.798924,-0.291297,9.747867,-0.05503951,0.01964569,-1.5191879,-0.72184205,0.0182724,-2.2272072,1.6770656,-0.011482239,-4.3707924,0.11493026,-0.016365051,-0.64637375,-0.5991614,0.059394836,1.674221,1.5673803,0.04360199,-0.48401642,-0.010185242,-0.005455017,3.7787437,-0.53222805,0.05886078,-0.72938156,1.7558773,-0.0017929077,-7.138172,-0.053901672,0.0004196167,-1.5362778,-0.9293315,0.008430481,-7.7228966,1.8995641,0.021858215,-12.1297035,0.0,0.0,0.0,0.0,0.0,0.0,0.0,0.0,0.0,0.0,0.0,0.0,-2.0,0.9532082,-2.0,2.0,2.0,-2.0,2.0,2.0,-2.0,-2.0,-0.6692203,-2.0,0.0,0.0,0.0,0.0
2025-06-11 12:29:31.789,-1.682378,-4.725701,-98.972,-0.00012824679,0.0035342043,0.0017793806,0.822513,-0.271363,9.7891,-0.055115804,-0.053901672,-1.5130844,-0.72199464,0.0073623657,-2.268711,1.6770656,0.0090408325,-4.3866653,0.11500655,0.031013489,-0.64881516,-0.5991614,-0.069999695,1.6583519,1.567304,-0.057640076,-0.49256134,-0.010185242,0.062828064,3.8251305,-0.53238064,0.008125305,-0.75623703,1.7559536,-0.03490448,-7.1369514,-0.05405426,0.09120941,-1.4618149,-0.9293315,0.0049972534,-7.6655235,1.8995641,0.014381409,-12.1223755,0.0,0.0,0.0,0.0,0.0,0.0,0.0,0.0,0.0,0.0,0.0,0.0,-2.0,0.9609602,-2.0,2.0,2.0,-2.0,2.0,2.0,-2.0,-2.0,-0.6729337,-2.0,0.0,0.0,0.0,0.0
2025-06-11 12:29:31.811,-1.683603,-4.725919,-98.96937,0.001192217,0.0029003532,0.0039321743,0.794215,-0.287711,9.736487,-0.05503951,-0.03551483,-1.4923325,-0.72199464,-0.039024353,-2.2418556,1.6769893,-0.016441345,-4.3659096,0.11493026,-0.013465881,-0.6243973,-0.5992377,0.008735657,1.6961937,1.5673803,-0.0065994263,-0.46448517,-0.010032654,0.036582947,3.8129234,-0.53222805,-0.028114319,-0.7550163,1.7560298,0.02002716,-7.1357307,-0.05382538,0.07595062,-1.4959946,-0.9294078,-0.0061416626,-7.732662,1.8995641,0.006980896,-12.14069,0.0,0.0,0.0,0.0,0.0,0.0,0.0,0.0,0.0,0.0,0.0,0.0,-2.0,0.95985043,-2.0,2.0,2.0,-2.0,2.0,2.0,-2.0,-2.0,-0.6740892,-2.0,0.0,0.0,0.0,0.0
2025-06-11 12:29:31.833,-1.682021,-4.720549,-98.96699,0.0008149466,0.008971359,0.0014341545,0.774304,-0.304815,9.802763,-0.05503951,0.06816864,-1.5350571,-0.72184205,0.028266907,-2.2101173,1.6769893,-0.010948181,-4.4025345,0.11500655,-0.044136047,-0.632946,-0.5990851,0.049934387,1.6900902,1.5673803,0.04070282,-0.49866486,-0.010108948,-0.013160706,3.786068,-0.53238064,0.011634827,-0.7342644,1.7560298,0.022315979,-7.122299,-0.05382538,0.03414154,-1.498436,-0.9294078,-0.029945374,-7.7314415,1.899793,-0.031166077,-12.144352,0.0,0.0,0.0,0.0,0.0,0.0,0.0,0.0,0.0,0.0,0.0,0.0,-2.0,0.9555624,-2.0,2.0,2.0,-2.0,2.0,2.0,-2.0,-2.0,-0.66013014,-2.0,0.0,0.0,0.0,0.0
2025-06-11 12:29:31.853,-1.682276,-4.720575,-98.96503,0.0002314132,0.00083269656,-0.00069832365,0.74845,-0.286733,9.727185,-0.054963216,0.016822815,-1.5167465,-0.72191834,0.007209778,-2.2809181,1.6769893,-0.02292633,-4.420845,0.11493026,-0.02773285,-0.64149094,-0.5990851,0.08922577,1.6986351,1.5674566,-0.025215149,-0.5072098,-0.010185242,0.00011444092,3.8031578,-0.53238064,0.09212494,-0.7330437,1.7559536,-0.032234192,-7.143055,-0.054130554,-0.0010299683,-1.5033188,-0.9292552,-0.03238678,-7.6252403,1.8997167,0.00019073486,-12.118713,0.0,0.0,0.0,0.0,0.0,0.0,0.0,0.0,0.0,0.0,0.0,0.0,-2.0,0.9483493,-2.0,2.0,2.0,-2.0,2.0,2.0,-2.0,-2.0,-0.67643094,-2.0,0.0,0.0,0.0,0.0
2025-06-11 12:29:31.875,-1.682774,-4.718587,-98.96613,0.0019906177,0.002394068,0.0004148822,0.795735,-0.278184,9.770687,-0.05503951,-0.015678406,-1.5265121,-0.72199464,-0.028190613,-2.3150978,1.6769893,0.028114319,-4.3866653,0.11493026,0.009346008,-0.6292839,-0.599314,0.018424988,1.6925316,1.5675329,0.008201599,-0.49011993,-0.010185242,-0.0038528442,3.8055992,-0.53222805,0.010261536,-0.7098503,1.7561061,0.017967224,-7.1528206,-0.053901672,-0.055656433,-1.5399399,-0.9293315,-0.034751892,-7.7473106,1.8996404,-0.037574768,-12.127262,0.0,0.0,0.0,0.0,0.0,0.0,0.0,0.0,0.0,0.0,0.0,0.0,-2.0,0.965827,-2.0,2.0,2.0,-2.0,2.0,2.0,-2.0,-2.0,-0.66728055,-2.0,0.0,0.0,0.0,0.0
2025-06-11 12:29:31.896,-1.680049,-4.720531,-98.96716,0.0031775814,-0.0023281295,-0.00300434,0.792933,-0.262248,9.736878,-0.054886922,-0.03681183,-1.5008774,-0.72191834,0.028114319,-2.1698341,1.6769893,-0.011405945,-4.364689,0.11493026,0.020179749,-0.64149094,-0.5992377,-0.02872467,1.6998558,1.5675329,0.00064849854,-0.5084305,-0.01033783,0.0060653687,3.7885094,-0.53238064,0.08350372,-0.76234055,1.7561061,0.008354187,-7.1357307,-0.05405426,0.030326843,-1.5069809,-0.9293315,-0.037498474,-7.671627,1.8997167,0.001411438,-12.119934,0.0,0.0,0.0,0.0,0.0,0.0,0.0,0.0,0.0,0.0,0.0,0.0,-2.0,0.9582662,-2.0,2.0,2.0,-2.0,2.0,2.0,-2.0,-2.0,-0.6704165,-2.0,0.0,0.0,0.0,0.0
2025-06-11 12:29:31.917,-1.676287,-4.720289,-98.96891,0.00080855866,0.0037442374,-0.0014072589,0.771891,-0.251602,9.773608,-0.055192098,-0.038414,-1.531395,-0.72191834,0.016670227,-2.2150002,1.6768367,-0.037956238,-4.3903275,0.115082845,-0.013160706,-0.6341667,-0.599314,0.020484924,1.6986351,1.5673803,-0.0008773804,-0.5120926,-0.010261536,0.001335144,3.8141441,-0.53222805,-0.030403137,-0.7391472,1.7560298,0.027198792,-7.1357307,-0.054130554,0.011940002,-1.498436,-0.9294078,0.04802704,-7.700924,1.8994879,0.025520325,-12.119934,0.0,0.0,0.0,0.0,0.0,0.0,0.0,0.0,0.0,0.0,0.0,0.0,-2.0,0.95354074,-2.0,2.0,2.0,-2.0,2.0,2.0,-2.0,-2.0,-0.66757894,-2.0,0.0,0.0,0.0,0.0
2025-06-11 12:29:31.938,-1.679097,-4.720355,-98.96343,0.0027058013,-0.0008755095,0.0042861095,0.767321,-0.280825,9.703907,-0.055115804,-0.004005432,-1.5155258,-0.72199464,-0.006828308,-2.2699318,1.676913,-0.0014877319,-4.368351,0.115082845,0.014839172,-0.6292839,-0.5991614,-0.03665924,1.7462425,1.567304,0.015678406,-0.50110626,-0.010185242,-0.045814514,3.7799644,-0.53238064,-0.035972595,-0.75867844,1.7560298,-0.011177063,-7.1418343,-0.054130554,-0.054969788,-1.4959946,-0.9292552,0.027656555,-7.6704063,1.8995641,-0.046958923,-12.141911,0.0,0.0,0.0,0.0,0.0,0.0,0.0,0.0,0.0,0.0,0.0,0.0,-2.0,0.9572702,-2.0,2.0,2.0,-2.0,2.0,2.0,-2.0,-2.0,-0.6590954,-2.0,0.0,0.0,0.0,0.0
2025-06-11 12:29:31.960,-1.678593,-4.71831,-98.96152,0.00052157417,0.0029401118,-0.0017443169,0.806515,-0.304938,9.78837,-0.055344686,0.02040863,-1.5240707,-0.72199464,-0.061683655,-2.2711525,1.6769893,0.00957489,-4.342716,0.11493026,0.005683899,-0.6256218,-0.599314,-0.015144348,1.7010765,1.5674566,0.010185242,-0.5218582,-0.010108948,-0.04245758,3.8129234,-0.53222805,0.0017929077,-0.7391472,1.7561061,-0.02658844,-7.1442757,-0.053977966,-0.025215149,-1.4947739,-0.9293315,0.001411438,-7.635006,1.8994879,-0.0005722046,-12.135807,0.0,0.0,0.0,0.0,0.0,0.0,0.0,0.0,0.0,0.0,0.0,0.0,-2.0,0.9520919,-2.0,2.0,2.0,-2.0,2.0,2.0,-2.0,-2.0,-0.67199934,-2.0,0.0,0.0,0.0,0.0
2025-06-11 12:29:31.981,-1.678204,-4.719189,-98.96099,0.004594143,-0.0009231919,-0.0013420534,0.787107,-0.298628,9.776525,-0.055115804,-0.017814636,-1.5289536,-0.72184205,-0.010032654,-2.3114357,1.6769893,0.01651764,-4.363468,0.11493026,-0.029716492,-0.64027023,-0.5990851,-0.028266907,1.6815453,1.5676092,0.002861023,-0.5072098,-0.010185242,0.018501282,3.8092613,-0.53207546,0.018806458,-0.72694016,1.7561061,-0.011253357,-7.1332893,-0.05382538,0.002937317,-1.498436,-0.9294078,-0.0059890747,-7.7241173,1.8994116,-0.0046920776,-12.137028,0.0,0.0,0.0,0.0,0.0,0.0,0.0,0.0,0.0,0.0,0.0,0.0,-2.0,0.96337676,-2.0,2.0,2.0,-2.0,2.0,2.0,-2.0,-2.0,-0.6674062,-2.0,0.0,0.0,0.0,0.0
2025-06-11 12:29:32.002,-1.678943,-4.722406,-98.96115,0.00031449087,-0.00052215013,-0.001020843,0.803901,-0.290986,9.737698,-0.054963216,-0.016822815,-1.4679184,-0.72207093,-0.021095276,-2.2272072,1.6770656,0.0008010864,-4.4061966,0.11493026,-0.023841858,-0.6292839,-0.5991614,0.019493103,1.7010765,1.5673803,0.010261536,-0.48889923,-0.010261536,0.06412506,3.7824059,-0.53238064,-0.028953552,-0.7476921,1.7560298,-0.017738342,-7.143055,-0.05405426,0.0346756,-1.5020981,-0.9294078,0.015449524,-7.688717,1.8996404,0.014305115,-12.124817,0.0,0.0,0.0,0.0,0.0,0.0,0.0,0.0,0.0,0.0,0.0,0.0,-2.0,0.95271933,-2.0,2.0,2.0,-2.0,2.0,2.0,-2.0,-2.0,-0.6758766,-2.0,0.0,0.0,0.0,0.0
2025-06-11 12:29:32.024,-1.676031,-4.722505,-98.96191,0.00275207,0.003993488,0.0016923061,0.79253,-0.258635,9.761866,-0.05503951,-0.06641388,-1.5191879,-0.72191834,0.010643005,-2.306553,1.6769893,-0.0007247925,-4.400093,0.11515914,-0.002861023,-0.6378288,-0.5992377,-0.027503967,1.7010765,1.5673803,0.026359558,-0.5218582,-0.010185242,-0.023536682,3.8129234,-0.5326095,-0.009803772,-0.72083664,1.7560298,0.0073623657,-7.1284065,-0.053977966,-0.06412506,-1.52285,-0.9292552,0.07701874,-7.753414,1.8994879,-0.034065247,-12.168766,0.0,0.0,0.0,0.0,0.0,0.0,0.0,0.0,0.0,0.0,0.0,0.0,-2.0,0.96358144,-2.0,2.0,2.0,-2.0,2.0,2.0,-2.0,-2.0,-0.65991485,-2.0,0.0,0.0,0.0,0.0
2025-06-11 12:29:32.045,-1.67689,-4.723009,-98.961845,-0.0026176448,-0.0016691282,0.00015999434,0.766039,-0.280209,9.767916,-0.054886922,-0.00034332275,-1.4691391,-0.72191834,-0.0022506714,-2.2345314,1.676913,0.0020217896,-4.396431,0.11485396,-0.025520325,-0.6317253,-0.5992377,0.07442474,1.715725,1.5673803,-0.039100647,-0.5047684,-0.010032654,0.025367737,3.8165855,-0.53230435,0.07198334,-0.7537956,1.7559536,-0.015678406,-7.1564827,-0.053901672,0.0002670288,-1.5167465,-0.9292552,0.015678406,-7.6130295,1.8995641,-0.02544403,-12.130924,0.0,0.0,0.0,0.0,0.0,0.0,0.0,0.0,0.0,0.0,0.0,0.0,-2.0,0.9455305,-2.0,2.0,2.0,-2.0,2.0,2.0,-2.0,-2.0,-0.67898536,-2.0,0.0,0.0,0.0,0.0
2025-06-11 12:29:32.066,-1.675546,-4.720894,-98.96053,0.0008020835,0.004230521,0.0035340823,0.790239,-0.28089,9.757438,-0.054963216,-0.03391266,-1.5448227,-0.72191834,0.028877258,-2.363926,1.676913,0.017280579,-4.363468,0.11493026,0.008811951,-0.64149094,-0.5992377,0.04131317,1.6229477,1.5673803,-0.009727478,-0.50232697,-0.010414124,-0.00011444092,3.7872887,-0.53207546,-0.041236877,-0.7391472,1.7558773,0.035591125,-7.163807,-0.05420685,-0.0132369995,-1.4996567,-0.9293315,-0.019340515,-7.753414,1.8997167,-0.027961731,-12.143131,0.0,0.0,0.0,0.0,0.0,0.0,0.0,0.0,0.0,0.0,0.0,0.0,-2.0,0.961389,-2.0,2.0,2.0,-2.0,2.0,2.0,-2.0,-2.0,-0.66473186,-2.0,0.0,0.0,0.0,0.0
2025-06-11 12:29:32.088,-1.67735,-4.722085,-98.95826,0.0003018896,-0.0014942986,-0.0018362434,0.786359,-0.30435,9.705668,-0.05481063,0.07472992,-1.5155258,-0.72168946,0.009498596,-2.2101173,1.6769893,-0.012702942,-4.3659096,0.11500655,0.019187927,-0.6341667,-0.599314,-0.00011444092,1.6656761,1.5673803,0.023078918,-0.5133133,-0.010108948,-0.02544403,3.794613,-0.53238064,-0.022773743,-0.7464714,1.7559536,-0.030784607,-7.1406136,-0.054130554,-0.03314972,-1.5069809,-0.92948407,0.0025558472,-7.675289,1.8997167,-0.023078918,-12.119934,0.0,0.0,0.0,0.0,0.0,0.0,0.0,0.0,0.0,0.0,0.0,0.0,-2.0,0.948716,-2.0,2.0,2.0,-2.0,2.0,2.0,-2.0,-2.0,-0.66073155,-2.0,0.0,0.0,0.0,0.0
2025-06-11 12:29:32.110,-1.674877,-4.718468,-98.95897,0.0023490211,0.008305289,-0.005208272,0.780404,-0.263491,9.783453,-0.054886922,-0.018806458,-1.5216293,-0.7221472,0.013542175,-2.3053322,1.6768367,-0.029335022,-4.3817825,0.11500655,0.0024795532,-0.6243973,-0.5990851,-0.0020217896,1.682766,1.5673803,-0.05077362,-0.514534,-0.010185242,0.03299713,3.7994957,-0.53230435,0.0522995,-0.7550163,1.7559536,0.0062942505,-7.1442757,-0.054130554,0.062294006,-1.5240707,-0.92948407,-0.015296936,-7.6215744,1.8996404,0.07343292,-12.138248,0.0,0.0,0.0,0.0,0.0,0.0,0.0,0.0,0.0,0.0,0.0,0.0,-2.0,0.9518534,-2.0,2.0,2.0,-2.0,2.0,2.0,-2.0,-2.0,-0.6772305,-2.0,0.0,0.0,0.0,0.0
2025-06-11 12:29:32.133,-1.674822,-4.722539,-98.96234,-0.00025497514,8.012806e-05,-0.0011982383,0.780025,-0.274445,9.697499,-0.055115804,0.03742218,-1.5582504,-0.72199464,0.01941681,-2.3041115,1.6771419,-0.0132369995,-4.3817825,0.11500655,-0.016365051,-0.64759445,-0.5992377,-0.016822815,1.6925316,1.567304,-0.0061416626,-0.49744415,-0.010108948,0.05657196,3.801937,-0.53222805,-0.01903534,-0.76111984,1.7561061,-0.0157547,-7.1210785,-0.05382538,-0.0074386597,-1.5008774,-0.9294078,-0.04169464,-7.742428,1.8996404,-0.026359558,-12.155338,0.0,0.0,0.0,0.0,0.0,0.0,0.0,0.0,0.0,0.0,0.0,0.0,-2.0,0.96512896,-2.0,2.0,2.0,-2.0,2.0,2.0,-2.0,-2.0,-0.6587132,-2.0,0.0,0.0,0.0,0.0
2025-06-11 12:29:32.156,-1.671944,-4.719771,-98.9637,-0.00062086596,-0.0015726463,-0.0020453862,0.809651,-0.284949,9.800557,-0.055192098,-0.04512787,-1.5008774,-0.72199464,-0.013313293,-2.1857033,1.6769893,0.03643036,-4.3781204,0.11493026,0.013999939,-0.632946,-0.5991614,-0.014228821,1.719387,1.5675329,0.051231384,-0.5059891,-0.01033783,-0.013694763,3.7824059,-0.5325332,-0.044288635,-0.7513542,1.7560298,-0.02193451,-7.1540413,-0.05382538,-0.04924774,-1.52285,-0.9294078,-0.0008010864,-7.6203537,1.8994116,-0.07297516,-12.083313,0.0,0.0,0.0,0.0,0.0,0.0,0.0,0.0,0.0,0.0,0.0,0.0,-2.0,0.9484927,-2.0,2.0,2.0,-2.0,2.0,2.0,-2.0,-2.0,-0.66890013,-2.0,0.0,0.0,0.0,0.0
2025-06-11 12:29:32.179,-1.672556,-4.72014,-98.96279,0.0010832734,0.0031193572,0.00037795104,0.789866,-0.290441,9.725168,-0.055192098,-0.014152527,-1.5143051,-0.72199464,0.026435852,-2.3297462,1.676913,-0.008888245,-4.368351,0.11493026,0.008659363,-0.6317253,-0.5990088,0.04497528,1.6998558,1.5673803,0.0005722046,-0.5059891,-0.010185242,0.018424988,3.7994957,-0.53222805,-0.029335022,-0.76722336,1.7559536,-0.008888245,-7.1686897,-0.053977966,-0.012779236,-1.4972153,-0.9292552,-0.0008010864,-7.6704063,1.8995641,-0.008354187,-12.130924,0.0,0.0,0.0,0.0,0.0,0.0,0.0,0.0,0.0,0.0,0.0,0.0,-2.0,0.95245475,-2.0,2.0,2.0,-2.0,2.0,2.0,-2.0,-2.0,-0.6671127,-2.0,0.0,0.0,0.0,0.0
2025-06-11 12:29:32.202,-1.675182,-4.723905,-98.95986,0.0018611144,-0.0011497182,0.0027939754,0.805313,-0.300097,9.751887,-0.055344686,-0.032844543,-1.5167465,-0.72191834,0.012245178,-2.3114357,1.676913,-0.0035476685,-4.372013,0.11500655,0.03917694,-0.65247726,-0.5992377,0.0090408325,1.6571312,1.5675329,0.02948761,-0.49134064,-0.010261536,-0.0077438354,3.7848473,-0.53207546,0.06412506,-0.76356125,1.7560298,0.026893616,-7.1406136,-0.053977966,0.025291443,-1.4923325,-0.9293315,-0.021858215,-7.6777306,1.8996404,0.03429413,-12.152897,0.0,0.0,0.0,0.0,0.0,0.0,0.0,0.0,0.0,0.0,0.0,0.0,-2.0,0.9557553,-2.0,2.0,2.0,-2.0,2.0,2.0,-2.0,-2.0,-0.67236984,-2.0,0.0,0.0,0.0,0.0
2025-06-11 12:29:32.224,-1.673754,-4.721898,-98.96049,0.0008595572,0.0042675044,-0.0016354084,0.767475,-0.28298,9.832479,-0.055115804,0.00919342,-1.52285,-0.72199464,-0.022468567,-2.268711,1.676913,-0.017738342,-4.380562,0.11500655,0.00667572,-0.64027023,-0.5990851,-0.0049209595,1.7084007,1.5672277,-0.02407074,-0.5120926,-0.01033783,-0.001335144,3.8080406,-0.53230435,0.015983582,-0.7159538,1.7561061,0.0146865845,-7.147938,-0.05382538,-0.04108429,-1.5033188,-0.9292552,0.08213043,-7.733883,1.8996404,0.046043396,-12.105286,0.0,0.0,0.0,0.0,0.0,0.0,0.0,0.0,0.0,0.0,0.0,0.0,-2.0,0.95680696,-2.0,2.0,2.0,-2.0,2.0,2.0,-2.0,-2.0,-0.66929233,-2.0,0.0,0.0,0.0,0.0
2025-06-11 12:29:32.246,-1.672419,-4.722214,-98.96293,0.0047595478,0.0032260665,0.0010312452,0.774907,-0.282801,9.708142,-0.054886922,0.089912415,-1.4850082,-0.72191834,0.020256042,-2.2784767,1.6770656,0.037956238,-4.3939896,0.11500655,0.01033783,-0.6231766,-0.599314,-0.037117004,1.6986351,1.5673803,-0.019798279,-0.50232697,-0.010032654,0.011558533,3.8080406,-0.53230435,0.024147034,-0.7354851,1.7560298,-0.056037903,-7.1284065,-0.05382538,0.03376007,-1.4825668,-0.9292552,0.05153656,-7.6813927,1.8998693,0.059165955,-12.144352,0.0,0.0,0.0,0.0,0.0,0.0,0.0,0.0,0.0,0.0,0.0,0.0,-2.0,0.95222723,-2.0,2.0,2.0,-2.0,2.0,2.0,-2.0,-2.0,-0.6682868,-2.0,0.0,0.0,0.0,0.0
2025-06-11 12:29:32.269,-1.672078,-4.717135,-98.96158,-0.0022523822,-0.0017445263,2.1223203e-05,0.779639,-0.267422,9.749592,-0.055344686,-0.06969452,-1.5057602,-0.72199464,0.0065994263,-2.3041115,1.6770656,0.004234314,-4.3671303,0.11500655,0.041542053,-0.632946,-0.5991614,-0.01903534,1.6839867,1.5673803,0.040779114,-0.49988556,-0.01033783,-0.0023269653,3.80682,-0.53230435,0.03139496,-0.72205734,1.7560298,-0.0283432,-7.146717,-0.054130554,0.024681091,-1.5057602,-0.9292552,0.0065994263,-7.6704063,1.8994879,0.055351257,-12.119934,0.0,0.0,0.0,0.0,0.0,0.0,0.0,0.0,0.0,0.0,0.0,0.0,-2.0,0.9586352,-2.0,2.0,2.0,-2.0,2.0,2.0,-2.0,-2.0,-0.672932,-2.0,0.0,0.0,0.0,0.0
2025-06-11 12:29:32.292,-1.673094,-4.718344,-98.95975,-0.00029525734,-0.0029022556,0.0033298088,0.759904,-0.285578,9.769444,-0.055192098,-0.026664734,-1.5167465,-0.72191834,-0.0008773804,-2.2186623,1.6769893,-0.008735657,-4.379341,0.11493026,-0.013694763,-0.64149094,-0.5990851,-0.018196106,1.674221,1.5674566,0.018806458,-0.5096512,-0.010108948,-0.020866394,3.7909508,-0.53238064,-0.011405945,-0.76844406,1.7559536,-0.022392273,-7.129627,-0.054283142,-0.040473938,-1.4935532,-0.9294078,-0.03513336,-7.7192345,1.8997167,0.011711121,-12.156559,0.0,0.0,0.0,0.0,0.0,0.0,0.0,0.0,0.0,0.0,0.0,0.0,-2.0,0.96370065,-2.0,2.0,2.0,-2.0,2.0,2.0,-2.0,-2.0,-0.6655283,-2.0,0.0,0.0,0.0,0.0
2025-06-11 12:29:32.313,-1.672663,-4.716996,-98.95846,-0.0015470773,-0.00080039055,0.0005745275,0.783945,-0.286355,9.753804,-0.055192098,-0.020866394,-1.5130844,-0.72191834,-0.017967224,-2.1844826,1.6769893,-0.013542175,-4.379341,0.11493026,-0.0037002563,-0.64149094,-0.5990851,-0.016365051,1.6839867,1.5675329,-0.025520325,-0.514534,-0.010108948,0.026130676,3.8055992,-0.53222805,-0.05908966,-0.7464714,1.7560298,-0.014762878,-7.1247406,-0.053977966,0.052452087,-1.4874496,-0.9293315,0.042915344,-7.687496,1.8996404,0.03376007,-12.138248,0.0,0.0,0.0,0.0,0.0,0.0,0.0,0.0,0.0,0.0,0.0,0.0,-2.0,0.94991636,-2.0,2.0,2.0,-2.0,2.0,2.0,-2.0,-2.0,-0.67436063,-2.0,0.0,0.0,0.0,0.0
2025-06-11 12:29:32.335,-1.673429,-4.716436,-98.95696,0.0028422337,0.0042041666,0.0016037481,0.759325,-0.267271,9.697662,-0.05481063,0.011634827,-1.531395,-0.72191834,-0.016288757,-2.3248634,1.6769893,0.0010299683,-4.3781204,0.11500655,0.009117126,-0.62073517,-0.5990851,-0.046577454,1.6864281,1.5674566,-0.0018692017,-0.5157547,-0.010185242,-0.023536682,3.8055992,-0.53222805,0.006752014,-0.7489128,1.7560298,0.00019073486,-7.1454964,-0.054130554,-0.07045746,-1.4959946,-0.9293315,0.018577576,-7.697262,1.8997167,0.01712799,-12.126041,0.0,0.0,0.0,0.0,0.0,0.0,0.0,0.0,0.0,0.0,0.0,0.0,-2.0,0.9643982,-2.0,2.0,2.0,-2.0,2.0,2.0,-2.0,-2.0,-0.6625248,-2.0,0.0,0.0,0.0,0.0
2025-06-11 12:29:32.357,-1.67272,-4.713603,-98.95753,-0.00033243286,-0.0005781752,-0.0051040235,0.776009,-0.288825,9.776176,-0.054963216,0.009346008,-1.498436,-0.72191834,0.0059890747,-2.1795998,1.6769893,0.012016296,-4.3768997,0.11500655,0.025901794,-0.65125656,-0.5990851,-0.040168762,1.6595726,1.5673803,-0.03162384,-0.49622345,-0.010185242,-0.00705719,3.794613,-0.53222805,0.03124237,-0.7354851,1.7558773,-0.006980896,-7.1577034,-0.053977966,-0.002632141,-1.4874496,-0.92948407,0.0062179565,-7.647213,1.8996404,-0.038719177,-12.159,0.0,0.0,0.0,0.0,0.0,0.0,0.0,0.0,0.0,0.0,0.0,0.0,-2.0,0.95149064,-2.0,2.0,2.0,-2.0,2.0,2.0,-2.0,-2.0,-0.6679388,-2.0,0.0,0.0,0.0,0.0
2025-06-11 12:29:32.379,-1.670753,-4.713465,-98.95971,0.00040470695,0.0025270272,-0.0018300475,0.782957,-0.296929,9.779243,-0.055192098,-0.026054382,-1.5423813,-0.72199464,-0.0017929077,-2.313877,1.6769893,-0.00705719,-4.3500404,0.11493026,0.034828186,-0.64149094,-0.5988562,0.028038025,1.6900902,1.5674566,-0.008811951,-0.50354767,-0.010261536,-0.058250427,3.7994957,-0.53222805,-0.052604675,-0.7061882,1.7561061,0.015525818,-7.160145,-0.05420685,-0.024528503,-1.4959946,-0.92948407,-0.0046920776,-7.680172,1.8997167,0.07808685,-12.149235,0.0,0.0,0.0,0.0,0.0,0.0,0.0,0.0,0.0,0.0,0.0,0.0,-2.0,0.9514503,-2.0,2.0,2.0,-2.0,2.0,2.0,-2.0,-2.0,-0.6732042,-2.0,0.0,0.0,0.0,0.0
2025-06-11 12:29:32.401,-1.67569,-4.718316,-98.959915,0.0010928554,-0.0038020252,0.0009840864,0.801786,-0.280347,9.708221,-0.055268392,-0.018348694,-1.5045395,-0.72191834,0.0031661987,-2.3004494,1.6769893,-0.009727478,-4.379341,0.11493026,0.032539368,-0.6243973,-0.5990851,-0.058784485,1.7120628,1.5675329,-0.04299164,-0.5072098,-0.010108948,0.020866394,3.7701988,-0.53207546,0.023765564,-0.72449875,1.7561061,-0.01285553,-7.1516,-0.053977966,-0.041236877,-1.5069809,-0.9293315,-0.05252838,-7.7241173,1.8995641,0.039482117,-12.11261,0.0,0.0,0.0,0.0,0.0,0.0,0.0,0.0,0.0,0.0,0.0,0.0,-2.0,0.9664613,-2.0,2.0,2.0,-2.0,2.0,2.0,-2.0,-2.0,-0.6673862,-2.0,0.0,0.0,0.0,0.0
2025-06-11 12:29:32.426,-1.676365,-4.714979,-98.95909,-0.000640274,0.001933371,-0.002711299,0.808503,-0.292137,9.853989,-0.055115804,0.010261536,-1.5045395,-0.72184205,-0.010261536,-2.1820412,1.6769893,0.005302429,-4.356144,0.11485396,-0.022850037,-0.64027023,-0.5989325,0.021400452,1.6852074,1.5673803,-0.021476746,-0.5084305,-0.010032654,0.0724411,3.7958336,-0.53207546,-0.048103333,-0.7428093,1.7561061,0.004386902,-7.13451,-0.05420685,0.046195984,-1.5155258,-0.92948407,-0.053215027,-7.685055,1.8997167,0.057411194,-12.124817,0.0,0.0,0.0,0.0,0.0,0.0,0.0,0.0,0.0,0.0,0.0,0.0,-2.0,0.95100886,-2.0,2.0,2.0,-2.0,2.0,2.0,-2.0,-2.0,-0.67917764,-2.0,0.0,0.0,0.0,0.0
2025-06-11 12:29:32.451,-1.675409,-4.715034,-98.96012,-0.0020938192,0.004651145,0.0016152847,0.769924,-0.258476,9.724075,-0.055192098,-0.0031661987,-1.5143051,-0.72184205,-0.010795593,-2.3053322,1.676913,-0.02773285,-4.384224,0.11493026,-0.01613617,-0.63904953,-0.5991614,-0.0038528442,1.6937523,1.567304,-0.019950867,-0.48523712,-0.010108948,-0.041542053,3.8214684,-0.53215176,0.01865387,-0.7354851,1.7561061,-0.026435852,-7.1491585,-0.05420685,0.009727478,-1.4947739,-0.9292552,0.044288635,-7.766842,1.8995641,0.0046157837,-12.118713,0.0,0.0,0.0,0.0,0.0,0.0,0.0,0.0,0.0,0.0,0.0,0.0,-2.0,0.96670485,-2.0,2.0,2.0,-2.0,2.0,2.0,-2.0,-2.0,-0.6619015,-2.0,0.0,0.0,0.0,0.0
2025-06-11 12:29:32.476,-1.676325,-4.713104,-98.957825,0.0044801203,0.0029950198,-0.00096450385,0.784637,-0.285593,9.735853,-0.05503951,-0.013160706,-1.4959946,-0.72191834,0.011024475,-2.1857033,1.6771419,0.026359558,-4.3866653,0.11500655,0.0037765503,-0.6292839,-0.5991614,0.008506775,1.662014,1.5674566,-0.011482239,-0.48645782,-0.010185242,-0.034446716,3.7848473,-0.5318466,0.13324738,-0.7147331,1.7560298,-0.0032424927,-7.1174164,-0.05405426,0.043067932,-1.4715805,-0.9294078,-0.039482117,-7.6374474,1.8996404,0.0258255,-12.145573,0.0,0.0,0.0,0.0,0.0,0.0,0.0,0.0,0.0,0.0,0.0,0.0,-2.0,0.95294136,-2.0,2.0,2.0,-2.0,2.0,2.0,-2.0,-2.0,-0.6788156,-2.0,0.0,0.0,0.0,0.0
2025-06-11 12:29:32.503,-1.672949,-4.703061,-98.95889,-0.0013656154,-0.0017798868,-0.00080053014,0.782839,-0.270017,9.813321,-0.054963216,0.011787415,-1.4923325,-0.72207093,-0.011405945,-2.2760353,1.6769893,0.038337708,-4.3585854,0.11500655,0.006904602,-0.632946,-0.5990088,-0.0283432,1.6974144,1.5673803,0.010032654,-0.50110626,-0.010108948,-0.0061416626,3.7726402,-0.5319992,0.111961365,-0.7391472,1.7559536,-0.06259918,-7.1662483,-0.053901672,0.06702423,-1.5008774,-0.92948407,-0.0038528442,-7.7595177,1.8997167,0.0207901,-12.160221,0.0,0.0,0.0,0.0,0.0,0.0,0.0,0.0,0.0,0.0,0.0,0.0,-2.0,0.9701469,-2.0,2.0,2.0,-2.0,2.0,2.0,-2.0,-2.0,-0.66956544,-2.0,0.0,0.0,0.0,0.0
2025-06-11 12:29:32.528,-1.674653,-4.707641,-98.95999,-0.0011464369,0.0027663643,-0.00069518207,0.781419,-0.286685,9.68997,-0.055192098,0.041389465,-1.5155258,-0.72176576,0.039787292,-2.1441994,1.6769893,0.012321472,-4.404976,0.11500655,-0.008201599,-0.64515305,-0.5990851,0.008125305,1.6815453,1.5674566,-0.020866394,-0.5096512,-0.010185242,0.094566345,3.7909508,-0.53238064,-0.06443024,-0.7403679,1.7561061,-0.031700134,-7.1418343,-0.054359436,-0.023994446,-1.510643,-0.9294078,-0.022468567,-7.671627,1.8996404,-0.057106018,-12.143131,0.0,0.0,0.0,0.0,0.0,0.0,0.0,0.0,0.0,0.0,0.0,0.0,-2.0,0.9494186,-2.0,2.0,2.0,-2.0,2.0,2.0,-2.0,-2.0,-0.6645936,-2.0,0.0,0.0,0.0,0.0
2025-06-11 12:29:32.552,-1.671972,-4.701119,-98.95824,-0.00052700215,0.0005037369,0.0026684862,0.714282,-0.277563,9.799068,-0.055115804,-0.0033187866,-1.5033188,-0.72191834,0.0046920776,-2.3456154,1.6770656,-0.031318665,-4.3744545,0.11500655,0.009269714,-0.6292839,-0.5991614,-0.054359436,1.7010765,1.5675329,-0.043678284,-0.5108719,-0.010032654,-0.008659363,3.8165855,-0.53215176,0.030479431,-0.7513542,1.7560298,-0.012626648,-7.1332893,-0.05420685,-0.002632141,-1.4825668,-0.9294078,-0.0063705444,-7.6704063,1.8996404,0.011482239,-12.1223755,0.0,0.0,0.0,0.0,0.0,0.0,0.0,0.0,0.0,0.0,0.0,0.0,-2.0,0.9582385,-2.0,2.0,2.0,-2.0,2.0,2.0,-2.0,-2.0,-0.66468394,-2.0,0.0,0.0,0.0,0.0
2025-06-11 12:29:32.575,-1.673731,-4.703429,-98.95594,0.0018439054,0.0056895986,0.0011620751,0.803904,-0.279758,9.712778,-0.055268392,0.065727234,-1.5301743,-0.72191834,0.020561218,-2.228428,1.6769893,0.001411438,-4.3903275,0.11493026,0.006904602,-0.6231766,-0.5990851,-0.028419495,1.6815453,1.5674566,-0.0037002563,-0.48401642,-0.010108948,-0.014076233,3.8092613,-0.53207546,0.012779236,-0.7525749,1.7561061,0.012626648,-7.1369514,-0.05405426,0.015220642,-1.4801254,-0.9294078,0.02735138,-7.6618614,1.8993353,-0.042152405,-12.139469,0.0,0.0,0.0,0.0,0.0,0.0,0.0,0.0,0.0,0.0,0.0,0.0,-2.0,0.9492648,-2.0,2.0,2.0,-2.0,2.0,2.0,-2.0,-2.0,-0.6590618,-2.0,0.0,0.0,0.0,0.0
2025-06-11 12:29:32.598,-1.671942,-4.699209,-98.95671,-0.00056175166,0.00081526075,-0.003439817,0.813387,-0.292755,9.783478,-0.055268392,-0.016212463,-1.5240707,-0.72191834,-0.015220642,-2.3004494,1.6769893,-0.0020980835,-4.3854446,0.11493026,0.0038528442,-0.64393234,-0.5990851,0.031166077,1.7010765,1.567304,0.017433167,-0.5059891,-0.01033783,0.0034713745,3.7872887,-0.53207546,-0.0051498413,-0.76600266,1.7560298,-0.00064849854,-7.143055,-0.054130554,-0.018119812,-1.498436,-0.9293315,-0.013694763,-7.615471,1.8996404,0.035820007,-12.15778,0.0,0.0,0.0,0.0,0.0,0.0,0.0,0.0,0.0,0.0,0.0,0.0,-2.0,0.94805723,-2.0,2.0,2.0,-2.0,2.0,2.0,-2.0,-2.0,-0.6748555,-2.0,0.0,0.0,0.0,0.0
2025-06-11 12:29:32.621,-1.674122,-4.701337,-98.959755,-0.0001892635,0.0024503374,-0.001132579,0.803868,-0.294255,9.740099,-0.055268392,-0.033607483,-1.5301743,-0.72184205,-0.034446716,-2.322422,1.6770656,-0.0048446655,-4.3768997,0.11493026,0.008354187,-0.64515305,-0.5990851,0.027427673,1.70718,1.5673803,0.008659363,-0.5084305,-0.01033783,-0.0157547,3.7970543,-0.5325332,0.013160706,-0.7379265,1.7561061,0.031471252,-7.1332893,-0.053749084,0.07732391,-1.4740219,-0.9294078,-0.012550354,-7.7228966,1.8997167,0.030326843,-12.116272,0.0,0.0,0.0,0.0,0.0,0.0,0.0,0.0,0.0,0.0,0.0,0.0,-2.0,0.9615189,-2.0,2.0,2.0,-2.0,2.0,2.0,-2.0,-2.0,-0.6731243,-2.0,0.0,0.0,0.0,0.0
2025-06-11 12:29:32.645,-1.673011,-4.697549,-98.96373,0.0032364686,0.0006805737,-0.0024223598,0.780302,-0.305639,9.808552,-0.054963216,0.03200531,-1.5179672,-0.72191834,-0.008201599,-2.2394142,1.6769893,0.009422302,-4.351261,0.11500655,0.0024795532,-0.64393234,-0.5992377,-0.06511688,1.6974144,1.5674566,-0.003929138,-0.514534,-0.010032654,-0.044670105,3.7799644,-0.53207546,0.05367279,-0.75623703,1.7560298,-0.025215149,-7.1454964,-0.054130554,0.0021743774,-1.5008774,-0.92948407,-0.027961731,-7.716793,1.8995641,-0.0049209595,-12.132145,0.0,0.0,0.0,0.0,0.0,0.0,0.0,0.0,0.0,0.0,0.0,0.0,-2.0,0.96569735,-2.0,2.0,2.0,-2.0,2.0,2.0,-2.0,-2.0,-0.66186297,-2.0,0.0,0.0,0.0,0.0
2025-06-11 12:29:32.666,-1.67026,-4.697444,-98.96493,0.0013919524,0.0015482466,0.0003368311,0.760698,-0.267263,9.71783,-0.054886922,0.019798279,-1.531395,-0.72191834,-0.017204285,-2.1832619,1.676913,-0.029258728,-4.384224,0.11493026,0.008506775,-0.6341667,-0.5990851,-0.0045394897,1.6717796,1.5674566,0.015144348,-0.50232697,-0.010185242,0.017356873,3.8214684,-0.5319992,-0.038719177,-0.7379265,1.7560298,-0.011405945,-7.1418343,-0.053977966,-0.022468567,-1.4996567,-0.9294078,-0.008201599,-7.631344,1.8996404,0.027961731,-12.117493,0.0,0.0,0.0,0.0,0.0,0.0,0.0,0.0,0.0,0.0,0.0,0.0,-2.0,0.9478687,-2.0,2.0,2.0,-2.0,2.0,2.0,-2.0,-2.0,-0.67010736,-2.0,0.0,0.0,0.0,0.0
2025-06-11 12:29:32.688,-1.672291,-4.695178,-98.9641,-0.00014273303,0.004432194,0.001269378,0.754669,-0.29396,9.715344,-0.055344686,0.009117126,-1.4923325,-0.72199464,0.018730164,-2.3077736,1.6769893,-0.014305115,-4.3573647,0.11500655,0.002784729,-0.6305046,-0.599314,-0.02872467,1.694973,1.5675329,0.015983582,-0.5072098,-0.010108948,0.022087097,3.7994957,-0.53230435,0.027961731,-0.71961594,1.7561061,0.029258728,-7.1442757,-0.053977966,-0.05870819,-1.498436,-0.9294078,-0.040473938,-7.7644005,1.8996404,0.016365051,-12.143131,0.0,0.0,0.0,0.0,0.0,0.0,0.0,0.0,0.0,0.0,0.0,0.0,-2.0,0.9612693,-2.0,2.0,2.0,-2.0,2.0,2.0,-2.0,-2.0,-0.66158557,-2.0,0.0,0.0,0.0,0.0
2025-06-11 12:29:32.710,-1.674206,-4.694515,-98.96302,-0.00041706386,0.0023170118,-0.0006614623,0.775301,-0.299486,9.742114,-0.055115804,0.04573822,-1.5411606,-0.72184205,-0.002632141,-2.2430763,1.6769893,0.008201599,-4.3573647,0.11493026,0.027503967,-0.6243973,-0.5990851,0.070991516,1.6778831,1.5674566,0.011634827,-0.5072098,-0.010108948,0.005607605,3.8202477,-0.53222805,-0.028114319,-0.77088547,1.7558773,-0.047721863,-7.160145,-0.054130554,0.034370422,-1.4850082,-0.9293315,-0.020103455,-7.6496544,1.8995641,0.009498596,-12.127262,0.0,0.0,0.0,0.0,0.0,0.0,0.0,0.0,0.0,0.0,0.0,0.0,-2.0,0.94131595,-2.0,2.0,2.0,-2.0,2.0,2.0,-2.0,-2.0,-0.67465687,-2.0,0.0,0.0,0.0,0.0
2025-06-11 12:29:32.733,-1.673232,-4.693653,-98.965614,0.0018057874,0.0016672607,-0.0014216928,0.786778,-0.287338,9.767649,-0.055115804,0.023384094,-1.510643,-0.72207093,0.008659363,-2.3895645,1.6769893,-0.0037765503,-4.3854446,0.11493026,-0.0011825562,-0.64149094,-0.5991614,0.034828186,1.7035179,1.5674566,-0.012168884,-0.49622345,-0.010185242,0.016899109,3.8055992,-0.53215176,-0.10700226,-0.75989914,1.7560298,0.041236877,-7.1284065,-0.054283142,0.0047683716,-1.4923325,-0.9294078,-0.0104904175,-7.6948204,1.8995641,0.0059127808,-12.148014,0.0,0.0,0.0,0.0,0.0,0.0,0.0,0.0,0.0,0.0,0.0,0.0,-2.0,0.9549102,-2.0,2.0,2.0,-2.0,2.0,2.0,-2.0,-2.0,-0.6625806,-2.0,0.0,0.0,0.0,0.0
2025-06-11 12:29:32.754,-1.676311,-4.700186,-98.9707,0.0026828852,0.0025951127,-0.0010355562,0.801209,-0.30329,9.734141,-0.055192098,0.10997772,-1.4666977,-0.72191834,-0.005531311,-2.2699318,1.6768367,-0.0075912476,-4.3622475,0.11493026,-0.0015640259,-0.6341667,-0.5990088,0.0049209595,1.6766624,1.5674566,0.01613617,-0.5169754,-0.010414124,-0.06916046,3.810482,-0.53215176,0.012168884,-0.7757683,1.7559536,-0.012779236,-7.1577034,-0.053977966,-0.0005722046,-1.4923325,-0.9294078,-0.0008010864,-7.6447716,1.8994879,0.02910614,-12.14069,0.0,0.0,0.0,0.0,0.0,0.0,0.0,0.0,0.0,0.0,0.0,0.0,-2.0,0.9474197,-2.0,2.0,2.0,-2.0,2.0,2.0,-2.0,-2.0,-0.66267884,-2.0,0.0,0.0,0.0,0.0
2025-06-11 12:29:32.776,-1.672643,-4.69354,-98.972404,0.00088472484,0.00481285,0.00053433253,0.782824,-0.270347,9.814316,-0.054963216,-0.041160583,-1.498436,-0.72191834,-0.00064849854,-2.30167,1.6769893,0.0021743774,-4.359806,0.11493026,-0.016288757,-0.63904953,-0.5987799,0.055656433,1.6937523,1.5673803,-0.01789093,-0.5084305,-0.010261536,-0.0021743774,3.768978,-0.5319229,-0.116233826,-0.76478195,1.7561061,0.0052261353,-7.127186,-0.05382538,0.011405945,-1.4972153,-0.9294078,0.022010803,-7.6533165,1.8996404,-0.012779236,-12.159,0.0,0.0,0.0,0.0,0.0,0.0,0.0,0.0,0.0,0.0,0.0,0.0,-2.0,0.94463867,-2.0,2.0,2.0,-2.0,2.0,2.0,-2.0,-2.0,-0.67144763,-2.0,0.0,0.0,0.0,0.0
