openverse-orca/OrcaGym/envs/legged_gym/legged_real_env/logs/robot_log_20250605_182548.csv
timestamp,imu_angle_roll,imu_angle_pitch,imu_angle_yaw,imu_angular_velocity_roll,imu_angular_velocity_pitch,imu_angular_velocity_yaw,imu_acc_x,imu_acc_y,imu_acc_z,fl_joint1_pos,fl_joint1_vel,fl_joint1_torque,fl_joint2_pos,fl_joint2_vel,fl_joint2_torque,fl_joint3_pos,fl_joint3_vel,fl_joint3_torque,fr_joint1_pos,fr_joint1_vel,fr_joint1_torque,fr_joint2_pos,fr_joint2_vel,fr_joint2_torque,fr_joint3_pos,fr_joint3_vel,fr_joint3_torque,hl_joint1_pos,hl_joint1_vel,hl_joint1_torque,hl_joint2_pos,hl_joint2_vel,hl_joint2_torque,hl_joint3_pos,hl_joint3_vel,hl_joint3_torque,hr_joint1_pos,hr_joint1_vel,hr_joint1_torque,hr_joint2_pos,hr_joint2_vel,hr_joint2_torque,hr_joint3_pos,hr_joint3_vel,hr_joint3_torque,fl_force_x,fl_force_y,fl_force_z,fr_force_x,fr_force_y,fr_force_z,hl_force_x,hl_force_y,hl_force_z,hr_force_x,hr_force_y,hr_force_z,fl_hip_action,fl_thigh_action,fl_calf_action,fr_hip_action,fr_thigh_action,fr_calf_action,hl_hip_action,hl_thigh_action,hl_calf_action,hr_hip_action,hr_thigh_action,hr_calf_action
2025-06-05 18:26:18.526,-0.376109,-1.212733,0.070068,0.0015188553,0.0013811488,-0.0014975797,0.204099,-0.071576,9.79232,-0.013999939,-0.01651764,0.5963211,-0.9820506,0.006752014,-0.57556915,1.904803,-0.020103455,-4.8297844,0.010871887,-0.028495789,-0.5218582,-0.98144025,0.0052261353,-0.5560379,1.9035314,0.0090408325,-4.745556,-0.014228821,0.07144928,0.6695671,-0.97503155,-0.0030136108,-0.8856354,1.9306998,-0.008506775,-6.0187683,0.018501282,-0.050239563,-0.80750656,-0.98006696,0.03200531,-0.6243973,1.9333956,0.0038528442,-6.0956726,0.0,0.0,0.0,0.0,0.0,0.0,0.0,0.0,0.0,0.0,0.0,0.0,-0.9999987,0.72029865,-0.99999994,1.0,-0.15215145,-0.9805618,1.0,-0.92481005,-1.0,-1.0,-0.7994838,-1.0
2025-06-05 18:26:18.578,-0.097573,-1.886321,0.165333,0.28220624,-0.800719,0.10302038,1.08621,-0.53051,13.04973,-0.018501282,0.4188919,-1.2347603,-0.9720561,-0.07884979,4.1767006,1.8706996,-1.0398483,-4.293888,0.025062561,0.11646271,0.79896164,-0.99898785,-0.8086777,-0.64149094,1.8788885,-0.9471512,-4.490425,-0.0060653687,0.013313293,1.5411606,-1.0269114,-1.600914,-4.5502396,1.9525199,0.8401108,-6.9843597,0.018959045,-0.030708313,-1.7743187,-1.0383555,-1.7918015,-3.3160896,1.963608,0.9271622,-7.4518967,0.0,0.0,0.0,0.0,0.0,0.0,0.0,0.0,0.0,0.0,0.0,0.0,-1.0,0.9449554,-1.0,1.0,0.49550888,-0.9999718,1.0,-0.69371855,-1.0,-1.0,-0.7897056,-1.0
2025-06-05 18:26:18.629,0.254557,-4.232122,0.57925,0.0916076,-0.55407697,0.17041765,0.005367,-0.069381,10.742006,-0.014152527,-0.03376007,-1.1114655,-0.97129315,0.2009201,5.2838936,1.8105037,-1.126442,-3.1940193,0.030403137,-0.028877258,0.76966476,-0.99791974,0.34145355,2.9730682,1.8209814,-0.9964371,-3.3954391,-0.00995636,-0.022468567,1.641262,-1.0654398,-0.015907288,-3.1512947,1.9619803,-0.29140472,-6.5339127,0.012245178,-0.31238556,-1.4422836,-1.0972544,-0.2350235,-2.9681854,1.9864962,-0.06252289,-7.1943245,0.0,0.0,0.0,0.0,0.0,0.0,0.0,0.0,0.0,0.0,0.0,0.0,-1.0,0.9318133,-1.0,1.0,0.5126845,-0.9999998,1.0,-0.8328831,-1.0,-1.0,-0.7544648,-1.0
2025-06-05 18:26:18.680,0.325011,-5.212669,0.871603,0.0368949,-0.3504869,0.018837757,0.157738,-0.110838,8.69491,-0.014381409,0.023231506,-1.1004791,-0.9491679,0.36922455,4.733349,1.7593105,-0.79906464,-2.3114357,0.028114319,0.004081726,0.80018234,-0.9816691,0.5131149,2.7020683,1.7750524,-0.90602875,-2.691082,-0.014915466,0.008811951,1.6925316,-1.0667368,0.02254486,-4.0143433,1.9462638,-0.15918732,-6.352024,0.0049209595,0.05924225,-1.4996567,-1.1048075,-0.03025055,-2.68742,1.9805453,-0.046653748,-7.125965,0.0,0.0,0.0,0.0,0.0,0.0,0.0,0.0,0.0,0.0,0.0,0.0,-1.0,0.9218278,-1.0,1.0,0.46266335,-0.99999994,1.0,-0.77879417,-1.0,-1.0,-0.7309189,-1.0
2025-06-05 18:26:18.731,0.510964,-6.026998,0.667699,0.038856894,-0.2270361,-0.113849275,0.480477,0.125548,8.141293,-0.01750946,-0.06687164,-1.0125885,-0.9326121,0.39173126,4.319523,1.7271144,-0.47351837,-1.9501038,0.023841858,-0.0925827,0.9686432,-0.96511334,0.2552414,2.0917053,1.7523931,-0.28759003,-2.4383926,-0.014305115,-0.0049209595,1.7047386,-1.0652109,0.07442474,-3.744564,1.9430594,0.0004196167,-6.4313736,0.0075149536,0.037651062,-1.5533676,-1.0986277,0.16040802,-2.8094902,1.9803164,-0.013008118,-7.129627,0.0,0.0,0.0,0.0,0.0,0.0,0.0,0.0,0.0,0.0,0.0,0.0,-1.0,0.91684425,-1.0,1.0,0.44214633,-1.0,1.0,-0.77913505,-1.0,-1.0,-0.7058479,-1.0
2025-06-05 18:26:18.782,0.572174,-6.319216,0.327327,-0.0043350835,0.014304456,-0.10275071,0.826681,0.456555,9.053422,-0.022392273,-0.028495789,-0.9259186,-0.91735333,0.18596649,4.0631714,1.7226131,-0.01209259,-1.9684143,0.01941681,-0.12645721,1.0699615,-0.94718426,0.4040146,1.5790024,1.7517828,-0.03139496,-2.5787735,-0.013923645,-0.06839752,1.6839867,-1.0508677,0.16330719,-4.1119995,1.9443564,0.07923126,-6.5217056,0.009346008,0.01651764,-1.5851059,-1.0763499,0.38150787,-3.261158,1.9803927,0.0046920776,-7.1454964,0.0,0.0,0.0,0.0,0.0,0.0,0.0,0.0,0.0,0.0,0.0,0.0,-1.0,0.91658556,-1.0,1.0,0.4301646,-1.0,1.0,-0.7640353,-1.0,-1.0,-0.7000116,-1.0
2025-06-05 18:26:18.833,0.568168,-6.363803,0.169225,-0.028235378,-0.05311934,-0.0013291555,1.140603,0.557951,9.734858,-0.02368927,0.03162384,-0.9442291,-0.9023997,0.42934418,3.7470055,1.7225368,0.007896423,-2.0086975,0.017814636,0.03238678,1.0223541,-0.9319255,0.32283783,1.256733,1.7522405,0.0062179565,-2.5787735,-0.014076233,-0.024223328,1.662014,-1.0369059,0.14896393,-4.2841225,1.9503074,0.111198425,-6.659649,0.010032654,0.022010803,-1.588768,-1.060023,0.25722504,-3.4015427,1.9831393,0.08579254,-7.27367,0.0,0.0,0.0,0.0,0.0,0.0,0.0,0.0,0.0,0.0,0.0,0.0,-1.0,0.90704083,-1.0,1.0,0.39854348,-1.0,1.0,-0.73971075,-1.0,-1.0,-0.6736697,-1.0
2025-06-05 18:26:18.884,0.514978,-6.616306,0.242468,-0.010537495,-0.096077375,0.025233692,1.268593,-0.016221,9.783496,-0.022239685,0.016288757,-0.99305725,-0.8901927,0.21633148,3.44915,1.7232997,0.056266785,-2.0221252,0.019187927,0.066185,0.96009827,-0.9204051,0.10471344,0.9027252,1.7520117,-0.012931824,-2.5287247,-0.013694763,-0.026283264,1.6961937,-1.0272166,0.12516022,-4.2462807,1.9611411,0.18383026,-6.9025726,0.011482239,-0.011711121,-1.6192856,-1.050944,0.11760712,-3.2880135,1.9919131,0.27492523,-7.4824142,0.0,0.0,0.0,0.0,0.0,0.0,0.0,0.0,0.0,0.0,0.0,0.0,-1.0,0.9129357,-1.0,1.0,0.36900702,-1.0,1.0,-0.7237523,-1.0,-1.0,-0.67690015,-1.0
2025-06-05 18:26:18.935,0.5892,-6.967525,0.304368,0.058109846,-0.117604315,0.033428255,1.382496,-0.177429,9.69484,-0.01865387,-0.03261566,-1.0406647,-0.8801219,0.26973724,3.3087654,1.7232234,0.055274963,-2.0099182,0.022621155,-0.08052826,0.9246979,-0.91231793,0.11249542,0.5584793,1.7519354,-0.028877258,-2.5543594,-0.012550354,-0.038490295,1.6485863,-1.0214945,0.075035095,-4.269474,1.9716697,0.2488327,-7.191883,0.014305115,0.05580902,-1.6803246,-1.047587,0.06801605,-3.3991013,2.0045016,0.18161774,-7.6862755,0.0,0.0,0.0,0.0,0.0,0.0,0.0,0.0,0.0,0.0,0.0,0.0,-1.0,0.91803604,-1.0,1.0,0.33997592,-1.0,1.0,-0.6995945,-1.0,-1.0,-0.6675194,-1.0
2025-06-05 18:26:18.986,0.57982,-7.308714,0.387739,0.032609154,-0.10243517,0.009340688,1.43997,0.022609,9.796424,-0.018119812,0.07671356,-1.0553131,-0.87066144,0.15613556,3.1793709,1.7232234,-0.030784607,-2.002594,0.022850037,-0.016288757,0.92103577,-0.9054515,0.09525299,0.22278214,1.7522405,0.03704071,-2.5592422,-0.013084412,0.016746521,1.6656761,-1.0156962,0.11791229,-4.232853,1.9815116,0.21244049,-7.262684,0.013313293,-0.0075912476,-1.6461449,-1.043696,0.19916534,-3.44915,2.015793,0.25852203,-7.9536133,0.0,0.0,0.0,0.0,0.0,0.0,0.0,0.0,0.0,0.0,0.0,0.0,-1.0,0.92089313,-1.0,1.0,0.3076752,-1.0,1.0,-0.70090824,-1.0,-1.0,-0.6690162,-1.0
2025-06-05 18:26:19.037,0.618861,-7.600496,0.367835,0.009812799,-0.09562419,-0.006864589,1.544546,0.201267,9.620051,-0.017967224,0.06916046,-1.0662994,-0.86410016,0.07602692,3.0817108,1.7231472,0.00705719,-2.014801,0.023002625,0.06175995,0.8978424,-0.9010264,0.09120941,-0.028686523,1.7521642,-0.02407074,-2.5836563,-0.013542175,-0.021324158,1.6815453,-1.012034,0.096702576,-4.2914467,1.9894462,0.21030426,-7.3981857,0.013389587,-0.047569275,-1.649807,-1.0404154,0.057487488,-3.486992,2.0267794,0.29956818,-8.179447,0.0,0.0,0.0,0.0,0.0,0.0,0.0,0.0,0.0,0.0,0.0,0.0,-1.0,0.92600715,-1.0,1.0,0.2883063,-1.0,1.0,-0.6857429,-1.0,-1.0,-0.66838765,-1.0
2025-06-05 18:26:19.088,0.699898,-7.859599,0.441524,0.049564943,-0.032718413,0.056087725,1.691906,0.079161,9.904829,-0.01537323,0.040473938,-1.1358833,-0.85639447,0.24578094,2.929123,1.7232997,0.027503967,-2.0013733,0.025901794,0.05130768,0.822155,-0.8966777,0.15964508,-0.23987198,1.7522405,0.015830994,-2.581215,-0.014152527,0.0059890747,1.6986351,-1.0042521,0.27828217,-4.4391556,1.9918876,0.020713806,-7.400627,0.013771057,0.021324158,-1.6388206,-1.0377451,0.13980865,-3.5822067,2.0328066,0.037879944,-8.216068,0.0,0.0,0.0,0.0,0.0,0.0,0.0,0.0,0.0,0.0,0.0,0.0,-1.0,0.9269496,-1.0,1.0,0.27026176,-1.0,1.0,-0.66983545,-1.0,-1.0,-0.6439083,-1.0
2025-06-05 18:26:19.140,0.732533,-7.908382,0.650962,-0.0109687485,0.011892254,0.062853545,1.575989,0.11241,9.743633,-0.013847351,0.0073623657,-1.1419868,-0.84922284,0.005760193,2.8155937,1.7231472,0.013313293,-2.0331116,0.027503967,-0.04261017,0.8245964,-0.8926341,-0.031700134,-0.4339676,1.7521642,0.015678406,-2.5738907,-0.015220642,0.037879944,1.7267113,-0.9944865,0.08075714,-4.4635696,1.9918876,0.023078918,-7.3859787,0.012016296,-0.0065231323,-1.5948715,-1.032786,0.05794525,-3.4564743,2.033417,0.030555725,-8.208744,0.0,0.0,0.0,0.0,0.0,0.0,0.0,0.0,0.0,0.0,0.0,0.0,-1.0,0.9308809,-1.0,1.0,0.27785102,-1.0,1.0,-0.65413624,-1.0,-1.0,-0.64848167,-1.0
2025-06-05 18:26:19.194,0.707413,-7.955316,0.709866,-0.0033361095,0.0046377936,-0.018701464,1.613994,0.057212,9.719477,-0.013694763,-0.041542053,-1.1480904,-0.84647626,0.016899109,2.855877,1.7232234,0.002784729,-2.0184631,0.02773285,0.016059875,0.8306999,-0.88927716,0.055656433,-0.44617462,1.752088,-0.03162384,-2.5629044,-0.0157547,0.0059890747,1.740139,-0.9907481,-0.012626648,-4.3952103,1.9916587,-0.024375916,-7.3871994,0.012245178,0.014381409,-1.6241684,-1.0293528,0.0052261353,-3.6200485,2.0335696,-0.016670227,-8.177006,0.0,0.0,0.0,0.0,0.0,0.0,0.0,0.0,0.0,0.0,0.0,0.0,-1.0,0.93147796,-1.0,1.0,0.28077173,-1.0,1.0,-0.63914084,-1.0,-1.0,-0.6310492,-1.0
2025-06-05 18:26:19.247,0.702454,-7.97205,0.626614,-0.0009511346,0.003948144,-0.0125781335,1.529182,0.067159,9.736806,-0.013771057,-0.034751892,-1.1041412,-0.8458659,-0.0023269653,2.8937225,1.7231472,-0.0021743774,-2.0086975,0.027427673,0.0011825562,0.8270378,-0.88813275,0.033073425,-0.42298126,1.7522405,-0.0035476685,-2.5824356,-0.015525818,0.031852722,1.7132835,-0.99036664,-0.029945374,-4.29755,1.9918113,-0.013923645,-7.3713264,0.012626648,-0.033836365,-1.6302757,-1.0269877,0.0548172,-3.4711227,2.0337222,0.040779114,-8.195316,0.0,0.0,0.0,0.0,0.0,0.0,0.0,0.0,0.0,0.0,0.0,0.0,-1.0,0.93128467,-1.0,1.0,0.27728653,-1.0,1.0,-0.645496,-1.0,-1.0,-0.6366364,-1.0
2025-06-05 18:26:19.299,0.702175,-7.981017,0.652649,0.00056969293,0.007212381,0.019621689,1.449987,0.144307,9.648908,-0.013923645,-0.0233078,-1.1273384,-0.8460185,0.02483368,2.8363457,1.7230709,0.010032654,-2.0013733,0.027122498,-0.016975403,0.8270378,-0.8890483,-0.0062942505,-0.41687775,1.7523168,0.014762878,-2.5653458,-0.0157547,-0.020713806,1.7132835,-0.9905955,-0.029792786,-4.330509,1.9918113,-0.030708313,-7.3957443,0.01209259,-0.0050735474,-1.6253929,-1.028361,-0.019721985,-3.4735641,2.033417,0.01537323,-8.220951,0.0,0.0,0.0,0.0,0.0,0.0,0.0,0.0,0.0,0.0,0.0,0.0,-1.0,0.93094456,-1.0,1.0,0.2804944,-1.0,1.0,-0.6441797,-1.0,-1.0,-0.6324865,-1.0
2025-06-05 18:26:19.350,0.704217,-7.964749,0.66694,-0.0032124007,0.004006211,-0.0038335808,1.217063,0.154328,9.714544,-0.013923645,-0.045967102,-1.1395454,-0.84662884,-0.05001068,2.8778534,1.7232234,-0.025215149,-2.0257874,0.02773285,0.04924774,0.8233757,-0.88958234,-0.03803253,-0.3936844,1.7522405,-0.00034332275,-2.5824356,-0.01537323,0.009269714,1.7010765,-0.99128217,-0.033073425,-4.2914467,1.9918113,0.032844543,-7.379875,0.0118637085,0.035820007,-1.6266136,-1.0289713,0.02368927,-3.4418259,2.0336459,0.035362244,-8.208744,0.0,0.0,0.0,0.0,0.0,0.0,0.0,0.0,0.0,0.0,0.0,0.0,-1.0,0.9318772,-1.0,1.0,0.2843507,-1.0,1.0,-0.64855945,-1.0,-1.0,-0.6409005,-1.0
2025-06-05 18:26:19.401,0.701758,-7.954065,0.659115,0.0008311607,-0.002246867,0.0056315665,1.209579,0.082644,9.705627,-0.014076233,-0.00995636,-1.1358833,-0.8468577,0.10486603,2.8863983,1.7232997,-0.016822815,-1.9891663,0.027427673,-0.0030899048,0.8148308,-0.8899638,-0.007209778,-0.35950089,1.7521642,0.00957489,-2.584877,-0.01537323,0.0005722046,1.7132835,-0.9917399,-0.025291443,-4.347599,1.991735,0.001411438,-7.38842,0.011940002,-0.04497528,-1.6156235,-1.0295054,0.06732941,-3.499199,2.033417,-0.01613617,-8.231937,0.0,0.0,0.0,0.0,0.0,0.0,0.0,0.0,0.0,0.0,0.0,0.0,-1.0,0.92925036,-1.0,1.0,0.2767705,-1.0,1.0,-0.6498506,-1.0,-1.0,-0.6354774,-1.0
2025-06-05 18:26:19.452,0.69386,-7.952301,0.675691,0.0043121153,-0.0012204912,-0.0016593892,1.336129,0.070516,9.688807,-0.013771057,-0.031700134,-1.1310005,-0.84655255,0.040779114,2.875412,1.7231472,0.035820007,-2.014801,0.027503967,-0.0033950806,0.8319206,-0.88958234,0.011100769,-0.42664337,1.7523168,-0.0025558472,-2.5922012,-0.015449524,-0.001411438,1.7206078,-0.99135846,-0.06542206,-4.356144,1.991735,-0.021400452,-7.40551,0.012016296,-0.0062942505,-1.6119614,-1.0291239,0.02002716,-3.4637985,2.0334933,-0.023841858,-8.181889,0.0,0.0,0.0,0.0,0.0,0.0,0.0,0.0,0.0,0.0,0.0,0.0,-1.0,0.9308922,-1.0,1.0,0.28395,-1.0,1.0,-0.6410317,-1.0,-1.0,-0.6345777,-1.0
2025-06-05 18:26:19.503,0.703379,-7.954972,0.656568,-0.006963881,-0.00080911716,-0.005623154,1.352875,0.161118,9.70322,-0.014076233,0.045433044,-1.1224518,-0.84639996,-0.012245178,2.8729668,1.7232234,0.009269714,-2.0282288,0.027275085,-0.040168762,0.8282585,-0.88920087,0.013008118,-0.3692665,1.7522405,-0.0077438354,-2.5568008,-0.015525818,-0.024528503,1.7254906,-0.99143475,0.009498596,-4.290226,1.991735,-0.021247864,-7.401848,0.012168884,0.032081604,-1.60952,-1.028895,-0.045204163,-3.486992,2.0336459,0.04863739,-8.211185,0.0,0.0,0.0,0.0,0.0,0.0,0.0,0.0,0.0,0.0,0.0,0.0,-1.0,0.93163973,-1.0,1.0,0.28088182,-1.0,1.0,-0.6459768,-1.0,-1.0,-0.6352138,-1.0
2025-06-05 18:26:19.554,0.701408,-7.955658,0.662522,-0.0022505147,0.00047539276,0.0077149835,1.344882,0.09868,9.72688,-0.014076233,-0.0035476685,-1.1432076,-0.84639996,0.030708313,2.8900604,1.7232234,-0.02254486,-1.9745178,0.027427673,-0.09540558,0.8160515,-0.88958234,-0.08686066,-0.39124298,1.7523168,-0.0077438354,-2.5922012,-0.015602112,-0.0049972534,1.70718,-0.99135846,0.014533997,-4.3292885,1.9918876,0.0049209595,-7.3749886,0.012168884,0.028114319,-1.6082993,-1.028895,0.05214691,-3.4637985,2.0335696,-0.010948181,-8.21851,0.0,0.0,0.0,0.0,0.0,0.0,0.0,0.0,0.0,0.0,0.0,0.0,-1.0,0.9308649,-1.0,1.0,0.2756682,-1.0,1.0,-0.65051425,-1.0,-1.0,-0.6390075,-1.0
2025-06-05 18:26:19.605,0.68864,-7.953244,0.676477,0.0020180545,0.002672797,-0.0005462706,1.291443,0.059327,9.702476,-0.013923645,0.012702942,-1.1236725,-0.84662884,0.042533875,2.8607597,1.7231472,-0.021629333,-2.0367737,0.02735138,0.043907166,0.8319206,-0.8898112,0.04283905,-0.42053986,1.7523168,0.00705719,-2.564125,-0.015602112,-0.017814636,1.7376976,-0.99143475,0.03894806,-4.3537025,1.991735,-0.017204285,-7.38842,0.012245178,0.022315979,-1.6156235,-1.0294291,0.024223328,-3.4808884,2.0335696,-0.014305115,-8.178226,0.0,0.0,0.0,0.0,0.0,0.0,0.0,0.0,0.0,0.0,0.0,0.0,-1.0,0.93099654,-1.0,1.0,0.2780307,-1.0,1.0,-0.6461837,-1.0,-1.0,-0.63267,-1.0
2025-06-05 18:26:19.656,0.687441,-7.944149,0.667701,-0.0004356691,-0.0011503814,-0.002496676,1.266781,0.161465,9.728186,-0.013847351,-0.03238678,-1.1358833,-0.84647626,-0.10089874,2.871746,1.7231472,-0.0034713745,-1.9781799,0.02735138,-0.013999939,0.79529953,-0.88958234,0.05809784,-0.41687775,1.7522405,-0.01613617,-2.5653458,-0.015830994,-0.035591125,1.7084007,-0.99158734,-0.0409317,-4.3244057,1.991735,0.008277893,-7.396965,0.011940002,0.0074386597,-1.6119614,-1.0292765,-0.047416687,-3.4357224,2.0334933,-0.0031661987,-8.189213,0.0,0.0,0.0,0.0,0.0,0.0,0.0,0.0,0.0,0.0,0.0,0.0,-1.0,0.933575,-1.0,1.0,0.29014596,-1.0,1.0,-0.6411072,-1.0,-1.0,-0.6368123,-1.0
2025-06-05 18:26:19.707,0.692546,-7.94206,0.674051,0.000830096,0.0016979785,0.004104735,1.341131,0.14278,9.677235,-0.013999939,-0.017433167,-1.1236725,-0.84632367,0.038414,2.8888397,1.7232234,0.054588318,-2.027008,0.027580261,0.056037903,0.8258171,-0.88942975,-0.0033187866,-0.34241104,1.7521642,-0.028038025,-2.5751114,-0.015830994,-0.05596161,1.7267113,-0.9911296,-0.044822693,-4.29755,1.9916587,0.023841858,-7.3981857,0.012016296,-0.030784607,-1.6021957,-1.0292765,0.06832123,-3.494316,2.033417,0.012931824,-8.225834,0.0,0.0,0.0,0.0,0.0,0.0,0.0,0.0,0.0,0.0,0.0,0.0,-1.0,0.930446,-1.0,1.0,0.28564125,-1.0,1.0,-0.64821637,-1.0,-1.0,-0.63965774,-1.0
2025-06-05 18:26:19.758,0.688517,-7.947518,0.675251,-0.00084372703,0.0004194375,-0.004609397,1.381244,0.065598,9.703409,-0.013771057,-0.029716492,-1.1334419,-0.84662884,0.02407074,2.8656425,1.7232234,-0.023078918,-2.0294495,0.027427673,0.024681091,0.822155,-0.88935345,0.007820129,-0.38025665,1.7522405,0.014076233,-2.548256,-0.015602112,-0.05115509,1.7145042,-0.99128217,0.024223328,-4.351261,1.9918113,0.02254486,-7.3859787,0.01209259,0.02986908,-1.6241684,-1.0289713,-0.023155212,-3.502861,2.0335696,0.05847931,-8.202641,0.0,0.0,0.0,0.0,0.0,0.0,0.0,0.0,0.0,0.0,0.0,0.0,-1.0,0.9310596,-1.0,1.0,0.27551836,-1.0,1.0,-0.64837277,-1.0,-1.0,-0.6353965,-1.0
2025-06-05 18:26:19.809,0.682597,-7.947787,0.676086,0.0011397873,-0.00018776252,0.0019150625,1.315549,0.109775,9.711254,-0.014076233,-0.018348694,-1.1224518,-0.84639996,-0.00034332275,2.8693047,1.7231472,-0.013771057,-2.0038147,0.027427673,-0.028038025,0.8245964,-0.8898112,-0.009422302,-0.42176056,1.7523168,0.0059890747,-2.5665665,-0.015525818,-0.022010803,1.727932,-0.99135846,-0.037117004,-4.352482,1.9918113,-0.007209778,-7.384758,0.012016296,0.022392273,-1.6070786,-1.0290476,-0.03200531,-3.4625778,2.0334933,0.007972717,-8.206303,0.0,0.0,0.0,0.0,0.0,0.0,0.0,0.0,0.0,0.0,0.0,0.0,-1.0,0.9316914,-1.0,1.0,0.2825138,-1.0,1.0,-0.64361984,-1.0,-1.0,-0.63542473,-1.0
2025-06-05 18:26:19.860,0.685711,-7.940047,0.680123,0.00039027305,0.00034046138,-0.0023905775,1.280322,0.149137,9.682373,-0.013923645,-0.035972595,-1.1297798,-0.84662884,-0.01499176,2.8888397,1.7231472,-0.0063705444,-2.0160217,0.027427673,-0.029945374,0.79896164,-0.88965863,0.043525696,-0.3961258,1.7522405,0.009651184,-2.5543594,-0.015678406,0.021095276,1.7352562,-0.99151105,-0.015296936,-4.293888,1.991735,-0.0002670288,-7.393303,0.01209259,-0.040626526,-1.6180649,-1.0290476,0.08998871,-3.4686813,2.0335696,0.02040863,-8.230717,0.0,0.0,0.0,0.0,0.0,0.0,0.0,0.0,0.0,0.0,0.0,0.0,-1.0,0.9314198,-1.0,1.0,0.2804449,-1.0,1.0,-0.6493212,-1.0,-1.0,-0.6407296,-1.0
2025-06-05 18:26:19.911,0.685098,-7.94108,0.678396,-0.004151754,-0.0005032133,1.2740903e-05,1.315399,0.101842,9.662107,-0.013847351,-0.035591125,-1.1432076,-0.84632367,0.020561218,2.8900604,1.7232234,-0.019493103,-2.0245667,0.027809143,-0.05367279,0.8160515,-0.88935345,0.06725311,-0.40345,1.7522405,0.015220642,-2.5531387,-0.015907288,0.027275085,1.7059593,-0.9912059,-0.029945374,-4.3549232,1.991735,-0.029182434,-7.4116135,0.012245178,0.018424988,-1.6302757,-1.0292765,-0.005683899,-3.5162888,2.0333407,-0.001411438,-8.2355995,0.0,0.0,0.0,0.0,0.0,0.0,0.0,0.0,0.0,0.0,0.0,0.0,-1.0,0.931287,-1.0,1.0,0.28004313,-1.0,1.0,-0.6401708,-1.0,-1.0,-0.63140994,-1.0
2025-06-05 18:26:19.962,0.680371,-7.940047,0.682795,-0.0020559977,-0.0014785033,0.0008635889,1.344736,0.087374,9.711394,-0.013923645,-0.028648376,-1.1273384,-0.84632367,0.041770935,2.8534355,1.7232234,0.009498596,-2.0196838,0.027656555,0.012016296,0.8258171,-0.88950604,-0.03551483,-0.3961258,1.7521642,-0.013084412,-2.5287247,-0.0157547,0.004081726,1.7181664,-0.99128217,0.046653748,-4.273136,1.991735,0.01285553,-7.393303,0.01209259,-0.045967102,-1.6241684,-1.0290476,-0.0032424927,-3.4357224,2.0336459,0.016365051,-8.213627,0.0,0.0,0.0,0.0,0.0,0.0,0.0,0.0,0.0,0.0,0.0,0.0,-1.0,0.9311429,-1.0,1.0,0.2768899,-1.0,1.0,-0.65018797,-1.0,-1.0,-0.6391144,-1.0
2025-06-05 18:26:20.013,0.679293,-7.941209,0.683244,-0.00017378244,0.0044475,-0.00020825268,1.328422,0.129906,9.686608,-0.013999939,-0.025978088,-1.1187897,-0.84632367,0.035057068,2.8570976,1.7232997,0.005302429,-1.9769592,0.027580261,0.015907288,0.8331413,-0.8897349,0.07991791,-0.42176056,1.7522405,-0.001335144,-2.5458145,-0.015525818,0.036888123,1.70718,-0.99135846,0.03643036,-4.3292885,1.9918113,0.0011062622,-7.372547,0.01209259,0.0062942505,-1.6192856,-1.0292765,-0.096092224,-3.4845505,2.0335696,0.0033950806,-8.216068,0.0,0.0,0.0,0.0,0.0,0.0,0.0,0.0,0.0,0.0,0.0,0.0,-1.0,0.9316463,-1.0,1.0,0.27856737,-1.0,1.0,-0.6395058,-1.0,-1.0,-0.63145226,-1.0
2025-06-05 18:26:20.064,0.684475,-7.929537,0.685617,-0.0008869763,0.0034204961,0.0034170405,1.274547,0.103143,9.72677,-0.013771057,0.044898987,-1.1200104,-0.84639996,-0.044059753,2.8766327,1.7232234,0.015678406,-2.002594,0.02773285,0.032920837,0.83680344,-0.88958234,0.036201477,-0.42053986,1.7523168,-0.026054382,-2.5677872,-0.015678406,0.022773743,1.7328148,-0.9912059,-0.015449524,-4.2719154,1.9918876,0.015296936,-7.392082,0.011787415,-0.031013489,-1.6107407,-1.0293528,0.006828308,-3.4418259,2.033417,-0.01613617,-8.185551,0.0,0.0,0.0,0.0,0.0,0.0,0.0,0.0,0.0,0.0,0.0,0.0,-1.0,0.93212366,-1.0,1.0,0.28712964,-1.0,1.0,-0.64577377,-1.0,-1.0,-0.6379875,-1.0
2025-06-05 18:26:20.115,0.683019,-7.928815,0.690583,0.00023359487,0.00021703169,-0.0004959353,1.311405,0.09447,9.653584,-0.013771057,0.009117126,-1.1248932,-0.84639996,0.06755829,2.887619,1.7232234,-0.032539368,-2.0343323,0.027656555,0.076179504,0.8331413,-0.88958234,0.05672455,-0.34607315,1.7523168,-0.018043518,-2.5775528,-0.0157547,-0.033607483,1.7169456,-0.99135846,-0.023384094,-4.319523,1.9918113,0.0010299683,-7.3835373,0.012168884,0.06175995,-1.6253929,-1.0291239,-0.00034332275,-3.5053024,2.0337222,0.07595062,-8.203861,0.0,0.0,0.0,0.0,0.0,0.0,0.0,0.0,0.0,0.0,0.0,0.0,-1.0,0.93022215,-1.0,1.0,0.27576417,-1.0,1.0,-0.64348924,-1.0,-1.0,-0.63316447,-1.0
2025-06-05 18:26:20.166,0.684972,-7.928009,0.68503,0.0021601939,1.4887658e-05,0.0007229852,1.352618,0.102574,9.686994,-0.013923645,0.038642883,-1.1346626,-0.8462474,-0.016975403,2.8375664,1.7232234,0.022087097,-2.0257874,0.027656555,-0.0059127808,0.79896164,-0.88920087,0.0059127808,-0.42053986,1.7522405,-0.024986267,-2.5738907,-0.015830994,-0.056037903,1.7120628,-0.9912059,-0.023231506,-4.310978,1.9915824,-0.013389587,-7.3945236,0.012321472,0.009498596,-1.6192856,-1.0289713,0.0007247925,-3.4735641,2.0334933,-0.015678406,-8.20142,0.0,0.0,0.0,0.0,0.0,0.0,0.0,0.0,0.0,0.0,0.0,0.0,-1.0,0.93220186,-1.0,1.0,0.28606728,-1.0,1.0,-0.6434924,-1.0,-1.0,-0.6355853,-1.0
2025-06-05 18:26:20.217,0.683095,-7.926868,0.69058,-0.0015172496,-0.00031417672,0.0027032183,1.301313,0.111493,9.719319,-0.014076233,0.012626648,-1.1334419,-0.84632367,0.030174255,2.8863983,1.723376,-0.018501282,-1.969635,0.027503967,0.022621155,0.8209343,-0.88950604,-0.016899109,-0.37781525,1.7522405,-0.0011825562,-2.5897598,-0.0157547,0.01285553,1.7059593,-0.99143475,0.022773743,-4.306095,1.9918876,0.017051697,-7.3823166,0.012245178,0.040626526,-1.6082993,-1.0292765,-0.03665924,-3.4564743,2.0337222,-0.017585754,-8.213627,0.0,0.0,0.0,0.0,0.0,0.0,0.0,0.0,0.0,0.0,0.0,0.0,-1.0,0.9310415,-1.0,1.0,0.28082037,-1.0,1.0,-0.64646345,-1.0,-1.0,-0.633821,-1.0
2025-06-05 18:26:20.268,0.681278,-7.926607,0.690261,-0.0010881954,0.002259922,-0.00204961,1.311163,0.117923,9.68613,-0.014152527,0.020561218,-1.1346626,-0.84655255,-0.04146576,2.8461113,1.7232234,-0.0038528442,-2.0184631,0.027656555,0.019340515,0.8123894,-0.88935345,-0.0050735474,-0.3985672,1.7523168,0.013084412,-2.593422,-0.015525818,-0.013389587,1.7145042,-0.99128217,-0.010261536,-4.3329506,1.991735,0.004234314,-7.392082,0.012016296,0.013313293,-1.621727,-1.0290476,-0.040550232,-3.469902,2.0335696,-0.030097961,-8.212406,0.0,0.0,0.0,0.0,0.0,0.0,0.0,0.0,0.0,0.0,0.0,0.0,-1.0,0.93204117,-1.0,1.0,0.28814152,-1.0,1.0,-0.64657974,-1.0,-1.0,-0.6350945,-1.0
2025-06-05 18:26:20.319,0.680019,-7.922281,0.687558,-0.0007603876,-0.0008063072,0.0029389425,1.34614,0.095382,9.693259,-0.013923645,-3.8146973e-05,-1.1248932,-0.8460948,-0.0059890747,2.8766327,1.7232997,-0.025291443,-2.0196838,0.027809143,0.0074386597,0.83802414,-0.88942975,-0.028953552,-0.35461807,1.7522405,0.021095276,-2.5775528,-0.015678406,-0.0009536743,1.7303734,-0.99135846,-0.013160706,-4.3219643,1.9918876,0.041923523,-7.3823166,0.012016296,0.002784729,-1.6192856,-1.0291239,0.03643036,-3.4686813,2.0336459,-0.0409317,-8.181889,0.0,0.0,0.0,0.0,0.0,0.0,0.0,0.0,0.0,0.0,0.0,0.0,-1.0,0.93114,-1.0,1.0,0.28345108,-1.0,1.0,-0.6493737,-1.0,-1.0,-0.63808054,-1.0
2025-06-05 18:26:20.370,0.681519,-7.924516,0.686195,-0.00034981634,0.0023154062,6.134832e-05,1.350835,0.143215,9.687494,-0.014076233,0.0434494,-1.1383247,-0.8462474,0.02155304,2.8485527,1.7232234,0.026512146,-2.023346,0.027275085,-0.032920837,0.80262375,-0.88935345,0.012168884,-0.37781525,1.7523168,0.015068054,-2.5592422,-0.015525818,-0.01964569,1.7218285,-0.99143475,-0.0047683716,-4.3463783,1.991735,0.011177063,-7.364002,0.012245178,0.009727478,-1.588768,-1.0292765,0.01209259,-3.4955368,2.0335696,0.023994446,-8.206303,0.0,0.0,0.0,0.0,0.0,0.0,0.0,0.0,0.0,0.0,0.0,0.0,-1.0,0.9307575,-1.0,1.0,0.27977726,-1.0,1.0,-0.64639497,-1.0,-1.0,-0.63788587,-1.0
2025-06-05 18:26:20.421,0.683627,-7.919936,0.686753,0.002053537,0.0017044885,0.0033309783,1.32251,0.103422,9.70922,-0.014228821,0.024986267,-1.1334419,-0.84639996,0.04436493,2.8693047,1.723376,0.050239563,-1.9806213,0.027580261,-0.0005722046,0.8160515,-0.88950604,0.14324188,-0.39124298,1.7523168,0.0038528442,-2.5323868,-0.015602112,-0.020179749,1.7047386,-0.99135846,-0.013313293,-4.3366127,1.9918876,-0.009269714,-7.40551,0.012245178,0.018348694,-1.6339378,-1.0290476,-0.049476624,-3.4882126,2.0336459,-0.03353119,-8.211185,0.0,0.0,0.0,0.0,0.0,0.0,0.0,0.0,0.0,0.0,0.0,0.0,-1.0,0.9317453,-1.0,1.0,0.28481334,-1.0,1.0,-0.63739866,-1.0,-1.0,-0.62965286,-1.0
2025-06-05 18:26:20.472,0.681367,-7.915401,0.693105,-0.0022143167,-0.0022655944,0.0026994657,1.280857,0.084793,9.698277,-0.013771057,-0.0020217896,-1.1248932,-0.84632367,-0.011634827,2.8925018,1.7230709,0.005760193,-1.981842,0.027580261,0.029563904,0.80994797,-0.88942975,0.09403229,-0.37292862,1.7522405,0.0008773804,-2.57267,-0.015830994,-0.10707855,1.7035179,-0.99128217,-0.007896423,-4.2767982,1.991735,-0.019798279,-7.373768,0.011940002,0.03238678,-1.6070786,-1.0291239,0.020637512,-3.4283981,2.0335696,-0.023155212,-8.170902,0.0,0.0,0.0,0.0,0.0,0.0,0.0,0.0,0.0,0.0,0.0,0.0,-1.0,0.9323561,-1.0,1.0,0.28766218,-1.0,1.0,-0.6450303,-1.0,-1.0,-0.6329129,-1.0
2025-06-05 18:26:20.523,0.67924,-7.91807,0.691132,-0.0017170723,-0.002090852,-0.0044084745,1.326619,0.098043,9.691294,-0.014076233,0.029411316,-1.1346626,-0.8462474,-0.029640198,2.859539,1.7232234,-0.03803253,-2.0123596,0.027503967,0.0838089,0.8282585,-0.88927716,-0.010566711,-0.34973526,1.7522405,-0.008277893,-2.5690079,-0.015449524,-0.03742218,1.7010765,-0.99143475,-0.013160706,-4.330509,1.9916587,0.001335144,-7.409172,0.01209259,-0.011482239,-1.6107407,-1.028895,0.056114197,-3.4735641,2.0335696,0.06542206,-8.224613,0.0,0.0,0.0,0.0,0.0,0.0,0.0,0.0,0.0,0.0,0.0,0.0,-1.0,0.930815,-1.0,1.0,0.28219742,-1.0,1.0,-0.6520841,-1.0,-1.0,-0.6406775,-1.0
2025-06-05 18:26:20.574,0.679696,-7.922395,0.691987,-0.00096464343,0.0021554816,0.0017402503,1.384896,0.105817,9.707108,-0.014228821,-0.012168884,-1.1200104,-0.8462474,0.002632141,2.8497734,1.7232234,-0.02483368,-2.0160217,0.027503967,-0.022621155,0.84168625,-0.88935345,0.06755829,-0.3997879,1.7523168,-0.0030899048,-2.5494766,-0.01537323,0.018424988,1.7181664,-0.99143475,-0.05443573,-4.3768997,1.991735,0.029640198,-7.384758,0.012168884,-0.048332214,-1.6119614,-1.0292002,0.014762878,-3.5162888,2.0336459,0.021629333,-8.21973,0.0,0.0,0.0,0.0,0.0,0.0,0.0,0.0,0.0,0.0,0.0,0.0,-1.0,0.9311265,-1.0,1.0,0.2801074,-1.0,1.0,-0.6439936,-1.0,-1.0,-0.6373992,-1.0
2025-06-05 18:26:20.625,0.675894,-7.917917,0.697377,0.00042776274,0.0037880277,-0.00038421678,1.301666,0.108232,9.693489,-0.013923645,-0.017662048,-1.1297798,-0.84655255,-0.022163391,2.8741875,1.7232997,0.008659363,-1.9769592,0.027809143,0.023612976,0.8319206,-0.88942975,0.013389587,-0.38636017,1.7522405,0.01537323,-2.576332,-0.015449524,0.006904602,1.7218285,-0.99135846,0.034446716,-4.302433,1.9916587,0.004463196,-7.3957443,0.011940002,-0.013008118,-1.6168442,-1.0292765,-0.01941681,-3.4979782,2.0335696,0.015220642,-8.212406,0.0,0.0,0.0,0.0,0.0,0.0,0.0,0.0,0.0,0.0,0.0,0.0,-1.0,0.9318217,-1.0,1.0,0.28286007,-1.0,1.0,-0.64867216,-1.0,-1.0,-0.63732517,-1.0
2025-06-05 18:26:20.676,0.675297,-7.915039,0.697869,0.0006751108,-3.593633e-05,-0.002783992,1.303916,0.102053,9.689873,-0.013999939,-0.037345886,-1.1200104,-0.8462474,-0.028648376,2.8912811,1.7231472,0.024375916,-2.023346,0.027427673,-0.008811951,0.8184929,-0.88942975,0.068092346,-0.3680458,1.7522405,0.018348694,-2.5677872,-0.015525818,0.0030136108,1.7108421,-0.99135846,0.011634827,-4.352482,1.9918113,-0.0010299683,-7.4079514,0.01209259,0.021705627,-1.6156235,-1.0292002,0.026664734,-3.494316,2.0334933,-0.015983582,-8.208744,0.0,0.0,0.0,0.0,0.0,0.0,0.0,0.0,0.0,0.0,0.0,0.0,-1.0,0.93198276,-1.0,1.0,0.28462267,-1.0,1.0,-0.6439392,-1.0,-1.0,-0.63663846,-1.0
2025-06-05 18:26:20.727,0.673156,-7.915679,0.695695,-0.0009817128,-0.0012651368,-0.00019582594,1.33453,0.110663,9.726466,-0.013847351,0.06839752,-1.1224518,-0.8460948,0.05306244,2.8827362,1.7231472,0.011100769,-2.0306702,0.027580261,0.0023269653,0.822155,-0.88958234,-0.059318542,-0.37903595,1.7522405,0.014076233,-2.5555801,-0.015525818,-0.020256042,1.7132835,-0.99135846,-0.04261017,-4.3134193,1.9918876,0.014076233,-7.377434,0.01209259,0.051994324,-1.6168442,-1.0291239,0.0258255,-3.5040817,2.0335696,-0.01537323,-8.225834,0.0,0.0,0.0,0.0,0.0,0.0,0.0,0.0,0.0,0.0,0.0,0.0,-1.0,0.9300845,-1.0,1.0,0.28191245,-1.0,1.0,-0.6468815,-1.0,-1.0,-0.6356232,-1.0
2025-06-05 18:26:20.778,0.670859,-7.916538,0.699736,0.0017692752,-0.00034817573,-0.0016156338,1.344397,0.106364,9.691481,-0.013923645,0.021095276,-1.1114655,-0.8461711,0.017280579,2.8522148,1.7231472,-0.06954193,-1.981842,0.027656555,-0.069236755,0.8209343,-0.88958234,-0.021400452,-0.39246368,1.7523168,-0.001411438,-2.5714493,-0.015449524,-0.0062179565,1.7267113,-0.9912059,-0.06198883,-4.3463783,1.9918876,-0.05016327,-7.392082,0.01209259,0.03604889,-1.6192856,-1.0290476,-0.01903534,-3.4711227,2.033417,0.0077438354,-8.21973,0.0,0.0,0.0,0.0,0.0,0.0,0.0,0.0,0.0,0.0,0.0,0.0,-1.0,0.9308997,-1.0,1.0,0.27956837,-1.0,1.0,-0.64334095,-1.0,-1.0,-0.6313957,-1.0
2025-06-05 18:26:20.829,0.6731,-7.913685,0.694703,0.0007106282,0.0017712998,9.930923e-05,1.31637,0.094544,9.7029,-0.013847351,-0.005760193,-1.1151276,-0.84632367,-0.065956116,2.8668633,1.7231472,-0.013313293,-2.0001526,0.027656555,0.07419586,0.8172722,-0.88950604,-0.011177063,-0.40345,1.7523168,0.015296936,-2.5836563,-0.015525818,-0.021400452,1.7084007,-0.99135846,0.0014877319,-4.3036537,1.9918876,-0.039253235,-7.400627,0.0118637085,-0.008049011,-1.6144028,-1.0290476,0.007133484,-3.44915,2.0335696,-0.02544403,-8.202641,0.0,0.0,0.0,0.0,0.0,0.0,0.0,0.0,0.0,0.0,0.0,0.0,-1.0,0.9321567,-1.0,1.0,0.2899213,-1.0,1.0,-0.6487988,-1.0,-1.0,-0.6356049,-1.0
2025-06-05 18:26:20.880,0.675802,-7.909637,0.695856,-0.0014193367,-0.0011853578,-0.0007164751,1.309726,0.106177,9.690103,-0.013771057,0.032920837,-1.137104,-0.8462474,0.022850037,2.8827362,1.7231472,-0.00705719,-2.0184631,0.027503967,-0.010643005,0.84412766,-0.88920087,0.05886078,-0.35217667,1.7523168,0.007820129,-2.5714493,-0.0157547,0.017738342,1.7059593,-0.99143475,0.045433044,-4.339054,1.9918113,0.005378723,-7.393303,0.012168884,-0.02292633,-1.6070786,-1.0292002,0.0021743774,-3.454033,2.0335696,-0.012702942,-8.211185,0.0,0.0,0.0,0.0,0.0,0.0,0.0,0.0,0.0,0.0,0.0,0.0,-1.0,0.9307632,-1.0,1.0,0.2776245,-1.0,1.0,-0.6471715,-1.0,-1.0,-0.6349809,-1.0
2025-06-05 18:26:20.931,0.674348,-7.909101,0.695043,-0.0034875518,-0.00087823224,0.0008579864,1.342961,0.10042,9.69718,-0.013923645,0.0075912476,-1.1212311,-0.8462474,-0.00705719,2.859539,1.7231472,-0.012626648,-2.0331116,0.02773285,0.045204163,0.8197136,-0.88942975,0.0032424927,-0.41931915,1.7523168,0.020942688,-2.536049,-0.0157547,-0.046043396,1.7206078,-0.99128217,0.03238678,-4.3341713,1.9918876,0.02948761,-7.40551,0.01209259,-0.025978088,-1.6144028,-1.0291239,-0.004463196,-3.4479294,2.033417,0.008964539,-8.222172,0.0,0.0,0.0,0.0,0.0,0.0,0.0,0.0,0.0,0.0,0.0,0.0,-1.0,0.9316756,-1.0,1.0,0.28048795,-1.0,1.0,-0.64984864,-1.0,-1.0,-0.63783014,-1.0
2025-06-05 18:26:20.982,0.674412,-7.915374,0.698722,-0.0010907435,-0.0014607009,-5.157448e-05,1.363227,0.123158,9.686379,-0.013999939,0.008049011,-1.1358833,-0.8461711,0.0038528442,2.887619,1.7232997,-0.0049209595,-1.9928284,0.027580261,-0.031547546,0.80506516,-0.88942975,-0.017967224,-0.39124298,1.7523168,0.016212463,-2.5714493,-0.015449524,0.032157898,1.7132835,-0.99158734,0.019340515,-4.347599,1.991735,-0.0021743774,-7.393303,0.01209259,0.0283432,-1.6046371,-1.0290476,0.02407074,-3.4808884,2.0335696,0.001411438,-8.216068,0.0,0.0,0.0,0.0,0.0,0.0,0.0,0.0,0.0,0.0,0.0,0.0,-1.0,0.9309989,-1.0,1.0,0.27903387,-1.0,1.0,-0.6468978,-1.0,-1.0,-0.6377704,-1.0
2025-06-05 18:26:21.033,0.676842,-7.90843,0.697098,0.0014489897,0.0016106422,-0.0016582548,1.310955,0.114303,9.702071,-0.014305115,-0.040168762,-1.1065826,-0.8461711,0.016822815,2.859539,1.7232234,-0.0046920776,-1.9952698,0.02773285,0.039253235,0.83924484,-0.88958234,0.01033783,-0.40467072,1.7521642,0.0012588501,-2.5751114,-0.0157547,-0.046424866,1.7096214,-0.99151105,-0.020484924,-4.3219643,1.9918876,0.0020217896,-7.376213,0.01209259,-0.03238678,-1.6192856,-1.0291239,-0.07221222,-3.482109,2.0335696,-0.0019454956,-8.225834,0.0,0.0,0.0,0.0,0.0,0.0,0.0,0.0,0.0,0.0,0.0,0.0,-1.0,0.9317186,-1.0,1.0,0.2846138,-1.0,1.0,-0.64392155,-1.0,-1.0,-0.63353467,-1.0
2025-06-05 18:26:21.084,0.676251,-7.905658,0.699144,-0.0023092974,-0.0035463343,0.0014646454,1.308326,0.092749,9.71244,-0.014152527,-0.009346008,-1.1310005,-0.8462474,-0.021400452,2.9022675,1.7231472,0.032234192,-2.0013733,0.027503967,0.045433044,0.8270378,-0.88950604,0.06839752,-0.37292862,1.7522405,-0.008049011,-2.5568008,-0.015525818,-0.009498596,1.7218285,-0.9912059,-0.059013367,-4.3048744,1.9916587,-0.03528595,-7.38842,0.01209259,-0.020484924,-1.6253929,-1.0291239,0.013465881,-3.457695,2.0335696,-0.018577576,-8.220951,0.0,0.0,0.0,0.0,0.0,0.0,0.0,0.0,0.0,0.0,0.0,0.0,-1.0,0.93161446,-1.0,1.0,0.29144105,-1.0,1.0,-0.64228714,-1.0,-1.0,-0.6349488,-1.0
2025-06-05 18:26:21.135,0.674479,-7.898006,0.702021,-0.0018576586,0.00065793673,-0.003181962,1.327735,0.126401,9.729303,-0.013847351,0.0049972534,-1.1236725,-0.8461711,0.0007247925,2.887619,1.7232997,0.007820129,-1.9867249,0.027961731,0.096321106,0.80140305,-0.88927716,0.084877014,-0.3265419,1.7522405,-0.039482117,-2.5677872,-0.0157547,0.0011062622,1.719387,-0.99143475,-0.012016296,-4.2999916,1.991735,0.02696991,-7.40551,0.012016296,-0.01033783,-1.6107407,-1.0291239,-0.006904602,-3.46624,2.033417,0.0037765503,-8.16724,0.0,0.0,0.0,0.0,0.0,0.0,0.0,0.0,0.0,0.0,0.0,0.0,-1.0,0.9314213,-1.0,1.0,0.28530768,-1.0,1.0,-0.64301926,-1.0,-1.0,-0.6348003,-1.0
2025-06-05 18:26:21.186,0.671844,-7.901662,0.702215,-0.0006822841,0.0013488951,-0.0006656686,1.352173,0.130408,9.685493,-0.013923645,-0.022010803,-1.1358833,-0.8460948,-0.027885437,2.8802948,1.7231472,0.001411438,-2.0160217,0.027427673,-0.06435394,0.7916374,-0.88942975,0.0014877319,-0.37292862,1.7523168,0.031318665,-2.536049,-0.015525818,0.04787445,1.7181664,-0.99135846,-0.034217834,-4.302433,1.9918876,0.03604889,-7.3957443,0.01209259,-0.046806335,-1.6229477,-1.0290476,-0.028572083,-3.46624,2.0335696,0.0017929077,-8.228275,0.0,0.0,0.0,0.0,0.0,0.0,0.0,0.0,0.0,0.0,0.0,0.0,-1.0,0.93163836,-1.0,1.0,0.28302643,-1.0,1.0,-0.64685154,-1.0,-1.0,-0.6392236,-1.0
2025-06-05 18:26:21.237,0.67257,-7.901275,0.705729,-0.0016893041,-0.0018288955,-0.0005930629,1.312913,0.102676,9.676253,-0.014076233,-0.06717682,-1.1273384,-0.8461711,-0.045814514,2.8778534,1.7231472,-0.010871887,-2.0221252,0.027580261,-0.043907166,0.8233757,-0.88965863,-0.0062942505,-0.3656044,1.7522405,0.0035476685,-2.5226212,-0.015449524,-0.0283432,1.7145042,-0.99143475,0.027122498,-4.328068,1.9918113,0.04108429,-7.393303,0.012016296,0.037879944,-1.5960922,-1.0292002,-0.064582825,-3.4955368,2.0335696,0.0005722046,-8.209965,0.0,0.0,0.0,0.0,0.0,0.0,0.0,0.0,0.0,0.0,0.0,0.0,-1.0,0.93280303,-1.0,1.0,0.28279305,-1.0,1.0,-0.64567786,-1.0,-1.0,-0.6373619,-1.0
2025-06-05 18:26:21.288,0.668416,-7.899806,0.705134,-0.0007457268,0.0008028689,0.00080000656,1.316833,0.113009,9.691767,-0.013847351,-0.08243561,-1.1273384,-0.8462474,0.046043396,2.8925018,1.7231472,-0.02544403,-1.981842,0.027656555,-0.008964539,0.822155,-0.88935345,0.07450104,-0.3949051,1.7523168,0.008506775,-2.5958633,-0.015525818,0.007286072,1.719387,-0.99128217,0.01941681,-4.3219643,1.991735,0.002632141,-7.389641,0.01209259,-0.035362244,-1.6107407,-1.0292765,-0.039787292,-3.4882126,2.033417,-0.032844543,-8.217289,0.0,0.0,0.0,0.0,0.0,0.0,0.0,0.0,0.0,0.0,0.0,0.0,-1.0,0.9313173,-1.0,1.0,0.2791815,-1.0,1.0,-0.6437161,-1.0,-1.0,-0.6313102,-1.0
2025-06-05 18:26:21.339,0.67041,-7.893347,0.708005,-0.0011041476,-0.0011460704,0.0027590513,1.328552,0.108316,9.716462,-0.013999939,0.016670227,-1.1310005,-0.8462474,-0.00011444092,2.8900604,1.7231472,0.021247864,-2.0099182,0.027656555,0.04207611,0.8319206,-0.88942975,-0.054969788,-0.3961258,1.7523168,-0.006828308,-2.5738907,-0.01537323,0.04863739,1.7352562,-0.99135846,-0.026741028,-4.285343,1.9918876,0.038108826,-7.3945236,0.012016296,-0.008811951,-1.6424828,-1.0292002,-0.0064468384,-3.44915,2.0334933,-0.021629333,-8.195316,0.0,0.0,0.0,0.0,0.0,0.0,0.0,0.0,0.0,0.0,0.0,0.0,-1.0,0.93104,-1.0,1.0,0.28533533,-1.0,1.0,-0.6467595,-1.0,-1.0,-0.6393334,-1.0
2025-06-05 18:26:21.391,0.671191,-7.893594,0.70316,-0.00013533283,-5.6426492e-05,-0.0007114835,1.351413,0.113359,9.712484,-0.013999939,0.08899689,-1.1273384,-0.8462474,-0.0074386597,2.8546562,1.7230709,-0.018043518,-2.0282288,0.027656555,-0.023765564,0.8172722,-0.88950604,0.0075149536,-0.37292862,1.7523168,0.025596619,-2.57267,-0.015449524,-0.009117126,1.7206078,-0.99143475,0.033226013,-4.3244057,1.9918113,-0.005836487,-7.412834,0.012168884,0.060691833,-1.6144028,-1.0292765,-0.012321472,-3.4760056,2.0334933,-0.037345886,-8.2233925,0.0,0.0,0.0,0.0,0.0,0.0,0.0,0.0,0.0,0.0,0.0,0.0,-1.0,0.9313063,-1.0,1.0,0.282505,-1.0,1.0,-0.64754677,-1.0,-1.0,-0.6323509,-1.0
2025-06-05 18:26:21.442,0.670892,-7.888159,0.704881,0.0013839589,0.0008209854,0.0016126144,1.328982,0.094754,9.709337,-0.013923645,0.0011062622,-1.1248932,-0.8462474,-0.008277893,2.8644218,1.7232234,-0.0182724,-1.9916077,0.02773285,0.02117157,0.80628586,-0.88958234,-0.08617401,-0.4022293,1.7522405,-0.004463196,-2.5665665,-0.015602112,-0.0157547,1.7169456,-0.99135846,0.008201599,-4.3219643,1.991735,-0.015907288,-7.400627,0.012016296,-0.019874573,-1.6180649,-1.0292765,0.065574646,-3.4271774,2.0336459,-0.04673004,-8.21973,0.0,0.0,0.0,0.0,0.0,0.0,0.0,0.0,0.0,0.0,0.0,0.0,-1.0,0.9310404,-1.0,1.0,0.2842094,-1.0,1.0,-0.6516628,-1.0,-1.0,-0.6395111,-1.0
2025-06-05 18:26:21.493,0.667466,-7.886178,0.707464,-0.0015737633,-0.0019742467,-0.0042261225,1.301426,0.099198,9.695878,-0.014152527,-0.08563995,-1.1248932,-0.8461711,0.031929016,2.855877,1.7232997,-0.019264221,-2.0050354,0.027656555,0.04459381,0.84656906,-0.88950604,0.027046204,-0.3692665,1.7521642,-0.021247864,-2.5897598,-0.015678406,-0.031318665,1.7022972,-0.99151105,0.008277893,-4.351261,1.9918113,0.02910614,-7.392082,0.012016296,-0.06465912,-1.621727,-1.0292765,0.013847351,-3.4930954,2.0334933,-0.017585754,-8.222172,0.0,0.0,0.0,0.0,0.0,0.0,0.0,0.0,0.0,0.0,0.0,0.0,-1.0,0.93125564,-1.0,1.0,0.27984264,-1.0,1.0,-0.64629483,-1.0,-1.0,-0.6368309,-1.0
2025-06-05 18:26:21.546,0.664922,-7.881898,0.703261,0.001543831,0.0013549689,-0.00043952625,1.285673,0.112238,9.70052,-0.014152527,-0.03276825,-1.1407661,-0.8462474,0.012397766,2.8534355,1.7231472,0.023994446,-2.0343323,0.027809143,0.023002625,0.8306999,-0.88950604,-0.019111633,-0.3973465,1.7521642,0.0064468384,-2.5738907,-0.015602112,-0.03414154,1.719387,-0.99151105,0.08922577,-4.310978,1.991735,-0.0346756,-7.361561,0.0118637085,-0.046577454,-1.6107407,-1.0292002,0.046806335,-3.5016403,2.0335696,0.043067932,-8.208744,0.0,0.0,0.0,0.0,0.0,0.0,0.0,0.0,0.0,0.0,0.0,0.0,-1.0,0.9311036,-1.0,1.0,0.27740043,-1.0,1.0,-0.6532912,-1.0,-1.0,-0.6407883,-1.0
2025-06-05 18:26:21.598,0.658072,-7.886046,0.705424,-0.00082789693,0.0028867396,0.0016443968,1.332864,0.111659,9.686349,-0.013999939,-0.050315857,-1.1236725,-0.8461711,-0.020637512,2.859539,1.7232997,0.037117004,-1.9891663,0.027656555,-0.022697449,0.80140305,-0.88965863,-0.031318665,-0.42176056,1.7523168,0.015830994,-2.5860977,-0.015678406,-0.013771057,1.7230492,-0.99151105,-0.0422287,-4.380562,1.991735,0.026512146,-7.4042892,0.01209259,-0.015602112,-1.6131821,-1.0293528,-0.10639191,-3.5089645,2.0335696,-0.008201599,-8.180668,0.0,0.0,0.0,0.0,0.0,0.0,0.0,0.0,0.0,0.0,0.0,0.0,-1.0,0.9321346,-1.0,1.0,0.28724578,-1.0,1.0,-0.6409582,-1.0,-1.0,-0.6368596,-1.0
2025-06-05 18:26:21.652,0.653869,-7.88079,0.706863,-6.958628e-05,-0.00032522465,0.0018477626,1.307352,0.095389,9.724687,-0.013999939,0.079689026,-1.1212311,-0.8461711,-0.013313293,2.8827362,1.7232997,0.021781921,-2.0123596,0.027427673,0.006828308,0.8245964,-0.88950604,0.061683655,-0.34729385,1.7523931,0.0014877319,-2.5677872,-0.015678406,-0.0014877319,1.715725,-0.99143475,-0.04245758,-4.293888,1.9918113,0.0049972534,-7.396965,0.01209259,0.0022506714,-1.6339378,-1.029658,-0.051689148,-3.4796677,2.0334933,0.012016296,-8.233158,0.0,0.0,0.0,0.0,0.0,0.0,0.0,0.0,0.0,0.0,0.0,0.0,-1.0,0.93138385,-1.0,1.0,0.2875218,-1.0,1.0,-0.643,-1.0,-1.0,-0.63413715,-1.0
2025-06-05 18:26:21.704,0.652417,-7.882099,0.704675,0.0007964112,-0.0025350559,-0.0023839627,1.323369,0.103409,9.673426,-0.013999939,0.023231506,-1.1212311,-0.8461711,0.006828308,2.875412,1.7231472,-0.011024475,-2.0221252,0.02773285,0.012779236,0.8111687,-0.8891246,0.011787415,-0.34363174,1.7523168,-0.0018692017,-2.5738907,-0.015678406,-0.039863586,1.7352562,-0.99128217,-0.03856659,-4.309757,1.9918113,0.016822815,-7.3957443,0.01209259,0.007972717,-1.60952,-1.0292002,0.011482239,-3.478447,2.0335696,-0.033836365,-8.200199,0.0,0.0,0.0,0.0,0.0,0.0,0.0,0.0,0.0,0.0,0.0,0.0,-1.0,0.93125945,-1.0,1.0,0.2854916,-1.0,1.0,-0.6462139,-1.0,-1.0,-0.6343841,-1.0
2025-06-05 18:26:21.758,0.652,-7.883863,0.70004,-0.0012641071,-0.0016845743,0.0013556845,1.311466,0.124732,9.716403,-0.014076233,0.04436493,-1.1187897,-0.8460948,-0.02658844,2.8656425,1.7232234,-0.01865387,-1.9989319,0.027885437,-0.016365051,0.8294792,-0.88942975,-0.018882751,-0.3668251,1.7523168,-0.0002670288,-2.581215,-0.0157547,0.0030136108,1.7169456,-0.99143475,-0.06504059,-4.3134193,1.991735,0.011711121,-7.38842,0.011940002,0.0146865845,-1.6278343,-1.0290476,0.047340393,-3.4723434,2.033417,0.015296936,-8.209965,0.0,0.0,0.0,0.0,0.0,0.0,0.0,0.0,0.0,0.0,0.0,0.0,-1.0,0.9311031,-1.0,1.0,0.2843989,-1.0,1.0,-0.6466803,-1.0,-1.0,-0.6394981,-1.0
2025-06-05 18:26:21.811,0.648479,-7.884171,0.706766,7.7702054e-05,0.0031624318,0.00038123227,1.331541,0.097002,9.678618,-0.014228821,-0.020713806,-1.1200104,-0.84632367,0.025596619,2.8656425,1.7232234,0.05130768,-2.023346,0.027427673,-0.07709503,0.8270378,-0.88958234,0.012016296,-0.3692665,1.7522405,0.010032654,-2.5714493,-0.015449524,-0.0050735474,1.727932,-0.99143475,-0.12310028,-4.3256264,1.991735,0.023994446,-7.365223,0.012016296,-0.015449524,-1.6229477,-1.0292002,0.044441223,-3.46624,2.033417,-0.012931824,-8.228275,0.0,0.0,0.0,0.0,0.0,0.0,0.0,0.0,0.0,0.0,0.0,0.0,-1.0,0.93083465,-1.0,1.0,0.2866642,-1.0,1.0,-0.64215624,-1.0,-1.0,-0.63872075,-1.0
2025-06-05 18:26:21.863,0.646832,-7.87509,0.709343,-0.00275303,0.0008287521,0.00013798573,1.323707,0.086938,9.726413,-0.013923645,0.042686462,-1.1187897,-0.8461711,0.051612854,2.8522148,1.7231472,0.007286072,-2.0172424,0.027656555,0.03551483,0.8270378,-0.88935345,0.034599304,-0.34851456,1.7522405,0.019798279,-2.5751114,-0.015907288,-0.041160583,1.7267113,-0.99135846,-0.06473541,-4.307316,1.991735,-0.023536682,-7.412834,0.012016296,0.033683777,-1.6119614,-1.0292002,-0.0017166138,-3.482109,2.0336459,-0.0233078,-8.212406,0.0,0.0,0.0,0.0,0.0,0.0,0.0,0.0,0.0,0.0,0.0,0.0,-1.0,0.9305232,-1.0,1.0,0.28582883,-1.0,1.0,-0.6428325,-1.0,-1.0,-0.6295369,-1.0
2025-06-05 18:26:21.916,0.647769,-7.872754,0.708207,0.0021062982,-0.0022428876,5.2499505e-05,1.332555,0.119589,9.713031,-0.013999939,0.06397247,-1.1322212,-0.8460948,0.01499176,2.8607597,1.7232234,0.004081726,-2.0306702,0.027809143,0.03780365,0.8160515,-0.88920087,0.025520325,-0.3692665,1.7522405,-0.013389587,-2.576332,-0.01537323,0.015144348,1.7108421,-0.99143475,-0.016822815,-4.3012123,1.9918113,0.011634827,-7.372547,0.012016296,0.07862091,-1.6192856,-1.0290476,0.036201477,-3.454033,2.0333407,-0.0017166138,-8.207523,0.0,0.0,0.0,0.0,0.0,0.0,0.0,0.0,0.0,0.0,0.0,0.0,-1.0,0.93087506,-1.0,1.0,0.28279296,-1.0,1.0,-0.64367217,-1.0,-1.0,-0.6358629,-1.0
2025-06-05 18:26:21.969,0.646878,-7.883799,0.70739,-0.0019341739,-8.354891e-05,-0.00063126814,1.357927,0.114485,9.695363,-0.013999939,0.059928894,-1.1395454,-0.8461711,0.039253235,2.8619804,1.7230709,-0.015525818,-2.0367737,0.027427673,-0.09563446,0.8294792,-0.88965863,0.04169464,-0.3997879,1.7523168,-0.008125305,-2.560463,-0.015678406,0.0050735474,1.7303734,-0.99135846,-0.03299713,-4.290226,1.9916587,-0.021781921,-7.3859787,0.01209259,0.004005432,-1.5985336,-1.0289713,-0.0024032593,-3.4711227,2.033417,-0.046043396,-8.198978,0.0,0.0,0.0,0.0,0.0,0.0,0.0,0.0,0.0,0.0,0.0,0.0,-1.0,0.9311312,-1.0,1.0,0.28035352,-1.0,1.0,-0.64247763,-1.0,-1.0,-0.631613,-1.0
2025-06-05 18:26:22.022,0.645337,-7.878705,0.711231,0.0012790296,8.0075704e-05,0.0017359917,1.309379,0.114425,9.696701,-0.014076233,0.0048446655,-1.1187897,-0.8461711,0.006904602,2.8693047,1.7232997,-0.0007247925,-1.9769592,0.02773285,0.049552917,0.80994797,-0.88950604,-0.0258255,-0.3961258,1.7522405,0.018959045,-2.5787735,-0.0157547,0.0012588501,1.7181664,-0.99128217,0.050315857,-4.298771,1.9918113,0.041160583,-7.401848,0.011940002,-0.033302307,-1.6119614,-1.0291239,-0.069618225,-3.4467087,2.0334933,-0.041618347,-8.213627,0.0,0.0,0.0,0.0,0.0,0.0,0.0,0.0,0.0,0.0,0.0,0.0,-1.0,0.93177325,-1.0,1.0,0.28315917,-1.0,1.0,-0.6491237,-1.0,-1.0,-0.6359979,-1.0
2025-06-05 18:26:22.074,0.642026,-7.877398,0.708856,-0.0011502766,0.0005205444,-0.0016032071,1.315458,0.105646,9.683273,-0.013771057,0.063438416,-1.1114655,-0.8460185,0.095939636,2.8656425,1.7232234,0.022468567,-2.0221252,0.027809143,-0.045051575,0.80872726,-0.88950604,-0.036582947,-0.37292862,1.7522405,-0.021476746,-2.5836563,-0.015449524,0.0011062622,1.7218285,-0.99135846,-0.010108948,-4.3463783,1.991735,0.0048446655,-7.3981857,0.012168884,0.037727356,-1.5960922,-1.0291239,0.018119812,-3.4625778,2.0336459,-0.0048446655,-8.21973,0.0,0.0,0.0,0.0,0.0,0.0,0.0,0.0,0.0,0.0,0.0,0.0,-1.0,0.92982364,-1.0,1.0,0.27495778,-1.0,1.0,-0.64355195,-1.0,-1.0,-0.6364472,-1.0
2025-06-05 18:26:22.126,0.643839,-7.878092,0.707397,0.0023361754,0.00088210683,3.8676495e-05,1.373056,0.102695,9.730795,-0.013847351,0.0699234,-1.1151276,-0.8460948,0.008659363,2.8497734,1.7232234,0.003929138,-2.002594,0.027656555,-0.00415802,0.8209343,-0.88965863,-0.017356873,-0.45105743,1.7521642,-0.0146865845,-2.5653458,-0.015449524,0.010032654,1.7120628,-0.99151105,-0.067100525,-4.295109,1.991735,0.0048446655,-7.3871994,0.011940002,0.005302429,-1.6180649,-1.0292002,-0.040016174,-3.4637985,2.0335696,0.0074386597,-8.192875,0.0,0.0,0.0,0.0,0.0,0.0,0.0,0.0,0.0,0.0,0.0,0.0,-1.0,0.9313406,-1.0,1.0,0.28364387,-1.0,1.0,-0.64175045,-1.0,-1.0,-0.6353219,-1.0
2025-06-05 18:26:22.178,0.637315,-7.879981,0.710505,0.00049474847,-0.00058220694,-0.0016202589,1.3406,0.107038,9.716811,-0.014152527,-0.01209259,-1.1200104,-0.8462474,0.028419495,2.8900604,1.7232997,0.027656555,-2.0038147,0.02773285,-0.0283432,0.8123894,-0.88950604,-0.11898041,-0.37537384,1.7522405,0.002708435,-2.5799942,-0.015525818,0.002708435,1.7242699,-0.99128217,-0.059165955,-4.3048744,1.9916587,0.014228821,-7.412834,0.012245178,-0.0132369995,-1.6156235,-1.0292002,-0.071754456,-3.454033,2.0334933,0.0030136108,-8.208744,0.0,0.0,0.0,0.0,0.0,0.0,0.0,0.0,0.0,0.0,0.0,0.0,-1.0,0.93085384,-1.0,1.0,0.28557122,-1.0,1.0,-0.6465047,-1.0,-1.0,-0.6376505,-1.0
2025-06-05 18:26:22.230,0.635604,-7.8812,0.704628,-0.0018899647,-0.00016280431,0.0012502666,1.326044,0.09724,9.708148,-0.014076233,0.0036239624,-1.1200104,-0.8461711,-0.020942688,2.8400078,1.7231472,-0.009651184,-2.0099182,0.02773285,-0.022621155,0.8184929,-0.88950604,-0.05870819,-0.3680458,1.7522405,-0.016593933,-2.5690079,-0.015678406,-0.09815216,1.7254906,-0.99166363,-0.0018692017,-4.330509,1.991735,0.030403137,-7.3994064,0.01209259,0.0812912,-1.6205063,-1.0295054,0.060768127,-3.4894333,2.0333407,-0.0062942505,-8.187992,0.0,0.0,0.0,0.0,0.0,0.0,0.0,0.0,0.0,0.0,0.0,0.0,-1.0,0.9318633,-1.0,1.0,0.28342026,-1.0,1.0,-0.648978,-1.0,-1.0,-0.6391263,-1.0
2025-06-05 18:26:22.283,0.631906,-7.88114,0.706984,0.00050768134,0.0016504183,-0.0004681671,1.344562,0.115446,9.652838,-0.013999939,-0.038261414,-1.1285591,-0.8462474,-0.016593933,2.8851776,1.7231472,-0.017662048,-2.0086975,0.02773285,-0.034065247,0.8123894,-0.88958234,0.06504059,-0.3704872,1.7523168,-0.017356873,-2.5702286,-0.015602112,-0.00019073486,1.7413597,-0.99151105,0.00995636,-4.352482,1.9915824,-0.024986267,-7.4042892,0.012016296,0.010643005,-1.6168442,-1.0291239,-0.012321472,-3.4845505,2.0334933,0.018806458,-8.224613,0.0,0.0,0.0,0.0,0.0,0.0,0.0,0.0,0.0,0.0,0.0,0.0,-1.0,0.9319761,-1.0,1.0,0.2806275,-1.0,1.0,-0.6428219,-1.0,-1.0,-0.6348457,-1.0
2025-06-05 18:26:22.335,0.631695,-7.876785,0.703775,-0.00396181,-0.000689248,0.0019717508,1.298375,0.105102,9.71789,-0.013923645,0.029029846,-1.1236725,-0.8461711,-0.01247406,2.8729668,1.7230709,-0.01247406,-2.006256,0.02773285,-0.006828308,0.8245964,-0.88942975,0.009269714,-0.4010086,1.7522405,0.0074386597,-2.5653458,-0.0157547,-0.033836365,1.7096214,-0.99158734,-0.0010299683,-4.2890053,1.9918113,0.012245178,-7.3871994,0.01209259,-0.0002670288,-1.6266136,-1.0292765,0.015449524,-3.4442673,2.0335696,-0.01613617,-8.185551,0.0,0.0,0.0,0.0,0.0,0.0,0.0,0.0,0.0,0.0,0.0,0.0,-1.0,0.9317991,-1.0,1.0,0.28314513,-1.0,1.0,-0.6478411,-1.0,-1.0,-0.6366275,-1.0
2025-06-05 18:26:22.386,0.629997,-7.876986,0.705838,-0.0015545647,0.0009988868,-0.00058421405,1.333301,0.131613,9.724596,-0.014076233,0.053596497,-1.1126862,-0.8462474,-0.018119812,2.8778534,1.7231472,-0.021781921,-2.0099182,0.02773285,0.02292633,0.8184929,-0.88942975,0.012397766,-0.37903595,1.7523168,0.0025558472,-2.5787735,-0.015602112,0.021324158,1.7169456,-0.99135846,-0.005531311,-4.3219643,1.991735,-0.039405823,-7.393303,0.01209259,0.013389587,-1.6070786,-1.0292765,-0.03299713,-3.482109,2.0336459,0.046272278,-8.203861,0.0,0.0,0.0,0.0,0.0,0.0,0.0,0.0,0.0,0.0,0.0,0.0,-1.0,0.931051,-1.0,1.0,0.2820963,-1.0,1.0,-0.6456269,-1.0,-1.0,-0.63501835,-1.0
2025-06-05 18:26:22.437,0.629953,-7.876123,0.702421,-0.0007479434,-0.0003658559,-0.002203897,1.319315,0.084036,9.672031,-0.014076233,0.030174255,-1.1163483,-0.8459422,-0.00064849854,2.8656425,1.7231472,-0.001411438,-2.0050354,0.027656555,0.039482117,0.8282585,-0.88927716,-0.0017929077,-0.3985672,1.7521642,0.0016403198,-2.584877,-0.015602112,0.0010299683,1.7218285,-0.99151105,-0.0737381,-4.3414955,1.991735,-0.010185242,-7.377434,0.01209259,0.001411438,-1.6070786,-1.0294291,0.0749588,-3.478447,2.0335696,-0.028266907,-8.187992,0.0,0.0,0.0,0.0,0.0,0.0,0.0,0.0,0.0,0.0,0.0,0.0,-1.0,0.93082774,-1.0,1.0,0.28759143,-1.0,1.0,-0.6447905,-1.0,-1.0,-0.63647807,-1.0
2025-06-05 18:26:22.488,0.627893,-7.873281,0.701436,-0.0017856987,-0.0006736447,0.0003912679,1.334624,0.105607,9.715608,-0.014152527,0.05809784,-1.117569,-0.8462474,0.008735657,2.8534355,1.7231472,-0.04611969,-2.027008,0.02773285,0.039863586,0.8294792,-0.88958234,-0.0051498413,-0.35339737,1.7521642,0.011482239,-2.5738907,-0.015525818,0.029182434,1.7242699,-0.99135846,-0.03879547,-4.3219643,1.9918113,0.051078796,-7.373768,0.012016296,0.087776184,-1.6156235,-1.0293528,0.011100769,-3.4479294,2.0334933,-0.0015640259,-8.180668,0.0,0.0,0.0,0.0,0.0,0.0,0.0,0.0,0.0,0.0,0.0,0.0,-1.0,0.93079925,-1.0,1.0,0.28201878,-1.0,1.0,-0.64574885,-1.0,-1.0,-0.6350489,-1.0
2025-06-05 18:26:22.539,0.628538,-7.869824,0.7007,-0.0011792666,-8.717919e-05,3.6651913e-05,1.342415,0.115881,9.700018,-0.014076233,0.06320953,-1.1053619,-0.8460948,-0.00019073486,2.8424492,1.7230709,-0.0011825562,-2.0416565,0.027885437,0.023536682,0.8270378,-0.88935345,0.01903534,-0.3973465,1.7522405,-0.025367737,-2.564125,-0.015678406,-0.020256042,1.7303734,-0.9912059,0.041770935,-4.3219643,1.9918113,0.02658844,-7.3835373,0.01209259,0.008430481,-1.629055,-1.0292002,-0.020179749,-3.4564743,2.033417,-0.032310486,-8.206303,0.0,0.0,0.0,0.0,0.0,0.0,0.0,0.0,0.0,0.0,0.0,0.0,-1.0,0.93181896,-1.0,1.0,0.2816467,-1.0,1.0,-0.64607775,-1.0,-1.0,-0.6348766,-1.0
2025-06-05 18:26:22.590,0.62864,-7.868033,0.704618,-0.00034746015,0.00015329226,0.0030933167,1.306861,0.102109,9.699341,-0.014152527,0.032844543,-1.1346626,-0.8460948,0.01499176,2.879074,1.7232997,0.031166077,-2.0099182,0.027809143,0.056266785,0.822155,-0.88935345,-0.010261536,-0.40589142,1.7522405,-0.016212463,-2.576332,-0.0157547,-0.046577454,1.719387,-0.99135846,0.024681091,-4.3134193,1.9915824,-0.012779236,-7.38842,0.012168884,0.04131317,-1.6180649,-1.0293528,0.047569275,-3.4589157,2.0334933,0.076179504,-8.196537,0.0,0.0,0.0,0.0,0.0,0.0,0.0,0.0,0.0,0.0,0.0,0.0,-1.0,0.9308677,-1.0,1.0,0.2800204,-1.0,1.0,-0.64782757,-1.0,-1.0,-0.64065516,-1.0
2025-06-05 18:26:22.641,0.633123,-7.864805,0.703904,0.0009071,0.0013478654,-0.00040221112,1.345177,0.123545,9.69608,-0.013847351,0.031166077,-1.1285591,-0.8460185,0.04650116,2.8632011,1.7232997,0.0090408325,-1.9952698,0.027580261,-0.008659363,0.8306999,-0.88927716,0.019569397,-0.4010086,1.7521642,-0.004463196,-2.5775528,-0.015602112,-0.014228821,1.715725,-0.99135846,0.0258255,-4.3134193,1.9918113,-0.020256042,-7.3994064,0.011940002,0.024681091,-1.6168442,-1.0291239,0.015907288,-3.5101852,2.0336459,0.03429413,-8.209965,0.0,0.0,0.0,0.0,0.0,0.0,0.0,0.0,0.0,0.0,0.0,0.0,-1.0,0.9306869,-1.0,1.0,0.275056,-1.0,1.0,-0.6447797,-1.0,-1.0,-0.63503516,-1.0
2025-06-05 18:26:22.692,0.632798,-7.860598,0.704693,-0.0009424254,0.0019150102,0.00036353464,1.329808,0.095967,9.689074,-0.014076233,0.010566711,-1.1187897,-0.8461711,0.0061416626,2.838787,1.7232997,0.010566711,-1.9794006,0.027656555,0.04245758,0.8270378,-0.88965863,-0.040855408,-0.4412918,1.7523168,-0.0008010864,-2.543373,-0.015678406,0.046653748,1.7096214,-0.99151105,-0.033683777,-4.3366127,1.9918113,0.0036239624,-7.400627,0.012168884,0.08136749,-1.6131821,-1.0293528,-0.01789093,-3.4723434,2.0334933,0.00019073486,-8.195316,0.0,0.0,0.0,0.0,0.0,0.0,0.0,0.0,0.0,0.0,0.0,0.0,-1.0,0.9313326,-1.0,1.0,0.2849086,-1.0,1.0,-0.641424,-1.0,-1.0,-0.6357522,-1.0
2025-06-05 18:26:22.744,0.632296,-7.859312,0.704103,-1.0384709e-05,0.0005283286,0.0009724276,1.326207,0.121965,9.698712,-0.013999939,-0.06214142,-1.1529732,-0.8461711,-0.025520325,2.875412,1.7231472,0.020256042,-2.0416565,0.02773285,-0.03490448,0.8172722,-0.88942975,0.0032424927,-0.37170792,1.7522405,0.0065231323,-2.5860977,-0.015907288,-0.061683655,1.7108421,-0.99135846,0.004310608,-4.2963295,1.991735,0.0371933,-7.3945236,0.01209259,0.00957489,-1.6107407,-1.0291239,0.02910614,-3.469902,2.0335696,0.056114197,-8.216068,0.0,0.0,0.0,0.0,0.0,0.0,0.0,0.0,0.0,0.0,0.0,0.0,-1.0,0.9322775,-1.0,1.0,0.2808098,-1.0,1.0,-0.64886105,-1.0,-1.0,-0.64244807,-1.0
2025-06-05 18:26:22.796,0.630574,-7.86376,0.704334,-0.0009355488,0.00052705454,0.0013861754,1.336744,0.10342,9.683119,-0.014152527,0.0018692017,-1.1297798,-0.8460185,0.01712799,2.8815155,1.7231472,-0.02696991,-2.006256,0.02773285,-0.01903534,0.8160515,-0.88950604,0.010032654,-0.4010086,1.7522405,0.031547546,-2.5836563,-0.015602112,-0.016593933,1.7242699,-0.9912059,0.005607605,-4.3414955,1.991735,0.024528503,-7.389641,0.012016296,-0.007209778,-1.6180649,-1.0293528,-0.0522995,-3.5187302,2.0335696,-0.0075912476,-8.20142,0.0,0.0,0.0,0.0,0.0,0.0,0.0,0.0,0.0,0.0,0.0,0.0,-1.0,0.93133146,-1.0,1.0,0.2800455,-1.0,1.0,-0.64632,-1.0,-1.0,-0.6339368,-1.0
2025-06-05 18:26:22.847,0.629205,-7.86481,0.703878,0.0005688202,0.00124154,9.5469506e-05,1.317869,0.070533,9.715857,-0.014076233,-0.021095276,-1.1419868,-0.84632367,0.05153656,2.8851776,1.7232234,0.037269592,-2.006256,0.027809143,0.028953552,0.8306999,-0.88942975,-0.015144348,-0.3961258,1.7523931,0.010032654,-2.560463,-0.015602112,0.010261536,1.7242699,-0.99151105,-0.011177063,-4.323185,1.9918113,0.02254486,-7.3871994,0.012016296,-0.0020980835,-1.60952,-1.0291239,0.041542053,-3.4528122,2.0335696,0.012626648,-8.222172,0.0,0.0,0.0,0.0,0.0,0.0,0.0,0.0,0.0,0.0,0.0,0.0,-1.0,0.93050385,-1.0,1.0,0.28008312,-1.0,1.0,-0.64701,-1.0,-1.0,-0.6398087,-1.0
2025-06-05 18:26:22.898,0.624073,-7.86846,0.700979,0.002350365,-0.012460272,-0.0019450648,1.337292,0.060328,10.024109,-0.013923645,0.09700775,-1.1419868,-0.8460185,0.04146576,2.855877,1.7236812,-0.037879944,-1.9940491,0.027656555,-0.016670227,0.8258171,-0.88958234,0.03299713,-0.4010086,1.7523931,-0.042762756,-2.5384903,-0.015678406,0.015602112,1.7218285,-0.99135846,0.06481171,-4.3134193,1.9921165,-0.039405823,-7.3871994,0.012168884,-0.02407074,-1.6058578,-1.0295817,0.02155304,-3.4955368,2.0343325,0.005455017,-8.179447,0.0,0.0,0.0,0.0,0.0,0.0,0.0,0.0,0.0,0.0,0.0,0.0,-1.0,0.93097764,-1.0,1.0,0.27236626,-1.0,1.0,-0.64689785,-1.0,-1.0,-0.63465023,-1.0
2025-06-05 18:26:22.949,0.624452,-7.87852,0.710047,0.0043561496,-0.0029418746,0.0009487959,1.349313,0.097237,9.403593,-0.014228821,-0.0283432,-1.1200104,-0.8459422,0.015068054,2.8497734,1.7237575,0.060539246,-2.0135803,0.027961731,0.03856659,0.8319206,-0.88958234,0.016059875,-0.44739532,1.7524694,0.04749298,-2.5799942,-0.0157547,-0.008964539,1.7352562,-0.9911296,-0.016746521,-4.335392,1.992269,-0.017280579,-7.396965,0.012016296,-0.025062561,-1.6144028,-1.0292765,-0.049934387,-3.4857712,2.0341036,0.035438538,-8.220951,0.0,0.0,0.0,0.0,0.0,0.0,0.0,0.0,0.0,0.0,0.0,0.0,-1.0,0.93167174,-1.0,1.0,0.2847445,-1.0,1.0,-0.6431117,-1.0,-1.0,-0.6383852,-1.0
2025-06-05 18:26:23.000,0.625678,-7.872886,0.700441,-0.0043517863,-0.00059550634,-0.001233075,1.344194,0.109887,9.505153,-0.014305115,-0.034217834,-1.1126862,-0.8458659,0.008201599,2.8741875,1.7235286,0.0062942505,-2.0306702,0.027961731,-0.0017929077,0.8319206,-0.88920087,0.012702942,-0.37903595,1.7525457,-0.04436493,-2.5897598,-0.015525818,0.005302429,1.7315941,-0.99135846,0.01789093,-4.2999916,1.9921165,-0.0017929077,-7.3994064,0.011940002,0.08945465,-1.6144028,-1.0294291,0.042304993,-3.4979782,2.0342562,-0.017051697,-8.200199,0.0,0.0,0.0,0.0,0.0,0.0,0.0,0.0,0.0,0.0,0.0,0.0,-1.0,0.9318116,-1.0,1.0,0.2817249,-1.0,1.0,-0.6432216,-1.0,-1.0,-0.6356422,-1.0
2025-06-05 18:26:23.051,0.623977,-7.865493,0.706983,-0.001236269,-0.0025242,0.003734062,1.253179,0.08024,9.843553,-0.014152527,-0.03299713,-1.1212311,-0.8458659,0.0062179565,2.8741875,1.723376,-0.027275085,-2.0257874,0.027961731,-0.04650116,0.83558273,-0.88958234,0.020637512,-0.3949051,1.7524694,0.027580261,-2.5690079,-0.015983582,-0.0051498413,1.7254906,-0.99135846,0.0050735474,-4.286564,1.9921165,0.0010299683,-7.4030685,0.011634827,0.00957489,-1.6180649,-1.0298868,0.011940002,-3.4503708,2.03418,0.0025558472,-8.217289,0.0,0.0,0.0,0.0,0.0,0.0,0.0,0.0,0.0,0.0,0.0,0.0,-1.0,0.93170756,-1.0,1.0,0.2797499,-1.0,1.0,-0.64718056,-1.0,-1.0,-0.63724566,-1.0
2025-06-05 18:26:23.102,0.61508,-7.868315,0.70475,-0.0015031648,-0.0011224911,-0.004129362,1.329354,0.092752,9.759198,-0.013923645,0.013999939,-1.1322212,-0.8460185,0.005683899,2.8778534,1.7236049,-0.0104904175,-2.0001526,0.028114319,-0.0050735474,0.8197136,-0.88950604,0.0030899048,-0.39002228,1.7524694,-0.01247406,-2.576332,-0.0157547,0.02544403,1.7303734,-0.99151105,-0.07839203,-4.323185,1.992269,-0.046653748,-7.4067307,0.011787415,-0.0008773804,-1.621727,-1.0295817,-0.00064849854,-3.4894333,2.0342562,0.0004196167,-8.233158,0.0,0.0,0.0,0.0,0.0,0.0,0.0,0.0,0.0,0.0,0.0,0.0,-1.0,0.9311363,-1.0,1.0,0.2846385,-1.0,1.0,-0.6409618,-1.0,-1.0,-0.63481796,-1.0
2025-06-05 18:26:23.153,0.615128,-7.868617,0.698553,0.00082257367,0.001156682,-0.0006451784,1.342962,0.125268,9.648013,-0.014152527,-0.038414,-1.1346626,-0.8460185,0.035591125,2.8644218,1.7235286,0.043067932,-2.0172424,0.028038025,0.032920837,0.8123894,-0.88958234,0.027656555,-0.3656044,1.7525457,-0.009269714,-2.581215,-0.0157547,-0.018959045,1.719387,-0.99143475,-0.022239685,-4.309757,1.9921165,0.015525818,-7.4030685,0.011940002,0.036125183,-1.60952,-1.0293528,-0.008811951,-3.46624,2.0342562,0.0075149536,-8.222172,0.0,0.0,0.0,0.0,0.0,0.0,0.0,0.0,0.0,0.0,0.0,0.0,-1.0,0.93160975,-1.0,1.0,0.28399527,-1.0,1.0,-0.6426112,-1.0,-1.0,-0.6367201,-1.0
2025-06-05 18:26:23.204,0.616728,-7.863549,0.702008,-0.0016561778,0.0011807675,0.0011381466,1.348166,0.069789,9.647707,-0.013999939,-0.020713806,-1.1139069,-0.8460185,-0.0017166138,2.868084,1.7237575,-0.013618469,-2.0257874,0.027809143,-0.018348694,0.8282585,-0.88950604,0.013160706,-0.37414932,1.7524694,0.04962921,-2.6044083,-0.015602112,0.059318542,1.7291527,-0.99135846,-0.023841858,-4.2963295,1.9919639,-0.01613617,-7.4103928,0.011558533,-0.029335022,-1.5973129,-1.029658,0.044670105,-3.4955368,2.03418,0.03566742,-8.242924,0.0,0.0,0.0,0.0,0.0,0.0,0.0,0.0,0.0,0.0,0.0,0.0,-1.0,0.93080777,-1.0,1.0,0.28074417,-1.0,1.0,-0.6489668,-1.0,-1.0,-0.639861,-1.0
2025-06-05 18:26:23.255,0.614304,-7.864516,0.699704,0.00068596675,-0.0030288617,-0.0052221124,1.334015,0.116032,9.711791,-0.014076233,-0.025367737,-1.1310005,-0.8459422,0.013771057,2.8632011,1.7236049,0.0018692017,-2.0074768,0.027961731,0.0207901,0.8197136,-0.88965863,-0.031852722,-0.39246368,1.7525457,0.012702942,-2.539711,-0.015602112,0.045051575,1.7254906,-0.99166363,0.02872467,-4.352482,1.9921927,0.02773285,-7.3945236,0.012016296,0.04009247,-1.6144028,-1.0298105,-0.019340515,-3.4833298,2.03418,-0.011558533,-8.179447,0.0,0.0,0.0,0.0,0.0,0.0,0.0,0.0,0.0,0.0,0.0,0.0,-1.0,0.9314256,-1.0,1.0,0.2802857,-1.0,1.0,-0.6451495,-1.0,-1.0,-0.6373712,-1.0
2025-06-05 18:26:23.306,0.620339,-7.858936,0.695843,-0.0026166674,0.00022006856,0.0012629726,1.315537,0.128909,9.730909,-0.014228821,-0.05252838,-1.1432076,-0.8460185,0.014839172,2.8815155,1.7235286,0.016899109,-2.035553,0.027885437,0.019798279,0.8245964,-0.88942975,0.058937073,-0.39246368,1.7524694,-0.041007996,-2.5946426,-0.0157547,-0.09685516,1.70718,-0.99151105,-0.051460266,-4.3219643,1.9921927,0.0037002563,-7.401848,0.011787415,0.016288757,-1.6119614,-1.0297343,0.011177063,-3.4735641,2.03418,0.006904602,-8.233158,0.0,0.0,0.0,0.0,0.0,0.0,0.0,0.0,0.0,0.0,0.0,0.0,-1.0,0.9321692,-1.0,1.0,0.2851323,-1.0,1.0,-0.64090353,-1.0,-1.0,-0.63600194,-1.0
2025-06-05 18:26:23.357,0.61853,-7.853717,0.698976,-0.0009848719,-0.003952839,-0.0026138225,1.331316,0.085187,9.73016,-0.014228821,0.00011444092,-1.1236725,-0.8460948,0.001411438,2.896164,1.7236812,0.015068054,-2.0257874,0.02773285,-0.019798279,0.80628586,-0.88958234,0.054588318,-0.3704872,1.7523931,-0.012168884,-2.5665665,-0.015678406,0.013160706,1.7242699,-0.99151105,0.029945374,-4.2963295,1.9920402,-0.020713806,-7.40551,0.012016296,-0.016441345,-1.6144028,-1.0295054,-0.004463196,-3.4601364,2.0342562,-0.008354187,-8.256351,0.0,0.0,0.0,0.0,0.0,0.0,0.0,0.0,0.0,0.0,0.0,0.0,-1.0,0.931943,-1.0,1.0,0.28253174,-1.0,1.0,-0.645476,-1.0,-1.0,-0.6366998,-1.0
2025-06-05 18:26:23.408,0.616057,-7.860762,0.694646,-0.0036876537,-0.0041468847,0.0018238865,1.331892,0.088278,9.682073,-0.014152527,-0.05657196,-1.1383247,-0.8460948,-0.019187927,2.8802948,1.7234523,-0.0049209595,-2.0001526,0.027961731,0.041007996,0.8172722,-0.88935345,0.08937836,-0.38269806,1.7523931,-0.0074386597,-2.560463,-0.0157547,-0.03276825,1.7084007,-0.99135846,0.033302307,-4.3256264,1.9921165,-0.0073623657,-7.38842,0.011711121,-0.0963974,-1.5912094,-1.0295817,-0.061836243,-3.4979782,2.03418,-0.016288757,-8.208744,0.0,0.0,0.0,0.0,0.0,0.0,0.0,0.0,0.0,0.0,0.0,0.0,-1.0,0.93252987,-1.0,1.0,0.28449872,-1.0,1.0,-0.6458428,-1.0,-1.0,-0.6345549,-1.0
2025-06-05 18:26:23.459,0.611262,-7.856399,0.698703,-0.0042174486,-0.0024148375,-0.0023439422,1.335637,0.105059,9.682436,-0.014076233,0.0065994263,-1.1358833,-0.8459422,0.008888245,2.887619,1.7235286,0.0033187866,-1.9989319,0.028038025,-0.048179626,0.79896164,-0.88965863,-0.028266907,-0.37659454,1.7525457,-0.006752014,-2.5787735,-0.015602112,0.04825592,1.7303734,-0.99143475,0.0308609,-4.326847,1.9921927,-0.037727356,-7.4079514,0.011787415,0.042533875,-1.6107407,-1.0295817,-0.05001068,-3.4625778,2.0341036,-0.027427673,-8.208744,0.0,0.0,0.0,0.0,0.0,0.0,0.0,0.0,0.0,0.0,0.0,0.0,-1.0,0.9314462,-1.0,1.0,0.2817277,-1.0,1.0,-0.64367664,-1.0,-1.0,-0.6346954,-1.0
2025-06-05 18:26:23.510,0.612263,-7.849956,0.697587,-0.0027290143,0.0031133706,-0.0005159193,1.293802,0.088376,9.704942,-0.014228821,-0.0060653687,-1.109024,-0.8460948,-0.020103455,2.8656425,1.723376,-0.005302429,-2.0074768,0.027885437,0.039863586,0.8136101,-0.88942975,-0.0061416626,-0.38880157,1.7524694,-0.029563904,-2.5751114,-0.015602112,0.0034713745,1.7230492,-0.99143475,-0.0016403198,-4.3158607,1.9921927,0.0358963,-7.4226,0.0118637085,-0.017204285,-1.6107407,-1.0295054,0.015449524,-3.4552536,2.03418,0.0157547,-8.227055,0.0,0.0,0.0,0.0,0.0,0.0,0.0,0.0,0.0,0.0,0.0,0.0,-1.0,0.93184364,-1.0,1.0,0.28221512,-1.0,1.0,-0.6480335,-1.0,-1.0,-0.640798,-1.0
2025-06-05 18:26:23.561,0.608543,-7.852551,0.700791,-0.0022637094,-0.0018574492,-0.00082067127,1.347345,0.077449,9.694646,-0.014228821,-0.004005432,-1.1200104,-0.8460185,0.010719299,2.8632011,1.7236049,-0.028266907,-1.9781799,0.027809143,-0.05519867,0.8319206,-0.88958234,0.10181427,-0.3997879,1.7523931,-0.033226013,-2.576332,-0.0157547,-0.015525818,1.719387,-0.99158734,-0.04283905,-4.351261,1.9921165,0.020713806,-7.3994064,0.011940002,-0.004386902,-1.6314964,-1.0297343,-0.005531311,-3.5065231,2.03418,-0.0065994263,-8.192875,0.0,0.0,0.0,0.0,0.0,0.0,0.0,0.0,0.0,0.0,0.0,0.0,-1.0,0.9321017,-1.0,1.0,0.28024605,-1.0,1.0,-0.6396996,-1.0,-1.0,-0.63496685,-1.0
2025-06-05 18:26:23.612,0.607593,-7.853224,0.699521,0.0012780348,0.00069959776,0.0021937392,1.287434,0.118489,9.721097,-0.014076233,-0.0233078,-1.1358833,-0.8459422,0.034751892,2.871746,1.7236049,-0.03742218,-2.023346,0.027961731,0.0033187866,0.8282585,-0.88958234,-0.07045746,-0.39002228,1.752622,0.054130554,-2.5860977,-0.015525818,0.002708435,1.7291527,-0.99151105,-0.015602112,-4.281681,1.9920402,0.016365051,-7.409172,0.0118637085,0.013694763,-1.5973129,-1.0295054,0.03299713,-3.457695,2.0340273,-0.031013489,-8.211185,0.0,0.0,0.0,0.0,0.0,0.0,0.0,0.0,0.0,0.0,0.0,0.0,-1.0,0.93081146,-1.0,1.0,0.28191915,-1.0,1.0,-0.6513902,-1.0,-1.0,-0.6370841,-1.0
2025-06-05 18:26:23.663,0.607861,-7.854997,0.699621,-0.0002282018,-0.0043497267,-0.0020543048,1.339575,0.108546,9.664229,-0.014228821,0.008277893,-1.1236725,-0.8458659,0.030937195,2.8570976,1.7236812,-0.0049972534,-1.9830627,0.02773285,-0.011405945,0.8306999,-0.88958234,0.013084412,-0.3973465,1.7524694,-0.049324036,-2.5665665,-0.015525818,-0.016670227,1.7267113,-0.99128217,-0.012016296,-4.347599,1.9920402,0.0073623657,-7.384758,0.01209259,-0.015983582,-1.6107407,-1.0295054,0.0010299683,-3.4760056,2.0341036,-0.011100769,-8.207523,0.0,0.0,0.0,0.0,0.0,0.0,0.0,0.0,0.0,0.0,0.0,0.0,-1.0,0.9313975,-1.0,1.0,0.2794522,-1.0,1.0,-0.6423542,-1.0,-1.0,-0.6373713,-1.0
2025-06-05 18:26:23.714,0.614986,-7.853953,0.696852,-0.0030111293,-0.0017171422,0.0009478185,1.322962,0.129799,9.684377,-0.013999939,-0.048942566,-1.1114655,-0.8458659,0.007972717,2.8802948,1.7235286,0.04436493,-2.0331116,0.027961731,-0.05847931,0.80262375,-0.88950604,0.020179749,-0.37781525,1.7524694,0.013847351,-2.5555801,-0.015678406,0.0076675415,1.6974144,-0.9911296,0.08098602,-4.2841225,1.9921165,0.011711121,-7.36034,0.012016296,0.0283432,-1.6253929,-1.029658,0.0009536743,-3.4845505,2.0341036,-0.012016296,-8.21851,0.0,0.0,0.0,0.0,0.0,0.0,0.0,0.0,0.0,0.0,0.0,0.0,-1.0,0.9323735,-1.0,1.0,0.27866825,-1.0,1.0,-0.645972,-1.0,-1.0,-0.63868564,-1.0
2025-06-05 18:26:23.765,0.609497,-7.858501,0.701082,0.00085102255,0.0017800264,-0.00047745227,1.333025,0.085769,9.72859,-0.013999939,-0.041923523,-1.1261177,-0.8459422,-0.040245056,2.8766327,1.7236812,-0.05794525,-2.0196838,0.028038025,-0.0025558472,0.8172722,-0.88965863,0.07953644,-0.42420197,1.7524694,-0.06198883,-2.5873184,-0.015602112,0.019569397,1.7328148,-0.99135846,-0.008811951,-4.3292885,1.9921927,-0.014305115,-7.401848,0.0118637085,-0.050621033,-1.60952,-1.0297343,0.045890808,-3.4808884,2.03418,0.004005432,-8.207523,0.0,0.0,0.0,0.0,0.0,0.0,0.0,0.0,0.0,0.0,0.0,0.0,-1.0,0.9325504,-1.0,1.0,0.28073078,-1.0,1.0,-0.6435158,-1.0,-1.0,-0.6379883,-1.0
2025-06-05 18:26:23.816,0.61046,-7.859959,0.697448,0.00094518304,7.644542e-05,-0.0013081417,1.343896,0.117793,9.696372,-0.014076233,0.08716583,-1.1334419,-0.8458659,0.010032654,2.8741875,1.7235286,-0.041236877,-2.0306702,0.028038025,-0.0011825562,0.8160515,-0.8898112,-0.06443024,-0.40589142,1.7524694,-0.022315979,-2.5787735,-0.015449524,0.037574768,1.7291527,-0.99143475,0.013008118,-4.293888,1.9921927,0.015678406,-7.3786545,0.011787415,0.0015640259,-1.5997543,-1.0298105,-0.031318665,-3.482109,2.0341036,0.012321472,-8.220951,0.0,0.0,0.0,0.0,0.0,0.0,0.0,0.0,0.0,0.0,0.0,0.0,-1.0,-0.7313793,-1.0,1.0,-0.95854795,-0.9999949,1.0,-0.99035114,-1.0,-1.0,-0.9843161,-1.0
2025-06-05 18:26:23.867,0.539242,-8.65797,0.660918,-0.008510923,-0.6767602,-0.053024653,5.036868,-0.284794,8.324821,-0.015602112,-0.46413422,-0.7757683,-0.9835765,-3.1316795,-3.08049,1.7366512,-0.038337708,-2.2015724,0.02658844,0.17765045,0.69153976,-1.0263773,-4.0218773,-3.2660408,1.760938,-0.035743713,-2.6312675,-0.018730164,-0.13866425,1.8670921,-1.054835,-2.1187248,-4.109558,2.0272117,0.999794,-8.695812,0.014533997,0.22098541,-1.8353539,-1.0906168,-2.1350517,-3.3527107,2.0675967,1.116066,-9.420921,0.0,0.0,0.0,0.0,0.0,0.0,0.0,0.0,0.0,0.0,0.0,0.0,-1.0,-0.35497722,0.99999917,1.0,-0.6387013,-0.99364406,1.0,-0.9659371,-1.0,-1.0,-0.99343425,-1.0
2025-06-05 18:26:23.918,0.249363,-10.226496,0.393909,-0.22973286,0.3097248,-0.04897577,3.505392,0.631344,7.230632,-0.0434494,-0.5035782,-0.23376846,-1.1060282,-1.2836838,0.4766922,1.8821437,3.483776,0.285038,0.03917694,-0.25333405,0.65003586,-1.1318918,-0.7110214,-0.98939514,1.7567419,0.70919037,-3.3588142,-0.021705627,-0.055732727,1.8561058,-1.1280771,-0.614357,-3.4357224,2.0681052,0.30017853,-9.003433,0.010414124,-0.3473282,-1.3788071,-1.1517321,-0.35068512,-3.1561775,2.0942233,0.0024032593,-9.41848,0.0,0.0,0.0,0.0,0.0,0.0,0.0,0.0,0.0,0.0,0.0,0.0,-1.0,-0.5043798,1.0,1.0,-0.57873094,-1.0,1.0,-0.9907763,-1.0,1.0,-0.9776857,-0.99999994
2025-06-05 18:26:23.969,0.121677,-8.375067,0.486113,0.057938594,0.87681705,0.0965447,2.863557,1.759852,8.402176,-0.04550934,-0.024604797,-0.49500275,-1.1349436,-0.3293991,-0.35095596,1.9634731,0.16017914,0.22034073,0.05504608,0.40706635,0.015258789,-1.1782061,-0.9995651,0.31799698,1.811292,0.9306717,-4.330509,-0.014381409,0.28202057,1.5802231,-1.1428057,-0.13248444,-3.3539314,2.0684104,-0.0132369995,-8.935072,0.029258728,0.20137787,0.67933273,-1.1634051,-0.13828278,-2.8827362,2.0805666,-0.39188385,-8.832531,0.0,0.0,0.0,0.0,0.0,0.0,0.0,0.0,0.0,0.0,0.0,0.0,-1.0,0.13910279,1.0,1.0,-0.58336437,-1.0,1.0,-0.99299794,-1.0,1.0,-0.92468673,-0.9995147
2025-06-05 18:26:24.020,-0.057775,-5.50403,0.857206,-0.33792287,1.1847659,0.22843358,2.053269,2.223574,9.324698,-0.05634308,-0.068473816,-0.2093544,-1.0346934,3.3096733,-0.05432129,1.9609554,0.0046157837,0.27038956,0.071754456,0.41805267,-0.22888565,-1.2258898,-0.8572006,1.3275337,1.8584417,0.47237396,-4.905472,-0.0065231323,-0.0033950806,1.555809,-1.1547076,-0.20252228,-3.1061249,2.0673423,0.041007996,-8.894789,0.035057068,-0.007133484,0.7037468,-1.1643206,0.011940002,-2.597084,2.0421908,-1.0630417,-7.5666428,0.0,0.0,0.0,0.0,0.0,0.0,0.0,0.0,0.0,0.0,0.0,0.0,-1.0,-0.4154794,0.9999997,1.0,-0.6480192,-1.0,1.0,-0.99354196,-1.0,1.0,-0.9047662,0.3238685
2025-06-05 18:26:24.071,-1.181146,-2.473244,1.791869,-0.23966484,0.73413414,0.4065122,1.812618,-1.018068,9.106903,-0.036354065,0.7401657,-1.1639595,-1.1182352,-1.9120407,0.73060226,2.050677,1.9253159,-2.593422,0.10433197,0.7500076,-1.1383247,-1.284865,-1.4393234,2.4213028,1.8716406,0.004463196,-4.9604034,-0.0020217896,0.16757965,1.3104439,-1.1878191,-1.074028,-2.04776,2.070394,0.16048431,-9.073015,0.037345886,0.18772125,0.5597,-1.1990343,-1.2017441,-1.2530708,2.0154116,-0.451622,-2.9156952,0.0,0.0,0.0,0.0,0.0,0.0,0.0,0.0,0.0,0.0,0.0,0.0,-1.0,0.44274768,0.9996309,1.0,-0.5425524,-0.99999917,1.0,-0.9922232,-1.0,1.0,-0.7282884,0.9999998
2025-06-05 18:26:24.122,-1.66154,-0.256304,3.100959,0.15990812,0.8110466,0.5201563,-2.994638,-2.349943,11.907123,0.0011062622,0.9206009,-1.9635315,-1.1865984,-1.171608,7.306629,2.1237667,1.2620163,-3.6432457,0.14919281,0.7986069,-1.9964905,-1.3402544,-0.979805,3.8055992,1.8664526,-0.23204803,-4.719921,0.015983582,0.09372711,1.0443268,-1.2152086,-0.1253128,-2.0123596,2.0585685,-0.72689056,-8.266117,0.040779114,0.07167816,0.57312775,-1.2300097,-0.07915497,-0.0018310547,1.9987795,-0.4618454,-0.21545792,0.0,0.0,0.0,0.0,0.0,0.0,0.0,0.0,0.0,0.0,0.0,0.0,-1.0,0.42289174,-0.9994578,1.0,-0.21117216,-0.9998571,1.0,-0.9807819,-1.0,1.0,-0.6288495,1.0
2025-06-05 18:26:24.173,-1.496895,2.043491,4.405575,0.33403134,0.20048736,0.23381175,-2.710139,-4.282172,15.943744,0.023612976,0.13088226,-1.9525452,-1.2227618,-0.50922394,7.344471,2.1162136,-1.0719681,-8.981461,0.1744461,-0.0017929077,-2.1356544,-1.36299,-0.17978668,5.9650574,1.8330358,-1.2034225,-3.4271774,0.022163391,0.17993927,0.8880768,-1.2154375,-0.08113861,-1.9147034,2.0089774,-1.1302567,-6.8940277,0.044059753,-0.15224457,0.5963211,-1.2283312,0.37326813,0.38513947,1.9745181,-0.30384064,0.18738174,0.0,0.0,0.0,0.0,0.0,0.0,0.0,0.0,0.0,0.0,0.0,0.0,0.9994774,0.7102133,-1.0,1.0,-0.7782285,0.9999999,-0.52507406,-0.977023,-0.9969613,1.0,-0.27812594,-1.0
2025-06-05 18:26:24.225,-0.58818,2.255896,4.405684,0.6379362,0.37630484,-0.24759468,-1.629029,-2.231186,10.440492,0.04398346,0.111961365,0.40955353,-1.205443,0.8472824,8.144047,2.0380123,-1.7638779,-7.401848,0.14209747,-0.65380096,-1.2005806,-1.3595568,0.47229767,2.0465393,1.8817877,0.7001114,2.059967,0.0308609,0.38219452,-1.531395,-1.1907183,1.236763,-3.2330818,1.9179587,-2.4781456,-4.352482,0.066337585,0.7896042,-0.27038956,-1.1801897,1.0897446,1.1883736,1.8937228,-1.4784622,-4.3329506,0.0,0.0,0.0,0.0,0.0,0.0,0.0,0.0,0.0,0.0,0.0,0.0,1.0,-0.52894336,-1.0,1.0,-0.48613116,1.0,-1.0,-0.85157335,1.0,-1.0,-0.7042411,-1.0
2025-06-05 18:26:24.275,0.201407,3.441418,2.987072,-0.3590808,0.059328087,-0.63789314,-0.554123,-1.11016,5.229807,0.003929138,-1.4726639,2.1527443,-1.2091051,-0.49556732,1.0919342,1.9774349,-1.0891342,-6.409401,0.10204315,-0.88840485,-0.19226456,-1.3414751,0.039253235,3.7555504,1.8832372,-0.0014877319,1.830471,-0.017051697,-1.6200638,-0.18982315,-1.2301623,-1.7676926,0.056762695,1.9256644,1.2833786,0.34851456,0.041999817,-0.37792206,-1.9525452,-1.1556231,-0.08937836,-1.2994576,1.8501589,-0.10684967,-4.618599,0.0,0.0,0.0,0.0,0.0,0.0,0.0,0.0,0.0,0.0,0.0,0.0,1.0,-0.8099603,-1.0,1.0,-0.14469682,1.0,-1.0,0.28706875,1.0,-1.0,-0.88116187,-1.0
2025-06-05 18:26:24.326,-0.03234,3.502595,1.054747,0.24420865,0.14637303,-0.5917008,-0.726951,1.273931,7.760363,-0.04184723,-0.672493,2.6446953,-1.2355791,-0.5070877,-0.26428604,1.9456966,-0.3635025,-6.1847878,0.06793976,-0.55812836,0.27283096,-1.362456,-0.8760452,6.873272,1.9165777,0.9381485,0.76356125,-0.07266998,0.08975983,0.15930557,-1.0533854,6.5303497,-0.20325089,1.9395499,0.050239563,0.7501335,0.039100647,0.10417938,-2.2504005,-1.1634051,-0.15583038,-2.256504,1.8591616,0.4301834,-4.879837,0.0,0.0,0.0,0.0,0.0,0.0,0.0,0.0,0.0,0.0,0.0,0.0,1.0,-0.6343055,-1.0,1.0,0.46708763,0.9999998,-1.0,-0.55598897,1.0,-1.0,-0.943863,-1.0
2025-06-05 18:26:24.377,0.052273,3.23114,-1.191686,-0.619598,-0.54554933,-0.8850869,-1.961654,2.47044,10.778858,-0.1027298,-1.4991379,4.1767006,-1.2802874,-1.0079575,2.101471,1.9206722,-0.47985077,-5.66354,0.022010803,-0.9434128,1.5533676,-1.3896929,-0.32352448,11.020065,1.939237,0.0712204,0.7476921,-0.026893616,1.0045242,-1.4044418,-1.0381266,-3.6076775,-0.71839523,1.9750266,-0.036964417,0.12390137,0.036125183,-0.09059906,-2.051422,-1.1994921,-0.587883,-1.6034164,1.8886874,0.44490814,-5.609825,0.0,0.0,0.0,0.0,0.0,0.0,0.0,0.0,0.0,0.0,0.0,0.0,1.0,-0.47021264,-1.0,1.0,0.40233225,1.0,-1.0,0.0425881,1.0,-1.0,-0.87229526,-1.0
2025-06-05 18:26:24.428,-1.085939,2.308253,-3.578074,0.010416125,0.05829862,-0.6540214,-2.512944,1.85082,10.438063,-0.13477325,0.0035476685,4.044861,-1.3111101,-0.08892059,3.2440681,1.9063289,0.004463196,-5.696499,-0.0035476685,-0.022239685,1.4374008,-1.3987719,0.044670105,10.501259,1.9538091,0.5855942,0.23987198,-0.014915466,0.69179535,-1.3910141,-1.08314,0.3319931,1.6986351,1.9803672,-0.011100769,-0.042114258,0.05016327,0.6423569,-2.6727715,-1.202849,0.6937027,-1.9806213,1.8989108,-0.2248764,-5.274128,0.0,0.0,0.0,0.0,0.0,0.0,0.0,0.0,0.0,0.0,0.0,0.0,1.0,-0.3717029,-1.0,1.0,0.6082976,1.0,-1.0,-0.19281308,1.0,-1.0,-0.88032657,-1.0
2025-06-05 18:26:24.479,-0.637298,3.085091,-4.615573,-0.043127067,0.063409366,-0.15279607,-1.740589,1.116609,11.889725,-0.13141632,0.119132996,3.883728,-1.3044726,0.1479721,3.5992966,1.9076259,-0.04749298,-5.672085,0.002632141,0.031166077,1.3055611,-1.3790118,0.4365158,11.222706,1.9633459,-0.19756317,0.3619423,0.0020980835,0.029258728,-1.4471664,-1.0765787,0.23929596,0.1727333,1.9799094,-0.03261566,-0.07751465,0.06946564,0.29651642,-2.8912811,-1.1661516,0.5010605,-2.5226212,1.8792269,-0.08426666,-5.0226593,0.0,0.0,0.0,0.0,0.0,0.0,0.0,0.0,0.0,0.0,0.0,0.0,1.0,-0.42033297,-1.0,1.0,0.5858501,1.0,-1.0,0.025977945,1.0,-1.0,-0.90078574,-1.0
2025-06-05 18:26:24.531,-0.824652,2.84616,-4.713096,-0.13322783,-0.1983314,0.12420039,-2.569068,0.302268,9.797756,-0.12180328,0.1883316,3.654232,-1.2876879,0.83148956,2.8314629,1.9086177,0.12332916,-5.7880516,0.010643005,0.23555756,1.0162506,-1.3468157,0.5434036,10.3682,1.9451116,-0.52059174,0.8648796,0.0035476685,-0.026893616,-1.465477,-1.0556742,0.71308136,1.0113678,1.9821982,0.1303482,-0.14465714,0.072517395,0.030784607,-2.8326836,-1.1530291,0.124931335,-2.7972832,1.8748019,0.05634308,-5.065384,0.0,0.0,0.0,0.0,0.0,0.0,0.0,0.0,0.0,0.0,0.0,0.0,1.0,-0.4739292,-1.0,1.0,0.5852035,1.0,-1.0,-0.09471915,1.0,-1.0,-0.8945095,-1.0
2025-06-05 18:26:24.582,-1.086249,2.063927,-3.936097,-0.13960446,-0.39000607,0.29328072,-1.247021,-0.073949,9.355397,-0.104026794,0.41233063,3.297779,-1.2586199,0.65250397,1.7865257,1.9147975,0.086250305,-5.9357605,0.021324158,0.21846771,0.8148308,-1.3124071,0.72055817,9.629663,1.9216894,-0.45909882,1.4300766,0.0017929077,-0.064201355,-1.3971176,-1.0369822,0.6457138,-0.12390137,1.9932609,0.32718658,-0.48767853,0.070762634,-0.008430481,-2.7875175,-1.14601,0.03917694,-2.8192558,1.8816683,0.33367157,-5.3620186,0.0,0.0,0.0,0.0,0.0,0.0,0.0,0.0,0.0,0.0,0.0,0.0,1.0,-0.5547601,-1.0,1.0,0.51237214,1.0,-1.0,-0.106382266,1.0,-1.0,-0.9074976,-1.0
2025-06-05 18:26:24.634,-1.510438,0.93933,-3.19214,-0.22722907,-0.44766986,0.20523447,-0.872251,-0.167783,8.807179,-0.091362,0.22014618,3.1024628,-1.2308489,0.349617,0.7818718,1.9247158,0.2955246,-6.1481667,0.028572083,0.012550354,0.79652023,-1.2773119,0.8499527,8.458992,1.9021581,-0.1845169,1.6156235,-0.0015640259,-0.1342392,-1.2848091,-1.017222,0.26172638,-0.5535965,2.0181327,0.69065094,-1.1737251,0.06816864,-0.013465881,-2.7374687,-1.1409708,0.047187805,-3.031662,1.9004366,0.4629898,-5.797817,0.0,0.0,0.0,0.0,0.0,0.0,0.0,0.0,0.0,0.0,0.0,0.0,1.0,-0.61482567,-1.0,1.0,0.39382547,1.0,-1.0,-0.242958,1.0,-1.0,-0.91253954,-1.0
2025-06-05 18:26:24.685,-2.204664,-0.492359,-2.777394,-0.26281562,-0.60521775,0.021577278,0.062707,-0.898728,9.154584,-0.08708954,0.02910614,3.1158905,-1.2131487,0.11211395,0.17395401,1.9350154,0.20534515,-6.3410378,0.030555725,0.0017166138,0.76356125,-1.2477099,0.54790497,7.184559,1.8926214,-0.11051178,1.7828636,-0.0021743774,-0.019493103,-1.3275337,-1.0144755,-0.03780365,-1.256733,2.0599418,1.0393906,-2.420082,0.071144104,0.066337585,-2.835125,-1.1405894,-0.072135925,-2.9767303,1.9320223,0.7492447,-6.5546646,0.0,0.0,0.0,0.0,0.0,0.0,0.0,0.0,0.0,0.0,0.0,0.0,1.0,-0.66753364,-1.0,1.0,0.27366805,1.0,-1.0,-0.3336683,1.0,-1.0,-0.9326222,-1.0
2025-06-05 18:26:24.735,-2.998677,-2.313544,-2.928059,-0.20267116,-0.64247036,-0.16238868,0.532383,-1.125368,9.282928,-0.08731842,-0.019340515,3.1158905,-1.2033068,0.22289276,-0.37292862,1.9421108,0.06778717,-6.4484634,0.028877258,-0.069999695,0.8258171,-1.2204729,0.45886993,5.888153,1.8906378,0.06931305,1.7352562,0.00019073486,0.03742218,-1.4020004,-1.0216471,-0.11165619,-1.6766624,2.1133475,1.0040665,-3.1940193,0.08014679,0.1744461,-3.1281013,-1.1406657,0.037956238,-3.146412,1.9737551,0.7831955,-7.2346077,0.0,0.0,0.0,0.0,0.0,0.0,0.0,0.0,0.0,0.0,0.0,0.0,1.0,0.82602006,-1.0,1.0,0.7872856,0.9999718,-1.0,-0.84929144,1.0,-1.0,-0.7706403,-1.0
2025-06-05 18:26:24.786,-3.461279,-3.810516,-3.349273,-0.10694775,-0.4204194,-0.22314827,-0.88519,-1.500654,12.511424,-0.09540558,0.22808075,3.141529,-1.1422716,1.1324692,7.462883,1.9376094,-0.21327972,-6.085907,0.028190613,-0.055656433,0.84656906,-1.1664568,1.1989212,7.6325645,1.8885015,-0.043296814,1.8377953,0.008125305,0.005302429,-1.5069809,-1.0349985,0.120658875,-4.8249016,2.151647,0.12767792,-3.544365,0.09098053,0.2778244,-3.3075447,-1.10908,1.0811234,-3.3466072,1.9987795,0.26493073,-7.655758,0.0,0.0,0.0,0.0,0.0,0.0,0.0,0.0,0.0,0.0,0.0,0.0,1.0,0.018278169,-1.0,1.0,0.8958769,0.99891275,-1.0,-0.8937332,1.0,-1.0,-0.8077676,-1.0
2025-06-05 18:26:24.837,-3.589508,-5.054898,-3.983044,-0.15789919,-0.5851454,-0.33718634,0.600569,-0.436774,8.599344,-0.09738922,-0.18016815,3.44915,-1.0976359,0.8651352,1.5594711,1.9166286,-0.5578232,-5.512169,0.022163391,0.30261993,0.75623703,-1.083903,3.3437767,5.3461494,1.8826269,0.15460968,1.7364769,-0.00011444092,-0.03353119,-1.3519478,-1.0318705,0.12149811,-5.163044,2.1709495,0.6657791,-4.203556,0.10311127,0.22830963,-3.6188278,-1.0538431,1.0365677,-4.605171,2.0115206,0.57712555,-8.20142,0.0,0.0,0.0,0.0,0.0,0.0,0.0,0.0,0.0,0.0,0.0,0.0,1.0,0.22028214,-1.0,1.0,0.67007923,0.8919019,-1.0,-0.70424724,1.0,-1.0,-0.58859456,-1.0
2025-06-05 18:26:24.889,-3.836745,-7.622259,-4.891434,-0.058077645,-0.93069696,-0.232698,1.927457,-0.855585,8.835875,-0.10707855,-0.025672913,3.5040817,-1.0552927,0.7529068,2.141758,1.8850429,-0.507164,-4.9152374,0.03025055,-0.25478363,0.95033264,-0.8066508,4.285549,-1.839016,1.910932,0.8817673,0.49256134,-0.0011825562,-0.053215027,-1.3214302,-1.0202738,0.24333954,-4.236515,2.21314,1.0523605,-5.289997,0.116539,0.049476624,-3.7701988,-1.0261484,0.085105896,-3.2379646,2.0480654,1.1584854,-9.1132965,0.0,0.0,0.0,0.0,0.0,0.0,0.0,0.0,0.0,0.0,0.0,0.0,0.9999994,0.26607034,-1.0,1.0,-0.028690457,-1.0,-1.0,-0.5024648,0.9999911,-1.0,0.5817997,-1.0
2025-06-05 18:26:24.940,-3.792811,-10.071656,-4.998146,-0.15918565,-0.26979262,-0.16877414,-0.258151,-0.806693,7.911687,-0.115852356,-0.25463104,3.872738,-1.0084482,1.4824295,1.0431061,1.8710048,0.14339447,-5.134968,0.023460388,0.1405716,0.80018234,-0.84380597,-3.3663597,-1.6668968,1.7623113,-4.2252007,-1.399559,-0.0033950806,-0.1354599,-1.1956978,-0.9709117,2.016262,-4.8505363,2.2413688,-0.053596497,-5.303425,0.123558044,-0.3460312,-3.6798668,-0.95244855,2.2491875,1.5814438,2.0718691,-0.029411316,-8.970474,0.0,0.0,0.0,0.0,0.0,0.0,0.0,0.0,0.0,0.0,0.0,0.0,0.96506304,0.8597353,-1.0,1.0,-0.17375484,-1.0,-1.0,-0.5518073,-1.0,-1.0,-0.19041443,-1.0
2025-06-05 18:26:24.991,-3.83124,-10.551114,-5.441241,0.48470408,-0.35462558,0.07443786,2.744376,-1.689566,11.584139,-0.10814667,0.51677704,3.2562752,-0.9281108,1.6491318,3.1940193,1.8446834,-0.91350555,-3.8995972,0.03681183,-0.08892059,0.65247726,-0.834727,-0.7503891,-3.9057007,1.7623113,-0.4052353,-2.5629044,-0.012702942,0.16666412,-1.2433052,-0.8797404,2.1646538,-7.2028694,2.205587,-0.5059433,-11.262989,0.124168396,0.08609772,-3.9313354,-0.90178937,0.54584503,-3.5455856,2.0748446,0.23937225,-9.170673,0.0,0.0,0.0,0.0,0.0,0.0,0.0,0.0,0.0,0.0,0.0,0.0,-1.0,-0.4480885,-1.0,1.0,-0.7875532,-0.99995434,1.0,-0.9799756,-1.0,-1.0,-0.9887045,-1.0
2025-06-05 18:26:25.042,-3.415782,-13.43671,-4.149122,0.7171681,-1.3372571,0.2803267,11.129945,-5.19402,11.536466,-0.07839203,0.6749344,-0.24109268,-0.95115155,-1.1050797,-3.2086678,1.7872341,-1.6433334,-2.150303,0.040245056,0.6366348,0.2899208,-1.0264536,-4.444927,-2.0416565,1.755979,-0.31398773,-2.4103165,-0.02544403,0.26813507,1.7108421,-0.8751628,-0.94646454,-8.28809,2.1953635,-0.38036346,-11.159227,0.118751526,0.13210297,-3.9240112,-0.9494731,-1.6532516,-6.4850845,2.1245883,0.98629,-10.382851,0.0,0.0,0.0,0.0,0.0,0.0,0.0,0.0,0.0,0.0,0.0,0.0,-1.0,0.031430673,1.0,1.0,-0.76144475,-0.99999785,1.0,-0.9670499,-1.0,-1.0,-0.9963035,-1.0
2025-06-05 18:26:25.093,-2.230596,-16.585884,-4.202625,-0.25773478,-0.54425156,-0.20477588,4.221314,0.080075,6.867941,-0.06778717,0.0989151,-0.10681152,-1.0063883,-0.36319733,0.53772736,1.8767269,3.1850853,0.30456924,0.030479431,-0.032844543,0.76356125,-1.165465,-1.60923,-0.5853348,1.7124151,-1.362648,-0.8661003,-0.024757385,-0.73101044,2.1600685,-0.93093365,-1.1500931,-7.052719,2.1913962,-0.102500916,-11.245899,0.10746002,-0.6493759,-3.1305428,-0.99769086,-0.8072281,-5.9479675,2.1352694,0.009498596,-10.241245,0.0,0.0,0.0,0.0,0.0,0.0,0.0,0.0,0.0,0.0,0.0,0.0,-1.0,-0.6229278,1.0,1.0,-0.75672436,-0.9999999,1.0,-0.99382913,-1.0,0.99999726,-0.9946202,-1.0
2025-06-05 18:26:25.144,-2.353587,-17.729782,-4.83603,0.15707605,-0.14438388,-0.343413,4.485963,-0.074189,6.531531,-0.040626526,0.40218353,-0.76356125,-1.1029764,-2.9388847,-0.2838173,1.9720943,0.606575,-0.0970459,0.041160583,0.027656555,0.53894806,-1.2205492,-0.319252,-0.2117958,1.6685461,-0.19245148,-0.8685417,-0.03681183,0.19657135,2.0624084,-0.9868571,-1.1583328,-6.045624,2.1858268,-0.060081482,-11.233692,0.107536316,0.08571625,-0.8148308,-1.0313364,-0.38303375,-5.5426865,2.134888,0.048332214,-10.185093,0.0,0.0,0.0,0.0,0.0,0.0,0.0,0.0,0.0,0.0,0.0,0.0,-1.0,0.06479453,0.99999946,1.0,-0.7514505,-0.9999607,1.0,-0.99672216,-1.0,1.0,-0.97747517,-1.0
2025-06-05 18:26:25.195,-1.12248,-17.135832,-6.169098,0.37964526,0.5121315,-0.38087952,3.86793,0.855065,7.822046,-0.060310364,-0.58712006,0.07019043,-1.0694071,2.846569,0.22888565,1.964236,0.019340515,0.20569229,0.046577454,0.13401031,0.35095596,-1.2366472,-0.45589447,0.20447159,1.6906713,0.6644058,-1.7462425,-0.018806458,0.1871109,1.6302757,-1.0235544,-0.5337143,-5.519493,2.1745353,-0.18993378,-10.8552685,0.12233734,0.5358505,-1.2079048,-1.0372874,-0.16551971,-5.401085,2.1312258,-0.0925827,-10.166782,0.0,0.0,0.0,0.0,0.0,0.0,0.0,0.0,0.0,0.0,0.0,0.0,-1.0,-0.39074057,0.99997973,1.0,-0.730101,-1.0,1.0,-0.997052,-1.0,1.0,-0.97433823,-1.0
2025-06-05 18:26:25.246,-0.324207,-15.736275,-7.037604,-0.18324135,0.57089823,-0.19852558,3.791573,0.995329,8.305627,-0.043754578,0.6372452,-0.8538933,-1.0486552,-1.5295792,-0.6768913,1.9714077,-0.06626129,0.103149414,0.04383087,-0.15720367,0.56946564,-1.2678515,-0.63404083,1.0260162,1.7181371,0.56468964,-2.2809181,-0.01789093,-0.08655548,1.7669945,-1.0603281,-0.5939865,-4.832226,2.1730094,-0.0036239624,-11.01152,0.123558044,-0.18283844,-0.9674225,-1.0549875,-0.4440689,-4.9030304,2.1260378,-0.26866913,-9.916534,0.0,0.0,0.0,0.0,0.0,0.0,0.0,0.0,0.0,0.0,0.0,0.0,-1.0,-0.020367134,0.96887445,1.0,-0.8004274,-0.99971706,1.0,-0.99717754,-1.0,1.0,-0.9660409,-1.0
2025-06-05 18:26:25.297,-0.649982,-13.148413,-7.283731,-0.24891418,1.054709,0.11460537,3.423244,1.561574,8.623819,-0.04383087,-0.013313293,-0.5047684,-1.0438486,1.2421799,0.08850098,1.9682796,-0.014228821,0.045776367,0.040473938,0.01537323,0.5462723,-1.3051592,-0.7502365,1.4178696,1.753385,0.76763153,-2.9645233,-0.019569397,-0.118904114,1.871975,-1.0806223,-0.23967743,-4.614937,2.166143,-0.21625519,-10.724651,0.115242004,-0.28392792,-0.7806511,-1.0663553,-0.21907806,-4.6271477,2.100632,-0.57857513,-9.258564,0.0,0.0,0.0,0.0,0.0,0.0,0.0,0.0,0.0,0.0,0.0,0.0,-1.0,-0.3658487,0.99336845,1.0,-0.6876112,-0.99999774,1.0,-0.99713016,-1.0,1.0,-0.9652586,-1.0
2025-06-05 18:26:25.348,-1.43498,-10.179709,-6.801407,-0.50136983,1.1110216,0.25373787,2.923148,1.643171,8.944366,-0.036582947,0.07511139,-0.7147331,-1.058726,-1.4352036,-0.38636017,1.9698818,0.05558014,0.08605957,0.04436493,0.07266998,0.45716095,-1.3420092,-0.64617157,2.8216972,1.77078,0.059013367,-2.974289,-0.027122498,-0.170784,2.0660706,-1.1028239,-0.5450821,-4.085144,2.1608787,-0.013160706,-10.778362,0.10356903,-0.5551529,-0.46326447,-1.0871836,-0.33794403,-4.257267,2.0688937,-0.691185,-8.535896,0.0,0.0,0.0,0.0,0.0,0.0,0.0,0.0,0.0,0.0,0.0,0.0,-1.0,-0.14451246,0.99777305,1.0,-0.66033316,-0.9999093,1.0,-0.9967069,-1.0,1.0,-0.95061237,-1.0
2025-06-05 18:26:25.399,-2.903123,-6.700321,-5.981292,-0.36410698,1.2789209,0.43489248,1.850941,0.372623,11.246159,-0.032920837,0.7059097,-1.2249947,-1.1154124,-1.541481,2.1979103,2.0162685,2.1043816,-1.9928284,0.058403015,0.5993271,-0.028686523,-1.3775622,-0.709877,3.683529,1.7708563,-0.14019012,-2.7179375,-0.027961731,0.1769638,1.8243675,-1.1263987,-0.4465866,-3.683529,2.1492057,-0.5816269,-10.124056,0.09601593,0.047035217,-0.5206375,-1.1051127,-0.2148056,-3.7396812,2.0125124,-1.1197281,-7.171131,0.0,0.0,0.0,0.0,0.0,0.0,0.0,0.0,0.0,0.0,0.0,0.0,-1.0,-0.21772577,0.71627176,1.0,-0.47422025,-0.99664897,1.0,-0.99492186,-1.0,1.0,-0.9216101,-1.0
2025-06-05 18:26:25.450,-3.745005,-3.043861,-4.941092,-0.22416973,1.1989567,0.38947546,0.487125,-1.676169,11.543858,-0.0030136108,0.5270767,-1.6131821,-1.1970507,-1.6891098,3.4711227,2.0930965,1.1657333,-4.1644936,0.08365631,0.29079437,-0.46814728,-1.3962542,-0.23540497,5.073929,1.7389654,-0.92861176,-1.715725,-0.015449524,0.2918625,1.5594711,-1.1415049,-0.34488678,-3.403984,2.112661,-0.90099335,-9.270771,0.09677887,-0.09250641,-0.5218582,-1.1157175,-0.21305084,-3.4479294,1.9366763,-1.6620255,-5.2436104,0.0,0.0,0.0,0.0,0.0,0.0,0.0,0.0,0.0,0.0,0.0,0.0,-1.0,-0.023156201,-0.9803441,1.0,-0.5084406,-0.79089296,1.0,-0.99038565,-1.0,1.0,-0.8181555,-1.0
2025-06-05 18:26:25.501,-4.201462,-0.059182,-4.291099,0.47393712,0.6972489,0.1579184,-0.335903,-4.813613,13.693079,0.019340515,0.75092316,-2.0318909,-1.2543474,-1.0032272,5.4694443,2.0876033,-0.7946396,-8.606699,0.10997772,0.65265656,-1.0528717,-1.4035021,-0.0020980835,4.8041496,1.6844152,-1.1322403,0.03967285,0.008201599,0.69171906,0.8209343,-1.1632525,-0.71720123,-2.6800957,2.0508628,-1.5958023,-7.4934006,0.10921478,0.3170395,-0.95399475,-1.1270853,-0.48740387,-2.4603653,1.8586276,-1.3449478,-3.949646,0.0,0.0,0.0,0.0,0.0,0.0,0.0,0.0,0.0,0.0,0.0,0.0,0.3204348,-0.36150697,-1.0,1.0,-0.7311492,1.0,0.99999243,-0.94439393,-0.99999994,-0.99995196,-0.7804324,-1.0
2025-06-05 18:26:25.552,-3.357721,1.272744,-4.449925,0.44452173,0.28132278,-0.12610482,-0.188979,-3.14929,8.382085,0.038871765,0.07587433,-0.3973465,-1.3059222,-0.9038925,4.253605,2.021609,-1.6427231,-7.1076508,0.091667175,-0.88962555,-0.11657715,-1.3600909,2.3288383,1.3067818,1.8077062,4.2176476,1.3946762,0.027275085,0.23830414,0.68543625,-1.1959063,-0.84789276,-1.6461449,1.9638114,-1.6058731,-6.0505066,0.107154846,0.08571625,-3.6212692,-1.1613451,-0.91991425,-1.2188911,1.7954562,-0.90198517,-2.8851776,0.0,0.0,0.0,0.0,0.0,0.0,0.0,0.0,0.0,0.0,0.0,0.0,1.0,-0.76967484,-1.0,1.0,-0.45958832,1.0,-0.9999944,-0.8050558,0.9999999,-1.0,-0.7104968,-1.0
2025-06-05 18:26:25.603,-2.480092,1.88523,-4.9377,-0.1747273,0.19200724,-0.19504829,-1.277669,-1.773162,5.662685,0.01964569,-1.1650467,1.5912094,-1.3656603,-1.310997,3.0145721,1.9670589,-0.7754898,-6.5387955,0.061302185,-0.8156967,0.526741,-1.3652025,-1.4653397,5.11055,1.8526434,-0.0033950806,2.515297,-0.017356873,-1.2854385,-0.2923622,-1.2393175,-0.56705475,-0.07019043,1.9605308,0.07724762,0.23743057,0.09220123,-0.5801773,-2.8778534,-1.2072741,-0.7021713,0.04699707,1.7628024,-0.19542694,-2.736248,0.0,0.0,0.0,0.0,0.0,0.0,0.0,0.0,0.0,0.0,0.0,0.0,1.0,-0.58218986,-1.0,1.0,0.58307457,1.0,-1.0,0.59826225,1.0,-1.0,-0.8931036,-1.0
2025-06-05 18:26:25.654,-2.3741,3.469833,-5.787576,0.33869055,0.9264337,-0.21339548,-2.44022,0.439394,10.950998,-0.015525818,-0.46993256,2.0184631,-1.4071642,-0.60626984,4.75288,1.9511898,-0.40035248,-6.3178444,0.046043396,-0.27812958,0.6243973,-1.413344,-1.112709,12.489815,1.8791937,0.86566925,1.7181664,-0.058555603,-0.10082245,-0.15930557,-0.9633586,8.356445,-1.5094223,1.9522147,0.31604767,0.3314247,0.06641388,0.016975403,-2.727703,-1.2331377,0.106925964,-1.0931549,1.7465518,-0.5124283,-2.0587463,0.0,0.0,0.0,0.0,0.0,0.0,0.0,0.0,0.0,0.0,0.0,0.0,-0.9999978,-0.7641417,0.9992389,1.0,0.52460724,-0.9260958,-0.9999986,-0.6655922,0.12921146,-0.99999994,-0.97912157,-1.0
2025-06-05 18:26:25.705,-2.877502,4.897656,-6.765239,-1.8184198,-0.23096083,-0.37826946,-2.12737,4.025395,11.216568,-0.09449005,-1.7763901,1.4813461,-1.4686571,-1.1240768,5.077591,1.9617946,-0.4339218,0.5169754,-0.017585754,-1.7013168,2.6434746,-1.4463793,-0.4578781,12.709545,1.8392919,-0.88985443,-3.5419235,-0.08319855,-1.365242,1.1163483,-0.947108,-2.9858055,-3.6310387,1.969686,1.138649,-3.2123299,0.014381409,-1.2809372,-0.9295807,-1.2573992,-1.0924149,-0.57068634,1.7203066,-0.5187607,-1.70718,0.0,0.0,0.0,0.0,0.0,0.0,0.0,0.0,0.0,0.0,0.0,0.0,-1.0,-0.38392076,1.0,1.0,0.046995144,-1.0,1.0,-0.80394876,-1.0,1.0,-0.9961236,1.0
2025-06-05 18:26:25.756,-4.227168,4.289661,-7.385714,1.3986622,-0.06608061,-0.153758,-2.305187,0.661695,10.863268,-0.074653625,1.4274216,-0.75989914,-1.4964281,-0.28827667,7.5800705,1.9173152,-0.80616,1.6278343,0.009803772,1.7666245,0.23498917,-1.4900194,-0.8047867,10.421911,1.8158697,-0.24188995,-3.7177086,-0.04146576,1.9292068,1.1151276,-1.0288187,-0.9267807,-4.2133217,1.9775443,-0.28102875,-6.8806,0.044136047,0.83415985,0.18127823,-1.3157641,-0.20885468,0.16174698,1.8696902,4.1465416,0.12023926,0.0,0.0,0.0,0.0,0.0,0.0,0.0,0.0,0.0,0.0,0.0,0.0,-1.0,0.44982794,1.0,1.0,-0.13343255,-1.0,1.0,-0.9855705,-1.0,1.0,-0.9821492,1.0
2025-06-05 18:26:25.807,-0.372321,4.813894,-7.655579,1.0313566,0.22511622,-0.022816619,-1.225039,-0.249537,11.419382,-0.014839172,0.75229645,-1.5509262,-1.488875,0.054359436,12.643627,1.8748195,-0.7173538,2.5458145,0.07534027,0.7627487,-0.65247726,-1.508864,-0.061073303,9.363546,1.7935919,-0.5937576,-3.121994,0.029335022,1.0272598,0.35217667,-1.0552927,-0.18360138,-5.020218,1.949163,-0.6800461,-6.1847878,0.031013489,-0.58574677,1.1322212,-1.2853228,0.5221176,-0.7830925,1.9716189,0.28369904,0.0592041,0.0,0.0,0.0,0.0,0.0,0.0,0.0,0.0,0.0,0.0,0.0,0.0,-1.0,0.4229167,1.0,1.0,0.3871448,-1.0,1.0,-0.9504386,-1.0,1.0,-0.9652965,1.0
2025-06-05 18:26:25.858,1.111706,5.642119,-7.544655,-0.21875057,0.31427306,0.061896984,-2.362715,0.940308,10.200727,0.004310608,-0.0073623657,-1.5069809,-1.490172,-0.0015640259,12.493477,1.8495662,-0.2956009,2.6886406,0.095710754,-0.041007996,-0.5242996,-1.492766,0.44582367,12.023499,1.7483495,-1.1128616,-1.8744164,0.04550934,-0.10555267,0.547493,-1.0623881,0.0024795532,-4.8578606,1.9184928,-0.5082321,-5.593956,0.00705719,0.05908966,1.1993599,-1.268767,0.054740906,-0.8661003,1.9715426,-0.046806335,0.12023926,0.0,0.0,0.0,0.0,0.0,0.0,0.0,0.0,0.0,0.0,0.0,0.0,-1.0,0.4648659,1.0,1.0,0.17046125,-1.0,1.0,-0.9237703,-1.0,1.0,-0.97133124,1.0
2025-06-05 18:26:25.909,0.120516,6.757537,-7.383678,-0.38432565,0.44057077,0.033732064,-1.642962,0.001726,8.583994,0.0020217896,-0.049858093,-1.4032211,-1.4897906,0.028038025,12.746166,1.8411739,0.024986267,2.6556816,0.087623596,-0.31345367,-0.25696182,-1.4671313,0.5913925,10.055695,1.7069219,-0.55324554,-1.444725,0.04131317,-0.12607574,0.64271164,-1.0653635,-0.15766144,-4.5758743,1.8808799,-0.79013824,-4.7968254,0.02368927,0.21701813,0.80384445,-1.2744128,-0.24143219,-0.58167267,1.9715426,0.0075912476,0.10192871,0.0,0.0,0.0,0.0,0.0,0.0,0.0,0.0,0.0,0.0,0.0,0.0,-1.0,0.5186125,1.0,1.0,0.22634163,-1.0,1.0,-0.9131521,-1.0,1.0,-0.954701,1.0
2025-06-05 18:26:25.960,-1.089675,8.414948,-7.342811,-0.41867816,0.64021355,-0.0077415123,-2.235584,-0.421891,9.156942,-0.0037765503,-0.1342392,-1.2774849,-1.4890276,0.010719299,13.068436,1.8495662,0.34786224,2.367588,0.08060455,-0.081214905,-0.18982315,-1.4363085,0.72719574,9.889677,1.6873907,-0.19733429,-1.2103462,0.04688263,0.71826935,0.30090714,-1.0996195,-1.2282944,-3.0914764,1.8187003,-1.7339706,-2.94133,0.028266907,-0.013771057,0.83802414,-1.2774645,0.05809784,-0.5841141,1.9715426,0.012626648,0.10925293,0.0,0.0,0.0,0.0,0.0,0.0,0.0,0.0,0.0,0.0,0.0,0.0,-1.0,0.7015369,1.0,1.0,0.091992855,-1.0,1.0,-0.8324427,-1.0,1.0,-0.89233816,1.0
2025-06-05 18:26:26.011,-2.23963,10.584807,-7.428359,-0.39263314,0.849205,0.051918954,-2.977254,-0.261645,8.872169,-0.011405945,-0.12760162,-1.0467682,-1.484984,0.055656433,14.1426735,1.8799312,0.86292267,1.359272,0.07381439,-0.36670685,0.01159668,-1.4100634,0.5550003,8.549324,1.6864752,0.071525574,-1.293354,0.08670807,0.77007294,-0.7013054,-1.2014757,-1.7750168,-0.30701065,1.6787009,-2.7267876,-0.009155273,0.025749207,-0.13408661,0.9662018,-1.264876,0.22006989,-0.58167267,1.9715426,-0.02735138,0.12145996,0.0,0.0,0.0,0.0,0.0,0.0,0.0,0.0,0.0,0.0,0.0,0.0,-1.0,0.882908,0.3312088,1.0,-0.3139209,-0.99916804,1.0,-0.50764203,-0.9999997,1.0,-0.4371582,1.0
2025-06-05 18:26:26.062,-3.251391,13.353102,-6.914383,-0.117007986,1.0794814,0.35815272,-3.725207,-1.710637,10.655552,-0.014076233,0.26233673,-1.2823677,-1.4650713,0.57323456,14.668804,1.9105251,0.8490372,-1.4105453,0.07083893,0.13828278,-0.12390137,-1.3906084,0.36533356,5.5963974,1.7053198,0.3271103,-1.70718,0.10341644,-0.011940002,-0.6292839,-1.1955248,1.1085892,0.06530762,1.6129355,0.045661926,0.12756729,0.037269592,0.2802658,0.5548172,-1.174544,2.5001945,-0.5902176,1.9710085,0.017204285,0.08728027,0.0,0.0,0.0,0.0,0.0,0.0,0.0,0.0,0.0,0.0,0.0,0.0,-1.0,0.9631517,-1.0,1.0,-0.6481267,0.9898248,1.0,-0.77352613,-0.34717473,1.0,-0.2898602,1.0
2025-06-05 18:26:26.113,-2.186066,16.002655,-5.726881,1.1519369,0.488602,0.36117825,-3.091833,-4.92853,8.629404,0.014076233,0.64373016,-2.1271095,-1.419295,1.083107,13.910736,1.9088466,-0.2928543,-5.5024033,0.08724213,0.99163055,-0.8294792,-1.4012896,-0.39356232,4.170597,1.7928289,0.80532074,3.2660408,0.11806488,-0.047721863,-0.91981506,-1.1898791,-0.54447174,-0.822155,1.6890006,1.8368149,0.18494034,0.054969788,0.31528473,0.15076065,-1.0875651,0.9609604,-0.6353874,1.9711611,-0.033226013,0.1336708,0.0,0.0,0.0,0.0,0.0,0.0,0.0,0.0,0.0,0.0,0.0,0.0,-0.9998343,0.44722065,-1.0,1.0,-0.56840307,1.0,0.8673628,-0.25703698,1.0,1.0,-0.33361638,-1.0
2025-06-05 18:26:26.164,1.123921,17.225574,-5.347359,1.2249215,0.4015804,0.04440992,-3.30921,-3.039559,8.358952,0.03566742,0.13507843,-2.1673927,-1.379088,0.5134201,10.045929,1.8934352,-0.31520844,-5.1313057,0.11478424,0.16765594,-1.0504303,-1.4312731,-0.8208084,5.486534,1.85539,1.5657425,1.6681175,0.08609772,-0.59093475,-0.18616104,-1.1419665,2.2948875,0.03967285,1.8724113,4.0045586,-0.0018310547,0.05329132,-0.140419,0.45471954,-1.0586497,-0.17505646,-0.83436203,1.7565463,-5.705456,-0.07019043,0.0,0.0,0.0,0.0,0.0,0.0,0.0,0.0,0.0,0.0,0.0,0.0,-0.9958608,-0.5507928,-1.0,1.0,0.11433557,1.0,-0.9956471,0.16009435,1.0,-0.9999195,-0.68773663,-1.0
2025-06-05 18:26:26.215,3.193374,17.702053,-5.876097,-0.04787349,-0.10647896,-0.2526572,-2.712,0.026515,9.038346,-0.0059890747,-1.1137009,-0.68299484,-1.3755022,-0.055732727,4.011902,1.8724544,-0.7505417,-4.5099564,0.07633209,-1.0850906,0.50232697,-1.4707171,-1.084404,10.814985,1.9189428,1.219368,0.5072098,-0.02483368,-2.0008507,0.18371964,-0.972285,3.1195488,-1.1407661,1.9676261,0.25844574,0.049438477,-0.06473541,-2.5217857,1.1615181,-1.1639391,-2.8266563,0.2862587,1.6179965,-0.5364609,0.33630753,0.0,0.0,0.0,0.0,0.0,0.0,0.0,0.0,0.0,0.0,0.0,0.0,-1.0,-0.95525587,1.0,1.0,0.43816525,-0.9999754,1.0,-0.34389797,-0.99999356,1.0,-0.9891008,1.0
