openverse-orca/OrcaGym/envs/legged_gym/legged_real_env/logs/robot_log_20250610_163844.csv
timestamp,imu_angle_roll,imu_angle_pitch,imu_angle_yaw,imu_angular_velocity_roll,imu_angular_velocity_pitch,imu_angular_velocity_yaw,imu_acc_x,imu_acc_y,imu_acc_z,fl_joint1_pos,fl_joint1_vel,fl_joint1_torque,fl_joint2_pos,fl_joint2_vel,fl_joint2_torque,fl_joint3_pos,fl_joint3_vel,fl_joint3_torque,fr_joint1_pos,fr_joint1_vel,fr_joint1_torque,fr_joint2_pos,fr_joint2_vel,fr_joint2_torque,fr_joint3_pos,fr_joint3_vel,fr_joint3_torque,hl_joint1_pos,hl_joint1_vel,hl_joint1_torque,hl_joint2_pos,hl_joint2_vel,hl_joint2_torque,hl_joint3_pos,hl_joint3_vel,hl_joint3_torque,hr_joint1_pos,hr_joint1_vel,hr_joint1_torque,hr_joint2_pos,hr_joint2_vel,hr_joint2_torque,hr_joint3_pos,hr_joint3_vel,hr_joint3_torque,fl_force_x,fl_force_y,fl_force_z,fr_force_x,fr_force_y,fr_force_z,hl_force_x,hl_force_y,hl_force_z,hr_force_x,hr_force_y,hr_force_z,fl_hip_action,fl_thigh_action,fl_calf_action,fr_hip_action,fr_thigh_action,fr_calf_action,hl_hip_action,hl_thigh_action,hl_calf_action,hr_hip_action,hr_thigh_action,hr_calf_action
2025-06-10 16:39:11.988,-0.599597,-1.261773,-1.719963,-0.0033801966,3.7035887e-05,-0.0008424355,0.232382,-0.104582,9.792451,-0.0157547,0.025978088,0.69153976,-0.98351055,0.03665924,-0.5218582,1.9099147,0.01499176,-5.0580597,0.0064468384,0.029792786,-0.31555557,-0.981898,-0.001411438,-0.5255203,1.9010137,0.007972717,-4.6210403,-0.010871887,-0.035362244,0.5255203,-0.9729057,0.014152527,-1.0223541,1.9303946,-0.0182724,-5.9980164,0.019111633,0.018119812,-0.83680344,-0.97999066,-0.013313293,-0.61219025,1.9393896,-0.027275085,-6.353245,0.0,0.0,0.0,0.0,0.0,0.0,0.0,0.0,0.0,0.0,0.0,0.0,-1.0159197,-0.31500438,-2.0,-2.0,0.6723262,1.1587465,1.4347312,-1.8437355,-2.0,-0.6717264,-0.11519501,-2.0
2025-06-10 16:39:12.009,-0.600832,-1.261376,-1.718245,0.0021919764,0.0018225601,-0.0004880813,0.21866,-0.100039,9.778473,-0.025596619,-1.712532,0.61219025,-0.98747784,-0.3634262,-2.5299454,1.893893,-1.0200882,-10.532997,-0.006828308,-1.6259384,-1.072403,-0.9693858,0.34511566,3.5614548,1.9142126,0.8587265,-0.37414932,-0.007972717,-0.0472641,2.7618828,-1.0076957,-1.3171768,-11.869688,1.9279532,0.7204819,-14.439308,0.018806458,0.7670975,-2.6190567,-0.9791514,0.54203033,-2.1832619,1.9267248,-0.69934845,-12.517891,0.0,0.0,0.0,0.0,0.0,0.0,0.0,0.0,0.0,0.0,0.0,0.0,-2.0,0.6642193,-2.0,-0.8618687,0.87312055,2.0,-2.0,-2.0,0.08310034,-2.0,-1.5282829,-2.0
2025-06-10 16:39:12.031,-0.923499,-1.579246,-2.046362,-0.21524508,-0.42637298,-0.6505431,3.678383,-4.422998,18.395073,-0.053901672,-1.6805649,0.5096512,-0.9765678,-0.5868149,5.1361885,1.8667324,-1.9245529,-8.379644,-0.030708313,-1.0772324,1.0772858,-0.95626324,0.7442856,4.065613,1.9304632,1.3151169,2.1258888,-0.018806458,-0.7732773,-1.8829651,-1.049047,-3.9653435,-8.999771,1.9512229,1.0554123,-6.0871277,0.010795593,-0.5119705,-3.019455,-1.0079142,-0.7892227,-10.5683975,1.9255041,0.16307831,-13.323566,0.0,0.0,0.0,0.0,0.0,0.0,0.0,0.0,0.0,0.0,0.0,0.0,-2.0,2.0,-2.0,-2.0,2.0,2.0,-2.0,-2.0,2.0,-2.0,-2.0,-2.0
2025-06-10 16:39:12.052,-1.654898,-2.5601,-2.987355,-0.8982931,-1.2843981,-0.91704804,1.372006,-0.565749,15.370007,-0.089149475,-1.7046738,1.8707542,-0.9763389,-0.10456085,14.848248,1.8201168,-2.973751,-5.338825,-0.058555603,-1.3019943,0.23498917,-0.86814374,6.111267,3.1329842,1.9606756,0.97522736,1.7792015,-0.034446716,-0.41553497,-1.7389183,-1.150518,-5.430187,-3.3588142,1.9908195,2.4605217,-0.9747467,0.0009536743,-0.71338654,-2.363926,-1.043696,-1.2652969,-12.080872,1.9300054,0.32260895,-13.643398,0.0,0.0,0.0,0.0,0.0,0.0,0.0,0.0,0.0,0.0,0.0,0.0,-2.0,2.0,-2.0,-2.0,2.0,-2.0,-2.0,-2.0,2.0,-2.0,-2.0,-2.0
2025-06-10 16:39:12.074,-2.629857,-4.181941,-3.838209,-0.92047024,-1.6626225,-0.5903334,-2.238752,0.082387,12.362541,-0.11425018,-0.6444168,1.3116646,-0.98732525,-0.3571701,15.580681,1.7613704,-2.7633324,-3.6688805,-0.07976532,-0.91487885,0.16418839,-0.71555585,7.2108154,-3.7470055,1.9220709,-6.32428,-3.3612556,-0.050315857,-0.55194855,-0.61585236,-1.2753348,-4.712948,0.27527237,2.0167594,0.37067413,0.26916885,-0.011634827,-0.70583344,-2.1441994,-1.087794,-2.389492,-9.274433,1.942365,0.8023453,-14.657818,0.0,0.0,0.0,0.0,0.0,0.0,0.0,0.0,0.0,0.0,0.0,0.0,-2.0,2.0,-2.0,-2.0,2.0,-2.0,-2.0,-2.0,1.4274352,-2.0,-2.0,-2.0
2025-06-10 16:39:12.094,-3.237419,-6.094716,-4.104481,-0.4449213,-1.8104002,-0.100924514,-1.388199,0.560452,12.248313,-0.121421814,-0.06404877,0.9417877,-0.9868675,0.49884796,14.727398,1.7042263,-2.5154533,-1.990387,-0.094947815,-0.7265854,0.61829376,-0.6167552,3.3069267,-2.113678,1.7721533,-6.3584595,0.21423721,-0.064201355,-0.25463104,-0.49134064,-1.354528,-2.5417747,0.25940323,2.0127158,-0.6584549,-0.33630753,-0.02445221,-0.9230423,-1.314106,-1.1366221,-2.072033,-8.043945,1.9547247,0.5979538,-14.926376,0.0,0.0,0.0,0.0,0.0,0.0,0.0,0.0,0.0,0.0,0.0,0.0,-2.0,2.0,-2.0,-2.0,2.0,-2.0,-2.0,-2.0,-2.0,-2.0,-2.0,-2.0
2025-06-10 16:39:12.116,-3.537809,-8.200295,-3.585325,-0.040747136,-1.2277639,0.55083823,0.093696,1.263379,8.174014,-0.11646271,0.65135956,0.083618164,-0.9714561,0.8273697,13.161213,1.6568477,-2.1035423,-0.92836,-0.1039505,-0.049934387,0.3668251,-0.57952374,0.9833145,-0.5072098,1.6734289,-3.4538689,0.3253212,-0.07846832,-2.0742455,1.5912094,-1.3739829,1.3331223,-4.380562,1.9540458,-1.8317795,-13.001297,-0.040855408,-0.6192398,-0.99305725,-1.1746203,-1.5030289,-7.5422287,1.96182,0.15018463,-14.556496,0.0,0.0,0.0,0.0,0.0,0.0,0.0,0.0,0.0,0.0,0.0,0.0,-2.0,2.0,-2.0,-2.0,2.0,-2.0,-2.0,-2.0,-2.0,-2.0,-2.0,-2.0
2025-06-10 16:39:12.137,-3.324168,-9.183412,-2.643537,0.84285915,-0.44820783,0.8683628,3.914049,-1.85729,10.132072,-0.09685516,0.7835007,-1.3653755,-0.94299847,1.2823105,11.796444,1.6145809,-1.861229,0.0579834,-0.101737976,-0.047798157,0.099487305,-0.5636546,0.23769379,-0.16296768,1.6242956,-1.7313766,-0.22888565,-0.08716583,-0.58963776,0.14587784,-1.3435416,1.7093277,-5.9845886,1.9199424,-1.8941879,-10.11429,-0.051841736,-0.38181305,-1.0260162,-1.197661,-0.5373764,-7.7241173,1.9578527,-0.48755646,-13.36507,0.0,0.0,0.0,0.0,0.0,0.0,0.0,0.0,0.0,0.0,0.0,0.0,-2.0,2.0,-2.0,-2.0,2.0,-2.0,-2.0,-2.0,-2.0,-2.0,-2.0,-2.0
2025-06-10 16:39:12.159,-2.529681,-9.4699,-1.507072,0.8058685,-0.19861226,1.0508807,2.581349,-1.231734,8.717444,-0.07534027,0.98293304,-2.0794983,-0.9152275,1.0142136,11.136036,1.5810878,-1.7601395,1.248188,-0.1089859,-0.29644012,0.7525749,-0.5613658,0.06160736,0.25818253,1.5956091,-1.083641,-0.16052628,-0.09868622,-0.5345535,0.7830925,-1.305471,1.7366409,-7.368885,1.8739371,-2.0132103,-8.808117,-0.06313324,-0.6937027,-0.46448517,-1.2165056,-0.78624725,-6.71336,1.9456457,-0.5157089,-13.004959,0.0,0.0,0.0,0.0,0.0,0.0,0.0,0.0,0.0,0.0,0.0,0.0,-2.0,2.0,-2.0,-2.0,2.0,-2.0,-2.0,-2.0,-2.0,-2.0,-2.0,-2.0
2025-06-10 16:39:12.179,-1.846778,-9.713614,-0.264478,0.742693,-0.17649041,1.0552468,3.099468,-0.376045,6.213275,-0.060539246,0.5212784,-2.1857033,-0.8911949,0.9662247,10.387733,1.5493495,-1.3399124,1.8878479,-0.11249542,-0.14766693,0.64515305,-0.5613658,0.07106781,0.33630753,1.5817999,-0.30872345,-0.41077423,-0.11211395,-0.63236237,1.3409615,-1.2799888,0.9155655,-7.125965,1.8347983,-1.81324,-7.5715256,-0.075416565,-0.5272293,-0.099487305,-1.2348162,-0.7466507,-6.343479,1.9364904,-0.44506073,-12.893875,0.0,0.0,0.0,0.0,0.0,0.0,0.0,0.0,0.0,0.0,0.0,0.0,-2.0,2.0,-2.0,-2.0,2.0,-2.0,-2.0,-2.0,-2.0,-2.0,-2.0,-2.0
2025-06-10 16:39:12.201,-1.314341,-9.89287,0.946848,0.54213464,-0.0853344,0.97673774,2.90103,0.008498,5.775108,-0.05153656,0.30864716,-2.1527443,-0.87387615,0.72307587,10.342564,1.5285213,-0.8275223,1.6974144,-0.11226654,0.02658844,0.4339676,-0.55915326,0.13263702,0.111694336,1.575086,-0.28003693,-0.38758087,-0.121650696,-0.49411774,1.3861313,-1.2750297,-0.06404877,-6.0712585,1.8013053,-1.5617752,-6.720684,-0.088005066,-0.7329941,0.6634636,-1.2512957,-0.8691788,-5.896698,1.9292425,-0.13362885,-12.847485,0.0,0.0,0.0,0.0,0.0,0.0,0.0,0.0,0.0,0.0,0.0,0.0,-2.0,2.0,-2.0,-2.0,2.0,-2.0,-2.0,-2.0,-2.0,-2.0,-2.0,-2.0
2025-06-10 16:39:12.223,-0.872951,-9.905569,2.274859,0.41561046,0.17071077,0.82698,2.306674,0.081102,5.435484,-0.04360199,0.24211884,-2.306553,-0.86372906,0.23189545,10.439003,1.519366,-0.11425018,1.2726021,-0.10974884,0.11066437,0.2838173,-0.5548808,0.12958527,-0.12390137,1.5702032,-0.052070618,-0.40589142,-0.12767792,-0.0812912,1.2494087,-1.2770896,-0.2199173,-5.745327,1.767736,-1.4398575,-5.6525536,-0.10303497,-0.54454803,1.072403,-1.2651049,-0.41713715,-5.684292,1.9235204,-0.25989532,-12.661938,0.0,0.0,0.0,0.0,0.0,0.0,0.0,0.0,0.0,0.0,0.0,0.0,-2.0,2.0,-2.0,-2.0,2.0,-2.0,-2.0,-2.0,-2.0,-2.0,-2.0,-2.0
2025-06-10 16:39:12.245,-0.547723,-9.604315,3.156239,0.40365037,0.39300412,0.70318097,2.203719,-0.117143,5.962574,-0.037269592,0.22762299,-2.5421524,-0.8590751,0.11615753,10.547646,1.5213497,0.2916336,0.7086296,-0.10860443,0.0472641,0.31799698,-0.5535075,-0.04322052,0.029907227,1.5682195,-0.062446594,-0.4388504,-0.12760162,0.010185242,0.940567,-1.2877707,-0.5435562,-4.757763,1.7341666,-1.4982986,-4.527046,-0.11463165,-0.52776337,1.1810493,-1.2745653,-0.52806854,-5.37545,1.9193243,-0.10601044,-12.681469,0.0,0.0,0.0,0.0,0.0,0.0,0.0,0.0,0.0,0.0,0.0,0.0,-2.0,2.0,-2.0,-2.0,2.0,-2.0,-2.0,-2.0,-2.0,-2.0,-2.0,-2.0
2025-06-10 16:39:12.266,-0.061548,-8.951043,4.046893,0.5048905,0.5110088,0.5298204,1.7075,-0.712706,7.240735,-0.031089783,0.33634186,-2.703289,-0.8595329,-0.117759705,10.855267,1.531573,0.5308914,0.08605957,-0.10921478,-0.16986847,0.4412918,-0.5538127,0.089149475,0.0579834,1.5668463,-0.09082794,-0.38025665,-0.12248993,0.5903244,0.2825966,-1.3063865,-1.4969254,-3.0988007,1.7039542,-1.870079,-2.8216972,-0.1215744,-0.2186966,1.3055611,-1.2815844,-0.36640167,-5.4352646,1.9186376,0.014228821,-12.803539,0.0,0.0,0.0,0.0,0.0,0.0,0.0,0.0,0.0,0.0,0.0,0.0,-2.0,2.0,-2.0,-2.0,2.0,-2.0,-2.0,-2.0,-2.0,-2.0,-2.0,-2.0
2025-06-10 16:39:12.288,0.407279,-8.296399,4.596178,0.44975105,0.65952283,0.4373061,0.638122,-0.227115,6.81767,-0.0283432,-0.013008118,-2.4225235,-0.8618217,-0.03643036,10.849163,1.5440853,1.0831833,-0.9662018,-0.110588074,0.037574768,0.4388504,-0.5523631,0.07129669,-0.07385254,1.5658544,-0.038642883,-0.42420197,-0.10700226,0.5465317,-0.4351883,-1.3463645,-1.5981674,-1.1517525,1.6568809,-2.0670738,-0.9417877,-0.13072968,-0.44017792,1.7889671,-1.2842547,0.016899109,-5.757534,1.918485,-0.032310486,-12.773022,0.0,0.0,0.0,0.0,0.0,0.0,0.0,0.0,0.0,0.0,0.0,0.0,-2.0,2.0,-2.0,-2.0,2.0,-2.0,-2.0,-2.0,-2.0,-2.0,-2.0,-2.0
2025-06-10 16:39:12.310,0.763989,-7.409452,5.13403,0.38340694,0.82166356,0.47489718,0.146484,-0.432892,8.280411,-0.026664734,0.1354599,-2.666668,-0.8643394,-0.13957977,10.974899,1.5723903,1.3492966,-2.649578,-0.109825134,0.17787933,0.31067276,-0.5521342,0.056266785,-0.044555664,1.5661596,0.3055191,-0.7489128,-0.09426117,0.61618805,-0.79896164,-1.3845115,-1.8297958,-0.19226456,1.6123252,-1.7034531,0.1300087,-0.14110565,-0.54164886,2.1380959,-1.2828814,0.12042999,-5.971161,1.918485,0.010719299,-12.799877,0.0,0.0,0.0,0.0,0.0,0.0,0.0,0.0,0.0,0.0,0.0,0.0,-2.0,2.0,-2.0,-2.0,2.0,-2.0,-2.0,-2.0,-2.0,-2.0,-2.0,-2.0
2025-06-10 16:39:12.331,1.185742,-6.141478,5.887359,0.29671273,0.8195523,0.5365714,-1.091763,-0.367059,12.158153,-0.026741028,-0.07411957,-2.4090958,-0.86510235,-0.0051498413,10.911423,1.5994747,1.055336,-2.9193573,-0.104255676,0.1455307,-0.045776367,-0.5545756,-0.3658676,0.5511551,1.591947,1.5945053,-3.5284958,-0.08968353,-0.011329651,-0.33386612,-1.4115195,-1.2996292,0.10681152,1.5847831,-0.94249725,0.00793457,-0.15537262,-0.7790756,3.09758,-1.280974,0.05344391,-5.9894714,1.9183325,0.008125305,-12.805981,0.0,0.0,0.0,0.0,0.0,0.0,0.0,0.0,0.0,0.0,0.0,0.0,-2.0,2.0,-2.0,-2.0,2.0,-2.0,-2.0,-2.0,-2.0,-2.0,-2.0,-2.0
2025-06-10 16:39:12.353,1.264714,-5.296105,6.532453,0.08180217,0.5231063,0.5458374,-1.212662,0.099026,13.536663,-0.027961731,0.053749084,-2.4933243,-0.8616691,0.218544,10.439003,1.6134365,0.27484894,-2.498207,-0.104255676,0.14400482,0.115356445,-0.5623576,-0.3647232,0.87464523,1.6173528,0.9517288,-3.6127243,-0.087013245,0.30002594,-0.6378288,-1.4302878,-0.549736,0.083618164,1.5730338,-0.42095184,-0.22766495,-0.17147064,-0.80257416,3.4235153,-1.2808977,0.038490295,-5.8295555,1.918485,-0.035362244,-12.803539,0.0,0.0,0.0,0.0,0.0,0.0,0.0,0.0,0.0,0.0,0.0,0.0,-2.0,2.0,-2.0,-2.0,2.0,-2.0,-2.0,-2.0,-2.0,-2.0,-2.0,-2.0
2025-06-10 16:39:12.374,1.434152,-4.740945,7.14658,0.27838278,0.32635742,0.52163833,-1.343543,0.182674,12.554182,-0.027656555,-0.016059875,-2.437172,-0.8535057,0.33260345,9.910431,1.6158779,-0.028877258,-2.1429787,-0.10257721,0.016670227,0.08483887,-0.5672404,-0.20633698,0.76111984,1.6294836,0.32627106,-3.1305428,-0.08365631,0.1682663,-0.5584793,-1.4375358,-0.015830994,-0.15198135,1.5672355,-0.20175934,-0.23865128,-0.18680573,-0.7426834,4.195011,-1.2811266,-0.061454773,-5.783169,1.9184088,-0.031700134,-12.744946,0.0,0.0,0.0,0.0,0.0,0.0,0.0,0.0,0.0,0.0,0.0,0.0,-2.0,2.0,-2.0,-2.0,2.0,-2.0,-2.0,-2.0,-2.0,-2.0,-2.0,-2.0
2025-06-10 16:39:12.395,1.64941,-4.403877,7.735463,0.18662688,0.18039137,0.47192898,-0.883961,0.357341,11.65105,-0.0283432,-0.040779114,-2.3370705,-0.84351116,0.3888321,9.478294,1.6135128,-0.20526886,-1.8048363,-0.1026535,-0.07846832,0.1690712,-0.5688426,-0.051002502,0.6268425,1.6333746,0.045204163,-2.8400078,-0.0825119,0.041618347,-0.61829376,-1.4355521,-0.0014877319,-0.5194168,1.5644126,-0.05016327,-0.29602432,-0.20198822,-0.65525055,4.740673,-1.2808214,-0.041007996,-5.8466454,1.9184088,0.0024032593,-12.764477,0.0,0.0,0.0,0.0,0.0,0.0,0.0,0.0,0.0,0.0,0.0,0.0,-2.0,2.0,-2.0,-2.0,2.0,-2.0,-2.0,-2.0,-2.0,-2.0,-2.0,-2.0
2025-06-10 16:39:12.415,1.820212,-4.209292,8.353133,0.13069816,0.049271952,0.39617944,-0.683339,0.7235,9.907303,-0.030326843,-0.058555603,-2.334629,-0.83084637,0.6443405,8.880142,1.6064937,-0.39295197,-1.531395,-0.10334015,-0.035972595,0.16418839,-0.56807965,0.031929016,0.5072098,1.633222,-0.020179749,-2.8131523,-0.07953644,0.05016327,-0.7782097,-1.4359336,-0.079689026,-0.46082306,1.5614371,-0.1052475,-0.18860245,-0.21587372,-0.55828094,5.011673,-1.2797533,0.11264801,-5.9894714,1.9184088,0.011711121,-12.781567,0.0,0.0,0.0,0.0,0.0,0.0,0.0,0.0,0.0,0.0,0.0,0.0,-2.0,2.0,-2.0,-2.0,2.0,-2.0,-2.0,-2.0,-2.0,-2.0,-2.0,-2.0
2025-06-10 16:39:12.437,1.990685,-4.159737,8.789922,0.19622986,0.013762374,0.35427317,-0.084247,0.880961,9.355926,-0.030479431,0.008659363,-2.363926,-0.8175712,0.5712509,8.3466835,1.5990932,-0.3131485,-1.2286568,-0.10280609,0.013008118,0.11047363,-0.56548566,0.21129608,0.29480362,1.633222,0.024604797,-2.8155937,-0.076789856,0.18276215,-0.95399475,-1.4355521,0.010871887,-0.50354767,1.5605979,0.0132369995,-0.2838173,-0.22418976,-0.3937912,4.9811554,-1.2771593,0.08365631,-6.1689186,1.9185613,0.017204285,-12.762035,0.0,0.0,0.0,0.0,0.0,0.0,0.0,0.0,0.0,0.0,0.0,0.0,-2.0,2.0,-2.0,-2.0,2.0,-2.0,-2.0,-2.0,-2.0,-2.0,-2.0,-2.0
2025-06-10 16:39:12.458,2.236812,-4.123774,9.155968,0.22198574,0.047988508,0.2858146,0.230332,0.930951,9.503993,-0.030784607,-0.033454895,-2.3407326,-0.8039909,0.52288055,7.904785,1.5929134,-0.21183014,-1.1004791,-0.10219574,0.0022506714,0.12634659,-0.5612132,0.2616501,0.083618164,1.6331457,0.008735657,-2.814373,-0.07511139,-0.0014877319,-0.8526726,-1.4353995,0.011100769,-0.48889923,1.5602164,0.013160706,-0.29480362,-0.23296356,-0.54691315,5.2594795,-1.2722002,0.2715683,-6.4472427,1.9185613,-0.0063705444,-12.786449,0.0,0.0,0.0,0.0,0.0,0.0,0.0,0.0,0.0,0.0,0.0,0.0,-2.0,2.0,-2.0,-2.0,2.0,-2.0,-2.0,-2.0,-2.0,-2.0,-2.0,-2.0
2025-06-10 16:39:12.478,2.458402,-4.050911,9.442894,0.15366752,0.08178134,0.20725791,0.623644,1.035689,9.486272,-0.03139496,-0.0522995,-2.2931252,-0.7911735,0.52783966,7.458,1.5887172,-0.06313324,-1.1163483,-0.10257721,0.0009536743,0.14709854,-0.556483,0.23929596,-0.1727333,1.6330694,0.00667572,-2.7801933,-0.07450104,0.010032654,-0.8160515,-1.4355521,-0.008277893,-0.4730301,1.5601401,0.0090408325,-0.27893448,-0.2399826,-0.35320282,5.3412666,-1.2645708,0.28491974,-6.875717,1.9187902,0.026741028,-12.808422,0.0,0.0,0.0,0.0,0.0,0.0,0.0,0.0,0.0,0.0,0.0,0.0,-2.0,2.0,-2.0,-2.0,2.0,-2.0,-2.0,-2.0,-2.0,-2.0,-2.0,-2.0
2025-06-10 16:39:12.500,2.644566,-3.957485,9.652528,0.16020045,0.0981935,0.15000728,0.773419,1.149616,9.412729,-0.03162384,0.052452087,-2.3028908,-0.7797294,0.5073166,7.3420296,1.5857418,-0.10158539,-1.0138092,-0.10257721,-0.025138855,0.14343643,-0.55045575,0.18268585,-0.45105743,1.633222,-0.040550232,-2.838787,-0.07457733,-0.0051498413,-0.7830925,-1.4356284,-0.018882751,-0.46326447,1.559835,0.050849915,-0.30334854,-0.24463654,-0.17986298,5.458458,-1.2573229,0.15369415,-7.0930023,1.919782,0.09059906,-12.925613,0.0,0.0,0.0,0.0,0.0,0.0,0.0,0.0,0.0,0.0,0.0,0.0,-2.0,2.0,-2.0,-2.0,2.0,-2.0,-2.0,-2.0,-2.0,-2.0,-2.0,-2.0
2025-06-10 16:39:12.521,2.885134,-3.853144,9.830546,0.13623841,0.067790054,0.093038596,0.972077,1.29831,9.54728,-0.03177643,0.02658844,-2.3199806,-0.77080303,0.3876114,7.1076508,1.5828426,-0.07884979,-0.95155334,-0.10257721,0.041770935,0.14587784,-0.54412335,0.27111053,-0.64149094,1.6331457,-0.002632141,-2.8400078,-0.07457733,-0.026054382,-0.7501335,-1.4361625,-0.027580261,-0.40833282,1.5599875,0.014228821,-0.2862587,-0.24799347,-0.21152496,5.5414658,-1.2516009,0.2451706,-7.233387,1.9214605,0.0712204,-13.05867,0.0,0.0,0.0,0.0,0.0,0.0,0.0,0.0,0.0,0.0,0.0,0.0,-2.0,2.0,-2.0,-2.0,2.0,-2.0,-2.0,-2.0,-2.0,-2.0,-2.0,-2.0
2025-06-10 16:39:12.543,3.047932,-3.823459,9.920053,0.09590176,0.020550624,0.05800546,1.030218,1.280943,9.429578,-0.032310486,-0.094947815,-2.2479591,-0.76424176,0.45635223,6.9648285,1.5816982,0.016212463,-1.0247955,-0.10303497,-0.03879547,0.18494034,-0.53916425,0.29453278,-0.7428093,1.6333746,0.0065994263,-2.8363457,-0.07457733,-0.024909973,-0.79896164,-1.4363914,-0.098838806,-0.46326447,1.5597587,-0.00049591064,-0.2887001,-0.25051117,-0.09059906,5.5426865,-1.2478625,0.107154846,-7.226063,1.9245886,0.2312088,-13.189289,0.0,0.0,0.0,0.0,0.0,0.0,0.0,0.0,0.0,0.0,0.0,0.0,-2.0,2.0,-2.0,-2.0,2.0,-2.0,-2.0,-2.0,-2.0,-2.0,-2.0,-2.0
2025-06-10 16:39:12.564,3.152763,-3.829857,9.965108,0.03934314,-0.0038120085,0.023462078,1.018743,1.332469,9.388493,-0.03299713,-0.0118637085,-2.2796974,-0.76035076,0.060081482,6.9855804,1.581393,-0.004463196,-1.051651,-0.10372162,-0.022621155,0.20447159,-0.5347392,0.22556305,-0.8172722,1.6332983,-0.025520325,-2.805828,-0.07488251,-0.05695343,-0.789196,-1.4360099,0.02254486,-0.45838165,1.5596824,0.028038025,-0.2838173,-0.25203705,-0.11806488,5.507286,-1.2458788,-0.0031661987,-7.1137543,1.9284033,0.26462555,-13.435875,0.0,0.0,0.0,0.0,0.0,0.0,0.0,0.0,0.0,0.0,0.0,0.0,-2.0,2.0,-2.0,-2.0,2.0,-2.0,-2.0,-2.0,-2.0,-2.0,-2.0,-2.0
2025-06-10 16:39:12.585,3.213191,-3.864535,9.973957,0.021763697,-0.037651204,-0.005173959,1.012154,1.249359,9.506668,-0.033226013,-0.015678406,-2.256504,-0.75790936,0.055351257,7.0502777,1.5816982,0.02773285,-1.0504303,-0.10387421,-0.058784485,0.21667862,-0.53161114,0.022773743,-0.88319397,1.633222,-0.04962921,-2.8290215,-0.07442474,0.07129669,-0.7830925,-1.4360862,0.039634705,-0.4718094,1.5595298,-0.024909973,-0.28015518,-0.25196075,0.013160706,5.420616,-1.2457262,-0.115852356,-7.0637054,1.9341253,0.41606903,-13.731289,0.0,0.0,0.0,0.0,0.0,0.0,0.0,0.0,0.0,0.0,0.0,0.0,-2.0,2.0,-2.0,-2.0,2.0,-2.0,-2.0,-2.0,-2.0,-2.0,-2.0,-2.0
2025-06-10 16:39:12.606,3.268655,-3.962894,9.931437,0.0031266178,-0.08555595,-0.04577065,0.868608,1.107384,9.723018,-0.03414154,0.008583069,-2.2259865,-0.7575279,0.014762878,7.1369514,1.582156,0.00064849854,-1.1200104,-0.104026794,0.0016403198,0.22400284,-0.52909344,0.10341644,-0.9381256,1.6330694,0.0009536743,-2.8033867,-0.074653625,0.05634308,-0.7855339,-1.4360862,0.09693146,-0.49378204,1.5596061,-0.011940002,-0.27527237,-0.25119781,0.013389587,5.326618,-1.2464129,0.015602112,-7.0173187,1.9396948,0.28766632,-13.919281,0.0,0.0,0.0,0.0,0.0,0.0,0.0,0.0,0.0,0.0,0.0,0.0,-2.0,2.0,-2.0,-2.0,2.0,-2.0,-2.0,-2.0,-2.0,-2.0,-2.0,-2.0
2025-06-10 16:39:12.630,3.269331,-4.058989,9.849442,-0.048013274,-0.07056618,-0.08516465,0.874024,1.027351,9.772943,-0.03513336,-0.052375793,-2.1564064,-0.75783306,-0.0283432,7.1442757,1.5841396,0.22731781,-1.2835884,-0.10562897,-0.10929108,0.33508682,-0.52649945,0.24997711,-1.096817,1.6329931,0.021018982,-2.7887383,-0.07434845,0.010032654,-0.79529953,-1.4356284,0.026435852,-0.49622345,1.5596061,0.026130676,-0.2874794,-0.24906158,0.12775421,5.170368,-1.2467943,0.0522995,-7.0832367,1.943662,0.06084442,-13.775234,0.0,0.0,0.0,0.0,0.0,0.0,0.0,0.0,0.0,0.0,0.0,0.0,-2.0,2.0,-2.0,-2.0,2.0,-2.0,-2.0,-2.0,-2.0,-2.0,-2.0,-2.0
2025-06-10 16:39:12.654,3.199559,-4.141617,9.69517,-0.10474063,-0.0314671,-0.11558705,1.103227,1.092261,10.067662,-0.03627777,-0.041923523,-2.1673927,-0.75813824,-0.032081604,7.245594,1.5869625,0.09334564,-1.4349594,-0.107536316,0.052070618,0.3949051,-0.52291363,0.08724213,-1.1493111,1.6323828,0.01941681,-2.7264824,-0.074043274,0.040016174,-0.80994797,-1.4353232,-0.027503967,-0.481575,1.5593772,0.02254486,-0.27771378,-0.24570465,0.20824432,4.9018097,-1.2457262,0.09288788,-7.1357307,1.9463323,0.068626404,-13.91684,0.0,0.0,0.0,0.0,0.0,0.0,0.0,0.0,0.0,0.0,0.0,0.0,-2.0,2.0,-2.0,-2.0,2.0,-2.0,-2.0,-2.0,-2.0,-2.0,-2.0,-2.0
2025-06-10 16:39:12.676,3.117448,-4.199657,9.524605,-0.061586265,-0.039803613,-0.11887165,1.166316,1.009064,9.884318,-0.03627777,-0.035438538,-2.2418556,-0.75943524,-0.060539246,7.29076,1.5898616,0.10387421,-1.4605942,-0.10746002,-0.01247406,0.3289833,-0.519633,0.11112213,-1.2921333,1.6309332,-0.067100525,-2.614174,-0.074272156,-0.065727234,-0.80140305,-1.4353995,0.03604889,-0.48279572,1.5595298,-0.02254486,-0.27038956,-0.24158478,0.20030975,4.766308,-1.2451922,0.03353119,-7.102768,1.9489263,0.09616852,-13.98764,0.0,0.0,0.0,0.0,0.0,0.0,0.0,0.0,0.0,0.0,0.0,0.0,-2.0,2.0,-2.0,-2.0,2.0,-2.0,-2.0,-2.0,-2.0,-2.0,-2.0,-2.0
2025-06-10 16:39:12.700,3.067712,-4.258793,9.395365,-0.07270973,-0.052631274,-0.10754417,1.142547,0.857263,9.852103,-0.0358963,0.01499176,-2.199131,-0.76187664,-0.09677887,7.400627,1.5915401,0.08014679,-1.52285,-0.107688904,-0.0724411,0.3253212,-0.5185649,-0.047035217,-1.3043404,1.6291021,-0.0976944,-2.5653458,-0.07419586,-0.033226013,-0.8111687,-1.4355521,0.0020217896,-0.48523712,1.5593772,-0.024223328,-0.2825966,-0.23723602,0.1971817,4.66621,-1.2451922,0.015602112,-7.0795746,1.9509863,0.0976944,-14.03891,0.0,0.0,0.0,0.0,0.0,0.0,0.0,0.0,0.0,0.0,0.0,0.0,-2.0,2.0,-2.0,-2.0,2.0,-2.0,-2.0,-2.0,-2.0,-2.0,-2.0,-2.0
2025-06-10 16:39:12.723,2.954738,-4.348101,9.240614,-0.12435404,-0.06271315,-0.10134825,1.025983,0.719479,9.76196,-0.035743713,-0.026283264,-2.1588478,-0.76546246,-0.17391205,7.5800705,1.5945919,0.15338898,-1.6583519,-0.10746002,-0.0075912476,0.3277626,-0.5171916,0.0037002563,-1.2408638,1.626737,-0.05367279,-2.486,-0.07411957,-0.049858093,-0.8111687,-1.4355521,-0.007972717,-0.481575,1.5596061,0.024375916,-0.27893448,-0.23288727,0.22708893,4.573433,-1.2456499,-0.051689148,-7.044174,1.9519018,-0.019493103,-14.002289,0.0,0.0,0.0,0.0,0.0,0.0,0.0,0.0,0.0,0.0,0.0,0.0,-2.0,2.0,-2.0,-2.0,2.0,-2.0,-2.0,-2.0,-2.0,-2.0,-2.0,-2.0
2025-06-10 16:39:12.747,2.811896,-4.426202,9.128515,-0.14678872,-0.065500095,-0.093864344,0.975675,0.659733,9.784963,-0.035591125,0.040397644,-2.199131,-0.7684379,-0.109062195,7.7155724,1.5979488,0.17894745,-1.8768616,-0.107917786,-0.028800964,0.31677628,-0.51665753,0.0104904175,-1.2506294,1.6239141,-0.07183075,-2.3443947,-0.074272156,0.013465881,-0.79896164,-1.4355521,0.0020980835,-0.49256134,1.5595298,-0.008659363,-0.28015518,-0.22937775,0.08312225,4.5014114,-1.2458025,-0.018882751,-7.028305,1.9522833,-0.020866394,-13.936371,0.0,0.0,0.0,0.0,0.0,0.0,0.0,0.0,0.0,0.0,0.0,0.0,-2.0,2.0,-2.0,-2.0,2.0,-2.0,-2.0,-2.0,-2.0,-2.0,-2.0,-2.0
2025-06-10 16:39:12.772,2.607609,-4.506212,9.00494,-0.15722488,-0.043182813,-0.07552648,0.867652,0.520123,9.769632,-0.035438538,0.04749298,-2.190586,-0.7721763,-0.12676239,7.857174,1.6009243,0.06778717,-1.8255882,-0.10746002,0.054512024,0.30334854,-0.51642865,0.07686615,-1.2713814,1.6209387,-0.14011383,-2.235752,-0.073890686,-0.019874573,-0.79774094,-1.4354758,-0.02117157,-0.4803543,1.5594535,0.013847351,-0.2825966,-0.22571564,0.19069672,4.2682533,-1.2460314,-0.047950745,-7.0356293,1.952207,-0.015296936,-13.972992,0.0,0.0,0.0,0.0,0.0,0.0,0.0,0.0,0.0,0.0,0.0,0.0,-2.0,2.0,-2.0,-2.0,2.0,-2.0,-2.0,-2.0,-2.0,-2.0,-2.0,-2.0
2025-06-10 16:39:12.797,2.441052,-4.553245,8.922844,-0.13804345,-0.047725137,-0.062269367,0.697537,0.3631,9.786105,-0.035362244,-0.020942688,-2.2589455,-0.7753807,-0.3055191,7.979248,1.603976,0.16933441,-2.0587463,-0.10700226,0.04497528,0.27405167,-0.5155894,0.07083893,-1.2555122,1.6188024,-0.086631775,-2.1942482,-0.07434845,-0.028038025,-0.80506516,-1.4355521,0.019111633,-0.4779129,1.5595298,0.064964294,-0.2838173,-0.22197723,0.2754593,4.0875854,-1.2470995,0.008049011,-6.9404144,1.9522833,0.06397247,-13.997406,0.0,0.0,0.0,0.0,0.0,0.0,0.0,0.0,0.0,0.0,0.0,0.0,-2.0,2.0,-2.0,-2.0,2.0,-2.0,-2.0,-2.0,-2.0,-2.0,-2.0,-2.0
2025-06-10 16:39:12.820,2.212914,-4.64117,8.819977,-0.13010399,-0.057976224,-0.055244032,0.668814,0.161947,9.606493,-0.034828186,-0.009651184,-2.228428,-0.7801109,-0.1391983,8.156254,1.6084011,0.17818451,-2.1795998,-0.106544495,-0.016059875,0.27038956,-0.5156657,0.104789734,-1.2579536,1.6162084,-0.101737976,-2.0672913,-0.07419586,0.045204163,-0.80994797,-1.4354758,0.012016296,-0.4754715,1.5595298,-0.016899109,-0.26550674,-0.21778107,0.0434494,4.129093,-1.2482439,-0.024909973,-6.9318695,1.9520544,-0.014076233,-13.942474,0.0,0.0,0.0,0.0,0.0,0.0,0.0,0.0,0.0,0.0,0.0,0.0,-2.0,2.0,-2.0,-2.0,2.0,-2.0,-2.0,-2.0,-2.0,-2.0,-2.0,-2.0
2025-06-10 16:39:12.841,2.010648,-4.708702,8.74458,-0.1494949,-0.046580516,-0.04765274,0.670732,0.085394,9.640881,-0.03452301,0.012550354,-2.2296486,-0.7829338,-0.13889313,8.180668,1.6115291,0.11226654,-2.310215,-0.10631561,0.026817322,0.27771378,-0.5154368,-0.03376007,-1.3153267,1.6139959,-0.04863739,-1.9977112,-0.07419586,0.011329651,-0.79652023,-1.4355521,0.006904602,-0.48523712,1.5593009,-0.014533997,-0.2874794,-0.21579742,0.056037903,4.04364,-1.2490069,-0.07633209,-6.9196625,1.952207,0.0036239624,-13.9913025,0.0,0.0,0.0,0.0,0.0,0.0,0.0,0.0,0.0,0.0,0.0,0.0,-2.0,2.0,-2.0,-2.0,2.0,-2.0,-2.0,-2.0,-2.0,-2.0,-2.0,-2.0
2025-06-10 16:39:12.861,1.840079,-4.755302,8.693965,-0.13093174,-0.048099108,-0.036950067,0.641691,0.074771,9.958359,-0.034751892,0.047416687,-2.2467384,-0.7852226,-0.10341644,8.244144,1.6145809,0.16330719,-2.3749123,-0.10623932,0.004386902,0.26550674,-0.51505536,0.03353119,-1.2884712,1.6112493,-0.10066986,-1.8658714,-0.07419586,-0.0548172,-0.76966476,-1.4354758,0.026283264,-0.48645782,1.5593772,0.032157898,-0.26794815,-0.21396637,0.049552917,3.982605,-1.2493883,0.030021667,-6.9233246,1.9523596,0.010032654,-14.001068,0.0,0.0,0.0,0.0,0.0,0.0,0.0,0.0,0.0,0.0,0.0,0.0,-2.0,2.0,-2.0,-2.0,2.0,-2.0,-2.0,-2.0,-2.0,-2.0,-2.0,-2.0
2025-06-10 16:39:12.883,1.679665,-4.807913,8.658431,-0.13695349,-0.056049816,-0.021341275,0.653866,0.059935,10.002587,-0.034828186,0.041236877,-2.2479591,-0.7872825,-0.05809784,8.25391,1.6166408,0.10662079,-2.3712502,-0.10608673,-0.010185242,0.26428604,-0.5149028,0.012245178,-1.301899,1.6083502,-0.13240814,-1.7694359,-0.07396698,0.008506775,-0.8123894,-1.4355521,0.005607605,-0.49622345,1.5593772,0.013542175,-0.26550674,-0.21274567,0.04459381,4.036316,-1.2496935,0.032310486,-6.9111176,1.9521307,-0.020561218,-13.964447,0.0,0.0,0.0,0.0,0.0,0.0,0.0,0.0,0.0,0.0,0.0,0.0,-2.0,2.0,-2.0,-2.0,2.0,-2.0,-2.0,-2.0,-2.0,-2.0,-2.0,-2.0
2025-06-10 16:39:12.905,1.517337,-4.860333,8.638132,-0.13285448,-0.04935079,-0.01020124,0.635059,0.04857,9.825006,-0.034599304,0.021705627,-2.2308693,-0.7885795,-0.015602112,8.338139,1.6186244,0.064888,-2.4420547,-0.10593414,-0.0075149536,0.2484169,-0.5146739,-0.035438538,-1.3421822,1.6056036,-0.22785187,-1.6717796,-0.07381439,0.124549866,-0.7855339,-1.4355521,-0.011940002,-0.48401642,1.5593772,0.03200531,-0.26306534,-0.21213531,0.011482239,4.011902,-1.2499224,0.013465881,-6.892807,1.9522833,-0.036582947,-13.979095,0.0,0.0,0.0,0.0,0.0,0.0,0.0,0.0,0.0,0.0,0.0,0.0,-2.0,2.0,-2.0,-2.0,2.0,-2.0,-2.0,-2.0,-2.0,-2.0,-2.0,-2.0
2025-06-10 16:39:12.925,1.335762,-4.919945,8.64243,-0.100921676,-0.045122277,0.011979765,0.645509,-0.025409,9.767488,-0.034370422,0.093421936,-2.268711,-0.78934246,-0.0052261353,8.278324,1.6198452,0.04146576,-2.4518204,-0.10562897,0.05466461,0.22766495,-0.5135295,0.08617401,-1.3629341,1.6027044,-0.1883316,-1.5582504,-0.07396698,0.046424866,-0.80140305,-1.4354758,0.018959045,-0.48401642,1.5593772,-0.01941681,-0.27405167,-0.21152496,0.00034332275,3.9984741,-1.2498461,0.074653625,-6.9037933,1.952207,-0.0037765503,-13.979095,0.0,0.0,0.0,0.0,0.0,0.0,0.0,0.0,0.0,0.0,0.0,0.0,-2.0,2.0,-2.0,-2.0,2.0,-2.0,-2.0,-2.0,-2.0,-2.0,-2.0,-2.0
2025-06-10 16:39:12.946,1.210062,-4.970496,8.659628,-0.09965734,-0.044620074,0.02150825,0.695166,-0.044381,9.775547,-0.03429413,-0.027427673,-2.252842,-0.78949505,0.033607483,8.281986,1.6212947,0.04032135,-2.5238419,-0.10509491,0.023536682,0.22034073,-0.5129191,-0.029182434,-1.3531685,1.6010259,-0.04261017,-1.5899887,-0.074043274,0.014533997,-0.80872726,-1.4355521,-0.0146102905,-0.48279572,1.5593772,-0.02040863,-0.27649307,-0.21152496,-0.0015640259,3.9789429,-1.2499987,-0.010108948,-6.8989105,1.9524359,0.04245758,-13.957123,0.0,0.0,0.0,0.0,0.0,0.0,0.0,0.0,0.0,0.0,0.0,0.0,-2.0,2.0,-2.0,-2.0,2.0,-2.0,-2.0,-2.0,-2.0,-2.0,-2.0,-2.0
2025-06-10 16:39:12.968,1.08054,-5.017421,8.685966,-0.09739661,-0.04323411,0.0260678,0.761074,-0.051668,9.736769,-0.033836365,0.0032424927,-2.285801,-0.78941876,-0.01285553,8.271,1.6222866,0.00019073486,-2.5336075,-0.10509491,0.0787735,0.2117958,-0.51276654,0.0023269653,-1.3641548,1.5990423,-0.04840851,-1.4874496,-0.07419586,0.008888245,-0.8184929,-1.4353995,-0.028495789,-0.48767853,1.5593009,-0.00705719,-0.2825966,-0.21175385,0.01285553,4.0180054,-1.2497698,0.030937195,-6.9404144,1.9522833,-0.016288757,-13.979095,0.0,0.0,0.0,0.0,0.0,0.0,0.0,0.0,0.0,0.0,0.0,0.0,-2.0,2.0,-2.0,-2.0,2.0,-2.0,-2.0,-2.0,-2.0,-2.0,-2.0,-2.0
2025-06-10 16:39:12.988,0.965217,-5.063117,8.714875,-0.08456597,-0.039911073,0.025742803,0.855773,-0.058733,9.752646,-0.03414154,-0.0007247925,-2.2674904,-0.78934246,0.015525818,8.264896,1.6232784,-0.0022506714,-2.560463,-0.10471344,0.015449524,0.21667862,-0.51269025,0.01651764,-1.347065,1.5980505,-0.11745453,-1.5118637,-0.073890686,0.044441223,-0.79774094,-1.4354758,0.018119812,-0.481575,1.5592246,0.0052261353,-0.26550674,-0.21175385,0.0007247925,4.032654,-1.2496172,-0.037727356,-6.937973,1.952207,0.0046920776,-13.979095,0.0,0.0,0.0,0.0,0.0,0.0,0.0,0.0,0.0,0.0,0.0,0.0,-2.0,2.0,-2.0,-2.0,2.0,-2.0,-2.0,-2.0,-2.0,-2.0,-2.0,-2.0
2025-06-10 16:39:13.010,0.863071,-5.108725,8.747691,-0.07487743,-0.03344234,0.025053067,0.987562,-0.050637,9.718714,-0.033683777,-0.017051697,-2.2711525,-0.78934246,0.0011825562,8.252689,1.6242702,0.03177643,-2.5580215,-0.104789734,0.00415802,0.22278214,-0.51276654,-0.01247406,-1.3653755,1.597135,-0.024299622,-1.5045395,-0.074043274,0.036888123,-0.8123894,-1.4354758,-0.0049972534,-0.48523712,1.5592246,-0.0422287,-0.27893448,-0.21213531,-0.0447464,4.024109,-1.2496935,-0.0061416626,-6.95018,1.9522833,0.0037765503,-13.980316,0.0,0.0,0.0,0.0,0.0,0.0,0.0,0.0,0.0,0.0,0.0,0.0,-2.0,2.0,-2.0,-2.0,2.0,-2.0,-2.0,-2.0,-2.0,-2.0,-2.0,-2.0
2025-06-10 16:39:13.031,0.752816,-5.158456,8.781372,-0.06205331,-0.023931274,0.020550815,1.051694,-0.039982,9.691323,-0.03376007,0.039787292,-2.2870216,-0.78926617,0.009498596,8.258793,1.6251094,0.06526947,-2.5909805,-0.10471344,0.06137848,0.22034073,-0.51276654,-0.0011062622,-1.3495064,1.596372,-0.039634705,-1.4593735,-0.07411957,-0.0062179565,-0.80872726,-1.4353995,-0.022163391,-0.49378204,1.5592246,-0.031852722,-0.27893448,-0.21221161,-0.062446594,4.052185,-1.2496172,-0.019798279,-6.9233246,1.9524359,-0.02368927,-13.959564,0.0,0.0,0.0,0.0,0.0,0.0,0.0,0.0,0.0,0.0,0.0,0.0,-2.0,2.0,-2.0,-2.0,2.0,-2.0,-2.0,-2.0,-2.0,-2.0,-2.0,-2.0
2025-06-10 16:39:13.052,0.682389,-5.192177,8.799342,-0.044701442,-0.018991014,0.010754788,1.038102,-0.05061,9.719433,-0.03376007,0.023078918,-2.2613869,-0.78934246,0.03353119,8.258793,1.6256435,0.002632141,-2.5909805,-0.10471344,0.0045394897,0.21301651,-0.51284283,0.008125305,-1.3665962,1.5953039,-0.03993988,-1.4471664,-0.07396698,-0.022010803,-0.76844406,-1.4355521,-0.0064468384,-0.4766922,1.5593009,-0.03200531,-0.27649307,-0.21205902,0.013084412,4.011902,-1.2496172,-0.04840851,-6.9477386,1.952741,-0.005531311,-14.0035095,0.0,0.0,0.0,0.0,0.0,0.0,0.0,0.0,0.0,0.0,0.0,0.0,-2.0,2.0,-2.0,-2.0,2.0,-2.0,-2.0,-2.0,-2.0,-2.0,-2.0,-2.0
2025-06-10 16:39:13.073,0.630254,-5.214751,8.808286,-0.035398804,-0.01274579,0.002278597,1.013318,-0.06167,9.754174,-0.033607483,-0.029792786,-2.273594,-0.78949505,0.043678284,8.267338,1.6264064,0.015830994,-2.6520195,-0.104408264,0.080833435,0.21545792,-0.51276654,0.030479431,-1.347065,1.595075,0.008506775,-1.4544907,-0.07396698,-0.01537323,-0.8148308,-1.4355521,0.021247864,-0.4742508,1.5593772,0.0308609,-0.27283096,-0.21205902,0.0015640259,4.0167847,-1.2496172,0.011711121,-6.941635,1.9528173,0.006752014,-13.996185,0.0,0.0,0.0,0.0,0.0,0.0,0.0,0.0,0.0,0.0,0.0,0.0,-2.0,2.0,-2.0,-2.0,2.0,-2.0,-2.0,-2.0,-2.0,-2.0,-2.0,-2.0
2025-06-10 16:39:13.094,0.59345,-5.227573,8.80732,-0.019740354,-0.0046370607,-0.0043883338,0.991038,-0.078731,9.757911,-0.033607483,0.005836487,-2.2491798,-0.78949505,-0.001411438,8.257572,1.6267879,0.023918152,-2.6105118,-0.104637146,-0.044670105,0.20569229,-0.51269025,-0.03704071,-1.375145,1.5948461,0.014228821,-1.444725,-0.074043274,-0.02483368,-0.80628586,-1.4354758,-0.010795593,-0.48523712,1.5593009,0.013694763,-0.27649307,-0.21198273,0.002937317,4.0131226,-1.2493883,0.004005432,-6.937973,1.9526647,0.011329651,-14.018158,0.0,0.0,0.0,0.0,0.0,0.0,0.0,0.0,0.0,0.0,0.0,0.0,-2.0,2.0,-2.0,-2.0,2.0,-2.0,-2.0,-2.0,-2.0,-2.0,-2.0,-2.0
2025-06-10 16:39:13.114,0.564834,-5.235015,8.799918,-0.0070433808,0.00032091368,-0.006559802,0.943179,-0.102658,9.803526,-0.03353119,-0.104789734,-2.2723732,-0.78941876,0.029335022,8.25391,1.6267879,-0.0258255,-2.6324883,-0.10448456,-0.011177063,0.2105751,-0.51269025,0.06580353,-1.3580513,1.5948461,0.028190613,-1.4544907,-0.074043274,-0.026512146,-0.80262375,-1.4354758,-0.018043518,-0.481575,1.5593009,-0.00995636,-0.27527237,-0.21198273,0.014076233,4.0253296,-1.2495409,-0.00995636,-6.9391937,1.9528936,-0.022773743,-13.992523,0.0,0.0,0.0,0.0,0.0,0.0,0.0,0.0,0.0,0.0,0.0,0.0,-2.0,2.0,-2.0,-2.0,2.0,-2.0,-2.0,-2.0,-2.0,-2.0,-2.0,-2.0
2025-06-10 16:39:13.135,0.556879,-5.235279,8.792406,0.0026886447,0.0011063118,-0.0062176483,0.904411,-0.077648,9.735939,-0.033454895,-0.05809784,-2.2748146,-0.78949505,0.011711121,8.273441,1.6267116,0.0045394897,-2.6276054,-0.10456085,-0.0037002563,0.20447159,-0.51276654,0.023002625,-1.3568306,1.5947698,0.0052261353,-1.465477,-0.07419586,-0.034446716,-0.80750656,-1.4354758,0.026283264,-0.48889923,1.5593009,-0.056877136,-0.26672745,-0.21175385,0.023994446,4.0253296,-1.2494646,0.030097961,-6.96727,1.9528173,0.013389587,-13.996185,0.0,0.0,0.0,0.0,0.0,0.0,0.0,0.0,0.0,0.0,0.0,0.0,-2.0,2.0,-2.0,-2.0,2.0,-2.0,-2.0,-2.0,-2.0,-2.0,-2.0,-2.0
2025-06-10 16:39:13.156,0.558154,-5.229926,8.787758,0.008578415,0.0062845815,-0.0034455243,0.869081,-0.052118,9.716904,-0.033683777,0.053977966,-2.2540627,-0.78941876,-0.0157547,8.278324,1.6268642,0.019340515,-2.6227188,-0.10448456,0.012550354,0.20569229,-0.51276654,0.0023269653,-1.3629341,1.5946935,0.0051498413,-1.4508286,-0.07411957,0.001411438,-0.7928581,-1.4354758,0.005836487,-0.4730301,1.5593009,-0.007972717,-0.27527237,-0.21175385,0.054969788,4.019226,-1.2496172,-0.0033950806,-6.930649,1.9528936,-0.013923645,-13.985199,0.0,0.0,0.0,0.0,0.0,0.0,0.0,0.0,0.0,0.0,0.0,0.0,-2.0,2.0,-2.0,-2.0,2.0,-2.0,-2.0,-2.0,-2.0,-2.0,-2.0,-2.0
2025-06-10 16:39:13.178,0.563966,-5.221531,8.787613,0.013251918,0.008898439,0.00048488737,0.839613,-0.054579,9.729602,-0.03376007,-0.057258606,-2.2662697,-0.78934246,-0.0037765503,8.256351,1.6267879,0.012016296,-2.6288261,-0.10456085,-0.053215027,0.21423721,-0.5129191,0.00019073486,-1.3861313,1.5947698,0.039253235,-1.4691391,-0.07396698,0.022010803,-0.7818718,-1.4355521,-0.0025558472,-0.48279572,1.5593009,0.008201599,-0.26184464,-0.21183014,0.02658844,4.052185,-1.2496172,-0.014533997,-6.929428,1.9528173,0.0008773804,-13.975433,0.0,0.0,0.0,0.0,0.0,0.0,0.0,0.0,0.0,0.0,0.0,0.0,-2.0,2.0,-2.0,-2.0,2.0,-2.0,-2.0,-2.0,-2.0,-2.0,-2.0,-2.0
2025-06-10 16:39:13.199,0.576937,-5.209634,8.789848,0.017462019,0.012142726,0.005107741,0.821201,0.013024,9.759686,-0.03376007,-0.065574646,-2.2662697,-0.78949505,-0.0009536743,8.272221,1.6267879,0.011100769,-2.6080704,-0.10456085,0.027656555,0.2105751,-0.51284283,0.001411438,-1.3556099,1.5946172,-0.040855408,-1.4312973,-0.073890686,-0.019111633,-0.80384445,-1.4354758,-0.020332336,-0.48889923,1.5593009,-0.032920837,-0.27405167,-0.21198273,-0.0002670288,4.052185,-1.2495409,-0.035438538,-6.9440765,1.9528173,0.036964417,-13.990082,0.0,0.0,0.0,0.0,0.0,0.0,0.0,0.0,0.0,0.0,0.0,0.0,-2.0,2.0,-2.0,-2.0,2.0,-2.0,-2.0,-2.0,-2.0,-2.0,-2.0,-2.0
2025-06-10 16:39:13.220,0.59261,-5.197197,8.79803,0.01671439,0.006907943,0.0068329116,0.837627,0.059479,9.761485,-0.03353119,-0.010795593,-2.2809181,-0.78949505,0.022163391,8.264896,1.6267116,0.0052261353,-2.6263847,-0.104255676,0.04261017,0.21301651,-0.51284283,-0.012550354,-1.359272,1.5947698,-0.016441345,-1.4813461,-0.073890686,-0.022010803,-0.7916374,-1.4354758,-0.017433167,-0.48767853,1.5593772,-0.01903534,-0.28015518,-0.21205902,-0.0073623657,4.020447,-1.2494646,-0.02872467,-6.9233246,1.9528936,-0.0024032593,-13.979095,0.0,0.0,0.0,0.0,0.0,0.0,0.0,0.0,0.0,0.0,0.0,0.0,-2.0,2.0,-2.0,-2.0,2.0,-2.0,-2.0,-2.0,-2.0,-2.0,-2.0,-2.0
2025-06-10 16:39:13.241,0.616072,-5.182132,8.807662,0.014128143,0.011027479,0.007822391,0.86172,0.145073,9.74774,-0.033683777,0.037651062,-2.2504005,-0.78941876,-0.021400452,8.263676,1.6267879,0.011940002,-2.645916,-0.10433197,0.0020217896,0.21667862,-0.51284283,-0.00064849854,-1.3726997,1.5948461,0.020332336,-1.4691391,-0.07381439,-0.0146865845,-0.7843132,-1.4353995,0.0118637085,-0.49011993,1.5593772,-0.018196106,-0.28137589,-0.21244049,-0.045967102,4.055847,-1.2494646,0.009727478,-6.9404144,1.9528936,0.032539368,-14.008392,0.0,0.0,0.0,0.0,0.0,0.0,0.0,0.0,0.0,0.0,0.0,0.0,-2.0,2.0,-2.0,-2.0,2.0,-2.0,-2.0,-2.0,-2.0,-2.0,-2.0,-2.0
2025-06-10 16:39:13.261,0.63313,-5.170805,8.815129,0.015253095,0.010042974,0.003213221,0.860866,0.143005,9.780128,-0.03353119,0.005455017,-2.2430763,-0.78934246,-0.013389587,8.269779,1.6266353,0.00034332275,-2.6324883,-0.104408264,-0.032463074,0.2105751,-0.51284283,0.008354187,-1.3604927,1.5949987,0.016670227,-1.4679184,-0.074043274,-0.05634308,-0.79774094,-1.4353995,-0.0049972534,-0.4754715,1.5593009,0.00957489,-0.27771378,-0.21266937,-0.062217712,4.1034546,-1.2496172,-0.015068054,-6.9391937,1.9528936,-0.0065231323,-14.026703,0.0,0.0,0.0,0.0,0.0,0.0,0.0,0.0,0.0,0.0,0.0,0.0,-2.0,2.0,-2.0,-2.0,2.0,-2.0,-2.0,-2.0,-2.0,-2.0,-2.0,-2.0
2025-06-10 16:39:13.283,0.653945,-5.155513,8.821287,0.011009415,0.009049061,0.0035288637,0.824271,0.202581,9.758673,-0.033607483,0.1027298,-2.2821388,-0.78926617,-0.014839172,8.267338,1.6267116,0.0031661987,-2.609291,-0.104637146,-0.05962372,0.2117958,-0.5129191,-0.0023269653,-1.3629341,1.5947698,0.034751892,-1.4605942,-0.074043274,0.00919342,-0.8172722,-1.4355521,0.00011444092,-0.48279572,1.5593772,0.009803772,-0.252079,-0.21282196,-0.095939636,4.102234,-1.2496172,-0.0063705444,-6.9062347,1.9528173,-0.011558533,-14.010834,0.0,0.0,0.0,0.0,0.0,0.0,0.0,0.0,0.0,0.0,0.0,0.0,-2.0,2.0,-2.0,-2.0,2.0,-2.0,-2.0,-2.0,-2.0,-2.0,-2.0,-2.0
2025-06-10 16:39:13.303,0.670499,-5.14602,8.823114,0.008701025,0.006310517,-0.0004434009,0.797791,0.197393,9.774239,-0.03391266,-0.07358551,-2.2381935,-0.7891899,-0.015907288,8.267338,1.6266353,0.0024032593,-2.6166153,-0.10448456,0.0052261353,0.21545792,-0.51284283,-0.008964539,-1.3653755,1.5949224,0.02445221,-1.4740219,-0.074043274,0.1001358,-0.80506516,-1.4353232,0.0017166138,-0.48523712,1.5593009,-0.0076675415,-0.27283096,-0.21282196,0.04787445,4.1046753,-1.2496935,-0.013694763,-6.9245453,1.952741,-0.031089783,-14.010834,0.0,0.0,0.0,0.0,0.0,0.0,0.0,0.0,0.0,0.0,0.0,0.0,-2.0,2.0,-2.0,-2.0,2.0,-2.0,-2.0,-2.0,-2.0,-2.0,-2.0,-2.0
2025-06-10 16:39:13.325,0.684686,-5.134614,8.820761,0.004062428,0.0037973302,-0.0030247427,0.786966,0.197979,9.748003,-0.033836365,-0.085868835,-2.2638283,-0.78926617,0.02910614,8.23682,1.6267879,0.028190613,-2.6202774,-0.104408264,0.026893616,0.21301651,-0.51284283,-0.02773285,-1.3519478,1.5949224,-0.01651764,-1.4337387,-0.07411957,0.040016174,-0.79529953,-1.4355521,-0.014457703,-0.4791336,1.5593009,-0.008583069,-0.2825966,-0.21289825,0.020942688,4.032654,-1.2496935,0.061836243,-6.9282074,1.952741,-0.02910614,-13.972992,0.0,0.0,0.0,0.0,0.0,0.0,0.0,0.0,0.0,0.0,0.0,0.0,-2.0,2.0,-2.0,-2.0,2.0,-2.0,-2.0,-2.0,-2.0,-2.0,-2.0,-2.0
2025-06-10 16:39:13.345,0.693015,-5.125719,8.81755,-0.0015408813,0.0022607425,-0.0020140924,0.756994,0.179209,9.776037,-0.03391266,0.004310608,-2.223545,-0.78941876,0.0077438354,8.2685585,1.6266353,0.005683899,-2.6129532,-0.104408264,-0.0104904175,0.20447159,-0.51284283,-0.0050735474,-1.347065,1.5949224,0.012321472,-1.4642563,-0.07411957,0.045890808,-0.789196,-1.4356284,-0.010566711,-0.48523712,1.5592246,-0.027885437,-0.28015518,-0.21312714,0.0047683716,4.0912476,-1.2496935,-0.020103455,-6.941635,1.9528936,-0.01537323,-13.975433,0.0,0.0,0.0,0.0,0.0,0.0,0.0,0.0,0.0,0.0,0.0,0.0,-2.0,2.0,-2.0,-2.0,2.0,-2.0,-2.0,-2.0,-2.0,-2.0,-2.0,-2.0
2025-06-10 16:39:13.366,0.692622,-5.123083,8.815432,-0.0070012836,-0.0021576632,-0.0025830697,0.757822,0.195205,9.759521,-0.03391266,-0.04261017,-2.2601662,-0.78934246,0.0059890747,8.261234,1.6266353,0.0045394897,-2.6117325,-0.10433197,-0.005836487,0.2117958,-0.51284283,-0.008049011,-1.359272,1.5949224,-0.022239685,-1.4581528,-0.07411957,0.0062942505,-0.79774094,-1.4353232,0.01651764,-0.4718094,1.5593009,-0.010871887,-0.27527237,-0.21259308,0.040779114,4.0265503,-1.2496935,-0.049095154,-6.96727,1.9528173,-0.004386902,-14.002289,0.0,0.0,0.0,0.0,0.0,0.0,0.0,0.0,0.0,0.0,0.0,0.0,-2.0,2.0,-2.0,-2.0,2.0,-2.0,-2.0,-2.0,-2.0,-2.0,-2.0,-2.0
2025-06-10 16:39:13.388,0.684425,-5.126502,8.813094,-0.009890501,-0.0056087724,-0.0025997201,0.798355,0.165085,9.754292,-0.03391266,0.031166077,-2.2601662,-0.78934246,0.014839172,8.272221,1.6267116,-0.015449524,-2.6227188,-0.10448456,0.023155212,0.2117958,-0.51269025,0.01537323,-1.3665962,1.5947698,-0.011405945,-1.4544907,-0.07396698,-0.0233078,-0.7940788,-1.4354758,0.028114319,-0.4803543,1.5593009,-0.013771057,-0.27893448,-0.21282196,-0.050697327,4.035095,-1.2498461,-0.015220642,-6.9404144,1.9528936,0.008201599,-13.981537,0.0,0.0,0.0,0.0,0.0,0.0,0.0,0.0,0.0,0.0,0.0,0.0,-2.0,2.0,-2.0,-2.0,2.0,-2.0,-2.0,-2.0,-2.0,-2.0,-2.0,-2.0
2025-06-10 16:39:13.409,0.671027,-5.132634,8.812721,-0.0133643,-0.010046621,-0.0010830291,0.82628,0.115063,9.76877,-0.033683777,0.009422302,-2.2345314,-0.7891899,0.0037002563,8.271,1.6266353,0.025062561,-2.6166153,-0.104408264,0.060310364,0.21667862,-0.51284283,0.015296936,-1.3604927,1.5947698,-0.014152527,-1.4593735,-0.07396698,-0.011100769,-0.80628586,-1.4354758,0.0132369995,-0.49500275,1.5593772,-0.002708435,-0.26916885,-0.21259308,0.053367615,4.0704956,-1.2499224,-0.013771057,-6.913559,1.952741,-0.014228821,-14.00473,0.0,0.0,0.0,0.0,0.0,0.0,0.0,0.0,0.0,0.0,0.0,0.0,-2.0,2.0,-2.0,-2.0,2.0,-2.0,-2.0,-2.0,-2.0,-2.0,-2.0,-2.0
2025-06-10 16:39:13.429,0.655441,-5.142545,8.814646,-0.015415795,-0.009658757,0.001088876,0.852408,0.092371,9.746559,-0.033836365,0.04322052,-2.2760353,-0.78934246,-0.008430481,8.257572,1.6267879,0.023918152,-2.6483574,-0.10448456,0.021629333,0.21667862,-0.5129191,0.0009536743,-1.3580513,1.5946935,-0.0233078,-1.4813461,-0.07396698,0.041542053,-0.80628586,-1.4354758,-0.034370422,-0.4803543,1.5594535,0.016822815,-0.27649307,-0.21266937,0.016670227,4.020447,-1.2496935,-0.033073425,-6.9440765,1.9528936,0.008811951,-14.012054,0.0,0.0,0.0,0.0,0.0,0.0,0.0,0.0,0.0,0.0,0.0,0.0,-2.0,2.0,-2.0,-2.0,2.0,-2.0,-2.0,-2.0,-2.0,-2.0,-2.0,-2.0
2025-06-10 16:39:13.451,0.63185,-5.157044,8.816766,-0.012220132,-0.0037651986,9.2048664e-05,0.894112,0.069472,9.750573,-0.034065247,-0.09021759,-2.2381935,-0.78934246,0.01651764,8.25391,1.6267879,-0.012550354,-2.6227188,-0.10456085,0.0011825562,0.20447159,-0.51276654,-0.0033950806,-1.3568306,1.5948461,-0.042152405,-1.465477,-0.07411957,0.029945374,-0.80018234,-1.4354758,0.008049011,-0.49256134,1.5592246,0.018806458,-0.27405167,-0.21251678,-0.08892059,4.007019,-1.2496172,-0.034751892,-6.941635,1.9528173,-0.02735138,-13.98642,0.0,0.0,0.0,0.0,0.0,0.0,0.0,0.0,0.0,0.0,0.0,0.0,-2.0,2.0,-2.0,-2.0,2.0,-2.0,-2.0,-2.0,-2.0,-2.0,-2.0,-2.0
2025-06-10 16:39:13.472,0.616201,-5.165226,8.815616,-0.00892338,-0.006221819,0.00073375384,0.903792,0.01966,9.739227,-0.033683777,0.0598526,-2.256504,-0.78941876,0.011024475,8.269779,1.6267116,-0.0002670288,-2.6080704,-0.104408264,0.02544403,0.21545792,-0.51284283,0.025596619,-1.3446236,1.5948461,0.019187927,-1.4288559,-0.074272156,0.030784607,-0.8184929,-1.4353232,-0.016822815,-0.481575,1.5592246,0.010566711,-0.26672745,-0.2122879,-0.038490295,4.0387573,-1.2496935,0.0012588501,-6.9062347,1.9528173,-0.0046157837,-14.019379,0.0,0.0,0.0,0.0,0.0,0.0,0.0,0.0,0.0,0.0,0.0,0.0,-2.0,2.0,-2.0,-2.0,2.0,-2.0,-2.0,-2.0,-2.0,-2.0,-2.0,-2.0
2025-06-10 16:39:13.493,0.603346,-5.170873,8.814805,-0.0059962007,-0.0030453727,-0.0005600412,0.907678,0.01728,9.734335,-0.033988953,-0.014076233,-2.2723732,-0.78926617,-0.037117004,8.2685585,1.6267116,-0.0004196167,-2.6227188,-0.104408264,0.031318665,0.21545792,-0.51284283,-0.032310486,-1.3775864,1.5946935,-0.012321472,-1.4520493,-0.074272156,0.07923126,-0.7843132,-1.4355521,0.006752014,-0.48645782,1.5592246,-0.019264221,-0.27161026,-0.21213531,0.031166077,4.0253296,-1.2496172,0.051460266,-6.934311,1.9529699,0.013694763,-14.016937,0.0,0.0,0.0,0.0,0.0,0.0,0.0,0.0,0.0,0.0,0.0,0.0,-2.0,2.0,-2.0,-2.0,2.0,-2.0,-2.0,-2.0,-2.0,-2.0,-2.0,-2.0
2025-06-10 16:39:13.514,0.596541,-5.173812,8.810475,0.00039509017,-0.0024138077,-0.0039028877,0.879394,0.02455,9.737609,-0.033988953,-0.001335144,-2.235752,-0.78926617,0.02254486,8.251469,1.6267879,-0.0073623657,-2.637371,-0.10448456,-0.021629333,0.21912003,-0.51276654,-0.002708435,-1.3690376,1.5949224,-0.0008010864,-1.4764633,-0.07411957,0.014762878,-0.7916374,-1.4355521,-0.028648376,-0.48767853,1.5593772,-0.026664734,-0.28015518,-0.21198273,0.015525818,4.0375366,-1.2496935,-0.008583069,-6.925766,1.9526647,-0.0030899048,-13.996185,0.0,0.0,0.0,0.0,0.0,0.0,0.0,0.0,0.0,0.0,0.0,0.0,-2.0,2.0,-2.0,-2.0,2.0,-2.0,-2.0,-2.0,-2.0,-2.0,-2.0,-2.0
2025-06-10 16:39:13.535,0.594547,-5.175409,8.809194,0.00055979687,-0.0012991533,-0.0015223459,0.872286,0.019544,9.756887,-0.034065247,-0.022163391,-2.289463,-0.78934246,0.015068054,8.274662,1.6267879,-0.023460388,-2.605629,-0.104408264,0.026893616,0.21423721,-0.51276654,0.0020980835,-1.3629341,1.5946935,-0.014915466,-1.4789047,-0.07411957,-0.057411194,-0.8123894,-1.4353995,0.0049209595,-0.48523712,1.5592246,-0.0447464,-0.26428604,-0.21205902,0.017814636,4.0265503,-1.2496935,-0.0016403198,-6.9367523,1.9528173,-0.015068054,-14.008392,0.0,0.0,0.0,0.0,0.0,0.0,0.0,0.0,0.0,0.0,0.0,0.0,-2.0,2.0,-2.0,-2.0,2.0,-2.0,-2.0,-2.0,-2.0,-2.0,-2.0,-2.0
2025-06-10 16:39:13.557,0.595455,-5.170438,8.808907,0.005624899,0.00508931,-0.00036224307,0.847012,0.024386,9.72998,-0.034065247,-0.10234833,-2.256504,-0.78934246,0.010108948,8.272221,1.6267116,0.009880066,-2.633709,-0.104408264,-0.0020217896,0.2105751,-0.51284283,0.021858215,-1.3763657,1.5947698,-0.02407074,-1.4593735,-0.073890686,-0.0010299683,-0.80384445,-1.4355521,-0.0333786,-0.48523712,1.5592246,-0.052223206,-0.27893448,-0.21190643,0.0358963,4.031433,-1.2498461,0.016441345,-6.917221,1.9528936,-0.021324158,-13.988861,0.0,0.0,0.0,0.0,0.0,0.0,0.0,0.0,0.0,0.0,0.0,0.0,-2.0,2.0,-2.0,-2.0,2.0,-2.0,-2.0,-2.0,-2.0,-2.0,-2.0,-2.0
2025-06-10 16:39:13.577,0.597887,-5.163436,8.810558,0.004128681,0.005701973,0.0020824221,0.855754,0.046638,9.736641,-0.03391266,0.05092621,-2.2601662,-0.78941876,-0.0157547,8.269779,1.6267116,0.04611969,-2.6153946,-0.10456085,0.01537323,0.21667862,-0.51284283,0.001411438,-1.3690376,1.5948461,-0.007209778,-1.4642563,-0.07411957,0.018882751,-0.80384445,-1.4355521,-0.025367737,-0.48401642,1.5594535,0.050621033,-0.27649307,-0.21221161,0.03917694,4.057068,-1.2497698,-0.05252838,-6.942856,1.9528936,0.013771057,-13.999847,0.0,0.0,0.0,0.0,0.0,0.0,0.0,0.0,0.0,0.0,0.0,0.0,-2.0,2.0,-2.0,-2.0,2.0,-2.0,-2.0,-2.0,-2.0,-2.0,-2.0,-2.0
2025-06-10 16:39:13.598,0.603064,-5.15792,8.813622,0.0058312146,0.0031548745,0.0008747415,0.840862,0.06509,9.758424,-0.03391266,0.040168762,-2.2589455,-0.78941876,-0.043373108,8.266117,1.6267116,0.0062942505,-2.6153946,-0.104408264,0.02735138,0.2117958,-0.51269025,0.005302429,-1.3568306,1.5947698,0.0008010864,-1.4740219,-0.074272156,0.005607605,-0.7916374,-1.4355521,-0.021781921,-0.481575,1.5591483,-0.03124237,-0.27038956,-0.2123642,-0.008659363,4.036316,-1.2496172,0.0090408325,-6.9160004,1.9528173,-0.013160706,-14.019379,0.0,0.0,0.0,0.0,0.0,0.0,0.0,0.0,0.0,0.0,0.0,0.0,-2.0,2.0,-2.0,-2.0,2.0,-2.0,-2.0,-2.0,-2.0,-2.0,-2.0,-2.0
2025-06-10 16:39:13.619,0.608148,-5.153154,8.817996,0.0065467474,0.0035557942,0.0042590746,0.829535,0.1057,9.769329,-0.03391266,-0.07343292,-2.2821388,-0.78926617,0.020256042,8.274662,1.6267879,0.042381287,-2.6007462,-0.10448456,-0.0015640259,0.21301651,-0.51284283,-0.00049591064,-1.3568306,1.5946935,-0.041770935,-1.4398422,-0.074043274,0.055351257,-0.7818718,-1.4354758,0.007286072,-0.49256134,1.5592246,0.011558533,-0.26916885,-0.21205902,-0.033683777,4.0289917,-1.2496935,-0.008888245,-6.9318695,1.9528173,-0.010719299,-14.010834,0.0,0.0,0.0,0.0,0.0,0.0,0.0,0.0,0.0,0.0,0.0,0.0,-2.0,2.0,-2.0,-2.0,2.0,-2.0,-2.0,-2.0,-2.0,-2.0,-2.0,-2.0
2025-06-10 16:39:13.641,0.618053,-5.147641,8.821751,0.0043207547,0.003556597,0.0007553785,0.811201,0.129541,9.747392,-0.033988953,0.033073425,-2.2504005,-0.7891899,0.0019454956,8.257572,1.6267879,-0.0024032593,-2.6361504,-0.10448456,-0.023231506,0.21912003,-0.51284283,0.013923645,-1.3580513,1.5949224,0.025520325,-1.4825668,-0.073890686,0.052452087,-0.776989,-1.4354758,0.030403137,-0.48767853,1.5593009,-0.012550354,-0.26916885,-0.21259308,-0.0636673,4.04364,-1.2495409,0.025291443,-6.9391937,1.9528173,-0.0046920776,-13.988861,0.0,0.0,0.0,0.0,0.0,0.0,0.0,0.0,0.0,0.0,0.0,0.0,-2.0,2.0,-2.0,-2.0,2.0,-2.0,-2.0,-2.0,-2.0,-2.0,-2.0,-2.0
2025-06-10 16:39:13.662,0.624415,-5.143672,8.822536,0.0045901984,0.002640945,0.000582364,0.833953,0.138708,9.742075,-0.033988953,0.023918152,-2.2577248,-0.78926617,0.004234314,8.263676,1.6267879,-0.001335144,-2.6434746,-0.10448456,-0.0059127808,0.21301651,-0.5129954,-0.025367737,-1.3665962,1.5948461,0.003929138,-1.4569321,-0.07396698,-0.0045394897,-0.7940788,-1.4354758,0.015296936,-0.46692657,1.5593772,-0.0073623657,-0.27038956,-0.2123642,0.013084412,4.0424194,-1.2495409,-0.051383972,-6.930649,1.9528936,-0.012245178,-13.974213,0.0,0.0,0.0,0.0,0.0,0.0,0.0,0.0,0.0,0.0,0.0,0.0,-2.0,2.0,-2.0,-2.0,2.0,-2.0,-2.0,-2.0,-2.0,-2.0,-2.0,-2.0
2025-06-10 16:39:13.683,0.629146,-5.140626,8.823149,-0.0007977027,0.005476721,0.00040552724,0.816724,0.135597,9.754561,-0.033988953,0.0045394897,-2.2601662,-0.78926617,-0.022850037,8.273441,1.6267116,-3.8146973e-05,-2.6300468,-0.10471344,-0.021018982,0.2093544,-0.51284283,0.016670227,-1.347065,1.5948461,-0.029640198,-1.4752426,-0.074043274,-0.045585632,-0.80140305,-1.4355521,0.015983582,-0.48523712,1.5593009,-0.008125305,-0.26184464,-0.2123642,-0.021018982,4.0265503,-1.2496935,-0.0021743774,-6.934311,1.9528173,-0.028648376,-14.015717,0.0,0.0,0.0,0.0,0.0,0.0,0.0,0.0,0.0,0.0,0.0,0.0,-2.0,2.0,-2.0,-2.0,2.0,-2.0,-2.0,-2.0,-2.0,-2.0,-2.0,-2.0
2025-06-10 16:39:13.704,0.631434,-5.138171,8.823144,0.00035480797,-0.0023346047,-0.0031108225,0.84116,0.146481,9.758761,-0.034065247,-0.028800964,-2.2919044,-0.7891136,0.00919342,8.222172,1.6267116,0.005683899,-2.6031876,-0.10448456,-0.028572083,0.21423721,-0.51284283,-0.005683899,-1.3629341,1.5949224,-0.008583069,-1.4337387,-0.07396698,0.026893616,-0.7940788,-1.4354758,0.00011444092,-0.48767853,1.559072,0.005378723,-0.27649307,-0.21244049,-0.026359558,4.044861,-1.2496935,0.044517517,-6.963608,1.9528173,0.0036239624,-14.0035095,0.0,0.0,0.0,0.0,0.0,0.0,0.0,0.0,0.0,0.0,0.0,0.0,-2.0,2.0,-2.0,-2.0,2.0,-2.0,-2.0,-2.0,-2.0,-2.0,-2.0,-2.0
2025-06-10 16:39:13.725,0.633015,-5.137358,8.82248,-0.0033165445,-0.0010306693,-0.0007465646,0.818338,0.157839,9.752567,-0.033988953,-0.056419373,-2.2638283,-0.78926617,0.034065247,8.244144,1.6267116,0.005760193,-2.6080704,-0.104637146,-0.018119812,0.2117958,-0.51276654,-0.00011444092,-1.3617134,1.5948461,0.0064468384,-1.4483871,-0.07419586,-0.06580353,-0.7830925,-1.4354758,0.004005432,-0.48767853,1.5592246,-0.018959045,-0.2825966,-0.21244049,-0.06565094,4.0143433,-1.2497698,0.04550934,-6.9452972,1.9528173,-0.0005722046,-14.020599,0.0,0.0,0.0,0.0,0.0,0.0,0.0,0.0,0.0,0.0,0.0,0.0,-2.0,2.0,-2.0,-2.0,2.0,-2.0,-2.0,-2.0,-2.0,-2.0,-2.0,-2.0
2025-06-10 16:39:13.746,0.627839,-5.139191,8.820128,-0.0055716666,-0.0010956479,4.410447e-05,0.838812,0.124959,9.759999,-0.03429413,-0.08647919,-2.285801,-0.78934246,-0.0146865845,8.252689,1.6267116,-0.013008118,-2.6202774,-0.104637146,-0.041389465,0.21545792,-0.51284283,-0.006980896,-1.3653755,1.5947698,0.014457703,-1.4630356,-0.07411957,-0.005683899,-0.789196,-1.4355521,-0.012245178,-0.48767853,1.5593009,0.040779114,-0.28015518,-0.2122879,-0.03803253,4.022888,-1.2497698,0.0030136108,-6.930649,1.9528173,0.03200531,-13.992523,0.0,0.0,0.0,0.0,0.0,0.0,0.0,0.0,0.0,0.0,0.0,0.0,-2.0,2.0,-2.0,-2.0,2.0,-2.0,-2.0,-2.0,-2.0,-2.0,-2.0,-2.0
2025-06-10 16:39:13.768,0.622368,-5.141841,8.818799,-0.005306115,-0.004549637,-0.001157834,0.833498,0.103682,9.766636,-0.034370422,-0.11386871,-2.2394142,-0.78934246,-0.001411438,8.242924,1.6267116,-0.011482239,-2.621498,-0.10448456,0.043144226,0.21912003,-0.51284283,-0.023841858,-1.3556099,1.5947698,0.03025055,-1.4544907,-0.07396698,-0.01033783,-0.79529953,-1.4354758,-0.002861023,-0.47058868,1.5593772,0.00919342,-0.26672745,-0.21221161,0.0063705444,4.039978,-1.2497698,0.031166077,-6.9355316,1.9528173,0.014076233,-13.994965,0.0,0.0,0.0,0.0,0.0,0.0,0.0,0.0,0.0,0.0,0.0,0.0,-2.0,2.0,-2.0,-2.0,2.0,-2.0,-2.0,-2.0,-2.0,-2.0,-2.0,-2.0
2025-06-10 16:39:13.790,0.613215,-5.147005,8.818835,-0.008845835,-0.005785522,-0.0018439753,0.830955,0.097328,9.762772,-0.033988953,0.024909973,-2.2662697,-0.78926617,-0.03528595,8.25391,1.6267116,0.009651184,-2.645916,-0.10448456,-0.010719299,0.21301651,-0.51284283,-0.028953552,-1.3739204,1.5949224,0.031929016,-1.4459457,-0.07411957,0.0074386597,-0.776989,-1.4354758,0.008201599,-0.48645782,1.5593009,0.039634705,-0.27161026,-0.21213531,-0.038261414,4.0302124,-1.2496935,-0.026130676,-6.9477386,1.952741,-0.023994446,-14.027924,0.0,0.0,0.0,0.0,0.0,0.0,0.0,0.0,0.0,0.0,0.0,0.0,-2.0,2.0,-2.0,-2.0,2.0,-2.0,-2.0,-2.0,-2.0,-2.0,-2.0,-2.0
2025-06-10 16:39:13.813,0.604126,-5.149549,8.818994,-0.005897956,-0.00057883846,-0.0012211021,0.867337,0.062611,9.732064,-0.034370422,0.026817322,-2.2589455,-0.78934246,-0.018730164,8.250248,1.6266353,-0.004386902,-2.614174,-0.104637146,-0.002632141,0.21423721,-0.51284283,-0.016899109,-1.3690376,1.5946935,0.011482239,-1.4593735,-0.07411957,-0.016670227,-0.80018234,-1.4354758,0.024604797,-0.49378204,1.5593009,-0.044898987,-0.27649307,-0.21213531,0.018424988,4.039978,-1.2498461,0.015525818,-6.930649,1.9528173,-0.014228821,-14.02182,0.0,0.0,0.0,0.0,0.0,0.0,0.0,0.0,0.0,0.0,0.0,0.0,-2.0,2.0,-2.0,-2.0,2.0,-2.0,-2.0,-2.0,-2.0,-2.0,-2.0,-2.0
2025-06-10 16:39:13.836,0.596414,-5.150333,8.819924,-0.0038929218,-0.0015578634,-0.0023966685,0.865077,0.061122,9.776946,-0.03429413,0.046424866,-2.273594,-0.78934246,-0.0017166138,8.269779,1.6269405,0.0132369995,-2.6276054,-0.10448456,-0.035438538,0.21545792,-0.51284283,0.0030899048,-1.3641548,1.5946935,-0.021858215,-1.45327,-0.074043274,0.015144348,-0.7916374,-1.4354758,-0.01865387,-0.4754715,1.5591483,-0.065727234,-0.27161026,-0.21205902,0.0015640259,4.0057983,-1.2496172,-0.0104904175,-6.9282074,1.952741,-0.022163391,-14.002289,0.0,0.0,0.0,0.0,0.0,0.0,0.0,0.0,0.0,0.0,0.0,0.0,-2.0,2.0,-2.0,-2.0,2.0,-2.0,-2.0,-2.0,-2.0,-2.0,-2.0,-2.0
2025-06-10 16:39:13.859,0.589018,-5.151245,8.819746,-0.004043509,0.0011106926,-0.00033875095,0.871415,0.061912,9.746302,-0.033988953,-0.040397644,-2.2552834,-0.78926617,0.00705719,8.250248,1.626559,-0.025291443,-2.6288261,-0.104408264,0.0157547,0.2117958,-0.5129954,-0.0047683716,-1.3556099,1.5947698,-0.025138855,-1.4569321,-0.07419586,0.026359558,-0.7879753,-1.4354758,-0.026512146,-0.48279572,1.5591483,-0.018730164,-0.26550674,-0.21213531,0.0283432,4.0253296,-1.2496172,0.0034713745,-6.913559,1.952741,0.0065231323,-13.9913025,0.0,0.0,0.0,0.0,0.0,0.0,0.0,0.0,0.0,0.0,0.0,0.0,-2.0,2.0,-2.0,-2.0,2.0,-2.0,-2.0,-2.0,-2.0,-2.0,-2.0,-2.0
2025-06-10 16:39:13.882,0.583168,-5.150812,8.819891,-0.0018562274,-0.0028331405,-0.001625076,0.859406,0.037705,9.720626,-0.034217834,0.025520325,-2.265049,-0.78926617,-0.01789093,8.252689,1.6267879,-0.008049011,-2.6153946,-0.104255676,-0.01750946,0.21667862,-0.51284283,-0.011100769,-1.3775864,1.5948461,-0.0073623657,-1.4837875,-0.07411957,0.02872467,-0.8123894,-1.4354758,0.0008773804,-0.48401642,1.5593009,0.007820129,-0.27527237,-0.21213531,-0.0046920776,4.015564,-1.2496935,0.008811951,-6.9160004,1.9528173,0.023612976,-13.994965,0.0,0.0,0.0,0.0,0.0,0.0,0.0,0.0,0.0,0.0,0.0,0.0,-2.0,2.0,-2.0,-2.0,2.0,-2.0,-2.0,-2.0,-2.0,-2.0,-2.0,-2.0
2025-06-10 16:39:13.904,0.580311,-5.148998,8.820851,0.0024425709,0.006364675,0.0038515576,0.85396,0.047617,9.737274,-0.03391266,0.0045394897,-2.2491798,-0.78941876,-0.023078918,8.246586,1.6267879,0.017280579,-2.6288261,-0.10448456,0.007133484,0.21545792,-0.51284283,0.01789093,-1.3495064,1.5946935,0.0046920776,-1.4630356,-0.07396698,-0.02620697,-0.80140305,-1.4354758,0.032463074,-0.49134064,1.5593009,0.04108429,-0.26428604,-0.21198273,-0.0009536743,4.0302124,-1.2497698,-0.0037765503,-6.920883,1.9528936,0.0090408325,-14.031586,0.0,0.0,0.0,0.0,0.0,0.0,0.0,0.0,0.0,0.0,0.0,0.0,-2.0,2.0,-2.0,-2.0,2.0,-2.0,-2.0,-2.0,-2.0,-2.0,-2.0,-2.0
2025-06-10 16:39:13.927,0.581678,-5.143981,8.821992,0.0014440854,0.0029404783,-0.00049532444,0.860493,0.045806,9.765253,-0.03414154,-0.08167267,-2.2504005,-0.78926617,-0.025138855,8.2685585,1.6267116,-0.004081726,-2.6105118,-0.104408264,0.03139496,0.21423721,-0.5129191,0.016288757,-1.359272,1.5948461,-0.007286072,-1.4630356,-0.07419586,-0.0762558,-0.80994797,-1.4355521,-0.051994324,-0.48889923,1.5593009,0.012779236,-0.27405167,-0.21205902,-0.03681183,4.035095,-1.2496935,0.065574646,-6.929428,1.952741,0.026435852,-13.962006,0.0,0.0,0.0,0.0,0.0,0.0,0.0,0.0,0.0,0.0,0.0,0.0,-2.0,2.0,-2.0,-2.0,2.0,-2.0,-2.0,-2.0,-2.0,-2.0,-2.0,-2.0
2025-06-10 16:39:13.948,0.584783,-5.14262,8.822124,0.002337502,0.002097973,0.0011788652,0.86041,0.080479,9.721623,-0.03414154,-0.03955841,-2.240635,-0.78934246,-0.029563904,8.25391,1.6267879,-0.005760193,-2.6190567,-0.104637146,0.0017166138,0.2105751,-0.51284283,0.0104904175,-1.3458443,1.5948461,-0.060691833,-1.4801254,-0.07411957,-0.009498596,-0.80384445,-1.4355521,0.014915466,-0.48279572,1.5591483,0.021247864,-0.27893448,-0.21205902,-0.005455017,4.0253296,-1.2496935,-0.045204163,-6.922104,1.9528173,-0.013008118,-13.997406,0.0,0.0,0.0,0.0,0.0,0.0,0.0,0.0,0.0,0.0,0.0,0.0,-2.0,2.0,-2.0,-2.0,2.0,-2.0,-2.0,-2.0,-2.0,-2.0,-2.0,-2.0
2025-06-10 16:39:13.971,0.589214,-5.137431,8.821611,0.0028043601,0.004384267,0.0006374815,0.847735,0.0975,9.742891,-0.034370422,-0.025520325,-2.2589455,-0.78934246,0.0015640259,8.264896,1.6267116,-0.023841858,-2.6263847,-0.10433197,-0.015830994,0.21545792,-0.51284283,0.040397644,-1.3519478,1.5949224,0.012931824,-1.4630356,-0.073890686,0.0062942505,-0.7830925,-1.4353995,0.0035476685,-0.48767853,1.5593009,-0.039787292,-0.27038956,-0.21213531,-0.011634827,4.027771,-1.2498461,0.002708435,-6.9025726,1.9528173,-0.011482239,-13.960785,0.0,0.0,0.0,0.0,0.0,0.0,0.0,0.0,0.0,0.0,0.0,0.0,-2.0,2.0,-2.0,-2.0,2.0,-2.0,-2.0,-2.0,-2.0,-2.0,-2.0,-2.0
2025-06-10 16:39:13.993,0.594334,-5.129262,8.823302,0.0044100457,0.0027817755,-0.0014527423,0.83148,0.103652,9.773371,-0.03429413,-0.021629333,-2.235752,-0.7891136,0.009269714,8.257572,1.6266353,-0.019111633,-2.6153946,-0.10456085,0.0051498413,0.21789932,-0.51284283,0.016441345,-1.3617134,1.5948461,0.00667572,-1.4789047,-0.0737381,-0.034751892,-0.7745476,-1.4354758,-0.018577576,-0.49256134,1.5592246,0.019798279,-0.25574112,-0.21213531,0.010719299,4.0289917,-1.2498461,-0.022773743,-6.934311,1.9529699,-0.013160706,-14.016937,0.0,0.0,0.0,0.0,0.0,0.0,0.0,0.0,0.0,0.0,0.0,0.0,-2.0,2.0,-2.0,-2.0,2.0,-2.0,-2.0,-2.0,-2.0,-2.0,-2.0,-2.0
2025-06-10 16:39:14.015,0.598927,-5.125609,8.82449,0.0011094359,0.0017174912,0.0013861405,0.822627,0.118632,9.768433,-0.034370422,-0.07816315,-2.2552834,-0.78926617,-0.011558533,8.267338,1.6267879,0.010719299,-2.6105118,-0.10448456,-0.05420685,0.21423721,-0.51276654,-0.014915466,-1.3568306,1.5947698,-0.0002670288,-1.4264145,-0.07396698,0.020332336,-0.7855339,-1.4354758,0.021705627,-0.48645782,1.5592246,-0.010795593,-0.26550674,-0.21205902,0.008201599,4.0302124,-1.2499224,-0.04650116,-6.9269867,1.9528173,0.011711121,-13.957123,0.0,0.0,0.0,0.0,0.0,0.0,0.0,0.0,0.0,0.0,0.0,0.0,-2.0,2.0,-2.0,-2.0,2.0,-2.0,-2.0,-2.0,-2.0,-2.0,-2.0,-2.0
2025-06-10 16:39:14.037,0.605159,-5.120093,8.825496,-0.0012305444,0.0011734023,0.0019346451,0.840837,0.142039,9.726086,-0.033988953,0.013389587,-2.2333107,-0.78934246,-0.017051697,8.25391,1.6267879,0.0030136108,-2.5909805,-0.10456085,0.024528503,0.21912003,-0.51284283,0.024147034,-1.3653755,1.5948461,0.022239685,-1.4593735,-0.07411957,0.0074386597,-0.79774094,-1.4353995,-0.033988953,-0.48767853,1.5593772,-0.02254486,-0.27771378,-0.21190643,-0.0050735474,4.0460815,-1.2496935,-0.019264221,-6.937973,1.9528173,0.0011062622,-13.98642,0.0,0.0,0.0,0.0,0.0,0.0,0.0,0.0,0.0,0.0,0.0,0.0,-2.0,2.0,-2.0,-2.0,2.0,-2.0,-2.0,-2.0,-2.0,-2.0,-2.0,-2.0
2025-06-10 16:39:14.060,0.604787,-5.117658,8.826509,-0.0018984644,-0.00085276784,0.0011837172,0.802142,0.099936,9.771868,-0.03414154,-0.010948181,-2.2577248,-0.7891899,-0.015449524,8.260014,1.6267116,0.017433167,-2.597084,-0.10471344,0.01247406,0.21301651,-0.51276654,-0.022621155,-1.3690376,1.5948461,-0.04169464,-1.4679184,-0.074043274,-0.0687027,-0.79652023,-1.4355521,-0.02002716,-0.4779129,1.5591483,0.016212463,-0.27283096,-0.21205902,-0.05634308,4.024109,-1.2497698,0.07083893,-6.937973,1.9528173,0.005378723,-13.988861,0.0,0.0,0.0,0.0,0.0,0.0,0.0,0.0,0.0,0.0,0.0,0.0,-2.0,2.0,-2.0,-2.0,2.0,-2.0,-2.0,-2.0,-2.0,-2.0,-2.0,-2.0
2025-06-10 16:39:14.081,0.603025,-5.118679,8.825098,-0.0024853488,0.000924082,-0.0023775224,0.839938,0.112024,9.760149,-0.034065247,0.03993988,-2.252842,-0.78934246,-0.012931824,8.255131,1.6267879,0.001335144,-2.6166153,-0.104408264,0.025901794,0.206913,-0.51284283,0.00705719,-1.3641548,1.5948461,0.015907288,-1.4581528,-0.07396698,-0.067481995,-0.80262375,-1.4355521,0.015144348,-0.481575,1.5592246,-0.02735138,-0.27283096,-0.21205902,-0.04398346,4.0082397,-1.2499987,-0.046806335,-6.9318695,1.9528936,0.0025558472,-13.957123,0.0,0.0,0.0,0.0,0.0,0.0,0.0,0.0,0.0,0.0,0.0,0.0,-2.0,2.0,-2.0,-2.0,2.0,-2.0,-2.0,-2.0,-2.0,-2.0,-2.0,-2.0
2025-06-10 16:39:14.104,0.598101,-5.117813,8.824926,-0.0011343593,0.0004664916,0.0011058929,0.828903,0.087422,9.726148,-0.034065247,-0.0146102905,-2.2247658,-0.78934246,-0.009346008,8.267338,1.6267879,-0.00995636,-2.6239395,-0.10456085,0.0077438354,0.22034073,-0.51284283,0.01033783,-1.3519478,1.5946935,-0.027885437,-1.4691391,-0.07411957,-0.04146576,-0.80628586,-1.4354758,0.008964539,-0.48523712,1.5591483,-0.012931824,-0.27771378,-0.21221161,0.0077438354,4.036316,-1.2497698,0.028190613,-6.934311,1.952741,0.0036239624,-14.001068,0.0,0.0,0.0,0.0,0.0,0.0,0.0,0.0,0.0,0.0,0.0,0.0,-2.0,2.0,-2.0,-2.0,2.0,-2.0,-2.0,-2.0,-2.0,-2.0,-2.0,-2.0
2025-06-10 16:39:14.125,0.59254,-5.120453,8.824561,-0.005291908,-0.0034148414,-0.0013621247,0.853085,0.09021,9.765352,-0.034217834,-0.017814636,-2.2381935,-0.78926617,0.0061416626,8.260014,1.6267116,-0.026817322,-2.6361504,-0.104637146,-0.010795593,0.21667862,-0.51284283,0.0046920776,-1.3519478,1.5949987,0.020637512,-1.4813461,-0.074043274,0.009803772,-0.7940788,-1.4353995,-0.0047683716,-0.4803543,1.5592246,0.019187927,-0.26916885,-0.21205902,-0.021247864,4.0375366,-1.2496935,-0.021705627,-6.9318695,1.9528936,0.010185242,-13.997406,0.0,0.0,0.0,0.0,0.0,0.0,0.0,0.0,0.0,0.0,0.0,0.0,-2.0,2.0,-2.0,-2.0,2.0,-2.0,-2.0,-2.0,-2.0,-2.0,-2.0,-2.0
2025-06-10 16:39:14.147,0.586291,-5.123419,8.822838,-0.0052977027,-0.0026607544,0.00029883528,0.830962,0.096008,9.750438,-0.03391266,-0.02773285,-2.2491798,-0.78926617,0.0032424927,8.256351,1.6267879,-0.006980896,-2.6385918,-0.104637146,-0.03803253,0.2105751,-0.5129191,0.0048446655,-1.3568306,1.5947698,-0.020561218,-1.4508286,-0.07419586,-0.042533875,-0.80384445,-1.4354758,-0.022163391,-0.49256134,1.5593009,0.0011062622,-0.28137589,-0.21198273,-0.011100769,4.0180054,-1.2498461,0.0009536743,-6.937973,1.9528936,-0.01750946,-13.999847,0.0,0.0,0.0,0.0,0.0,0.0,0.0,0.0,0.0,0.0,0.0,0.0,-2.0,2.0,-2.0,-2.0,2.0,-2.0,-2.0,-2.0,-2.0,-2.0,-2.0,-2.0
2025-06-10 16:39:14.170,0.583976,-5.124781,8.82311,-0.00045416958,-0.0021555515,-0.0018855839,0.858589,0.096936,9.738576,-0.034065247,0.029029846,-2.2381935,-0.78926617,0.0023269653,8.251469,1.6266353,-0.03124237,-2.6080704,-0.10448456,-0.07778168,0.2081337,-0.51284283,-0.0024032593,-1.3726997,1.5947698,-0.022621155,-1.4630356,-0.074043274,-0.020942688,-0.80506516,-1.4356284,-0.011177063,-0.49256134,1.5592246,-0.030708313,-0.27161026,-0.21198273,0.015144348,4.0387573,-1.2497698,0.0132369995,-6.9514008,1.9528173,0.0063705444,-13.976654,0.0,0.0,0.0,0.0,0.0,0.0,0.0,0.0,0.0,0.0,0.0,0.0,-2.0,2.0,-2.0,-2.0,2.0,-2.0,-2.0,-2.0,-2.0,-2.0,-2.0,-2.0
2025-06-10 16:39:14.193,0.583178,-5.124559,8.824395,-0.0027579693,-0.002141135,-0.0012989962,0.863987,0.078331,9.713701,-0.034446716,-0.059013367,-2.2638283,-0.7891899,-0.0051498413,8.257572,1.6267116,-0.013465881,-2.6129532,-0.104637146,-0.0033950806,0.2093544,-0.51284283,-0.010261536,-1.3495064,1.5947698,0.018730164,-1.4459457,-0.07396698,0.049476624,-0.8136101,-1.4355521,-0.017433167,-0.48889923,1.5592246,-0.008201599,-0.27038956,-0.21205902,-0.013313293,4.027771,-1.2496935,-0.034217834,-6.9233246,1.9528173,0.0024032593,-13.990082,0.0,0.0,0.0,0.0,0.0,0.0,0.0,0.0,0.0,0.0,0.0,0.0,-2.0,2.0,-2.0,-2.0,2.0,-2.0,-2.0,-2.0,-2.0,-2.0,-2.0,-2.0
2025-06-10 16:39:14.217,0.581307,-5.124505,8.823552,-0.00065668015,-0.00027562238,5.0335293e-05,0.832462,0.081814,9.7741,-0.034217834,0.028038025,-2.2504005,-0.78926617,-0.012321472,8.256351,1.6267879,0.010871887,-2.5958633,-0.10456085,0.00667572,0.21912003,-0.51284283,-0.016365051,-1.3434029,1.5948461,-0.013847351,-1.4764633,-0.07419586,-0.031013489,-0.8123894,-1.4354758,-0.018882751,-0.49500275,1.5592246,-0.018806458,-0.26184464,-0.21183014,-0.029335022,4.0216675,-1.2497698,0.026359558,-6.9391937,1.9528173,-0.01789093,-13.994965,0.0,0.0,0.0,0.0,0.0,0.0,0.0,0.0,0.0,0.0,0.0,0.0,-2.0,2.0,-2.0,-2.0,2.0,-2.0,-2.0,-2.0,-2.0,-2.0,-2.0,-2.0
2025-06-10 16:39:14.240,0.578681,-5.124769,8.823622,0.0006890734,-0.0007218507,-0.001754911,0.841403,0.075933,9.745597,-0.034370422,0.012931824,-2.2223244,-0.7891899,-0.011405945,8.261234,1.6267116,-0.0059127808,-2.5995255,-0.104637146,-0.010414124,0.21545792,-0.51284283,-0.01537323,-1.3604927,1.5946935,0.004005432,-1.4508286,-0.074043274,0.031089783,-0.7928581,-1.4355521,-0.06351471,-0.46936798,1.5592246,-0.029640198,-0.26184464,-0.21190643,0.013999939,4.031433,-1.2496935,0.011787415,-6.93309,1.9528173,-0.026817322,-13.980316,0.0,0.0,0.0,0.0,0.0,0.0,0.0,0.0,0.0,0.0,0.0,0.0,-2.0,2.0,-2.0,-2.0,2.0,-2.0,-2.0,-2.0,-2.0,-2.0,-2.0,-2.0
2025-06-10 16:39:14.262,0.579505,-5.119609,8.823203,0.002685835,0.0028233144,-0.0015963479,0.846856,0.076004,9.779587,-0.034370422,-0.0037002563,-2.2259865,-0.78926617,-0.002708435,8.2685585,1.6267116,0.009803772,-2.6153946,-0.10456085,-0.0008773804,0.2117958,-0.51284283,-0.006980896,-1.3629341,1.5948461,0.018806458,-1.4752426,-0.07419586,0.032691956,-0.80750656,-1.4353995,-0.016365051,-0.48401642,1.5592246,0.026893616,-0.27527237,-0.21198273,-0.02986908,4.027771,-1.2497698,-0.0023269653,-6.934311,1.9528173,-0.011253357,-13.994965,0.0,0.0,0.0,0.0,0.0,0.0,0.0,0.0,0.0,0.0,0.0,0.0,-2.0,2.0,-2.0,-2.0,2.0,-2.0,-2.0,-2.0,-2.0,-2.0,-2.0,-2.0
2025-06-10 16:39:14.285,0.581366,-5.116516,8.822814,0.0038423422,0.0022899767,-0.00022635175,0.834689,0.108257,9.754419,-0.034217834,0.010185242,-2.23209,-0.7891899,-0.015602112,8.267338,1.6267879,0.022239685,-2.5995255,-0.10448456,-0.05130768,0.21423721,-0.51284283,0.0008773804,-1.3580513,1.5948461,0.006904602,-1.4496078,-0.07411957,-0.06427765,-0.79774094,-1.4354758,0.008201599,-0.4779129,1.5591483,-0.010871887,-0.26184464,-0.21205902,-0.038642883,4.032654,-1.2498461,-0.043678284,-6.9196625,1.9528936,-0.0207901,-13.998627,0.0,0.0,0.0,0.0,0.0,0.0,0.0,0.0,0.0,0.0,0.0,0.0,-2.0,2.0,-2.0,-2.0,2.0,-2.0,-2.0,-2.0,-2.0,-2.0,-2.0,-2.0
2025-06-10 16:39:14.308,0.584269,-5.113616,8.824318,0.0023115664,0.0008865749,-0.0011434525,0.841646,0.077107,9.744907,-0.034370422,0.034446716,-2.2430763,-0.788961,0.03566742,8.244144,1.6269405,0.006904602,-2.6117325,-0.10471344,-0.005607605,0.21667862,-0.51284283,0.0358963,-1.3531685,1.5948461,0.0019454956,-1.4642563,-0.07434845,-0.02407074,-0.79652023,-1.4353232,-0.008659363,-0.48279572,1.5593772,-0.041618347,-0.26550674,-0.21175385,0.052223206,4.04364,-1.2498461,0.03162384,-6.93309,1.9528173,-0.0024795532,-13.983978,0.0,0.0,0.0,0.0,0.0,0.0,0.0,0.0,0.0,0.0,0.0,0.0,-2.0,2.0,-2.0,-2.0,2.0,-2.0,-2.0,-2.0,-2.0,-2.0,-2.0,-2.0
2025-06-10 16:39:14.329,0.586457,-5.111814,8.82528,0.0014467906,0.00057314866,0.0016172744,0.843614,0.108588,9.751142,-0.034217834,-0.018196106,-2.268711,-0.78926617,0.02193451,8.247807,1.6267879,0.015068054,-2.6153946,-0.10456085,-0.036354065,0.2093544,-0.51276654,0.029182434,-1.3629341,1.5946935,0.0015640259,-1.4398422,-0.074043274,-0.0021743774,-0.80018234,-1.4355521,-0.017356873,-0.46936798,1.5593009,0.023231506,-0.26916885,-0.21205902,-0.0033950806,4.0387573,-1.2499224,0.026512146,-6.934311,1.952741,0.015449524,-13.990082,0.0,0.0,0.0,0.0,0.0,0.0,0.0,0.0,0.0,0.0,0.0,0.0,-2.0,2.0,-2.0,-2.0,2.0,-2.0,-2.0,-2.0,-2.0,-2.0,-2.0,-2.0
2025-06-10 16:39:14.351,0.587777,-5.110154,8.826591,-0.00014758504,-0.0020011421,0.0031279617,0.842978,0.107584,9.746406,-0.034370422,0.061912537,-2.2455177,-0.7891899,0.014076233,8.264896,1.6267879,0.0063705444,-2.6117325,-0.10456085,-0.024223328,0.21423721,-0.51284283,0.009422302,-1.3604927,1.5947698,-0.034370422,-1.4752426,-0.074272156,-0.03803253,-0.7928581,-1.4354758,-0.05405426,-0.4803543,1.5593009,-0.013008118,-0.26794815,-0.21205902,0.03742218,4.0595093,-1.2496935,0.031089783,-6.9282074,1.9528173,-0.018806458,-13.990082,0.0,0.0,0.0,0.0,0.0,0.0,0.0,0.0,0.0,0.0,0.0,0.0,-2.0,2.0,-2.0,-2.0,2.0,-2.0,-2.0,-2.0,-2.0,-2.0,-2.0,-2.0
2025-06-10 16:39:14.374,0.587704,-5.110234,8.828969,-0.003071919,0.0010555402,0.00083259185,0.821363,0.123184,9.746974,-0.034370422,0.017280579,-2.2467384,-0.7891899,-0.0132369995,8.247807,1.6267116,-3.8146973e-05,-2.6080704,-0.104408264,0.01033783,0.21667862,-0.51276654,-0.043907166,-1.3519478,1.5948461,0.0011825562,-1.4630356,-0.07411957,-0.025749207,-0.80750656,-1.4355521,0.010032654,-0.48523712,1.5591483,0.011405945,-0.27283096,-0.21205902,0.030632019,4.0302124,-1.2499224,-0.034828186,-6.901352,1.9528173,0.016212463,-13.994965,0.0,0.0,0.0,0.0,0.0,0.0,0.0,0.0,0.0,0.0,0.0,0.0,-2.0,2.0,-2.0,-2.0,2.0,-2.0,-2.0,-2.0,-2.0,-2.0,-2.0,-2.0
2025-06-10 16:39:14.396,0.587724,-5.109339,8.831094,0.00080782565,-0.00081192714,-0.00013259266,0.828387,0.108607,9.755434,-0.03414154,-0.05794525,-2.2186623,-0.7891136,0.017967224,8.234379,1.6267116,-0.024681091,-2.6227188,-0.10456085,-0.046195984,0.2081337,-0.5129191,-0.007972717,-1.3690376,1.5948461,-0.021629333,-1.4789047,-0.07411957,-0.005683899,-0.7794304,-1.4354758,0.03314972,-0.4779129,1.5593772,0.0037002563,-0.27405167,-0.21205902,0.010261536,4.032654,-1.2497698,-0.04650116,-6.9269867,1.9528936,0.006828308,-13.999847,0.0,0.0,0.0,0.0,0.0,0.0,0.0,0.0,0.0,0.0,0.0,0.0,-2.0,2.0,-2.0,-2.0,2.0,-2.0,-2.0,-2.0,-2.0,-2.0,-2.0,-2.0
2025-06-10 16:39:14.419,0.586288,-5.109958,8.832552,-0.0036458706,-0.004953157,-0.0006642025,0.8535,0.107121,9.762753,-0.03429413,0.052070618,-2.256504,-0.78926617,-0.008125305,8.240482,1.6267879,0.009803772,-2.6080704,-0.10471344,-0.031318665,0.21912003,-0.51284283,-0.028419495,-1.3617134,1.5946935,-0.050239563,-1.4618149,-0.07396698,0.028800964,-0.7928581,-1.4354758,0.013542175,-0.49256134,1.5592246,0.017356873,-0.27283096,-0.21213531,0.026130676,4.020447,-1.2497698,0.032081604,-6.9147797,1.9528173,0.0033950806,-14.02182,0.0,0.0,0.0,0.0,0.0,0.0,0.0,0.0,0.0,0.0,0.0,0.0,-2.0,2.0,-2.0,-2.0,2.0,-2.0,-2.0,-2.0,-2.0,-2.0,-2.0,-2.0
2025-06-10 16:39:14.441,0.583713,-5.111136,8.833591,-0.00062957517,-0.0011966676,0.00086315256,0.846771,0.10901,9.76573,-0.034599304,0.029945374,-2.256504,-0.7891136,0.030555725,8.260014,1.6267879,0.0048446655,-2.605629,-0.104408264,-0.021476746,0.21545792,-0.51284283,0.012779236,-1.3617134,1.5948461,0.020484924,-1.4618149,-0.074043274,0.0074386597,-0.80262375,-1.4355521,0.022468567,-0.4718094,1.5593009,-0.040168762,-0.26428604,-0.21205902,0.024604797,4.0253296,-1.2496172,-0.019111633,-6.9233246,1.9528173,-0.008888245,-13.999847,0.0,0.0,0.0,0.0,0.0,0.0,0.0,0.0,0.0,0.0,0.0,0.0,-2.0,2.0,-2.0,-2.0,2.0,-2.0,-2.0,-2.0,-2.0,-2.0,-2.0,-2.0
2025-06-10 16:39:14.462,0.581314,-5.112527,8.835201,-0.005146644,-0.0033153924,-0.0012512964,0.842417,0.094673,9.759801,-0.034370422,-0.03803253,-2.211338,-0.7891136,-0.0062942505,8.233158,1.6267116,-0.010261536,-2.6300468,-0.10448456,-0.0025558472,0.2081337,-0.51284283,-0.0008010864,-1.3629341,1.5948461,0.0712204,-1.4435043,-0.074043274,-0.065193176,-0.80750656,-1.4354758,0.011634827,-0.49011993,1.5593009,0.015449524,-0.252079,-0.21190643,0.024757385,4.0265503,-1.2496172,0.05634308,-6.918442,1.9528173,0.014305115,-13.990082,0.0,0.0,0.0,0.0,0.0,0.0,0.0,0.0,0.0,0.0,0.0,0.0,-2.0,2.0,-2.0,-2.0,2.0,-2.0,-2.0,-2.0,-2.0,-2.0,-2.0,-2.0
2025-06-10 16:39:14.485,0.577083,-5.112294,8.834941,-0.0030803664,-3.1939526e-06,0.00045607198,0.840114,0.072907,9.752783,-0.03452301,0.09677887,-2.2223244,-0.78926617,-0.036201477,8.239262,1.6267879,-0.0048446655,-2.6105118,-0.10448456,0.03124237,0.21423721,-0.5129191,-0.032157898,-1.3629341,1.5948461,0.038108826,-1.4630356,-0.07434845,-0.010566711,-0.80994797,-1.4354758,-0.0004196167,-0.48279572,1.5593009,0.013160706,-0.27161026,-0.21213531,-0.038719177,4.015564,-1.2496935,-0.06855011,-6.930649,1.9528173,0.03993988,-13.999847,0.0,0.0,0.0,0.0,0.0,0.0,0.0,0.0,0.0,0.0,0.0,0.0,-2.0,2.0,-2.0,-2.0,2.0,-2.0,-2.0,-2.0,-2.0,-2.0,-2.0,-2.0
2025-06-10 16:39:14.506,0.57376,-5.109345,8.834945,-0.002087274,-0.00079710933,3.5744342e-05,0.820774,0.09343,9.78542,-0.03452301,-0.010185242,-2.2430763,-0.7891136,0.010414124,8.272221,1.6267879,-0.00705719,-2.6300468,-0.10448456,0.00957489,0.21301651,-0.51284283,-0.009422302,-1.3519478,1.5946935,-0.0024795532,-1.4337387,-0.074043274,0.0062179565,-0.8148308,-1.4353995,-0.0065994263,-0.48767853,1.5592246,-0.019721985,-0.27161026,-0.21198273,0.020103455,4.0045776,-1.2496172,0.012626648,-6.930649,1.952741,0.00064849854,-13.976654,0.0,0.0,0.0,0.0,0.0,0.0,0.0,0.0,0.0,0.0,0.0,0.0,-2.0,2.0,-2.0,-2.0,2.0,-2.0,-2.0,-2.0,-2.0,-2.0,-2.0,-2.0
2025-06-10 16:39:14.529,0.571137,-5.110138,8.836378,-0.0011766835,-0.001013984,0.0015822282,0.845812,0.070639,9.74403,-0.03452301,0.013542175,-2.2333107,-0.788961,0.012397766,8.271,1.6267879,-0.013389587,-2.6300468,-0.104637146,0.015296936,0.21667862,-0.5129954,0.0034713745,-1.33852,1.5946935,-0.008583069,-1.489891,-0.07396698,0.03604889,-0.7867546,-1.4354758,0.034370422,-0.49011993,1.5591483,0.0046920776,-0.27161026,-0.21198273,0.03566742,4.027771,-1.2497698,-0.0005722046,-6.9147797,1.9526647,-0.0020980835,-13.982758,0.0,0.0,0.0,0.0,0.0,0.0,0.0,0.0,0.0,0.0,0.0,0.0,-2.0,2.0,-2.0,-2.0,2.0,-2.0,-2.0,-2.0,-2.0,-2.0,-2.0,-2.0
2025-06-10 16:39:14.551,0.570619,-5.10935,8.83742,0.0012095656,-7.611381e-05,-0.0019294964,0.87001,0.071045,9.747332,-0.034217834,0.030784607,-2.2381935,-0.7890373,0.028800964,8.266117,1.6267116,-0.0037765503,-2.6117325,-0.104637146,0.020637512,0.21912003,-0.5129191,-0.021858215,-1.3836899,1.5948461,0.0024795532,-1.465477,-0.07411957,0.00667572,-0.7855339,-1.4354758,0.009117126,-0.4754715,1.5593009,0.017280579,-0.26062393,-0.21213531,0.0048446655,4.0057983,-1.2497698,-0.054588318,-6.9147797,1.9528173,-0.015144348,-13.996185,0.0,0.0,0.0,0.0,0.0,0.0,0.0,0.0,0.0,0.0,0.0,0.0,-2.0,2.0,-2.0,-2.0,2.0,-2.0,-2.0,-2.0,-2.0,-2.0,-2.0,-2.0
2025-06-10 16:39:14.573,0.570584,-5.111672,8.836681,0.00053108623,-0.0005958554,0.000403939,0.842651,0.080146,9.762045,-0.034446716,-0.047569275,-2.2381935,-0.7890373,-0.0021743774,8.258793,1.6267879,0.006904602,-2.6471367,-0.104637146,0.0146865845,0.2081337,-0.51284283,-0.022621155,-1.3556099,1.5948461,0.047416687,-1.4837875,-0.073890686,-0.004081726,-0.7830925,-1.4354758,-0.0046920776,-0.48401642,1.5592246,0.021781921,-0.27038956,-0.21198273,-0.01537323,4.04364,-1.2497698,0.085258484,-6.920883,1.9528173,0.0005722046,-14.013275,0.0,0.0,0.0,0.0,0.0,0.0,0.0,0.0,0.0,0.0,0.0,0.0,-2.0,2.0,-2.0,-2.0,2.0,-2.0,-2.0,-2.0,-2.0,-2.0,-2.0,-2.0
2025-06-10 16:39:14.595,0.572892,-5.109852,8.836978,0.0031473872,0.0022111577,0.0012781046,0.840009,0.088084,9.768314,-0.034217834,0.036888123,-2.2394142,-0.7891899,-0.0061416626,8.241703,1.6267116,-0.0004196167,-2.6031876,-0.10448456,-0.051231384,0.21545792,-0.5129191,0.024528503,-1.347065,1.5948461,0.038719177,-1.4911118,-0.074043274,-0.036354065,-0.7818718,-1.4355521,-0.01247406,-0.48767853,1.5592246,0.03353119,-0.27405167,-0.21198273,0.009117126,4.022888,-1.2498461,0.040626526,-6.9318695,1.9528173,0.0052261353,-14.010834,0.0,0.0,0.0,0.0,0.0,0.0,0.0,0.0,0.0,0.0,0.0,0.0,-2.0,2.0,-2.0,-2.0,2.0,-2.0,-2.0,-2.0,-2.0,-2.0,-2.0,-2.0
2025-06-10 16:39:14.618,0.57566,-5.105282,8.838202,0.0019638096,0.0022362205,0.0010338457,0.850501,0.101805,9.731592,-0.034370422,-0.051231384,-2.252842,-0.7891136,-0.011711121,8.230717,1.6266353,-0.008430481,-2.6483574,-0.10456085,-0.019950867,0.2093544,-0.51284283,-0.00049591064,-1.3580513,1.594541,0.009346008,-1.4020004,-0.074272156,-0.0059127808,-0.79896164,-1.4354758,-0.004005432,-0.48645782,1.5592246,0.0062179565,-0.27161026,-0.21198273,-0.002708435,4.0289917,-1.2498461,-0.021705627,-6.920883,1.9528173,0.007209778,-14.016937,0.0,0.0,0.0,0.0,0.0,0.0,0.0,0.0,0.0,0.0,0.0,0.0,-2.0,2.0,-2.0,-2.0,2.0,-2.0,-2.0,-2.0,-2.0,-2.0,-2.0,-2.0
2025-06-10 16:39:14.641,0.576488,-5.105314,8.839896,0.001284667,0.0013250016,-0.001435865,0.850328,0.099059,9.774712,-0.03452301,0.029182434,-2.207676,-0.7891136,-0.0074386597,8.256351,1.6267116,-0.027809143,-2.6349297,-0.104408264,-0.07846832,0.21912003,-0.51284283,-0.021858215,-1.3678169,1.5947698,-0.0016403198,-1.4642563,-0.074272156,-0.048866272,-0.79529953,-1.4353232,-0.0182724,-0.49134064,1.5592246,0.0008773804,-0.27283096,-0.21198273,-0.009498596,4.0302124,-1.2497698,0.023078918,-6.925766,1.9528173,0.026359558,-13.990082,0.0,0.0,0.0,0.0,0.0,0.0,0.0,0.0,0.0,0.0,0.0,0.0,-2.0,2.0,-2.0,-2.0,2.0,-2.0,-2.0,-2.0,-2.0,-2.0,-2.0,-2.0
2025-06-10 16:39:14.664,0.575727,-5.102699,8.840726,-0.00037552504,0.0014025815,-0.0002070484,0.866056,0.092924,9.742348,-0.03429413,0.038642883,-2.2516212,-0.7891136,-0.026817322,8.246586,1.6267879,-0.007133484,-2.625164,-0.10448456,0.019264221,0.21789932,-0.51276654,0.014915466,-1.3690376,1.5948461,-0.04245758,-1.4728012,-0.074043274,0.03200531,-0.79529953,-1.4356284,-0.02773285,-0.49011993,1.5593772,0.004005432,-0.26550674,-0.21205902,0.009117126,4.015564,-1.2499224,0.015830994,-6.9367523,1.9528173,0.005455017,-13.968109,0.0,0.0,0.0,0.0,0.0,0.0,0.0,0.0,0.0,0.0,0.0,0.0,-2.0,2.0,-2.0,-2.0,2.0,-2.0,-2.0,-2.0,-2.0,-2.0,-2.0,-2.0
2025-06-10 16:39:14.687,0.578581,-5.100895,8.840852,0.003035337,-0.0005537406,-0.0029056764,0.830717,0.097317,9.741538,-0.034446716,-0.020561218,-2.2333107,-0.788961,0.048789978,8.247807,1.6267879,-0.012321472,-2.6349297,-0.104789734,-0.048179626,0.21667862,-0.5129191,0.0030136108,-1.347065,1.5946935,0.053367615,-1.4569321,-0.073890686,-0.03528595,-0.80018234,-1.4355521,0.0065994263,-0.48645782,1.5591483,0.004386902,-0.27405167,-0.21198273,-0.014915466,4.035095,-1.2498461,-0.031166077,-6.922104,1.9528936,-0.00415802,-13.994965,0.0,0.0,0.0,0.0,0.0,0.0,0.0,0.0,0.0,0.0,0.0,0.0,-2.0,2.0,-2.0,-2.0,2.0,-2.0,-2.0,-2.0,-2.0,-2.0,-2.0,-2.0
2025-06-10 16:39:14.710,0.580049,-5.099549,8.840904,0.0007387106,0.0021029122,0.0014222688,0.824346,0.114763,9.770267,-0.034370422,0.0030136108,-2.2418556,-0.7890373,0.0157547,8.255131,1.6267116,-0.014762878,-2.6324883,-0.104408264,0.024681091,0.2105751,-0.51276654,0.021629333,-1.3409615,1.5948461,-0.0104904175,-1.4715805,-0.07411957,-0.018501282,-0.80628586,-1.4353995,-0.013008118,-0.48767853,1.5593772,-0.009727478,-0.2825966,-0.21213531,-0.051383972,4.020447,-1.2498461,0.016670227,-6.9160004,1.9528173,-0.023155212,-13.983978,0.0,0.0,0.0,0.0,0.0,0.0,0.0,0.0,0.0,0.0,0.0,0.0,-2.0,2.0,-2.0,-2.0,2.0,-2.0,-2.0,-2.0,-2.0,-2.0,-2.0,-2.0
2025-06-10 16:39:14.732,0.580108,-5.096008,8.841679,-0.00041254348,0.0009507855,0.0021570348,0.835441,0.100474,9.725669,-0.03429413,0.042533875,-2.256504,-0.7891136,0.02483368,8.264896,1.6268642,-0.0008773804,-2.614174,-0.10448456,0.044288635,0.21789932,-0.51284283,-0.008354187,-1.3556099,1.5948461,0.00064849854,-1.4520493,-0.07411957,0.028114319,-0.80750656,-1.4354758,-0.005836487,-0.49500275,1.5591483,-0.007133484,-0.27527237,-0.21205902,-0.021476746,4.031433,-1.2497698,0.023994446,-6.9440765,1.9528173,0.005302429,-13.983978,0.0,0.0,0.0,0.0,0.0,0.0,0.0,0.0,0.0,0.0,0.0,0.0,-2.0,2.0,-2.0,-2.0,2.0,-2.0,-2.0,-2.0,-2.0,-2.0,-2.0,-2.0
2025-06-10 16:39:14.754,0.578316,-5.096929,8.84336,-0.00035714672,-0.001500093,0.0018707486,0.850601,0.098409,9.754365,-0.03452301,-0.008964539,-2.2247658,-0.7891136,0.011940002,8.251469,1.6267879,0.013771057,-2.6385918,-0.10448456,0.029182434,0.20569229,-0.5129191,0.02483368,-1.3665962,1.5949224,0.0076675415,-1.4801254,-0.07419586,-0.047950745,-0.789196,-1.4355521,-0.017204285,-0.48279572,1.5592246,0.019569397,-0.27527237,-0.21198273,0.014381409,4.036316,-1.2497698,-0.04802704,-6.929428,1.9528173,-0.0034713745,-13.962006,0.0,0.0,0.0,0.0,0.0,0.0,0.0,0.0,0.0,0.0,0.0,0.0,-2.0,2.0,-2.0,-2.0,2.0,-2.0,-2.0,-2.0,-2.0,-2.0,-2.0,-2.0
2025-06-10 16:39:14.777,0.579249,-5.095045,8.843607,-4.9131017e-05,-0.0002703864,-0.0017100561,0.835013,0.078121,9.758752,-0.03452301,0.023536682,-2.2418556,-0.7891136,-0.06832123,8.244144,1.6267116,0.010261536,-2.6239395,-0.10456085,-0.017280579,0.21301651,-0.51284283,-0.010643005,-1.3507271,1.5948461,-0.020332336,-1.4813461,-0.07419586,-0.0033187866,-0.80018234,-1.4354758,-0.04184723,-0.49134064,1.5592246,0.0062179565,-0.26306534,-0.21198273,0.011940002,4.0302124,-1.2498461,-0.03742218,-6.9355316,1.9528173,0.0024795532,-13.997406,0.0,0.0,0.0,0.0,0.0,0.0,0.0,0.0,0.0,0.0,0.0,0.0,-2.0,2.0,-2.0,-2.0,2.0,-2.0,-2.0,-2.0,-2.0,-2.0,-2.0,-2.0
2025-06-10 16:39:14.799,0.579101,-5.094349,8.843742,0.00041463788,-0.001033933,0.00060278433,0.832176,0.089752,9.743082,-0.034370422,0.0033950806,-2.2394142,-0.7891136,0.008277893,8.262455,1.6267879,-0.037269592,-2.6227188,-0.10448456,0.054740906,0.21545792,-0.51284283,0.045051575,-1.3519478,1.5948461,0.036888123,-1.4801254,-0.074043274,0.012779236,-0.7940788,-1.4354758,0.021400452,-0.49011993,1.5592246,-0.0017929077,-0.26672745,-0.21198273,-0.018806458,4.0411987,-1.2497698,0.07320404,-6.9062347,1.9528936,0.026435852,-14.009613,0.0,0.0,0.0,0.0,0.0,0.0,0.0,0.0,0.0,0.0,0.0,0.0,-2.0,2.0,-2.0,-2.0,2.0,-2.0,-2.0,-2.0,-2.0,-2.0,-2.0,-2.0
2025-06-10 16:39:14.821,0.574843,-5.096522,8.842929,-0.0021445907,-0.0020520533,-0.0012848765,0.837496,0.077498,9.77758,-0.034370422,0.040168762,-2.219883,-0.788961,0.011100769,8.217289,1.6267879,-0.011940002,-2.6068497,-0.104637146,-0.044898987,0.21912003,-0.5129191,0.0033187866,-1.3580513,1.5949224,0.022315979,-1.4471664,-0.074043274,-0.0011825562,-0.7928581,-1.4354758,0.016365051,-0.49866486,1.5592246,0.008201599,-0.27038956,-0.21198273,-0.0146102905,4.0057983,-1.2499224,-0.043525696,-6.9575043,1.9528936,0.032310486,-13.977875,0.0,0.0,0.0,0.0,0.0,0.0,0.0,0.0,0.0,0.0,0.0,0.0,-2.0,2.0,-2.0,-2.0,2.0,-2.0,-2.0,-2.0,-2.0,-2.0,-2.0,-2.0
2025-06-10 16:39:14.843,0.57182,-5.097872,8.84155,-0.0012536525,0.00016521287,-0.0011615689,0.854688,0.079436,9.763102,-0.03452301,-0.04802704,-2.2308693,-0.7891136,0.023231506,8.256351,1.6267116,-0.016670227,-2.6324883,-0.10448456,0.041999817,0.21667862,-0.51284283,-0.0035476685,-1.3482857,1.5948461,0.03025055,-1.45327,-0.07419586,0.03452301,-0.8160515,-1.4355521,-0.008354187,-0.49256134,1.5592246,-0.014381409,-0.26550674,-0.21205902,-0.02155304,4.003357,-1.2498461,0.008125305,-6.922104,1.9528173,-0.012016296,-14.012054,0.0,0.0,0.0,0.0,0.0,0.0,0.0,0.0,0.0,0.0,0.0,0.0,-2.0,2.0,-2.0,-2.0,2.0,-2.0,-2.0,-2.0,-2.0,-2.0,-2.0,-2.0
2025-06-10 16:39:14.864,0.570915,-5.096226,8.840909,0.0011264704,0.0048171263,-0.0002911209,0.843496,0.08566,9.749863,-0.03429413,-0.02544403,-2.2638283,-0.7888847,0.053367615,8.257572,1.6267879,0.0030899048,-2.6361504,-0.10448456,0.03353119,0.20203018,-0.51284283,0.0020980835,-1.3617134,1.5948461,-0.020637512,-1.4386215,-0.07411957,0.015068054,-0.79774094,-1.4355521,0.011253357,-0.48645782,1.5592246,0.002937317,-0.26794815,-0.21221161,-0.08556366,4.0167847,-1.2496935,-0.0030899048,-6.9233246,1.9528173,-0.007972717,-14.018158,0.0,0.0,0.0,0.0,0.0,0.0,0.0,0.0,0.0,0.0,0.0,0.0,-2.0,2.0,-2.0,-2.0,2.0,-2.0,-2.0,-2.0,-2.0,-2.0,-2.0,-2.0
2025-06-10 16:39:14.886,0.570695,-5.095355,8.841208,-0.0009316393,-0.0015723672,0.00041352084,0.851137,0.062994,9.725203,-0.034599304,-0.024604797,-2.2247658,-0.788961,0.015068054,8.2355995,1.6267116,-0.0009536743,-2.6202774,-0.10433197,0.011711121,0.21789932,-0.5129191,0.0050735474,-1.3665962,1.5947698,0.019493103,-1.4483871,-0.07411957,0.03452301,-0.7928581,-1.4354758,-0.0009536743,-0.49011993,1.5592246,0.023994446,-0.27649307,-0.21205902,0.033073425,4.027771,-1.2498461,-0.016822815,-6.920883,1.9528173,0.0005722046,-13.970551,0.0,0.0,0.0,0.0,0.0,0.0,0.0,0.0,0.0,0.0,0.0,0.0,-2.0,2.0,-2.0,-2.0,2.0,-2.0,-2.0,-2.0,-2.0,-2.0,-2.0,-2.0
2025-06-10 16:39:14.909,0.570689,-5.092377,8.84309,-0.00021214476,-0.0002728124,0.0002726728,0.819774,0.078097,9.744304,-0.03452301,-0.04650116,-2.2247658,-0.7890373,0.011940002,8.264896,1.6267116,0.005607605,-2.637371,-0.10471344,0.002708435,0.2117958,-0.51284283,0.0035476685,-1.359272,1.5948461,0.02254486,-1.4837875,-0.07411957,0.041770935,-0.7843132,-1.4353995,0.023536682,-0.4718094,1.5592246,0.015525818,-0.27283096,-0.21198273,-0.016822815,4.0338745,-1.2499224,-0.097465515,-6.922104,1.9528173,0.017433167,-13.977875,0.0,0.0,0.0,0.0,0.0,0.0,0.0,0.0,0.0,0.0,0.0,0.0,-2.0,2.0,-2.0,-2.0,2.0,-2.0,-2.0,-2.0,-2.0,-2.0,-2.0,-2.0
2025-06-10 16:39:14.930,0.569725,-5.087685,8.843904,0.0006823539,0.0035821835,0.00014234905,0.85408,0.121374,9.765715,-0.034370422,0.02620697,-2.2577248,-0.7890373,0.01941681,8.246586,1.6267116,-0.017738342,-2.6153946,-0.104637146,-0.025978088,0.21423721,-0.51284283,-0.005760193,-1.3604927,1.5947698,0.029335022,-1.4618149,-0.07419586,-0.0061416626,-0.8123894,-1.4354758,-0.011405945,-0.48523712,1.5592246,0.01750946,-0.27038956,-0.21205902,0.01903534,4.0460815,-1.2496935,-0.062828064,-6.93309,1.9528936,-0.0047683716,-13.994965,0.0,0.0,0.0,0.0,0.0,0.0,0.0,0.0,0.0,0.0,0.0,0.0,-2.0,2.0,-2.0,-2.0,2.0,-2.0,-2.0,-2.0,-2.0,-2.0,-2.0,-2.0
2025-06-10 16:39:14.952,0.572058,-5.0859,8.843826,0.0009041678,9.911725e-05,0.00021141172,0.838519,0.12205,9.75739,-0.034446716,0.01033783,-2.244297,-0.7891136,0.02368927,8.251469,1.6267879,0.007896423,-2.6166153,-0.10456085,-0.00011444092,0.2105751,-0.51284283,-0.042533875,-1.3556099,1.5948461,0.05191803,-1.4630356,-0.07411957,-0.013847351,-0.79896164,-1.4355521,0.0076675415,-0.49256134,1.5591483,-0.008201599,-0.27527237,-0.21198273,-0.037879944,4.015564,-1.2498461,-0.008811951,-6.920883,1.952741,0.008811951,-14.0035095,0.0,0.0,0.0,0.0,0.0,0.0,0.0,0.0,0.0,0.0,0.0,0.0,-2.0,2.0,-2.0,-2.0,2.0,-2.0,-2.0,-2.0,-2.0,-2.0,-2.0,-2.0
2025-06-10 16:39:14.975,0.573085,-5.083331,8.844275,0.0012416098,0.003065287,-0.00076939346,0.85539,0.089911,9.710011,-0.03452301,-0.012931824,-2.2272072,-0.788961,0.022163391,8.257572,1.6267116,-0.008125305,-2.614174,-0.10448456,-0.033988953,0.21545792,-0.5129191,0.0002670288,-1.3629341,1.5947698,0.004234314,-1.4740219,-0.07419586,-0.008049011,-0.7867546,-1.4355521,0.005683899,-0.48401642,1.5593009,-0.023765564,-0.27038956,-0.21205902,0.0024032593,4.0265503,-1.2498461,0.02117157,-6.900131,1.952741,-0.020332336,-13.98642,0.0,0.0,0.0,0.0,0.0,0.0,0.0,0.0,0.0,0.0,0.0,0.0,-2.0,2.0,-2.0,-2.0,2.0,-2.0,-2.0,-2.0,-2.0,-2.0,-2.0,-2.0
2025-06-10 16:39:14.997,0.572401,-5.082326,8.846509,0.00062378065,-0.00027799603,-0.0019378391,0.840246,0.089997,9.77141,-0.034370422,0.045433044,-2.2003517,-0.788961,-0.0012588501,8.251469,1.6267879,-0.00957489,-2.6019669,-0.10471344,-0.029563904,0.21423721,-0.51284283,0.012397766,-1.3617134,1.5947698,-0.01651764,-1.4557114,-0.074043274,-0.019340515,-0.7806511,-1.4354758,0.013771057,-0.48767853,1.5592246,-0.0064468384,-0.26794815,-0.21213531,-0.024909973,4.032654,-1.2497698,-0.008888245,-6.89769,1.9528173,0.008735657,-13.982758,0.0,0.0,0.0,0.0,0.0,0.0,0.0,0.0,0.0,0.0,0.0,0.0,-2.0,2.0,-2.0,-2.0,2.0,-2.0,-2.0,-2.0,-2.0,-2.0,-2.0,-2.0
2025-06-10 16:39:15.019,0.571687,-5.083319,8.844564,-0.0034577765,0.0005334424,-0.00017893115,0.85699,0.105899,9.759217,-0.034446716,-0.037269592,-2.2613869,-0.7890373,0.0030136108,8.240482,1.6267116,0.011634827,-2.6361504,-0.10456085,-0.041770935,0.20569229,-0.51284283,0.016822815,-1.3702583,1.5948461,-0.0059890747,-1.4569321,-0.074043274,0.013694763,-0.80506516,-1.4354758,0.00011444092,-0.48767853,1.5593009,0.018882751,-0.26916885,-0.21198273,0.0047683716,4.039978,-1.2498461,0.022697449,-6.922104,1.952741,0.0024032593,-14.00473,0.0,0.0,0.0,0.0,0.0,0.0,0.0,0.0,0.0,0.0,0.0,0.0,-2.0,2.0,-2.0,-2.0,2.0,-2.0,-2.0,-2.0,-2.0,-2.0,-2.0,-2.0
2025-06-10 16:39:15.041,0.569458,-5.080814,8.849458,-0.00012672835,0.00069345423,0.003985843,0.838468,0.085369,9.738911,-0.034446716,-0.050849915,-2.2296486,-0.7888084,0.04283905,8.260014,1.6268642,0.009422302,-2.6019669,-0.10456085,0.011787415,0.21301651,-0.5129191,0.0052261353,-1.3531685,1.5948461,0.048332214,-1.4642563,-0.073890686,0.038414,-0.79774094,-1.4354758,0.0052261353,-0.4791336,1.559072,0.004005432,-0.27527237,-0.21198273,0.007209778,4.052185,-1.2496935,0.061836243,-6.9404144,1.952741,0.010414124,-13.979095,0.0,0.0,0.0,0.0,0.0,0.0,0.0,0.0,0.0,0.0,0.0,0.0,-2.0,2.0,-2.0,-2.0,2.0,-2.0,-2.0,-2.0,-2.0,-2.0,-2.0,-2.0
2025-06-10 16:39:15.064,0.568327,-5.080116,8.851151,-0.0022988429,0.0030733328,0.00042350413,0.871668,0.095226,9.751067,-0.03452301,-0.07068634,-2.252842,-0.7888847,0.008811951,8.260014,1.6266353,-0.049171448,-2.6361504,-0.104408264,-0.062217712,0.206913,-0.5129191,-0.0008773804,-1.3324165,1.5948461,-0.03993988,-1.4630356,-0.07411957,0.0009536743,-0.80872726,-1.4354758,0.011253357,-0.49256134,1.5592246,-0.013694763,-0.25696182,-0.21213531,-0.029716492,4.0253296,-1.2498461,-0.034599304,-6.9245453,1.9528173,0.008049011,-13.983978,0.0,0.0,0.0,0.0,0.0,0.0,0.0,0.0,0.0,0.0,0.0,0.0,-2.0,2.0,-2.0,-2.0,2.0,-2.0,-2.0,-2.0,-2.0,-2.0,-2.0,-2.0
2025-06-10 16:39:15.087,0.570057,-5.077526,8.851839,4.246386e-05,0.0036629573,0.0037691433,0.823953,0.108939,9.767808,-0.034370422,0.04436493,-2.2613869,-0.788961,-0.0090408325,8.251469,1.6267879,-0.015678406,-2.6288261,-0.10456085,0.037651062,0.21789932,-0.51284283,-0.025062561,-1.3641548,1.5948461,-0.019340515,-1.4691391,-0.07419586,-0.013618469,-0.80750656,-1.4354758,-0.020332336,-0.49134064,1.5591483,0.023841858,-0.25940323,-0.21213531,0.011253357,4.0497437,-1.2498461,0.0010299683,-6.918442,1.952741,-0.03452301,-13.974213,0.0,0.0,0.0,0.0,0.0,0.0,0.0,0.0,0.0,0.0,0.0,0.0,-2.0,2.0,-2.0,-2.0,2.0,-2.0,-2.0,-2.0,-2.0,-2.0,-2.0,-2.0
2025-06-10 16:39:15.109,0.567865,-5.077491,8.853155,-0.003090821,-0.0014649944,0.00028134708,0.848614,0.06505,9.771947,-0.034599304,0.001335144,-2.2479591,-0.7890373,0.059394836,8.256351,1.6267879,-0.0008010864,-2.6312675,-0.10456085,-0.011634827,0.21545792,-0.51276654,0.017814636,-1.371479,1.5948461,0.008354187,-1.4691391,-0.074043274,0.049705505,-0.80628586,-1.4353995,-0.021324158,-0.49378204,1.5592246,0.025749207,-0.27649307,-0.21198273,-0.030021667,4.0375366,-1.2496935,0.018196106,-6.9147797,1.952741,0.0077438354,-14.0035095,0.0,0.0,0.0,0.0,0.0,0.0,0.0,0.0,0.0,0.0,0.0,0.0,-2.0,2.0,-2.0,-2.0,2.0,-2.0,-2.0,-2.0,-2.0,-2.0,-2.0,-2.0
2025-06-10 16:39:15.131,0.565791,-5.079877,8.851812,0.00048541097,-0.0019295138,-0.0005710368,0.849154,0.080755,9.742363,-0.03452301,-0.035820007,-2.2577248,-0.7888084,-0.007286072,8.25391,1.6267879,-0.0045394897,-2.6019669,-0.10448456,0.07884979,0.21301651,-0.51284283,0.03513336,-1.3702583,1.5949224,0.02986908,-1.4349594,-0.07411957,-0.052452087,-0.80140305,-1.4354758,0.010795593,-0.48523712,1.5591483,-0.0051498413,-0.27893448,-0.21198273,-0.007209778,4.0473022,-1.2497698,0.027122498,-6.8806,1.9528173,0.015678406,-13.976654,0.0,0.0,0.0,0.0,0.0,0.0,0.0,0.0,0.0,0.0,0.0,0.0,-2.0,2.0,-2.0,-2.0,2.0,-2.0,-2.0,-2.0,-2.0,-2.0,-2.0,-2.0
2025-06-10 16:39:15.152,0.562581,-5.079347,8.85301,-0.0017600599,0.0028168391,0.0016000131,0.826783,0.075562,9.745261,-0.03452301,-0.04360199,-2.2491798,-0.7888847,0.023536682,8.217289,1.6267879,0.0032424927,-2.6202774,-0.10456085,0.002708435,0.21301651,-0.51284283,0.042533875,-1.3543892,1.5946935,-0.0075912476,-1.4630356,-0.074043274,0.027580261,-0.7818718,-1.4355521,-0.0182724,-0.48645782,1.5589957,0.029563904,-0.27038956,-0.21190643,-0.0146865845,4.0387573,-1.2496935,0.0049209595,-6.9160004,1.9528173,-0.01247406,-13.997406,0.0,0.0,0.0,0.0,0.0,0.0,0.0,0.0,0.0,0.0,0.0,0.0,-2.0,2.0,-2.0,-2.0,2.0,-2.0,-2.0,-2.0,-2.0,-2.0,-2.0,-2.0
2025-06-10 16:39:15.173,0.560067,-5.077721,8.853559,-0.0013627007,0.0019527616,-0.00021020745,0.827531,0.072136,9.760383,-0.0346756,0.06481171,-2.2540627,-0.788961,-0.018730164,8.251469,1.6267116,-0.008811951,-2.6642265,-0.10448456,0.02368927,0.21301651,-0.51269025,-0.011558533,-1.359272,1.5948461,-0.026817322,-1.4801254,-0.07419586,-0.044898987,-0.79774094,-1.4355521,-0.030174255,-0.4742508,1.559072,-0.020256042,-0.27527237,-0.21190643,0.02368927,4.032654,-1.2498461,0.046043396,-6.9367523,1.9528936,0.007286072,-13.970551,0.0,0.0,0.0,0.0,0.0,0.0,0.0,0.0,0.0,0.0,0.0,0.0,-2.0,2.0,-2.0,-2.0,2.0,-2.0,-2.0,-2.0,-2.0,-2.0,-2.0,-2.0
2025-06-10 16:39:15.195,0.560686,-5.074775,8.854265,-0.0027413364,0.0020055228,-0.00023116886,0.842815,0.085123,9.746635,-0.034446716,-0.05756378,-2.2491798,-0.7885032,-0.0031661987,8.208744,1.6267879,0.012626648,-2.6276054,-0.104408264,-0.04459381,0.20203018,-0.51276654,0.020332336,-1.3446236,1.5947698,0.004386902,-1.4605942,-0.07396698,-0.001335144,-0.7794304,-1.4355521,-0.03025055,-0.4766922,1.5593009,-0.001335144,-0.26916885,-0.21213531,0.026283264,4.022888,-1.250075,0.015907288,-6.9391937,1.9528173,-0.004386902,-13.983978,0.0,0.0,0.0,0.0,0.0,0.0,0.0,0.0,0.0,0.0,0.0,0.0,-2.0,2.0,-2.0,-2.0,2.0,-2.0,-2.0,-2.0,-2.0,-2.0,-2.0,-2.0
2025-06-10 16:39:15.217,0.55589,-5.076205,8.854841,-0.0020960881,0.0006462256,-0.0013107422,0.840131,0.077043,9.751822,-0.034599304,0.029716492,-2.2272072,-0.7888847,0.049476624,8.207523,1.6268642,0.019340515,-2.6202774,-0.104637146,0.009346008,0.21912003,-0.5129191,0.0010299683,-1.3641548,1.5948461,0.0157547,-1.4557114,-0.07411957,-0.026283264,-0.80018234,-1.4356284,0.0035476685,-0.48279572,1.5591483,0.008201599,-0.26672745,-0.21198273,0.035438538,4.0094604,-1.2499224,-0.0007247925,-6.918442,1.9528173,-0.0007247925,-14.002289,0.0,0.0,0.0,0.0,0.0,0.0,0.0,0.0,0.0,0.0,0.0,0.0,-2.0,2.0,-2.0,-2.0,2.0,-2.0,-2.0,-2.0,-2.0,-2.0,-2.0,-2.0
2025-06-10 16:39:15.240,0.555151,-5.075547,8.853096,-0.00085997605,-0.00025316,-0.0011725296,0.852082,0.064564,9.773697,-0.03452301,0.008049011,-2.211338,-0.7888847,-0.007896423,8.249027,1.6267879,-0.0059890747,-2.6422539,-0.104637146,-0.021247864,0.2117958,-0.51284283,-0.006904602,-1.3690376,1.5949224,0.027503967,-1.4471664,-0.074043274,-0.008811951,-0.7830925,-1.4354758,-0.00415802,-0.47058868,1.5592246,0.04360199,-0.28015518,-0.21205902,0.027503967,4.0131226,-1.2496935,0.00957489,-6.9025726,1.9528936,-0.036506653,-14.001068,0.0,0.0,0.0,0.0,0.0,0.0,0.0,0.0,0.0,0.0,0.0,0.0,-2.0,2.0,-2.0,-2.0,2.0,-2.0,-2.0,-2.0,-2.0,-2.0,-2.0,-2.0
2025-06-10 16:39:15.262,0.556805,-5.07731,8.850459,0.00071799353,0.0009648529,-0.0005310513,0.848839,0.072509,9.755104,-0.034370422,-0.0045394897,-2.2272072,-0.788961,-0.05809784,8.206303,1.6267879,0.011940002,-2.6410332,-0.104637146,-0.029792786,0.21423721,-0.5129191,-0.0015640259,-1.3421822,1.5948461,0.0064468384,-1.4886703,-0.07411957,0.05382538,-0.80506516,-1.4353995,0.0065231323,-0.48401642,1.5593009,0.014762878,-0.27038956,-0.21183014,0.038414,4.0253296,-1.2498461,0.0052261353,-6.905014,1.952741,-0.042152405,-14.008392,0.0,0.0,0.0,0.0,0.0,0.0,0.0,0.0,0.0,0.0,0.0,0.0,-2.0,2.0,-2.0,-2.0,2.0,-2.0,-2.0,-2.0,-2.0,-2.0,-2.0,-2.0
2025-06-10 16:39:15.284,0.55842,-5.075941,8.852471,0.00079196057,0.0041913036,-0.001219479,0.830867,0.079973,9.75746,-0.034599304,-0.02002716,-2.2491798,-0.7888084,-0.011482239,8.246586,1.6268642,0.009803772,-2.614174,-0.10448456,-0.0030136108,0.2117958,-0.5129191,-0.052833557,-1.3775864,1.5948461,0.03238678,-1.4459457,-0.07411957,-0.040855408,-0.79529953,-1.4354758,0.0060653687,-0.481575,1.5592246,-0.00995636,-0.26794815,-0.21213531,0.0017166138,4.0131226,-1.2499224,-0.014915466,-6.9233246,1.952741,0.019493103,-14.014496,0.0,0.0,0.0,0.0,0.0,0.0,0.0,0.0,0.0,0.0,0.0,0.0,-2.0,2.0,-2.0,-2.0,2.0,-2.0,-2.0,-2.0,-2.0,-2.0,-2.0,-2.0
2025-06-10 16:39:15.306,0.557099,-5.073084,8.852612,-0.0009504016,0.0018047926,-0.00012924163,0.82634,0.080351,9.724792,-0.034751892,0.010948181,-2.23209,-0.7888084,0.06931305,8.228275,1.6267116,-0.0030136108,-2.5824356,-0.10471344,-0.06969452,0.21667862,-0.51276654,-0.02002716,-1.3629341,1.5948461,0.0358963,-1.4593735,-0.07411957,-0.02155304,-0.7843132,-1.4353995,-0.012245178,-0.4803543,1.5592246,0.029716492,-0.27405167,-0.21213531,-0.00995636,4.036316,-1.2499224,-0.04184723,-6.9196625,1.9528936,0.050239563,-13.963226,0.0,0.0,0.0,0.0,0.0,0.0,0.0,0.0,0.0,0.0,0.0,0.0,-2.0,2.0,-2.0,-2.0,2.0,-2.0,-2.0,-2.0,-2.0,-2.0,-2.0,-2.0
2025-06-10 16:39:15.327,0.556147,-5.071366,8.854372,-0.0015590154,-0.0005324999,0.0012958196,0.823682,0.087367,9.756446,-0.034446716,0.056266785,-2.2381935,-0.7888847,0.078315735,8.242924,1.6267116,-0.034980774,-2.6239395,-0.10448456,-0.022239685,0.21912003,-0.51284283,-0.023765564,-1.3641548,1.5947698,-0.00957489,-1.45327,-0.07396698,-0.010108948,-0.79529953,-1.4354758,0.017662048,-0.49256134,1.5591483,0.0036239624,-0.27649307,-0.21190643,-0.010719299,4.032654,-1.2498461,-0.025062561,-6.9526215,1.9528173,-0.00019073486,-13.971771,0.0,0.0,0.0,0.0,0.0,0.0,0.0,0.0,0.0,0.0,0.0,0.0,-2.0,2.0,-2.0,-2.0,2.0,-2.0,-2.0,-2.0,-2.0,-2.0,-2.0,-2.0
2025-06-10 16:39:15.349,0.556376,-5.071075,8.855906,-0.000447293,-0.0013044416,0.0014954678,0.853401,0.096895,9.723866,-0.034446716,-0.008735657,-2.2577248,-0.7886558,0.023384094,8.23682,1.6267879,-0.0033950806,-2.609291,-0.104408264,-0.053520203,0.21912003,-0.51284283,-0.011787415,-1.3482857,1.5949987,0.008659363,-1.4508286,-0.074272156,-0.03353119,-0.80750656,-1.4353995,-0.011711121,-0.4742508,1.5592246,0.002708435,-0.26428604,-0.21198273,-0.017356873,4.036316,-1.2496172,0.0024795532,-6.937973,1.9528936,-0.001335144,-13.996185,0.0,0.0,0.0,0.0,0.0,0.0,0.0,0.0,0.0,0.0,0.0,0.0,-2.0,2.0,-2.0,-2.0,2.0,-2.0,-2.0,-2.0,-2.0,-2.0,-2.0,-2.0
